P3
160 96
255
127 255 172
147 254 184
167 252 196
185 249 207
202 245 216
218 239 222
231 233 226
241 225 228
249 217 227
253 207 223
254 197 217
253 186 209
248 175 200
240 163 189
229 151 177
216 138 165
200 126 153
183 113 142
164 101 131
145 89 122
124 77 113
104 65 106
85 55 101
67 45 96
50 36 93
35 27 91
22 20 90
12 14 89
5 8 89
1 4 89
0 2 89
2 0 89
7 0 89
15 0 89
26 2 89
40 6 89
56 10 90
73 16 92
92 23 94
112 30 98
132 39 102
152 49 108
171 59 115
190 70 123
206 81 132
221 93 142
233 106 152
243 118 162
250 131 173
254 143 182
254 156 190
252 168 197
246 180 202
237 191 205
226 201 205
212 211 203
196 220 199
178 228 193
159 235 185
140 242 175
119 247 164
100 250 153
80 253 141
62 254 129
46 254 119
31 253 109
19 251 101
10 247 95
3 243 91
0 237 89
0 230 89
3 222 91
9 213 94
18 203 98
30 193 104
44 182 109
60 170 115
78 158 120
97 146 125
117 133 129
137 121 131
157 108 132
176 96 132
194 84 131
210 72 128
224 61 124
236 51 120
245 41 115
251 32 110
254 24 105
254 17 100
251 11 96
244 7 93
235 3 91
223 1 89
208 0 89
192 0 89
174 1 89
154 4 90
135 7 91
114 12 93
95 19 93
76 26 94
58 34 94
42 43 93
28 53 93
17 63 92
8 74 90
2 86 89
0 98 89
0 111 89
4 123 90
11 136 93
21 148 97
33 161 102
48 173 110
64 184 119
83 195 130
102 205 143
122 215 156
142 224 170
162 231 185
181 238 199
198 244 212
214 248 225
228 252 235
239 254 244
247 254 250
252 254 253
254 252 253
253 250 251
249 246 245
242 240 238
232 234 228
219 227 216
204 218 203
187 209 189
169 199 175
150 189 161
130 177 148
109 165 135
90 153 124
71 141 115
54 128 107
38 116 100
25 103 95
14 91 92
6 79 90
1 68 89
0 57 89
1 47 89
5 37 89
13 29 90
23 21 90
36 15 90
52 9 90
69 5 90
87 2 89
107 0 89
127 0 89
172 251 200
191 253 212
207 254 224
222 254 233
234 253 240
244 250 245
250 246 246
254 241 245
254 235 242
252 228 235
246 220 227
237 211 217
225 201 205
211 190 192
195 179 178
177 167 165
158 155 152
139 143 139
118 130 128
98 117 119
79 105 110
61 93 103
45 81 98
31 69 94
19 58 92
9 48 90
3 39 89
0 30 89
0 22 89
3 16 89
9 10 89
18 6 89
30 2 89
45 0 89
61 0 89
79 0 89
98 2 89
118 5 90
138 9 92
158 14 95
177 20 98
195 28 103
211 36 108
225 45 115
237 55 122
246 66 131
251 77 139
254 89 147
254 101 155
250 114 162
244 126 168
234 139 172
222 151 175
208 164 176
191 176 175
173 187 172
153 198 167
134 208 160
113 217 152
94 226 143
75 233 134
57 240 124
41 245 115
27 249 106
16 252 99
8 254 94
2 254 90
0 254 89
0 252 89
4 249 92
11 244 96
21 239 102
34 232 109
48 225 117
65 216 125
84 207 133
103 197 141
123 186 147
143 174 153
163 162 157
182 150 159
199 138 159
215 125 158
228 112 155
239 100 150
247 88 145
252 76 138
254 65 131
253 54 124
249 44 117
242 35 111
231 27 105
219 19 100
204 13 96
187 8 93
168 4 91
149 1 89
128 0 89
108 0 89
89 0 89
70 3 89
53 6 90
37 11 90
24 16 90
14 23 90
6 31 89
1 40 89
0 49 89
1 60 89
6 71 90
13 82 92
24 94 95
37 106 99
52 119 105
70 131 112
88 144 121
108 156 132
128 169 144
148 180 157
168 191 171
186 202 185
203 212 199
218 221 212
231 229 224
241 236 235
249 242 243
253 247 249
254 250 252
253 253 252
247 254 250
239 254 245
228 253 237
215 251 227
199 247 215
182 242 202
163 236 188
144 229 173
123 221 159
103 213 145
84 203 133
66 192 121
49 181 112
34 170 104
21 157 98
11 145 93
4 133 90
0 120 89
0 107 89
2 95 89
7 83 90
16 72 92
27 60 93
41 50 94
57 40 95
74 32 95
93 24 95
113 17 94
133 11 93
153 6 91
172 3 90
212 241 219
226 246 231
237 250 241
246 253 248
252 254 252
254 254 254
254 253 253
250 251 250
243 248 243
234 243 234
221 237 223
207 230 211
190 223 197
172 214 183
152 204 169
132 194 155
112 183 141
93 171 130
74 159 119
56 147 110
40 134 103
27 122 97
16 109 93
7 97 91
2 85 89
0 73 89
0 62 89
5 52 89
12 42 90
22 33 91
34 25 91
49 18 91
66 12 91
85 7 90
104 3 90
124 1 89
144 0 89
164 0 89
183 1 89
200 3 91
215 7 93
229 12 96
240 18 100
248 25 105
253 33 110
254 42 116
253 52 123
249 62 129
241 73 134
231 85 139
218 97 143
203 110 146
186 122 147
167 135 147
148 147 144
127 160 141
107 172 136
88 183 130
69 194 123
52 205 116
37 214 109
24 223 103
13 231 97
6 238 92
1 243 90
0 248 89
1 251 90
6 253 93
14 254 98
25 254 105
38 253 114
53 250 123
71 246 133
89 241 144
109 235 154
129 227 164
149 219 173
169 210 180
187 200 185
204 190 188
219 178 189
232 166 188
242 154 184
249 142 179
253 129 173
254 117 165
252 104 156
247 92 147
239 80 138
228 69 129
214 58 121
199 48 113
181 38 107
162 29 101
143 22 97
122 15 94
102 10 91
83 5 90
65 2 89
48 0 89
33 0 89
21 0 89
11 2 89
4 5 89
0 9 89
0 14 89
2 21 89
8 28 89
16 37 90
28 46 92
42 56 95
57 67 99
75 78 104
94 90 111
114 102 119
134 115 128
154 127 139
173 140 151
191 152 163
208 164 176
222 176 189
235 188 201
244 198 213
251 208 222
254 218 230
254 226 236
251 234 239
245 240 239
236 245 237
225 249 232
211 252 225
194 254 215
176 254 204
157 254 191
138 252 177
117 249 164
97 244 150
78 239 137
60 232 125
44 224 114
30 216 105
18 206 99
9 196 94
3 185 90
0 174 89
0 162 89
3 149 90
10 137 92
19 124 95
31 112 98
45 99 100
62 87 103
80 75 104
99 64 105
119 54 105
139 44 104
159 35 103
178 26 101
196 19 99
212 13 96
240 225 227
248 233 236
253 239 243
254 245 248
253 249 250
248 252 249
241 254 245
230 254 239
217 254 230
202 252 219
185 249 207
166 245 193
146 239 179
126 233 164
106 225 150
87 217 137
68 208 125
51 197 115
36 187 106
23 175 99
13 163 94
5 151 91
1 139 89
0 126 89
1 114 89
6 101 91
14 89 92
25 77 94
39 66 95
54 55 96
72 45 97
90 36 97
110 27 97
130 20 96
150 14 94
170 9 93
188 4 91
205 2 90
220 0 89
232 0 89
242 0 89
249 2 91
254 6 93
254 10 96
252 16 99
247 22 103
238 30 107
227 39 112
214 48 115
198 59 119
180 70 121
161 81 122
142 93 123
121 105 122
101 118 119
82 130 116
64 143 112
47 155 108
33 167 103
20 179 98
11 190 94
4 201 91
0 211 89
0 220 89
2 228 90
8 235 94
17 241 99
28 246 107
42 250 116
58 253 127
76 254 139
95 254 151
115 253 163
135 251 176
155 247 187
174 243 197
192 237 205
209 230 212
223 222 216
235 213 217
244 204 216
251 193 213
254 182 207
254 171 200
251 159 191
245 146 181
236 134 170
224 121 158
210 109 147
193 96 137
176 84 127
156 73 118
136 61 110
116 51 104
96 41 99
77 32 95
60 24 93
43 17 91
29 12 90
18 7 89
9 3 89
3 1 89
0 0 89
0 0 89
4 1 89
10 4 89
19 7 89
32 12 90
46 18 91
63 25 93
81 34 96
100 43 100
120 52 105
140 63 111
160 74 119
179 86 128
197 98 138
213 110 149
226 123 160
238 135 171
246 148 182
252 160 192
254 172 201
254 184 208
250 195 213
243 205 216
233 215 217
221 223 215
206 231 211
189 238 204
171 244 195
151 248 185
131 251 173
111 254 161
92 254 149
73 254 136
55 253 125
40 250 114
26 246 105
15 241 98
7 234 93
2 227 90
0 219 89
1 210 89
5 200 91
12 189 95
22 178 99
35 166 104
50 154 109
67 141 113
86 129 117
105 116 120
125 104 122
145 91 123
165 79 122
183 68 121
201 57 118
216 47 115
229 38 111
240 29 107
254 204 221
254 213 228
252 222 232
246 230 234
238 237 233
227 243 230
213 247 224
197 251 215
179 253 205
160 254 193
140 254 180
120 253 167
100 250 153
81 246 140
63 241 128
46 235 117
32 228 108
20 220 100
10 211 95
4 201 91
0 190 89
0 179 89
3 168 90
9 155 92
17 143 95
29 130 99
43 118 102
59 105 105
77 93 107
96 81 109
116 70 110
136 59 109
156 48 108
175 39 106
193 30 104
210 22 101
224 16 98
236 10 95
245 6 93
251 2 91
254 0 89
254 0 89
251 0 89
245 2 90
235 4 92
223 9 94
209 14 96
193 20 99
175 27 101
155 36 103
135 45 105
115 55 105
95 66 105
76 77 104
59 89 102
43 101 100
29 114 97
17 126 94
8 139 92
2 151 90
0 163 89
0 175 89
4 187 91
10 197 94
20 208 100
32 217 107
47 225 116
64 233 127
82 239 139
101 245 152
121 249 166
141 252 180
161 254 193
180 254 206
197 254 217
213 252 226
227 249 233
238 245 238
247 239 240
252 233 239
254 225 235
254 216 229
250 207 221
242 197 211
233 186 200
220 175 187
205 163 174
188 150 161
170 138 149
150 125 137
130 113 127
110 100 117
91 88 109
72 76 103
54 65 98
39 54 94
25 44 92
15 35 90
7 27 89
1 20 89
0 13 89
1 8 89
5 4 89
13 1 89
23 0 89
36 0 89
51 0 89
68 3 89
87 6 90
106 10 92
126 16 94
146 23 97
166 31 102
184 39 108
202 49 114
217 59 122
230 70 130
241 82 139
248 94 149
253 106 158
254 119 166
253 131 174
248 144 180
240 156 185
230 168 188
216 180 188
201 191 187
184 202 184
165 211 178
145 220 171
125 229 162
105 236 152
86 242 142
67 247 131
50 250 121
35 253 112
22 254 104
12 254 97
5 253 92
1 251 89
0 247 89
2 242 90
7 237 93
15 230 98
26 222 104
39 213 110
55 203 118
72 193 125
91 182 131
111 170 137
131 158 142
151 145 145
171 133 147
189 120 147
206 108 146
220 95 143
233 83 139
243 72 134
250 61 128
254 50 122
251 178 203
244 189 207
235 200 209
223 210 209
208 219 206
192 227 200
174 235 193
154 241 184
134 246 174
114 250 162
94 253 150
75 254 138
58 254 127
42 253 116
28 251 107
17 248 100
8 243 94
2 238 90
0 231 89
0 223 89
4 214 91
11 205 95
21 194 99
33 183 104
48 172 110
64 160 115
83 147 120
102 135 124
122 122 127
142 110 129
162 97 129
181 85 128
198 73 126
214 62 123
228 52 119
239 42 115
247 33 110
252 25 105
254 18 101
253 12 97
249 7 94
242 3 91
232 1 90
219 0 89
204 0 89
187 1 89
169 3 90
149 7 92
129 12 93
109 18 94
90 25 95
71 33 95
54 42 95
38 51 94
25 62 93
14 73 91
6 85 90
1 97 89
0 109 89
1 122 89
5 134 91
13 147 94
23 159 99
36 171 105
52 183 113
69 194 123
87 204 135
107 214 148
127 223 161
147 230 176
167 237 190
185 243 204
202 248 217
218 251 229
231 253 238
241 254 246
249 254 250
253 253 252
254 250 252
253 246 248
248 241 242
240 235 233
229 228 222
216 219 210
200 210 197
183 200 183
164 190 169
144 179 155
124 167 142
104 155 130
85 142 120
66 130 111
50 117 104
35 105 98
22 92 94
12 80 91
5 69 90
1 58 89
0 48 89
2 38 89
7 30 89
15 22 90
27 15 90
40 10 90
56 5 90
73 2 89
92 0 89
112 0 89
132 0 89
152 2 90
172 5 91
190 9 93
206 14 96
221 20 101
234 28 106
243 36 112
250 46 118
254 56 125
254 66 132
252 78 139
246 90 145
237 102 151
226 114 155
212 127 158
196 139 159
178 152 158
159 164 156
139 176 152
119 187 146
99 198 139
80 208 132
62 217 124
46 226 115
31 233 108
19 240 101
10 245 95
3 249 91
0 252 89
0 254 89
3 254 91
9 254 95
18 252 101
30 249 108
44 244 116
60 239 126
78 232 135
97 225 145
117 216 154
137 207 161
157 196 168
176 185 172
194 174 175
210 162 176
224 150 175
236 137 172
245 125 167
251 112 161
254 100 154
254 88 146
251 76 138
231 150 178
219 162 180
203 174 180
186 186 177
168 197 173
148 207 167
128 216 160
108 225 151
89 232 142
70 239 132
53 244 122
37 249 113
24 252 105
14 254 98
6 254 93
1 254 90
0 252 89
1 249 90
6 245 93
14 240 97
24 233 103
37 226 110
53 217 118
70 208 126
88 198 134
108 187 141
128 176 147
148 164 151
168 152 154
186 139 155
203 126 155
218 114 153
231 101 149
242 89 144
249 77 138
253 66 132
254 55 125
253 45 118
247 36 112
239 28 106
228 20 101
215 14 97
199 9 93
182 5 91
163 2 90
143 0 89
123 0 89
103 0 89
84 2 89
66 6 90
49 10 90
34 16 90
21 22 90
11 30 90
4 39 89
0 48 89
0 58 89
2 69 89
7 81 90
16 93 93
27 105 96
41 117 101
57 130 108
74 143 116
93 155 126
113 167 137
133 179 150
153 190 163
172 201 177
191 211 192
207 220 205
222 228 218
234 235 230
244 241 239
250 246 246
254 250 251
254 253 253
252 254 252
246 254 249
237 253 242
225 251 234
211 248 223
195 243 210
177 237 196
158 230 182
138 222 168
118 214 154
98 204 140
79 194 128
61 183 118
45 171 109
30 159 101
19 147 96
9 134 92
3 121 90
0 109 89
0 97 89
3 84 90
9 73 91
18 62 92
30 51 93
45 41 94
61 33 94
79 25 94
98 18 93
118 12 92
138 7 91
158 3 90
177 1 89
195 0 89
211 0 89
225 1 90
237 3 91
246 7 94
251 12 97
254 18 101
254 25 105
250 33 110
244 42 115
234 52 120
222 63 125
207 74 128
191 85 131
173 98 132
153 110 132
133 122 131
113 135 128
93 148 124
75 160 119
57 172 114
41 183 108
27 194 103
16 205 97
8 214 93
2 223 90
0 231 89
0 238 89
4 243 92
11 248 96
21 251 103
34 254 111
49 254 121
65 254 132
84 253 143
103 250 155
123 246 166
143 241 177
163 235 187
182 227 195
199 219 200
215 210 204
228 200 206
239 189 205
247 178 201
252 166 196
254 154 189
253 142 181
249 129 171
242 116 161
231 104 150
198 121 150
181 133 151
162 146 149
142 158 147
122 170 142
102 182 137
83 193 130
65 203 123
48 213 115
33 222 108
21 230 101
11 237 96
4 243 92
0 247 89
0 251 89
2 253 90
8 254 94
16 254 100
28 253 107
42 250 116
58 247 125
75 242 136
94 235 146
114 228 156
134 220 165
154 211 172
173 201 178
192 191 182
208 180 184
223 168 184
235 156 182
244 143 178
251 131 173
254 118 166
254 106 158
251 93 149
245 81 140
236 70 131
225 59 123
210 49 115
194 39 108
176 30 103
157 23 98
137 16 95
117 10 92
97 6 90
78 3 89
60 0 89
44 0 89
30 0 89
18 2 89
9 4 89
3 8 89
0 14 89
0 20 89
3 27 89
10 35 90
19 45 91
31 55 93
45 65 96
62 77 101
80 89 107
99 101 114
119 113 123
139 126 134
159 138 145
178 151 158
196 163 171
212 175 184
226 186 197
237 197 209
246 207 219
252 217 228
254 225 235
254 233 240
250 239 242
243 245 241
234 249 238
221 252 232
207 254 223
190 255 213
172 254 200
152 252 187
132 249 173
112 245 159
92 239 146
74 233 133
56 225 121
40 217 111
27 207 103
15 197 97
7 186 92
2 175 90
0 163 89
1 151 89
5 138 91
12 126 93
22 113 95
34 101 98
49 89 100
66 77 102
85 65 103
104 55 103
124 45 103
144 36 102
164 27 100
183 20 98
200 14 96
216 8 94
229 4 92
240 2 90
248 0 89
253 0 89
254 0 89
253 2 91
249 6 93
241 10 95
231 16 98
218 23 102
203 30 105
186 39 108
167 49 110
147 59 111
127 70 112
107 81 111
88 93 110
69 106 108
52 118 105
37 131 101
24 143 98
13 156 94
6 168 91
1 180 89
0 191 89
1 201 90
6 211 92
14 220 97
25 228 103
38 235 112
53 242 122
71 247 134
89 250 146
109 253 160
129 254 173
149 254 186
169 253 198
187 251 209
204 247 218
219 243 225
232 237 229
242 230 231
249 222 230
253 213 227
254 203 221
252 193 213
247 182 204
239 170 193
228 158 181
214 146 169
198 133 157
156 92 126
136 104 125
116 116 124
96 129 121
77 142 117
59 154 112
43 166 107
29 178 102
17 189 97
9 200 93
3 210 90
0 219 89
0 227 89
4 235 91
10 241 95
20 246 101
32 250 109
46 253 119
63 254 130
81 254 142
100 254 154
120 251 166
140 248 178
160 243 189
179 238 198
197 231 205
213 223 210
226 214 213
238 205 213
246 194 211
252 183 207
254 172 201
254 160 193
250 148 183
243 135 173
233 123 162
221 110 151
206 98 140
189 86 130
171 74 121
151 63 113
131 52 106
111 42 101
91 33 97
73 25 94
55 18 91
39 12 90
26 7 89
15 4 89
7 1 89
2 0 89
0 0 89
1 1 89
5 3 89
12 7 89
22 12 89
35 18 90
50 25 92
67 33 94
86 41 98
105 51 103
125 62 109
145 73 116
165 84 125
184 96 134
201 109 145
216 121 156
230 134 168
240 147 179
248 159 190
253 171 199
254 182 208
253 194 214
248 204 218
241 214 220
230 222 220
217 230 217
202 237 211
185 243 204
166 248 194
146 251 183
126 253 171
106 254 158
87 254 145
68 253 133
51 250 122
36 246 112
23 241 103
13 235 97
5 228 92
1 220 89
0 211 89
1 201 90
6 190 92
14 179 96
25 167 100
39 155 104
54 143 109
72 130 113
90 118 116
110 105 119
130 93 120
150 81 120
170 69 119
188 58 117
205 48 114
220 39 111
232 30 107
242 22 103
250 16 99
254 10 96
254 6 93
252 2 91
247 0 89
238 0 89
227 0 89
213 2 90
198 5 91
180 9 93
161 14 95
141 20 96
121 28 97
101 36 98
82 45 98
64 55 98
47 66 97
32 77 95
20 89 93
11 101 92
4 114 90
0 126 89
0 139 89
2 151 90
8 164 92
17 176 97
28 187 103
42 198 110
58 208 120
76 217 131
95 226 144
115 233 158
135 240 172
155 245 186
174 249 200
192 252 213
209 254 225
223 254 234
235 254 242
244 252 246
251 249 248
254 244 248
254 239 244
251 232 238
245 225 230
236 216 219
224 207 207
210 197 194
193 186 181
175 174 167
156 162 154
110 64 107
90 76 106
72 87 105
54 100 103
39 112 100
25 125 97
15 137 94
6 150 91
1 162 90
0 174 89
1 185 89
5 196 92
13 206 96
23 216 102
36 224 110
51 232 119
68 239 131
87 244 143
106 249 156
126 252 170
146 254 184
166 254 197
185 254 209
202 252 219
217 249 227
230 245 233
241 240 236
248 233 237
253 226 235
254 217 230
253 208 224
248 198 215
240 187 204
230 176 192
216 164 180
201 152 167
184 139 154
165 127 142
145 114 131
125 102 122
105 90 113
86 78 106
67 66 100
50 56 96
35 46 93
22 36 91
12 28 90
5 20 89
1 14 89
0 9 89
2 5 89
7 2 89
15 0 89
26 0 89
39 0 89
55 2 89
73 5 90
91 10 91
111 15 93
131 22 96
151 30 100
171 38 106
189 48 112
206 58 120
221 69 128
233 80 137
243 92 146
250 105 156
254 117 165
254 130 173
252 142 181
246 155 186
238 167 190
226 179 192
213 190 192
197 200 190
179 210 185
160 219 179
140 228 171
120 235 161
100 241 151
81 246 140
63 250 129
46 253 119
32 254 110
20 254 102
10 253 96
4 251 91
0 248 89
0 243 89
3 237 91
9 231 94
17 223 99
29 214 105
43 204 112
59 194 118
77 183 125
96 171 131
116 159 136
136 147 140
156 134 143
175 122 144
193 109 143
210 97 141
224 85 138
236 73 133
245 62 128
251 52 122
254 42 116
254 33 110
251 25 105
244 18 100
235 12 96
223 7 93
209 3 91
192 1 89
174 0 89
155 0 89
135 1 89
115 3 90
95 7 91
76 12 91
59 18 92
42 25 92
28 33 91
17 42 91
8 52 90
2 62 89
0 73 89
0 85 89
4 97 90
11 110 92
20 122 95
32 135 100
47 147 107
64 160 115
82 172 125
101 183 136
121 194 149
141 204 163
161 214 177
180 223 192
198 231 205
213 237 219
227 243 230
238 248 240
247 251 247
252 253 252
254 254 254
254 254 254
250 253 250
242 250 244
232 246 235
220 241 224
205 235 212
188 227 198
170 219 184
150 210 170
130 200 156
110 190 142
66 41 96
49 50 95
34 61 94
22 72 93
12 83 91
5 95 90
1 108 89
0 120 89
2 133 90
7 145 92
15 158 95
27 170 101
40 181 108
56 193 117
74 203 127
92 213 139
112 222 153
132 230 167
152 237 181
172 242 195
190 247 209
207 251 221
221 253 232
234 254 241
243 254 247
250 253 251
254 250 251
254 247 249
252 242 244
246 236 237
237 229 228
226 220 216
212 211 204
196 202 190
178 191 176
159 180 162
139 168 149
119 156 137
99 144 125
80 131 116
62 119 108
45 106 101
31 94 96
19 82 93
10 70 91
3 59 89
0 49 89
0 39 89
3 31 89
9 23 89
18 16 90
30 10 90
44 6 89
60 3 89
78 0 89
97 0 89
117 0 89
137 1 89
157 4 91
176 8 93
194 13 96
210 20 100
225 27 105
236 35 110
245 44 117
251 54 124
254 65 131
254 76 139
251 88 146
244 100 152
235 113 157
223 125 160
208 138 162
192 150 163
174 163 161
154 175 158
134 186 153
114 197 146
94 207 139
75 216 131
58 225 122
42 233 114
28 239 106
16 245 99
8 249 94
2 252 90
0 254 89
0 254 89
4 254 92
11 252 96
21 249 102
33 245 110
48 239 118
65 233 127
83 225 137
102 217 146
122 208 154
142 198 161
162 187 166
181 175 170
198 163 172
214 151 172
228 139 170
239 126 166
247 114 161
252 101 154
254 89 147
253 77 139
249 66 131
242 55 123
232 45 116
219 36 109
204 27 103
187 20 99
169 14 95
149 9 92
129 4 90
109 2 89
90 0 89
71 0 89
53 0 89
38 2 89
25 6 89
14 10 89
6 16 89
1 22 89
0 30 89
1 39 89
6 48 89
13 59 91
24 70 93
37 81 96
52 93 101
69 105 107
88 118 115
107 130 125
127 143 135
147 155 147
167 167 160
185 179 174
203 190 188
218 201 201
231 211 213
241 220 225
249 228 234
253 235 241
254 241 246
253 246 248
248 250 247
240 253 244
229 254 238
216 254 229
200 253 219
183 251 206
164 248 193
144 243 179
124 237 164
104 230 150
85 222 137
66 213 125
30 21 90
18 29 90
9 38 90
3 47 89
0 57 89
0 68 89
3 79 89
9 91 91
19 104 94
30 116 98
45 129 104
61 141 111
79 154 120
98 166 131
118 178 143
138 189 156
158 200 170
177 210 184
195 219 198
211 227 212
225 234 224
237 241 235
246 246 243
252 250 249
254 253 253
254 254 254
250 254 252
244 254 247
234 251 239
222 248 230
207 244 218
191 238 205
173 231 191
153 223 176
133 215 162
113 205 148
93 195 135
74 184 124
57 172 114
41 160 106
27 148 99
16 135 94
7 123 91
2 110 89
0 98 89
0 86 89
4 74 90
11 63 91
21 52 92
34 43 93
49 34 93
65 25 93
84 18 93
103 12 92
123 7 91
143 4 90
163 1 89
182 0 89
199 0 89
215 1 89
228 3 91
239 7 93
247 11 96
252 17 100
254 24 105
253 32 110
249 41 115
242 51 120
231 61 125
218 72 129
203 84 133
186 96 135
168 108 136
148 121 135
128 134 133
108 146 129
89 158 125
70 171 119
53 182 113
37 193 107
24 204 102
14 213 96
6 222 92
1 230 90
0 237 89
1 243 90
6 247 93
14 251 98
24 253 105
37 254 113
53 254 123
70 253 134
89 250 146
108 246 157
128 241 168
148 235 178
168 228 187
186 220 194
203 211 199
219 201 201
231 190 202
242 179 200
249 168 196
253 155 190
254 143 182
252 130 173
247 118 164
239 105 153
228 93 143
215 81 134
199 70 124
182 59 116
163 48 109
143 39 103
123 30 98
103 22 95
84 16 92
65 10 91
49 6 90
34 2 89
21 0 89
11 0 89
4 0 89
0 2 89
0 4 89
2 8 89
7 14 89
16 20 90
27 27 91
41 36 93
57 45 95
74 55 99
93 66 105
113 77 111
133 89 119
153 101 129
173 113 139
191 126 150
207 139 162
222 151 175
234 163 187
244 175 198
250 187 208
254 197 217
254 208 224
251 217 228
246 225 230
237 233 230
225 239 227
211 245 221
195 249 213
177 252 203
158 254 192
138 254 179
118 254 166
98 252 152
79 249 139
61 245 127
45 239 116
30 233 107
7 8 89
2 13 89
0 19 89
1 26 89
5 34 89
12 44 90
22 54 92
35 64 95
49 75 98
66 87 104
85 99 110
104 112 119
124 124 128
144 137 139
164 149 152
183 162 164
200 174 178
216 185 191
229 196 204
240 206 215
248 216 226
253 224 234
254 232 240
253 239 243
249 244 244
241 248 242
231 252 237
218 254 230
202 254 221
185 254 209
167 252 197
147 249 183
127 245 169
107 240 155
88 234 141
69 226 129
52 218 118
37 208 108
24 198 101
13 188 95
5 176 91
1 164 89
0 152 89
1 140 89
6 127 91
14 115 93
25 102 95
38 90 98
54 78 100
71 67 101
90 56 102
109 46 102
129 37 101
149 28 100
169 21 98
187 14 96
204 9 94
219 5 92
232 2 90
242 0 89
249 0 89
253 0 89
254 2 90
252 5 93
247 10 95
239 15 98
228 22 102
214 29 105
198 38 108
181 47 111
162 58 113
142 69 114
122 80 114
102 92 113
83 104 111
65 117 108
48 129 105
33 142 101
21 154 97
11 166 94
4 178 91
0 189 89
0 200 89
2 210 90
8 219 93
16 227 99
28 235 106
42 241 115
58 246 125
75 250 137
94 253 150
114 254 163
134 254 176
154 253 189
174 251 200
192 248 210
208 243 218
223 238 224
235 231 227
244 223 228
251 214 226
254 205 222
254 194 215
251 183 207
245 172 197
236 160 185
225 147 174
210 135 161
194 122 150
176 110 138
157 97 128
137 85 119
117 74 111
97 62 104
78 52 99
60 42 95
44 33 93
30 25 91
18 18 90
9 12 89
3 7 89
0 3 89
0 1 89
3 0 89
10 0 89
19 1 89
31 3 89
46 7 90
62 12 91
80 18 92
99 25 95
119 33 99
139 42 104
159 51 110
178 62 117
196 73 126
212 85 135
226 97 145
237 109 155
246 122 166
252 134 175
254 147 184
254 159 192
250 171 198
243 183 203
234 194 205
221 204 204
206 214 202
190 223 197
172 230 190
152 237 181
132 243 171
112 248 160
92 251 148
73 253 137
56 254 125
40 254 115
27 253 106
15 250 99
7 246 94
0 1 89
1 3 89
6 6 89
15 11 89
25 17 90
39 24 91
54 32 93
72 40 96
91 50 100
110 60 106
130 71 113
150 83 121
170 95 130
188 107 141
205 120 152
220 133 163
233 145 175
242 157 187
250 169 197
254 181 206
254 192 214
252 203 220
247 212 223
238 221 224
227 229 222
213 236 218
198 242 211
180 247 203
161 251 192
141 253 180
121 254 168
101 254 155
82 253 142
64 251 130
47 247 119
32 242 109
20 236 101
10 229 95
4 221 91
0 212 89
0 202 89
2 191 90
8 180 93
17 169 96
29 156 100
43 144 105
59 132 109
76 119 112
95 106 115
115 94 117
135 82 117
155 71 117
175 60 116
193 49 113
209 40 110
223 31 107
235 23 103
245 16 99
251 11 96
254 6 93
254 3 91
251 0 89
245 0 89
236 0 89
224 1 90
210 4 91
193 8 93
175 13 95
156 19 97
136 27 98
116 35 99
96 44 100
77 54 100
59 65 99
43 76 97
29 88 95
17 100 93
9 112 91
3 125 90
0 138 89
0 150 89
4 162 90
10 174 93
20 186 98
32 197 105
46 207 113
63 216 124
81 225 136
100 232 149
120 239 162
140 244 177
160 249 191
179 252 204
197 254 217
213 254 227
227 254 236
238 252 242
246 249 246
252 245 247
254 240 245
254 233 240
250 226 233
243 217 224
233 208 213
220 198 200
206 187 187
189 176 174
171 164 160
151 152 148
131 139 136
111 127 125
91 114 116
73 101 108
55 89 101
39 77 97
26 66 93
15 55 91
7 45 90
2 36 89
0 28 89
1 20 89
5 14 89
12 9 89
22 5 89
35 2 89
50 0 89
67 0 89
86 0 89
105 2 90
125 6 91
145 10 93
165 16 96
184 22 99
201 30 104
216 39 110
230 48 117
240 58 125
248 69 133
253 81 141
254 93 149
253 105 157
248 117 164
241 130 169
230 143 173
217 155 175
202 167 175
184 179 173
166 190 170
146 201 164
126 211 157
106 220 149
87 228 139
68 235 130
51 241 120
36 246 112
23 250 104
13 253 97
5 254 92
1 254 90
0 253 89
9 0 89
18 0 89
29 0 89
43 2 89
59 5 90
77 9 91
96 15 93
116 21 95
136 29 99
156 37 104
175 47 110
193 57 117
210 68 125
224 79 134
236 91 144
245 103 154
251 116 163
254 128 172
254 141 180
251 153 187
244 165 192
235 177 195
223 189 197
209 199 195
192 209 192
174 218 186
155 227 179
135 234 170
115 240 160
95 246 149
76 250 138
58 252 127
42 254 117
28 254 108
17 254 100
8 252 94
2 248 91
0 244 89
0 238 89
4 231 91
11 224 95
20 215 100
32 205 106
47 195 113
64 184 119
82 173 125
101 161 131
121 148 135
141 136 138
161 123 140
180 111 140
198 98 139
214 86 136
227 74 132
238 63 128
247 53 122
252 43 117
254 34 111
254 26 106
249 19 101
242 12 97
232 7 93
220 4 91
205 1 90
188 0 89
170 0 89
150 1 89
130 3 90
110 7 91
90 11 91
72 17 92
54 24 92
39 32 92
25 41 91
14 51 91
6 61 90
1 72 89
0 84 89
1 96 89
5 108 90
13 121 93
23 133 97
36 146 102
51 158 110
68 170 119
87 182 129
106 193 141
126 203 155
146 213 169
166 222 183
185 230 197
202 237 211
217 243 224
230 247 235
241 251 243
248 253 250
253 254 253
254 254 254
253 253 252
248 250 248
240 247 240
229 242 231
216 236 219
201 228 206
184 220 192
165 211 178
145 201 164
125 191 150
105 180 137
86 168 126
67 156 116
50 143 107
35 131 101
22 118 96
12 106 92
5 93 90
1 81 89
0 70 89
2 59 89
7 49 90
15 39 90
26 30 91
40 23 91
55 16 91
73 10 91
92 6 90
111 3 90
131 0 89
151 0 89
171 0 89
189 2 90
206 4 91
221 8 94
233 14 97
243 20 101
250 27 106
254 35 112
254 45 118
252 55 124
246 65 130
238 77 136
226 89 140
213 101 144
197 113 146
179 126 146
160 138 146
140 151 143
120 163 139
100 175 134
81 186 127
63 197 121
46 207 113
32 217 107
20 225 100
10 233 95
4 239 91
0 245 89
0 249 89
3 252 91
9 254 95
33 6 89
48 3 89
65 1 89
83 0 89
102 0 89
122 1 89
142 4 90
162 8 92
181 13 95
199 19 99
214 26 103
228 34 109
239 43 115
247 53 123
252 64 130
254 75 138
253 87 145
249 99 152
242 111 158
232 124 162
219 136 165
204 149 167
187 161 166
169 173 164
149 185 159
129 196 154
109 206 146
89 215 138
71 224 129
53 232 121
38 238 112
25 244 104
14 248 98
6 252 93
1 254 90
0 254 89
1 254 90
6 252 93
13 249 97
24 245 104
37 240 112
52 234 120
69 226 129
88 218 138
107 209 146
127 199 154
147 188 160
167 177 164
186 165 167
203 153 168
218 140 167
231 128 164
241 115 160
249 103 154
253 90 147
254 78 140
253 67 132
248 56 125
240 46 117
229 37 111
216 28 105
200 21 100
183 14 96
164 9 93
144 5 91
124 2 89
104 0 89
85 0 89
66 0 89
49 2 89
34 5 89
22 10 89
12 15 89
5 22 89
0 29 89
0 38 89
2 47 89
7 57 90
16 68 92
27 80 94
40 92 98
56 104 104
74 116 111
93 129 119
112 141 130
132 154 141
152 166 154
172 178 167
190 189 181
207 200 195
221 210 208
234 219 220
243 227 230
250 234 239
254 241 245
254 246 249
252 250 250
246 253 248
237 254 243
226 254 236
212 254 226
196 251 215
178 248 202
159 243 188
139 238 174
119 231 159
99 223 146
80 214 133
62 205 121
45 195 112
31 184 104
19 172 97
10 160 93
3 148 90
0 135 89
0 123 89
3 110 90
9 98 91
18 86 93
30 74 95
44 63 96
60 52 97
78 42 97
97 33 97
117 25 96
137 18 95
157 12 94
176 7 92
194 4 91
211 1 90
225 0 89
236 0 89
245 1 90
251 3 91
254 7 94
254 12 97
251 18 100
244 25 104
235 33 109
222 41 113
208 51 116
191 62 119
173 73 121
154 84 122
134 96 122
114 109 121
94 121 118
75 134 115
58 146 110
42 159 106
28 171 101
16 182 97
8 193 93
2 204 90
0 214 89
0 222 89
4 230 91
11 237 96
21 243 102
33 248 110
70 19 92
89 13 92
108 8 91
128 4 90
148 1 89
168 0 89
186 0 89
204 1 89
219 3 91
231 6 93
242 11 96
249 17 100
253 23 104
254 31 109
252 40 115
247 50 120
239 60 126
228 71 131
215 83 134
199 95 137
182 107 139
163 120 139
143 132 137
123 145 134
103 157 130
84 169 125
65 181 119
48 192 113
34 202 106
21 212 100
11 221 95
4 229 92
0 236 89
0 242 89
2 247 90
8 251 94
16 253 99
27 254 107
41 254 116
57 253 126
75 251 137
94 247 148
113 242 159
133 236 170
153 229 179
173 221 187
191 212 192
207 202 196
222 192 198
234 181 197
244 169 194
250 157 189
254 144 183
254 132 175
251 119 166
246 107 156
237 94 146
225 82 136
211 71 127
195 60 119
177 50 111
158 40 105
138 31 100
118 23 96
98 17 93
79 11 91
61 6 90
45 3 89
30 1 89
18 0 89
9 0 89
3 1 89
0 4 89
0 8 89
3 13 89
9 19 89
19 26 90
31 35 92
45 44 94
61 54 97
79 64 102
98 76 108
118 87 115
138 100 124
158 112 134
177 125 145
195 137 157
211 150 170
225 162 182
237 174 194
246 185 205
252 196 215
254 206 223
254 216 229
250 224 233
244 232 233
234 239 232
222 244 227
207 249 221
191 252 212
172 254 201
153 254 189
133 254 175
113 252 162
93 249 148
74 245 136
57 240 124
41 233 113
27 226 105
16 218 98
7 208 93
2 198 90
0 187 89
0 176 89
4 164 91
11 152 93
21 139 97
34 127 100
49 114 103
66 102 106
84 90 108
103 78 109
123 66 110
144 56 109
163 46 108
182 36 106
199 28 103
215 20 100
228 14 97
239 9 94
247 5 92
253 2 90
254 0 89
253 0 89
249 0 89
241 2 90
231 5 92
218 10 95
203 15 97
186 22 99
168 30 102
148 38 103
128 48 105
108 58 105
88 69 104
70 80 103
53 92 101
37 105 99
24 117 96
13 130 93
6 142 91
1 155 89
0 167 89
1 179 89
6 190 92
14 200 96
24 210 102
37 219 110
53 228 120
70 235 131
114 38 100
135 29 99
154 21 97
174 15 96
192 9 94
208 5 92
223 2 90
235 0 89
244 0 89
251 0 89
254 2 90
254 5 92
251 9 95
245 15 98
236 21 102
224 29 105
210 37 109
194 46 112
176 56 114
157 67 116
137 79 117
117 91 116
97 103 114
78 115 112
60 128 109
44 140 105
30 153 101
18 165 97
9 177 93
3 188 90
0 199 89
0 209 89
3 218 91
10 227 95
19 234 100
31 240 108
46 245 118
62 250 129
80 252 141
99 254 154
119 254 167
140 254 179
159 252 191
178 248 202
196 244 211
212 238 218
226 232 223
237 224 225
246 215 224
252 206 221
254 195 216
254 184 209
250 173 200
243 161 189
233 149 178
221 136 166
206 124 154
190 111 143
171 99 132
152 87 123
132 75 114
112 64 107
92 53 101
73 43 97
56 34 94
40 26 91
26 19 90
15 13 89
7 8 89
2 4 89
0 1 89
1 0 89
5 0 89
12 1 89
22 3 89
35 6 89
50 11 90
67 17 92
85 24 94
104 32 97
124 41 102
145 50 108
164 61 114
183 72 123
200 83 132
216 95 142
229 108 152
240 120 163
248 133 173
253 145 183
254 158 192
253 170 199
249 181 204
241 193 208
231 203 209
218 213 207
202 222 204
185 230 198
167 237 190
147 242 180
127 247 169
107 251 158
87 253 146
69 254 134
52 254 123
36 253 113
23 250 104
13 247 97
5 242 92
1 236 90
0 229 89
1 221 90
6 212 92
14 202 96
25 191 101
38 180 107
54 168 112
71 156 117
90 144 122
109 131 126
129 119 128
150 106 130
169 94 129
187 82 128
204 70 126
219 59 122
232 49 118
242 39 113
249 31 109
253 23 104
254 16 100
252 10 96
247 6 93
239 3 91
228 0 89
214 0 89
198 0 89
181 1 90
162 4 91
142 8 92
122 13 93
102 20 94
83 27 95
64 35 95
48 44 94
33 54 93
21 65 92
11 76 91
4 88 90
0 100 89
0 113 89
2 125 90
8 138 92
17 150 95
28 163 101
42 175 108
58 186 116
76 197 127
95 207 139
114 216 152
160 61 114
179 50 112
197 41 109
213 32 106
227 24 103
238 17 99
246 11 96
252 7 93
254 3 91
254 1 90
250 0 89
243 0 89
233 1 90
220 4 91
206 8 93
189 13 95
170 19 97
151 26 99
131 34 100
111 43 101
91 53 101
72 64 101
55 75 99
39 86 98
26 99 95
15 111 93
7 124 91
2 136 89
0 149 89
1 161 89
5 173 91
12 184 95
23 195 100
35 206 108
50 215 117
67 224 128
86 231 140
105 238 153
125 244 167
146 248 181
165 252 195
184 254 208
201 254 220
217 254 230
230 252 237
240 250 242
248 246 245
253 240 244
254 234 241
253 227 235
248 218 227
241 209 218
230 199 206
217 188 193
202 177 180
184 165 167
166 153 154
146 141 141
126 128 130
106 115 120
86 103 112
68 91 105
51 79 99
36 67 95
23 57 92
13 46 90
5 37 89
1 29 89
0 21 89
1 15 89
7 9 89
15 5 89
25 2 89
39 0 89
55 0 89
72 0 89
91 2 89
110 5 90
130 9 92
151 15 95
170 21 98
188 29 103
205 37 109
220 47 115
233 57 123
243 68 131
250 79 140
254 91 148
254 103 156
252 116 164
247 129 170
238 141 175
227 154 178
213 166 179
197 178 179
180 189 176
161 200 171
141 209 165
121 219 157
101 227 148
82 234 138
63 241 128
47 246 118
32 250 110
20 253 102
10 254 96
4 254 92
0 254 89
0 251 89
2 248 91
8 244 94
17 238 99
29 231 106
43 223 113
59 215 121
77 205 129
96 195 137
115 184 143
136 172 149
155 160 153
175 148 155
193 136 156
209 123 155
223 110 152
235 98 148
245 86 143
251 74 137
254 63 130
254 52 123
251 43 116
245 34 110
236 25 104
224 18 100
209 12 96
193 7 93
175 4 91
156 1 89
136 0 89
116 0 89
96 1 89
77 3 89
59 7 90
43 11 90
29 17 90
17 24 90
8 32 90
3 41 89
0 51 89
0 61 89
4 72 90
10 84 91
20 96 94
32 108 98
46 121 103
63 134 110
81 146 119
100 158 130
120 170 141
141 182 154
160 193 168
202 88 134
217 76 131
230 65 127
241 54 122
248 44 117
253 35 112
254 27 106
253 19 102
248 13 97
240 8 94
229 4 91
216 1 90
201 0 89
183 0 89
165 1 89
145 3 90
125 6 91
105 11 92
85 16 92
67 23 93
50 31 93
35 40 92
22 49 92
12 60 91
5 71 90
1 82 89
0 94 89
2 107 89
7 119 91
15 132 94
26 144 99
40 157 105
55 169 113
73 180 123
92 192 134
111 202 147
132 212 160
152 221 175
171 229 189
189 236 203
206 242 216
221 247 228
233 251 238
243 253 246
250 254 251
254 254 254
254 253 254
252 251 250
246 247 244
238 242 236
226 236 226
213 229 213
197 221 200
179 212 186
160 203 172
140 192 158
120 181 144
100 169 132
81 157 121
63 145 112
46 132 105
32 120 99
19 107 94
10 95 91
3 83 90
0 71 89
0 60 89
3 50 89
9 40 90
18 31 90
29 24 91
43 17 91
60 11 91
77 6 90
97 3 90
116 1 89
137 0 89
156 0 89
176 1 90
194 4 91
210 8 93
224 13 96
236 19 101
245 26 106
251 34 111
254 44 117
254 53 124
251 64 130
244 75 136
235 87 141
223 99 146
209 112 149
192 124 150
174 137 150
155 149 148
135 162 145
115 174 140
95 185 134
76 196 127
58 206 120
42 216 112
28 224 105
17 232 99
8 239 94
2 244 91
0 248 89
0 252 89
4 254 92
11 254 96
20 254 102
33 252 110
47 249 119
64 245 129
82 240 139
101 234 150
121 226 159
142 218 168
161 209 175
180 198 180
198 188 184
214 176 185
227 164 185
238 152 182
247 140 177
252 127 171
254 115 164
254 102 155
249 90 146
242 78 137
232 67 129
220 56 120
205 46 113
188 37 107
170 28 101
150 21 97
130 14 94
110 9 91
90 5 90
71 2 89
54 0 89
39 0 89
25 0 89
14 2 89
6 5 89
1 10 89
0 15 89
1 22 89
5 29 89
13 38 90
23 47 92
36 58 94
51 69 98
68 80 103
87 92 109
106 104 117
126 117 127
147 129 137
166 142 149
185 154 162
202 166 175
234 116 159
243 104 154
250 92 148
254 80 141
254 68 133
252 57 126
246 47 119
237 38 112
226 29 106
212 22 101
196 15 97
178 10 93
159 5 91
139 2 90
119 0 89
99 0 89
80 0 89
62 2 89
45 5 89
31 9 90
19 14 89
10 21 89
3 28 89
0 37 89
0 46 89
3 56 89
9 67 90
18 78 92
30 90 96
44 102 100
60 115 107
78 127 114
98 140 124
117 152 135
138 165 147
157 177 160
177 188 174
194 199 188
211 209 201
225 218 214
236 226 226
245 234 236
251 240 243
254 245 248
254 249 251
251 252 251
244 254 247
235 254 242
222 254 233
208 252 223
191 248 211
173 244 197
154 238 183
134 232 168
114 224 154
94 215 141
75 206 129
57 196 118
41 185 109
28 173 101
16 161 96
8 149 92
2 137 90
0 124 89
0 111 89
4 99 90
11 87 91
21 75 93
33 64 94
48 53 95
65 43 96
83 34 96
102 26 96
122 19 95
143 13 94
162 8 92
181 4 91
199 1 90
214 0 89
228 0 89
239 1 89
247 3 91
252 6 93
254 11 96
253 17 100
249 24 104
242 32 109
232 40 113
219 50 117
204 60 120
187 71 123
169 83 125
149 95 125
129 107 124
109 120 122
89 133 119
71 145 115
53 157 110
38 169 105
25 181 100
14 192 96
6 203 92
1 212 90
0 221 89
1 229 90
6 236 92
13 242 97
24 247 104
37 251 113
52 253 123
69 254 134
88 254 146
107 253 159
128 251 171
148 247 182
167 242 192
186 236 201
203 229 208
218 221 212
231 212 214
241 202 214
249 191 211
253 180 206
254 169 199
253 156 190
248 144 180
240 132 170
229 119 159
215 106 148
200 94 137
182 82 127
164 71 119
144 60 111
124 49 105
104 40 99
84 31 96
66 23 93
49 16 91
34 11 90
22 6 89
12 3 89
5 0 89
0 0 89
0 0 89
2 1 89
7 4 89
16 8 89
27 13 90
40 19 91
56 27 93
74 35 95
93 44 99
112 54 104
133 65 111
153 76 119
172 88 128
190 100 138
207 112 148
221 125 160
234 138 171
252 146 183
254 133 176
254 121 167
250 108 158
244 96 149
234 84 139
222 72 130
207 61 121
190 51 114
172 41 107
153 32 102
133 24 97
113 17 94
93 11 92
74 7 90
57 3 89
41 1 89
27 0 89
16 0 89
7 1 89
2 4 89
0 7 89
0 12 89
4 18 89
11 26 90
21 34 91
34 43 93
49 53 95
66 63 99
84 74 105
104 86 112
124 98 120
144 111 130
163 123 140
182 136 152
200 148 165
215 161 177
229 172 190
239 184 202
247 195 212
253 205 221
254 215 229
253 224 234
249 231 236
241 238 236
231 244 233
218 248 227
203 251 220
186 254 210
168 254 198
148 254 185
128 253 172
108 250 158
88 246 144
70 240 132
52 234 120
37 227 111
24 219 102
13 209 96
6 199 92
1 189 89
0 177 89
1 166 89
6 153 91
14 141 94
24 128 97
38 116 100
53 103 103
70 91 105
89 79 107
108 68 108
129 57 108
149 47 107
168 37 105
187 29 103
204 21 100
219 15 97
231 9 95
242 5 92
249 2 90
253 0 89
254 0 89
252 0 89
247 2 90
239 5 92
228 9 94
215 15 97
199 21 100
182 29 102
163 37 104
143 47 106
123 57 107
103 68 107
84 79 106
65 91 104
48 103 102
34 116 99
21 128 96
11 141 93
4 153 91
0 165 89
0 177 89
2 188 90
8 199 93
16 209 98
27 218 104
41 227 113
57 234 123
75 240 135
94 246 148
113 250 161
134 252 175
154 254 189
173 254 201
191 254 213
208 252 222
222 248 230
234 244 235
244 238 237
250 231 237
254 224 234
254 215 229
251 205 221
246 195 211
237 184 200
225 173 188
211 161 176
195 148 163
177 136 150
158 123 139
138 111 128
118 98 119
98 86 111
79 75 104
61 63 99
44 53 95
30 43 92
18 34 90
9 26 89
3 19 89
0 12 89
0 8 89
3 4 89
9 1 89
19 0 89
31 0 89
45 1 89
61 3 89
79 7 90
99 11 92
118 17 94
139 24 97
158 32 102
178 41 108
195 51 114
211 61 122
225 72 131
237 84 140
246 96 149
252 108 159
253 174 202
249 162 192
241 150 181
231 138 170
218 125 159
202 113 147
185 100 136
167 88 126
147 76 118
127 65 110
107 54 104
87 44 99
69 35 95
52 27 92
36 20 91
23 13 90
13 8 89
5 4 89
1 1 89
0 0 89
1 0 89
6 0 89
14 3 89
25 6 89
38 11 90
54 16 91
71 23 93
90 31 96
110 40 100
130 49 105
150 59 112
169 70 119
188 82 128
204 94 138
219 106 149
232 119 159
242 131 170
249 144 181
253 156 190
254 168 199
252 180 205
247 191 210
239 202 212
228 212 212
214 221 210
198 229 205
181 236 198
162 242 189
142 247 179
122 250 167
102 253 155
83 254 143
64 254 131
48 253 120
33 251 110
21 247 102
11 242 96
4 236 91
0 229 89
0 221 89
2 213 90
8 203 93
17 192 97
28 181 102
42 170 107
58 158 112
76 145 117
95 133 121
115 120 124
135 108 126
155 95 127
174 83 126
192 72 124
208 61 121
223 50 118
235 40 113
244 32 109
251 24 104
254 17 100
254 11 96
251 6 93
245 3 91
236 1 89
224 0 89
210 0 89
194 1 90
176 4 91
157 8 92
137 13 93
117 19 95
97 26 95
78 34 96
60 43 95
44 53 95
30 64 94
18 75 92
9 87 91
3 99 90
0 111 89
0 124 89
3 136 90
10 149 93
19 161 97
31 173 103
46 185 111
62 196 120
80 206 131
100 215 144
120 224 157
140 232 172
159 238 186
178 244 200
196 248 214
212 252 225
226 254 236
237 254 243
246 254 249
252 252 251
254 249 251
254 245 248
250 240 242
243 234 234
233 226 224
221 218 212
206 209 199
190 199 185
171 188 171
152 177 158
132 165 145
112 153 133
92 140 122
73 128 113
56 115 105
40 103 99
26 90 95
15 78 92
7 67 90
2 56 89
0 46 89
1 37 89
5 28 89
12 21 89
22 14 90
35 9 90
50 5 89
67 2 89
85 0 89
105 0 89
125 0 89
145 2 90
164 5 91
183 10 93
200 15 97
216 22 101
229 29 106
240 38 112
248 47 119
253 57 126
254 68 133
253 80 141
238 200 211
227 190 199
213 178 186
197 167 173
180 154 160
161 142 147
141 129 136
121 117 125
101 104 116
82 92 108
63 80 102
47 69 97
32 58 94
20 48 91
10 38 90
4 30 89
0 22 89
0 15 89
2 10 89
8 5 89
17 2 89
29 0 89
43 0 89
59 0 89
77 2 89
96 5 90
116 9 92
136 14 94
156 21 97
175 28 102
193 36 107
209 46 113
223 56 121
235 67 129
245 78 138
251 90 147
254 102 155
254 115 163
251 127 171
245 140 176
236 152 181
224 164 183
209 176 183
193 188 182
175 198 178
156 208 172
136 218 165
116 226 156
96 233 146
77 240 136
59 245 126
43 249 116
29 252 108
17 254 100
8 254 95
3 254 91
0 252 89
0 249 89
4 244 91
10 239 95
20 232 101
32 224 107
47 216 115
63 206 122
81 196 130
101 185 137
121 174 142
141 162 147
160 149 150
179 137 152
197 124 152
213 112 150
227 99 147
238 87 142
246 76 137
252 64 130
254 54 124
254 44 117
250 35 111
243 26 105
233 19 100
220 13 96
205 8 93
189 4 91
170 1 90
151 0 89
131 0 89
111 1 89
91 3 90
72 6 90
55 11 90
39 17 90
26 23 90
15 31 90
7 40 89
2 50 89
0 60 89
1 71 89
5 83 90
12 95 92
23 107 95
35 120 100
51 132 106
68 145 114
86 157 123
106 169 135
126 181 147
146 192 160
165 202 175
184 212 189
201 221 203
217 229 216
230 236 228
240 242 238
248 247 246
253 251 251
254 253 254
253 254 253
248 254 250
240 253 245
230 251 236
217 247 226
201 242 214
184 236 200
166 229 186
146 221 171
126 212 157
106 202 144
86 192 131
68 181 120
51 169 111
36 157 103
23 144 97
13 132 93
5 119 90
1 107 89
0 95 89
1 83 89
7 71 90
15 60 91
26 50 92
39 40 93
55 31 93
72 23 93
91 17 93
111 11 92
131 6 91
151 3 90
170 1 89
188 0 89
205 0 89
220 1 90
233 4 91
243 8 94
250 13 97
254 19 102
254 26 106
252 35 111
247 44 117
238 54 122
209 222 207
192 213 194
174 204 180
155 193 165
135 182 152
115 171 139
95 159 127
76 146 117
58 134 109
42 121 102
28 109 97
17 96 93
8 84 91
2 73 89
0 61 89
0 51 89
4 41 89
11 32 90
20 24 90
33 17 90
47 12 90
64 7 90
82 3 90
102 1 89
122 0 89
142 0 89
161 1 89
180 4 91
198 7 93
214 12 96
227 18 100
238 25 105
247 33 110
252 42 116
254 52 123
253 63 130
249 74 136
242 86 142
232 98 147
220 110 151
205 123 153
188 135 154
169 148 153
150 160 150
130 172 146
110 184 141
90 195 134
71 205 126
54 215 119
38 223 111
25 231 104
14 238 98
6 243 93
1 248 90
0 251 89
1 254 90
5 254 93
13 254 97
23 253 104
36 250 112
51 246 121
68 241 131
87 234 141
107 227 151
127 219 160
147 210 168
166 200 174
185 189 178
202 178 181
217 166 181
230 154 179
241 141 176
248 129 171
253 116 164
254 104 156
253 91 148
248 80 139
240 68 131
229 57 123
216 47 115
201 38 108
183 29 103
165 22 98
145 15 94
125 10 92
105 5 90
85 2 89
67 0 89
50 0 89
35 0 89
22 2 89
12 5 89
5 9 89
1 15 89
0 21 89
2 29 89
7 37 89
15 46 91
26 56 93
40 67 96
55 79 100
73 91 106
92 103 113
112 115 122
132 128 132
152 140 143
171 153 156
189 165 169
206 177 182
221 188 195
233 199 208
243 209 219
250 218 228
254 227 236
254 234 241
252 240 244
246 245 243
238 250 241
226 252 235
212 254 227
196 254 217
179 254 205
160 252 192
140 248 178
120 244 164
100 238 150
81 232 137
62 224 125
46 215 114
31 206 106
19 195 99
10 184 94
3 173 91
0 161 89
0 149 89
3 136 90
9 124 92
18 111 94
29 99 96
43 87 99
60 75 100
78 64 102
97 53 102
117 43 102
137 34 101
157 26 99
176 19 97
194 13 95
210 8 93
224 4 91
236 1 90
245 0 89
251 0 89
254 1 90
254 3 91
251 6 93
244 11 96
235 17 99
223 24 103
209 32 106
168 239 192
149 233 178
129 225 163
109 217 149
89 207 136
70 197 124
53 186 114
38 175 106
25 163 99
14 151 94
6 138 91
1 125 89
0 113 89
1 100 89
6 88 90
13 77 91
24 65 93
37 55 94
52 45 95
69 35 95
88 27 95
108 20 94
128 13 93
148 8 92
167 4 91
186 1 90
203 0 89
218 0 89
231 0 89
241 3 91
249 6 93
253 10 96
254 16 100
253 23 104
248 31 108
240 39 113
229 49 118
215 59 122
200 70 125
182 82 127
164 94 128
144 106 128
124 118 126
104 131 124
84 144 120
66 156 115
49 168 110
34 180 105
22 191 100
12 202 95
5 211 91
0 220 89
0 229 89
2 236 90
7 242 94
16 247 99
27 250 106
41 253 115
56 254 126
74 254 137
93 253 149
113 251 161
133 247 173
153 243 184
172 237 193
190 230 201
207 222 206
222 213 210
234 203 210
243 193 209
250 182 205
254 170 199
254 158 192
252 146 183
246 133 173
237 120 162
226 108 151
212 96 141
196 84 131
178 72 122
159 61 114
139 50 107
119 41 101
99 32 97
80 24 94
62 17 92
45 11 90
31 7 89
19 3 89
10 1 89
3 0 89
0 0 89
0 1 89
3 4 89
9 8 89
18 13 89
30 19 90
44 26 92
61 34 94
79 43 98
98 53 102
118 63 108
138 75 115
158 86 124
177 99 133
195 111 144
211 123 156
225 136 167
236 149 179
245 161 190
251 173 200
254 184 209
254 195 216
250 206 221
244 215 223
234 224 223
222 231 221
208 238 215
191 244 208
173 248 199
154 252 188
134 254 176
114 254 163
94 254 150
75 252 137
57 250 126
41 246 115
28 240 106
16 234 99
8 227 93
2 218 90
0 209 89
0 199 89
4 188 91
11 177 94
21 165 98
33 153 102
48 141 106
65 128 110
83 115 113
103 103 116
123 91 117
143 79 118
162 67 117
181 57 115
199 46 113
214 37 109
228 29 106
239 21 102
247 15 98
252 9 95
254 5 92
253 2 90
249 0 89
242 0 89
232 0 89
219 2 90
204 5 92
187 9 93
168 15 95
123 250 167
103 246 154
83 241 140
65 235 128
48 228 117
33 220 108
21 210 100
11 201 95
4 190 91
0 179 89
0 167 89
2 155 90
8 142 92
16 130 94
27 117 97
41 105 100
57 92 102
75 81 104
94 69 105
114 58 106
134 48 105
154 38 104
173 30 102
191 22 100
208 15 97
222 10 95
234 6 92
244 2 90
250 0 89
254 0 89
254 0 89
251 2 90
245 5 92
237 9 94
225 14 97
211 20 100
195 28 103
177 36 105
158 45 107
138 56 109
118 66 109
98 78 108
79 89 107
61 102 105
44 114 102
30 127 99
18 139 95
9 152 92
3 164 90
0 176 89
0 187 89
3 198 91
9 208 94
19 217 99
31 226 107
45 233 116
61 240 127
79 245 139
99 249 152
119 252 165
139 254 179
159 254 192
178 254 204
195 252 215
212 249 223
225 244 230
237 239 234
246 232 235
252 225 233
254 216 229
254 207 223
250 196 215
244 185 204
234 174 193
222 162 181
207 150 168
190 137 156
172 125 144
153 112 133
133 100 123
113 88 114
93 76 107
74 65 101
56 54 97
41 44 93
27 35 91
16 27 90
7 19 89
2 13 89
0 8 89
0 4 89
4 1 89
12 0 89
21 0 89
34 1 89
49 3 89
66 6 90
84 11 91
104 16 93
124 23 96
144 31 100
163 40 106
182 49 112
200 60 119
215 71 128
229 82 137
239 94 147
248 107 156
253 119 166
254 132 175
253 144 182
249 157 189
241 169 193
231 180 196
218 192 196
203 202 194
186 212 190
167 221 184
148 229 176
128 236 166
108 242 156
88 247 145
70 251 134
52 253 123
37 254 113
24 254 105
13 253 98
6 251 93
1 247 90
0 242 89
1 236 90
6 229 93
14 221 97
24 212 102
38 203 108
53 192 115
70 181 121
89 169 127
109 157 133
129 145 137
149 132 139
168 120 140
187 107 140
204 95 138
219 83 135
232 71 131
242 60 126
249 50 121
253 40 115
254 31 110
252 24 104
247 17 100
239 11 96
228 6 93
215 3 91
199 1 89
181 0 89
163 0 89
143 1 89
123 4 90
78 254 140
60 253 128
44 251 117
29 248 108
18 243 100
9 237 94
3 230 91
0 222 89
0 214 89
3 204 91
10 194 94
19 183 98
31 171 103
46 159 108
62 147 112
80 134 117
100 122 120
120 109 122
140 97 123
160 85 123
179 73 122
196 62 120
212 51 117
226 42 113
238 33 109
246 25 105
252 18 100
254 12 97
254 7 94
250 3 91
243 1 90
233 0 89
221 0 89
206 1 90
189 3 91
171 7 92
152 12 94
132 18 95
112 25 96
92 33 97
73 42 97
56 52 96
40 63 95
26 74 94
15 85 92
7 97 91
2 110 89
0 122 89
1 135 89
5 148 91
12 160 94
22 172 99
35 183 105
50 194 114
67 205 124
85 214 136
105 223 149
125 231 163
145 238 177
164 243 191
183 248 205
200 251 218
216 254 229
229 254 238
240 254 245
248 253 249
253 250 250
254 246 249
253 241 245
249 235 238
241 227 229
230 219 218
217 210 206
202 200 192
185 189 178
166 178 165
147 166 151
127 154 139
107 142 128
87 129 118
69 116 109
51 104 103
36 92 97
23 80 94
13 68 91
5 58 90
1 47 89
0 38 89
1 29 89
6 22 89
14 15 89
25 10 89
38 5 89
54 2 89
71 0 89
90 0 89
110 0 89
130 2 90
150 5 91
169 9 93
188 14 96
205 21 100
220 28 105
232 37 111
242 46 118
249 56 125
253 67 132
254 78 140
252 90 147
247 102 154
239 115 159
227 127 163
214 140 166
198 152 166
181 165 165
162 176 162
142 188 157
122 199 151
102 209 143
82 218 135
64 226 126
47 234 117
33 240 109
20 245 102
11 249 96
4 252 92
0 254 89
0 254 89
2 254 91
8 252 94
17 248 100
28 244 107
42 238 115
58 232 123
76 224 132
95 215 141
115 206 149
135 196 156
155 185 162
174 173 166
192 161 168
208 149 168
223 137 167
235 124 163
244 111 159
251 99 153
254 87 145
254 75 138
251 64 130
245 53 122
236 43 115
224 34 109
210 26 103
194 19 98
176 13 95
157 8 92
137 4 90
117 1 89
97 0 89
78 0 89
39 252 114
26 254 106
15 254 99
7 254 93
2 252 90
0 249 89
1 245 90
5 239 92
12 233 96
23 225 102
36 217 109
51 207 116
68 197 123
86 186 130
106 175 136
126 163 141
146 151 145
165 138 148
184 126 148
201 113 147
217 101 145
230 89 141
240 77 136
248 66 131
253 55 124
255 45 118
253 36 112
248 27 106
240 20 101
230 14 97
217 8 94
201 4 91
184 2 90
165 0 89
146 0 89
126 0 89
106 2 90
86 6 90
68 10 91
51 16 91
36 23 91
23 30 91
12 39 90
5 49 89
1 59 89
0 70 89
2 81 89
7 93 90
15 106 93
26 118 97
39 131 102
55 143 109
72 156 118
91 168 128
111 179 140
131 191 153
151 201 167
170 211 181
189 220 195
205 228 209
220 235 221
233 242 233
243 246 242
250 250 249
254 253 253
254 254 254
252 254 253
247 253 249
238 251 242
227 247 232
213 243 221
197 237 208
180 230 195
161 222 180
141 213 166
121 203 152
101 193 139
81 182 127
63 170 117
47 158 108
32 146 101
20 133 96
10 121 92
4 108 90
0 96 89
0 84 89
2 72 89
8 61 90
17 51 91
29 41 92
43 32 92
59 24 92
77 17 92
96 11 92
116 7 91
136 3 90
156 1 89
175 0 89
193 0 89
209 1 90
224 4 91
235 7 94
245 12 97
251 18 101
254 26 106
254 34 111
251 43 116
245 53 122
235 63 127
224 74 132
209 86 135
193 98 137
175 111 138
156 123 138
136 136 136
116 148 133
96 161 128
77 172 123
59 184 117
43 195 110
29 205 104
17 215 98
8 224 94
3 231 91
0 238 89
0 244 89
4 248 91
10 251 96
20 254 102
32 254 110
47 254 119
63 253 130
81 250 141
101 246 152
121 240 163
141 234 173
161 227 182
180 219 189
197 209 194
213 199 198
227 189 198
238 177 197
247 166 193
252 153 188
254 141 181
254 128 172
250 116 163
243 103 153
233 91 143
220 79 134
205 68 125
189 57 116
170 47 109
151 37 103
131 29 99
111 21 95
91 15 92
72 9 91
55 5 90
39 2 89
12 243 97
5 248 92
1 251 89
0 253 89
2 254 90
7 254 94
15 253 99
26 250 106
40 246 114
56 241 123
73 235 133
92 228 143
112 220 152
132 211 160
152 201 167
171 190 172
189 179 176
206 167 177
221 155 177
233 143 174
243 130 170
250 118 164
254 105 157
254 93 149
252 81 141
246 69 133
238 58 125
226 48 117
212 39 110
196 30 104
179 22 99
160 16 95
140 10 93
120 6 91
100 2 89
80 0 89
62 0 89
46 0 89
31 2 89
19 5 89
10 9 89
3 14 89
0 20 89
0 28 89
3 36 89
9 45 90
18 55 91
29 66 94
44 77 97
60 89 103
78 101 109
97 114 117
117 126 127
137 139 138
157 151 150
176 164 163
194 175 176
210 187 189
224 198 202
236 208 214
245 217 225
251 226 234
254 233 240
254 240 244
251 245 246
244 249 244
235 252 240
223 254 234
208 254 225
192 254 214
174 252 201
155 249 187
135 244 173
115 239 159
95 232 145
76 225 133
58 216 121
42 207 111
28 197 103
17 186 97
8 174 93
2 162 90
0 150 89
0 138 89
4 125 90
11 113 92
20 100 94
33 88 96
47 76 98
64 65 100
82 54 100
102 44 100
122 35 100
142 27 99
162 20 97
180 13 95
198 8 93
214 4 91
227 1 90
239 0 89
247 0 89
252 0 89
254 3 91
253 6 93
249 11 96
242 16 99
232 23 103
220 31 106
205 40 110
188 49 113
169 59 115
150 70 116
130 82 116
110 94 115
90 106 113
71 119 111
54 131 107
38 144 103
25 156 99
14 168 95
6 180 92
1 191 90
0 202 89
1 212 89
5 221 92
13 229 97
23 236 103
36 242 111
51 247 121
69 250 133
87 253 145
107 254 158
127 254 171
147 253 184
166 251 196
185 247 206
202 242 214
217 236 220
230 229 224
241 222 225
248 213 224
253 203 220
254 192 214
253 181 206
248 170 196
240 158 186
229 145 174
216 133 162
200 120 151
183 108 139
164 95 129
145 83 120
125 72 112
105 61 105
85 50 100
67 40 96
50 32 93
35 24 91
22 17 90
12 11 89
0 228 89
0 235 89
3 241 91
9 246 95
18 250 101
30 253 109
44 254 118
61 254 129
79 253 140
98 251 152
118 248 164
138 243 175
158 237 185
177 231 193
195 223 200
211 214 204
225 204 206
237 194 206
245 183 204
251 171 199
254 159 193
254 147 184
250 134 175
244 122 165
234 109 155
222 97 144
208 85 134
191 73 125
173 62 116
154 52 109
134 42 103
114 33 98
94 25 95
75 18 92
57 12 91
41 7 90
27 3 89
16 1 89
8 0 89
2 0 89
0 1 89
0 3 89
4 7 89
11 12 89
21 18 90
33 25 91
48 33 93
65 42 96
83 52 100
103 62 105
123 73 112
143 85 120
163 97 129
181 109 140
199 122 151
215 135 163
228 147 175
239 159 186
247 171 197
252 183 207
254 194 215
253 204 221
249 214 225
242 223 227
232 231 225
219 237 222
204 243 216
187 248 207
168 251 197
149 253 185
129 254 173
109 254 160
89 253 147
70 250 134
53 246 122
38 241 112
24 235 104
14 228 97
6 219 92
1 210 90
0 200 89
1 190 89
6 178 92
13 167 95
24 154 98
37 142 102
52 129 106
69 117 110
88 104 112
108 92 114
128 80 115
148 69 115
167 58 114
186 48 112
203 38 109
218 30 106
231 22 102
241 15 98
249 10 95
253 5 93
254 2 91
253 0 89
248 0 89
239 0 89
229 2 90
215 5 92
200 9 94
182 14 96
163 21 98
144 28 99
124 36 100
104 46 101
84 56 101
66 67 100
49 78 99
34 90 97
22 102 95
12 114 92
4 127 90
0 140 89
0 152 89
2 164 90
7 176 92
16 188 97
27 198 103
41 208 111
56 218 120
74 226 132
93 233 144
113 240 158
133 245 172
153 249 186
172 252 200
190 254 213
207 254 224
222 254 233
234 252 239
243 249 244
250 244 245
254 239 244
254 232 240
252 224 233
246 216 225
237 206 214
226 196 202
212 185 189
195 174 176
178 162 162
159 149 150
139 137 138
119 124 127
99 112 117
80 99 109
61 87 103
45 76 98
31 64 94
19 54 91
10 44 90
3 35 89
0 26 89
5 207 91
12 216 95
22 225 101
34 232 109
49 239 119
66 244 130
84 249 143
104 252 156
124 254 169
144 254 183
164 254 195
182 252 206
200 249 216
215 245 224
229 239 229
240 233 232
248 226 232
253 217 229
254 208 224
253 198 217
249 187 208
241 175 197
231 163 186
218 151 173
203 139 161
186 126 149
167 114 138
148 101 127
128 89 118
108 77 110
88 66 104
69 55 99
52 45 95
37 36 92
24 28 90
13 20 89
6 14 89
1 9 89
0 4 89
1 2 89
6 0 89
14 0 89
24 0 89
38 2 89
53 6 90
70 10 91
89 16 92
109 22 95
129 30 99
149 39 104
168 48 110
187 59 117
204 69 125
219 81 134
232 93 144
242 105 154
249 118 164
253 130 173
254 143 182
252 155 189
247 167 195
239 179 198
228 190 200
214 201 199
199 211 196
181 220 191
162 228 184
143 235 175
123 241 165
103 246 154
83 250 142
65 253 131
48 254 120
33 254 111
21 253 103
11 251 96
4 248 92
0 243 89
0 237 89
2 230 90
8 222 93
16 213 98
28 204 103
41 193 109
57 182 116
75 171 122
94 159 127
114 146 131
134 134 135
154 121 137
173 109 137
191 96 136
208 84 134
222 73 130
234 61 126
244 51 121
250 41 115
254 32 110
254 24 105
251 17 100
245 12 96
236 7 93
225 3 91
211 1 89
195 0 89
177 0 89
158 1 89
138 4 90
118 7 91
98 12 92
79 18 93
61 25 93
44 33 93
30 42 92
18 52 91
9 63 90
3 74 89
0 86 89
0 98 89
3 110 90
10 123 92
19 135 95
31 148 101
45 160 107
62 172 116
80 184 126
99 195 138
119 205 151
139 215 165
159 223 180
178 231 194
196 238 208
212 243 221
226 248 232
237 251 241
246 254 248
252 254 253
254 254 254
254 253 253
250 250 249
243 246 242
234 241 233
222 234 222
207 227 209
190 219 195
172 210 181
153 200 167
133 189 153
113 178 140
93 166 128
74 154 118
56 141 109
41 129 102
27 116 97
16 104 93
7 91 91
2 80 89
0 68 89
0 57 89
5 47 89
25 182 101
38 193 108
54 204 117
71 213 128
90 222 140
110 230 154
130 237 168
150 243 182
169 247 196
188 251 209
205 253 221
220 254 232
232 254 240
242 253 246
249 250 248
253 246 249
254 241 246
252 235 241
247 228 233
238 220 223
227 211 212
214 201 199
198 191 185
180 179 172
161 168 158
142 155 145
122 143 133
102 131 123
82 118 114
64 105 106
47 93 100
33 81 96
20 70 92
11 59 90
4 48 89
0 39 89
0 30 89
2 23 89
8 16 89
17 10 89
28 6 89
42 2 89
58 0 89
76 0 89
95 0 89
115 2 89
135 4 90
155 8 92
174 14 95
192 20 99
209 27 104
223 36 109
235 45 116
244 55 123
251 66 131
254 77 139
254 89 147
251 101 154
245 113 160
236 126 165
224 139 168
210 151 170
194 163 170
176 175 168
157 187 164
137 197 158
117 208 151
97 217 143
78 225 134
60 233 125
44 239 116
29 245 107
18 249 100
9 252 95
3 254 91
0 254 89
0 254 89
3 252 91
10 249 95
19 245 101
31 239 108
46 233 116
62 225 125
81 217 134
100 207 142
120 197 149
140 186 156
160 175 160
179 163 163
196 151 165
212 138 164
226 126 162
238 113 158
246 101 152
252 88 146
254 77 139
254 65 131
250 55 124
243 45 117
233 35 110
221 27 104
206 20 99
189 13 96
171 8 93
152 4 91
132 1 89
112 0 89
92 0 89
73 0 89
55 3 89
40 6 89
26 10 89
15 16 89
7 23 89
2 31 89
0 39 89
1 49 89
5 59 90
12 70 91
22 82 93
35 94 97
50 106 102
67 118 109
85 131 118
105 144 127
125 156 139
145 168 151
165 180 165
183 191 178
201 202 192
216 211 206
229 220 218
240 228 229
248 236 238
253 242 245
254 247 249
253 250 251
248 253 250
241 254 245
230 254 239
217 253 230
202 251 219
185 247 206
166 243 192
147 237 178
127 230 163
107 222 149
87 213 136
68 203 125
51 193 114
36 182 106
23 170 99
13 158 94
5 146 91
1 133 89
0 120 89
1 108 89
6 96 90
14 84 92
25 72 93
59 154 112
77 166 122
96 178 133
116 189 145
136 200 158
156 210 173
175 219 187
193 227 201
209 235 215
224 241 227
236 246 237
245 250 245
251 253 251
254 254 254
254 254 254
251 253 252
245 251 246
235 248 238
224 243 228
209 238 216
193 231 203
175 223 189
156 214 174
136 205 160
116 194 146
96 183 134
77 172 123
59 160 113
43 147 105
29 135 99
17 122 94
8 110 91
2 97 89
0 85 89
0 74 89
4 62 89
10 52 90
20 42 91
32 33 92
47 25 92
63 18 92
82 12 91
101 7 91
121 3 90
141 1 89
161 0 89
180 0 89
197 1 89
213 3 91
227 7 93
238 12 96
247 18 100
252 25 105
254 33 110
254 42 116
250 51 122
243 62 127
233 73 132
220 85 137
205 97 140
188 109 142
170 122 142
151 134 141
131 147 138
111 159 134
91 171 129
72 183 123
55 194 116
39 204 109
26 214 103
15 223 97
7 230 93
1 237 90
0 243 89
1 248 90
5 251 92
12 253 97
23 254 104
36 254 112
51 253 122
68 250 132
86 246 143
106 241 154
126 235 165
146 228 174
166 220 182
184 210 188
201 201 192
217 190 194
230 179 194
240 167 192
248 155 187
253 142 181
254 130 173
253 117 165
248 105 155
240 92 146
230 81 136
217 69 127
201 58 119
184 48 112
165 38 105
146 30 100
126 22 96
106 15 93
86 10 91
68 6 90
51 2 89
35 0 89
23 0 89
12 0 89
5 2 89
1 5 89
0 9 89
2 14 89
7 20 89
15 28 90
26 36 91
39 45 93
55 56 97
72 66 101
91 78 107
111 89 114
131 102 123
151 114 133
170 127 144
189 139 156
205 152 169
220 164 181
233 176 194
243 187 205
250 198 215
254 208 224
254 217 230
252 226 234
246 233 236
238 240 235
227 245 231
213 249 225
197 252 216
179 254 205
160 254 193
141 254 180
121 252 167
101 249 153
81 244 140
63 239 128
47 232 117
32 225 107
20 216 100
10 207 94
4 196 91
0 185 89
0 174 89
3 162 90
8 150 92
17 137 95
29 125 98
43 112 101
59 100 104
102 125 121
122 137 132
142 150 143
162 162 156
181 174 169
198 186 183
214 196 196
228 207 209
239 216 221
247 225 231
252 232 239
254 239 244
253 244 247
249 249 247
242 252 245
232 254 240
219 254 232
204 254 222
188 252 210
169 249 197
150 245 183
130 240 168
110 233 154
90 226 141
71 217 129
54 208 118
38 198 108
25 187 101
14 176 95
6 164 92
1 152 89
0 139 89
1 127 89
5 114 90
13 102 92
23 89 94
36 78 96
52 66 98
69 55 99
87 45 99
107 36 99
127 28 98
147 20 97
167 14 95
185 9 93
202 5 91
218 2 90
231 0 89
241 0 89
249 0 89
253 2 91
254 6 93
253 10 96
248 16 99
240 22 103
229 30 107
216 38 110
200 48 114
183 58 116
164 69 118
145 81 119
125 93 118
105 105 117
85 117 114
67 130 111
50 142 107
35 155 103
22 167 98
12 179 94
5 190 91
1 201 89
0 211 89
2 220 90
7 228 93
15 235 98
26 241 105
40 246 114
56 250 125
73 253 136
92 254 149
112 254 162
132 253 174
152 251 187
171 248 197
190 243 207
206 237 214
221 230 219
233 222 222
243 214 222
250 204 219
254 194 215
254 183 208
252 171 199
246 159 189
237 147 178
226 134 167
212 122 155
196 109 144
178 97 133
159 85 123
140 73 115
120 62 108
100 51 102
80 42 97
62 33 94
46 25 92
31 18 90
19 12 89
10 7 89
3 3 89
0 1 89
0 0 89
3 0 89
9 1 89
18 3 89
30 7 89
44 12 90
60 18 92
78 25 94
97 33 97
117 42 102
137 52 107
157 63 114
176 74 122
194 85 131
210 97 141
224 110 152
236 122 163
245 135 174
251 147 184
254 160 193
254 172 201
251 183 206
244 194 210
235 205 212
223 214 211
208 223 208
192 231 202
174 238 195
155 243 185
135 248 174
115 251 163
95 254 150
76 254 138
58 254 127
42 253 116
28 250 107
17 246 100
8 241 94
2 235 90
0 227 89
0 219 89
4 210 91
11 200 95
20 189 99
33 178 104
48 166 109
64 154 114
83 142 119
102 129 123
148 96 125
168 108 135
186 121 146
203 133 158
218 146 170
231 158 182
241 170 194
249 182 205
253 193 214
254 203 221
253 213 226
247 222 229
239 230 230
229 237 227
215 243 222
200 247 215
182 251 206
163 253 195
144 254 182
124 254 169
104 253 156
84 250 143
66 247 130
49 242 119
34 236 110
21 228 102
11 220 96
4 211 91
0 201 89
0 191 89
2 180 90
7 168 92
16 156 95
27 143 99
41 131 103
57 118 106
74 106 109
93 94 111
113 82 112
133 70 113
153 59 112
172 49 110
190 39 108
207 31 105
222 23 102
234 16 99
244 10 96
250 6 93
254 3 91
254 0 89
252 0 89
246 0 89
237 1 90
225 4 92
211 8 94
195 14 96
178 20 98
158 27 100
139 35 101
119 45 102
99 55 103
79 65 102
61 77 101
45 88 99
31 101 97
19 113 94
9 126 92
3 138 90
0 151 89
0 163 89
3 175 90
9 186 93
18 197 98
30 207 105
44 217 114
61 225 124
79 233 136
98 239 149
118 245 163
138 249 177
158 252 191
177 254 204
195 254 216
211 254 226
225 252 234
237 249 240
245 245 243
251 239 243
254 233 240
254 225 235
250 217 228
244 207 218
234 197 207
222 186 195
208 175 182
191 163 169
173 151 156
154 138 143
134 126 132
114 113 122
94 101 113
75 89 106
57 77 100
41 66 96
27 55 93
16 45 91
8 36 89
2 27 89
0 20 89
0 14 89
4 8 89
11 4 89
21 2 89
34 0 89
48 0 89
65 0 89
83 2 89
103 6 90
123 10 92
143 16 95
163 23 98
182 30 103
199 39 109
215 49 116
228 59 123
239 70 132
247 81 140
252 93 149
254 106 158
253 118 165
249 131 172
242 143 177
232 156 181
219 168 183
204 179 182
187 191 180
168 201 175
149 211 169
129 220 161
109 228 152
89 235 142
70 242 132
53 246 122
38 250 113
24 253 105
14 254 98
6 254 93
1 253 90
0 251 89
1 247 90
6 243 93
13 237 97
24 230 103
37 222 110
52 213 118
70 203 125
88 193 133
108 182 139
128 170 145
148 158 149
191 68 122
208 80 131
222 92 141
235 104 151
244 116 162
250 129 172
254 141 181
254 154 189
251 166 196
245 178 200
236 189 203
225 200 204
211 210 202
194 219 198
177 227 192
157 234 183
138 241 174
117 246 163
98 250 151
78 253 140
60 254 128
44 254 118
30 254 108
18 251 101
9 248 95
3 243 91
0 238 89
0 231 89
3 223 91
10 214 94
19 205 99
31 195 104
45 184 110
62 172 116
80 160 122
99 148 126
119 135 130
139 123 133
159 110 134
178 98 133
196 86 132
212 74 129
226 63 125
237 52 121
246 42 116
252 33 111
254 25 106
254 18 101
250 12 97
243 7 94
234 4 91
221 1 90
207 0 89
190 0 89
172 1 89
153 3 90
133 7 91
112 12 92
93 18 93
74 24 93
56 32 94
40 41 93
27 51 92
16 62 91
7 73 90
2 84 89
0 96 89
0 109 89
5 121 90
12 134 93
22 146 97
34 159 103
49 171 110
66 182 120
84 193 131
104 204 143
124 213 157
144 222 171
164 230 185
182 237 200
200 243 213
215 248 225
229 251 236
240 253 244
248 254 250
253 254 253
254 253 253
253 250 251
249 246 246
241 241 238
231 235 228
218 228 216
203 220 203
186 211 189
167 201 175
148 190 161
128 179 147
107 167 135
88 155 124
69 143 114
52 130 106
37 118 100
24 105 95
13 93 92
6 81 90
1 69 89
0 58 89
1 48 89
6 39 89
14 30 90
25 22 90
38 16 90
53 10 90
71 6 90
89 2 89
109 0 89
129 0 89
149 0 89
168 2 90
187 5 91
204 9 93
219 14 97
232 20 101
242 28 106
249 36 112
253 45 118
254 55 125
252 66 132
247 77 138
239 89 143
228 101 148
214 114 151
199 126 153
181 139 153
162 151 152
143 164 149
123 175 144
103 187 138
83 198 131
65 208 123
48 217 116
33 226 108
21 233 101
11 240 96
4 245 92
0 249 89
0 252 89
2 254 90
8 254 94
16 254 100
28 252 107
41 249 115
57 244 125
75 239 135
94 232 145
114 225 154
134 216 163
154 207 170
173 197 176
191 186 180
226 44 114
238 54 122
246 64 130
252 76 138
254 87 146
254 100 154
250 112 161
243 125 166
233 137 171
221 150 173
206 162 174
189 174 173
171 185 170
152 196 165
132 206 158
111 216 150
92 224 142
73 232 132
55 239 123
40 244 114
26 249 106
15 252 99
7 254 94
2 254 90
0 254 89
1 252 89
5 249 92
12 245 97
22 240 103
35 233 110
50 226 118
67 218 126
85 208 134
105 198 142
125 187 149
145 176 154
165 164 158
183 152 160
201 140 161
216 127 159
229 114 156
240 102 152
248 90 146
253 78 139
254 67 132
253 56 125
248 46 118
241 36 111
230 28 105
217 21 100
202 14 96
185 9 93
166 5 91
147 2 90
127 0 89
106 0 89
87 0 89
68 2 89
51 5 90
36 10 90
23 15 90
13 22 90
5 30 89
1 38 89
0 48 89
1 58 89
6 69 90
14 80 92
25 92 95
39 104 99
54 117 105
71 130 113
90 142 122
110 155 132
130 167 144
150 178 157
169 190 171
188 200 185
205 210 199
220 219 212
232 228 224
242 235 234
249 241 243
254 246 248
254 250 252
252 253 252
247 254 249
238 254 244
227 253 236
214 251 226
198 248 214
180 243 201
161 237 187
142 231 172
121 223 158
102 214 145
82 204 132
64 194 121
47 183 111
33 171 103
20 159 97
11 147 93
4 135 90
0 122 89
0 109 89
2 97 89
8 85 91
17 73 92
28 62 93
42 52 94
58 42 95
76 33 95
95 25 95
115 18 94
135 12 93
155 7 92
174 3 90
192 1 89
209 0 89
223 0 89
235 1 90
244 3 91
251 7 94
254 12 97
254 18 101
251 25 105
245 33 110
236 42 114
224 52 119
210 62 122
194 73 125
176 85 127
156 97 128
137 109 127
116 122 125
97 135 122
77 147 118
60 159 113
43 171 108
29 183 103
18 194 98
9 204 94
3 214 90
0 223 89
0 231 89
3 237 91
10 243 95
19 248 101
32 251 109
46 253 119
63 254 130
81 254 141
100 253 154
120 250 166
140 246 177
160 241 187
179 235 196
197 228 203
212 219 208
226 210 211
248 24 104
253 32 110
254 41 115
253 50 122
248 61 128
240 72 133
230 83 138
217 95 142
201 108 144
184 120 145
165 133 145
146 145 143
125 158 140
105 170 135
86 181 129
67 192 122
50 203 115
35 213 108
23 222 102
12 230 96
5 237 92
1 242 89
0 247 89
2 251 90
7 253 93
15 254 99
26 254 106
39 253 114
55 250 124
72 247 135
91 242 145
111 236 156
131 229 166
151 221 174
170 212 181
189 202 186
206 191 189
220 180 190
233 168 189
243 156 186
250 144 181
254 131 174
254 119 166
252 106 157
246 94 148
238 82 139
227 70 130
213 59 121
197 49 114
179 39 107
160 31 102
141 23 97
120 16 94
100 11 92
81 6 90
63 3 89
46 0 89
32 0 89
20 0 89
10 1 89
4 4 89
0 8 89
0 13 89
3 20 89
8 27 89
17 35 90
29 44 92
43 54 95
59 65 99
77 76 104
96 88 111
116 100 119
136 113 128
156 125 139
175 138 151
193 150 163
209 163 176
224 174 189
236 186 201
245 197 212
251 207 222
254 216 229
254 225 235
251 232 238
245 239 238
235 244 236
223 249 231
209 252 224
193 254 214
175 254 203
155 254 190
136 252 176
115 249 163
96 245 149
77 239 136
59 233 124
43 226 114
29 217 105
17 208 98
8 198 93
2 187 90
0 175 89
0 164 89
4 151 90
10 139 93
20 126 95
32 114 98
47 101 101
63 89 103
82 77 105
101 66 106
121 55 106
141 45 105
161 36 104
180 28 102
197 20 99
213 14 97
227 9 94
238 4 92
247 2 90
252 0 89
254 0 89
254 0 89
250 2 91
243 6 93
233 10 95
220 16 98
205 22 101
188 30 103
170 39 106
151 48 108
131 59 108
110 69 109
91 81 108
72 93 106
55 105 104
39 118 101
26 130 97
15 143 94
7 155 92
1 167 90
0 179 89
1 190 89
5 201 92
13 211 96
23 220 102
36 228 110
51 235 120
68 241 131
86 246 143
106 250 157
126 253 170
146 254 184
166 254 197
184 253 208
202 251 218
217 248 226
230 243 232
241 237 235
248 230 235
254 9 95
252 15 99
246 21 102
237 29 107
226 37 111
212 47 114
196 57 118
178 68 120
159 79 121
140 91 121
119 103 121
99 116 118
80 128 115
62 141 111
46 153 107
31 166 102
19 177 98
10 189 94
3 199 91
0 209 89
0 219 89
3 227 91
9 234 94
18 241 100
30 246 108
44 250 117
60 253 128
78 254 140
97 254 152
117 254 165
137 251 177
157 248 189
176 244 199
194 238 207
210 231 213
224 223 217
236 215 219
245 205 218
251 195 214
254 184 208
254 172 201
251 160 192
244 148 181
235 136 170
223 123 159
208 110 148
192 98 137
174 86 127
154 74 118
135 63 111
114 52 104
95 43 99
76 34 95
58 26 93
42 18 91
28 12 90
17 7 89
8 4 89
2 1 89
0 0 89
0 0 89
4 1 89
11 3 89
21 7 89
33 11 90
48 17 91
64 24 93
83 32 96
102 41 100
122 51 105
142 61 111
162 72 119
181 84 128
198 96 138
214 108 148
228 121 159
239 134 170
247 146 181
252 158 191
254 170 200
253 182 207
249 193 212
242 204 215
232 213 215
219 222 213
204 230 209
187 237 202
169 243 194
150 247 184
129 251 172
109 253 160
90 254 147
71 254 135
54 253 124
38 250 113
25 246 105
14 241 98
6 235 93
1 228 90
0 220 89
1 211 90
5 201 92
13 191 95
23 179 100
36 168 105
52 156 109
69 143 114
87 131 118
107 118 121
127 105 123
147 93 124
167 81 124
185 70 122
202 59 119
218 48 116
231 39 112
241 30 108
249 23 103
253 16 99
254 10 96
253 6 93
248 2 91
240 0 89
229 0 89
216 0 89
200 2 90
183 4 91
164 8 93
145 14 94
124 20 95
104 27 96
85 36 97
67 45 97
50 55 96
35 66 95
22 77 93
12 89 92
5 101 90
1 113 89
0 126 89
2 139 90
7 151 92
15 163 95
26 175 101
40 187 108
56 197 117
73 208 128
92 217 140
112 225 153
132 233 168
152 239 182
171 245 196
190 249 210
206 252 222
221 254 232
233 254 241
243 254 247
250 252 250
254 249 250
254 245 248
244 1 90
234 4 91
222 8 93
207 13 96
191 19 98
173 26 101
153 34 102
133 44 104
113 53 104
94 64 104
75 75 103
57 87 102
41 99 99
27 112 97
16 124 94
8 137 92
2 149 90
0 162 89
0 173 89
4 185 91
11 196 95
21 206 100
34 216 108
48 224 117
65 232 128
84 238 140
103 244 153
123 248 167
143 252 181
163 254 195
182 254 207
199 254 218
215 252 227
228 249 234
239 245 239
247 240 241
252 234 240
254 226 236
253 218 230
249 209 222
242 199 212
231 188 200
219 176 188
204 165 175
187 152 162
168 140 149
149 127 137
128 115 127
108 102 117
89 90 109
70 78 103
53 67 98
37 56 94
24 46 92
14 37 90
6 28 89
1 21 89
0 14 89
1 9 89
6 5 89
13 2 89
24 0 89
37 0 89
53 0 89
70 2 89
88 5 90
108 10 92
128 15 94
148 22 97
168 29 102
186 38 107
203 47 114
218 58 121
231 68 129
241 80 138
249 92 147
253 104 156
254 117 165
253 129 172
247 142 179
239 154 183
228 166 186
215 178 187
199 189 186
182 200 182
163 210 177
144 219 169
123 227 161
103 235 151
84 241 141
66 246 130
49 250 120
34 253 111
21 254 103
11 254 97
4 253 92
0 251 89
0 248 89
2 243 90
7 238 94
16 231 98
27 223 104
41 214 111
57 205 119
74 194 126
93 183 133
113 172 139
133 160 143
153 147 147
172 135 148
191 122 149
207 110 147
222 97 144
234 85 140
244 74 135
250 62 129
254 52 123
254 42 116
252 33 110
246 25 105
237 18 100
225 12 96
211 7 93
195 3 91
177 1 89
158 0 89
139 0 89
118 1 89
98 3 90
79 7 90
61 12 91
45 18 91
31 25 91
19 33 90
9 42 90
3 51 89
0 62 89
0 73 89
3 85 90
9 97 91
18 109 94
30 122 98
45 134 104
61 147 112
79 159 121
98 171 132
118 183 144
138 194 157
158 204 171
177 214 186
195 223 200
211 230 213
225 237 225
237 243 236
246 248 244
251 251 250
254 253 254
254 254 254
250 254 252
244 253 246
218 0 89
203 0 89
186 1 89
167 3 90
147 6 91
127 11 92
107 17 93
88 24 94
69 31 94
52 40 94
37 50 94
24 60 92
13 71 91
6 83 90
1 95 89
0 107 89
1 120 89
6 132 91
14 145 94
25 157 99
38 169 105
53 181 114
71 192 124
89 203 135
109 212 148
129 221 162
149 229 176
169 236 191
187 242 205
204 247 218
219 251 229
232 253 239
242 254 246
249 254 251
253 253 253
254 251 252
252 247 248
247 242 242
239 236 233
228 229 222
214 221 210
199 212 197
181 202 182
162 192 168
143 180 155
122 169 142
102 157 130
83 144 120
65 132 111
48 119 104
33 107 98
21 94 94
11 82 91
4 71 90
0 60 89
0 49 89
2 40 89
8 31 89
16 23 90
28 16 90
42 11 90
58 6 90
75 3 89
94 1 89
114 0 89
134 0 89
154 1 89
173 4 91
191 8 93
208 13 96
222 19 100
235 27 105
244 35 111
251 44 117
254 54 124
254 65 131
251 76 138
245 88 144
236 100 149
225 112 153
211 125 156
194 137 157
176 150 157
157 162 154
137 174 150
117 186 145
97 196 138
78 207 130
60 216 122
44 225 114
30 232 107
18 239 100
9 244 95
3 249 91
0 252 89
0 254 89
3 254 91
10 254 95
19 252 101
31 249 109
45 245 117
62 240 127
80 233 137
99 226 146
119 217 155
139 208 163
159 198 169
178 187 174
196 176 177
212 164 178
226 152 176
237 139 173
246 127 169
252 114 162
254 102 155
254 89 147
250 78 139
243 66 130
234 55 122
221 45 115
207 36 108
190 28 102
172 20 98
152 14 94
132 9 92
112 5 90
93 2 89
74 0 89
56 0 89
40 0 89
27 2 89
16 6 89
7 10 89
2 16 89
0 22 89
0 30 89
5 38 89
12 48 90
22 58 92
34 69 95
49 81 99
66 93 105
85 105 112
104 117 120
124 130 130
144 142 141
164 155 154
183 167 167
200 179 180
216 190 194
229 201 206
240 211 218
248 220 228
253 228 236
254 235 242
253 241 245
249 246 245
241 250 243
231 253 238
218 254 231
180 5 91
161 2 90
141 0 89
121 0 89
101 0 89
82 2 89
64 5 90
47 9 90
33 15 90
20 21 90
11 29 90
4 37 89
0 47 89
0 57 89
2 68 89
8 79 90
17 91 93
28 103 96
42 116 101
58 128 108
76 141 116
95 153 126
115 165 138
135 177 150
155 188 164
174 199 178
192 209 192
209 218 206
223 227 218
235 234 230
244 240 239
251 246 246
254 250 251
254 252 253
251 254 252
245 254 248
236 254 242
224 252 233
210 248 222
193 244 210
176 238 196
156 231 181
136 224 167
116 215 153
96 205 140
77 195 128
59 184 117
43 173 108
29 161 101
18 148 96
9 136 92
3 123 90
0 111 89
0 98 89
4 86 90
10 75 91
20 63 92
32 53 93
46 43 94
63 34 94
81 26 94
100 19 94
120 13 93
140 8 92
160 4 90
179 1 89
197 0 89
213 0 89
226 1 89
238 3 91
246 7 93
252 11 96
254 17 100
254 24 105
250 32 109
243 41 114
233 51 119
221 61 123
206 72 127
189 84 129
171 96 131
151 108 131
131 121 129
111 133 127
92 146 123
73 158 118
55 170 113
40 182 107
26 193 102
15 203 97
7 213 93
2 222 90
0 230 89
1 237 89
5 243 92
12 247 97
22 251 103
35 253 112
50 254 122
67 254 133
86 253 144
105 250 156
125 247 168
145 242 179
165 236 188
184 228 196
201 220 202
216 211 206
229 201 207
240 191 206
248 180 203
253 168 198
254 156 190
253 143 182
248 131 172
241 118 162
230 106 151
217 94 141
202 82 131
185 70 122
166 59 114
146 49 107
126 39 102
106 31 97
87 23 94
68 16 92
51 10 90
36 6 89
23 3 89
13 0 89
5 0 89
1 0 89
0 1 89
1 4 89
6 8 89
14 13 89
25 20 90
39 27 92
54 35 94
72 45 97
90 55 102
110 65 107
130 77 114
150 88 123
170 101 133
188 113 143
205 126 155
220 138 167
232 151 178
242 163 190
249 175 200
254 186 210
254 197 217
252 207 223
247 217 226
238 225 226
227 233 224
214 239 220
198 245 213
180 249 204
135 17 95
115 11 92
95 6 90
76 3 89
59 1 89
43 0 89
29 0 89
17 1 89
8 4 89
2 8 89
0 13 89
0 19 89
4 26 89
10 34 90
20 43 91
32 53 93
47 64 97
64 75 101
82 87 107
101 99 114
121 111 123
141 124 134
161 136 145
180 149 157
198 161 170
213 173 183
227 185 196
238 196 208
247 206 219
252 215 228
254 224 235
254 232 239
250 238 241
242 244 240
233 248 237
220 252 230
205 254 222
188 254 211
170 254 199
150 252 186
130 249 172
110 245 158
91 240 145
72 234 132
54 226 121
39 218 111
25 209 103
15 199 96
6 188 92
1 177 90
0 165 89
1 153 89
5 140 91
13 128 93
23 115 96
36 103 98
51 90 101
68 79 103
87 67 104
106 56 104
126 46 104
146 37 103
166 28 101
184 21 99
202 14 96
217 9 94
230 5 92
241 2 90
248 0 89
253 0 89
254 0 89
253 2 90
248 5 92
240 10 95
230 15 98
216 22 101
201 29 104
184 38 107
165 47 109
145 57 110
125 68 111
105 80 110
86 92 109
67 104 107
50 116 104
35 129 101
22 141 97
12 154 94
5 166 91
1 178 89
0 189 89
2 200 90
7 210 93
15 219 97
26 227 104
39 234 113
55 241 123
73 246 135
91 250 147
111 253 161
131 254 174
151 254 187
171 254 200
189 251 210
206 248 219
220 243 226
233 238 231
243 231 232
250 223 231
254 214 228
254 205 222
252 195 214
246 184 205
238 172 194
227 160 182
213 148 169
197 135 157
179 123 145
160 110 134
140 98 124
120 86 115
100 74 108
81 63 102
63 52 97
46 42 94
32 33 92
20 25 90
10 18 89
4 12 89
0 7 89
0 4 89
3 1 89
9 0 89
17 0 89
29 1 89
43 3 89
59 7 90
77 12 91
96 18 93
116 24 96
136 32 100
156 41 105
175 51 112
193 62 119
210 73 128
224 84 137
236 96 147
245 109 157
251 121 167
254 134 176
254 146 184
251 159 191
245 171 196
235 182 199
223 193 199
209 204 198
193 213 194
175 222 188
155 230 180
135 237 171
90 35 97
71 26 94
54 19 91
38 13 90
25 8 89
14 4 89
6 1 89
1 0 89
0 0 89
1 1 89
5 3 89
13 6 89
24 11 89
37 17 90
52 23 92
69 31 94
88 40 98
107 50 103
127 60 108
147 71 116
167 83 124
185 95 134
202 107 144
218 119 155
231 132 167
241 145 178
249 157 189
253 169 198
254 181 207
253 192 213
248 202 217
240 212 219
229 221 218
216 229 215
200 236 210
183 242 202
164 247 193
144 251 182
124 253 169
104 254 157
85 254 144
66 253 132
50 251 121
35 247 111
22 242 103
12 236 96
5 229 92
1 221 89
0 212 89
2 202 90
7 192 92
15 181 96
27 169 100
40 157 105
56 145 110
73 132 114
92 119 117
112 107 120
132 95 121
152 83 121
172 71 120
190 60 118
206 50 115
221 40 112
234 31 108
243 23 104
250 17 100
254 11 96
254 6 93
252 3 91
246 1 89
237 0 89
226 0 89
212 1 90
196 4 91
178 8 93
159 13 94
139 19 96
119 26 97
99 35 98
80 44 98
62 54 97
46 64 96
31 76 95
19 87 93
10 100 91
3 112 90
0 124 89
0 137 89
3 150 90
9 162 93
18 174 97
30 185 103
44 196 111
60 206 121
78 216 132
97 224 145
117 232 158
137 239 173
157 244 187
176 249 201
194 252 214
210 254 225
225 254 235
236 254 242
245 252 247
251 249 249
254 245 248
254 240 245
251 233 238
244 226 230
235 218 220
223 208 208
208 198 194
192 187 181
174 176 167
154 164 154
134 152 141
114 140 130
94 127 120
75 114 111
58 102 104
42 90 98
28 78 94
17 67 92
8 56 90
2 46 89
0 36 89
0 28 89
4 21 89
11 14 89
21 9 89
33 5 89
48 2 89
64 0 89
83 0 89
102 0 89
122 2 90
142 5 91
162 10 93
181 15 96
198 22 100
214 30 105
228 38 111
239 48 118
247 58 126
252 69 133
254 80 141
253 92 149
249 104 156
242 117 161
232 130 166
219 142 169
204 155 170
187 167 169
169 178 166
149 190 161
129 200 155
109 210 148
90 219 139
49 57 96
34 47 93
21 38 91
11 29 90
4 22 89
0 15 89
0 10 89
2 5 89
7 2 89
16 0 89
27 0 89
41 0 89
57 2 89
74 5 90
93 9 91
113 14 93
133 21 96
153 28 100
173 37 105
191 46 112
207 56 119
222 67 127
234 79 136
244 90 145
250 103 155
254 115 164
254 128 172
252 140 179
246 153 185
237 165 189
225 177 191
211 188 191
195 199 188
177 209 184
158 218 177
138 226 169
118 234 160
98 240 149
79 245 139
61 250 128
45 252 118
30 254 109
19 254 101
9 254 95
3 252 91
0 248 89
0 244 89
3 238 91
9 232 95
18 224 100
30 215 106
45 206 113
61 196 119
79 185 126
98 173 132
118 161 138
138 149 142
158 136 144
177 124 145
195 111 144
211 99 142
225 87 139
237 75 134
246 64 129
251 53 123
254 43 117
254 34 111
250 26 106
244 19 101
234 13 97
222 8 93
207 4 91
191 1 90
173 0 89
153 0 89
133 1 89
113 3 90
93 6 90
75 11 91
57 17 91
41 24 91
27 32 91
16 41 90
8 50 90
2 61 89
0 72 89
0 83 89
4 95 90
11 108 92
21 120 95
34 133 100
49 145 107
65 158 115
84 170 125
103 181 137
123 192 150
143 203 163
163 213 178
182 222 192
199 230 206
215 237 219
228 242 230
239 247 240
247 251 248
252 253 252
254 254 254
253 254 254
249 253 250
242 250 244
231 247 235
219 242 224
203 236 212
186 229 198
168 221 184
148 212 169
128 202 155
108 191 142
89 180 130
70 168 119
53 156 110
37 144 103
24 131 97
14 119 93
6 106 90
1 94 89
0 82 89
1 70 89
6 59 90
14 49 91
24 39 91
37 31 92
53 23 92
70 16 92
88 11 91
108 6 91
128 3 90
148 0 89
168 0 89
186 0 89
203 1 90
218 4 91
231 8 94
242 13 97
249 20 102
253 27 106
254 35 112
253 44 118
247 54 123
239 65 129
228 76 134
215 88 137
199 100 140
182 113 141
163 125 141
143 138 139
123 150 136
103 163 132
84 174 126
66 186 120
49 197 113
18 84 93
9 72 90
3 61 89
0 50 89
0 41 89
3 32 89
10 24 89
19 17 90
31 11 90
45 7 90
62 3 89
80 1 89
99 0 89
119 0 89
139 1 89
159 4 90
178 8 92
196 13 95
212 19 99
226 26 104
237 34 110
246 43 116
252 53 123
254 63 130
254 75 137
250 86 144
243 98 150
234 111 155
221 123 159
207 136 161
190 148 161
172 161 160
152 173 156
132 184 151
112 195 145
92 206 138
74 215 129
56 224 121
40 231 113
27 238 105
15 244 99
7 248 94
2 252 90
0 254 89
1 254 89
5 254 92
12 252 97
22 250 103
34 246 111
49 240 119
66 234 129
85 227 138
104 218 147
124 209 155
144 199 162
164 188 168
183 177 172
200 165 173
216 153 173
229 141 171
240 128 167
248 115 162
253 103 156
254 91 148
253 79 140
249 67 132
241 57 124
231 47 116
218 37 110
203 29 104
185 21 99
167 15 95
147 9 92
127 5 91
107 2 89
88 0 89
69 0 89
52 0 89
37 2 89
24 5 89
13 9 89
6 15 89
1 21 89
0 29 89
1 37 89
6 47 90
14 57 91
25 68 93
38 79 97
53 91 101
71 103 108
89 116 115
109 128 125
129 141 136
149 153 148
169 166 160
187 177 174
204 189 187
219 199 201
232 209 213
242 219 224
249 227 234
253 234 241
254 241 245
252 246 247
247 250 247
239 253 243
228 254 237
214 254 228
198 254 218
181 251 205
162 248 192
142 244 178
122 238 163
102 231 149
83 223 136
65 215 124
48 205 114
33 195 105
21 184 99
11 172 94
4 160 91
0 148 89
0 136 89
2 123 90
8 110 91
16 98 93
28 86 95
42 74 97
58 63 98
75 53 99
94 43 99
114 34 99
134 26 98
154 18 96
173 12 94
192 7 93
208 4 91
223 1 90
235 0 89
244 0 89
251 1 90
254 3 91
254 7 93
251 11 96
245 17 100
236 24 104
225 32 108
210 41 111
194 51 114
176 61 117
157 72 118
137 84 118
117 96 118
97 108 116
78 121 113
60 133 109
44 146 105
30 158 101
18 170 97
2 112 89
0 100 89
1 88 89
5 76 90
12 65 91
22 54 92
35 44 93
50 35 93
67 27 93
86 19 93
105 13 92
125 8 91
145 4 90
165 1 90
184 0 89
201 0 89
216 1 89
230 3 91
240 6 93
248 11 96
253 16 100
254 23 104
253 31 109
248 40 114
241 49 119
230 60 124
217 71 128
202 82 131
185 94 133
166 107 134
146 119 134
126 132 131
106 144 128
87 157 124
68 169 118
51 180 113
36 192 107
23 202 101
13 212 96
5 221 92
1 229 90
0 236 89
1 242 90
6 247 93
14 251 98
25 253 105
39 254 114
54 254 124
72 253 135
90 251 147
110 247 159
130 242 170
150 236 180
170 229 188
188 221 195
205 212 200
220 203 203
232 192 203
242 181 201
250 169 197
254 157 191
254 145 183
252 132 174
247 120 165
238 107 154
227 95 144
213 83 134
198 71 125
180 60 117
161 50 110
141 40 103
121 31 99
101 24 95
82 17 92
64 11 91
47 6 90
32 3 89
20 1 89
11 0 89
4 0 89
0 1 89
0 4 89
2 8 89
8 13 89
17 19 90
28 26 91
42 34 93
59 43 95
76 53 99
95 64 105
115 75 111
135 87 119
155 99 128
174 112 139
192 124 150
209 137 162
223 149 174
235 161 186
244 173 197
251 185 208
254 196 216
254 206 223
251 216 227
245 224 229
236 232 229
224 238 225
210 244 220
193 248 212
175 252 202
156 254 190
136 254 178
116 254 164
96 252 151
77 249 138
59 245 126
43 240 116
29 234 106
17 226 99
9 218 94
3 209 90
0 199 89
0 188 89
4 176 91
10 165 93
20 152 97
32 140 100
46 127 104
63 115 107
81 102 110
100 90 112
120 78 113
140 67 113
160 56 112
179 46 110
197 37 107
213 28 104
226 21 101
238 14 98
246 9 95
252 5 92
254 2 90
254 0 89
250 0 89
243 0 89
233 2 90
221 5 92
206 10 94
189 15 96
171 22 98
151 29 100
131 38 102
111 47 102
91 58 102
73 68 102
55 80 100
39 92 98
26 104 96
15 117 93
7 129 91
2 142 90
2 142 90
7 129 91
15 117 93
26 104 96
39 92 98
55 80 100
73 68 102
91 58 102
111 47 102
131 38 102
151 29 100
171 22 98
189 15 96
206 10 94
221 5 92
233 2 90
243 0 89
250 0 89
254 0 89
254 2 90
252 5 92
246 9 95
238 14 98
226 21 101
213 28 104
197 37 107
179 46 110
160 56 112
140 67 113
120 78 113
100 90 112
81 102 110
63 115 107
46 127 104
32 140 100
20 152 97
10 165 93
4 176 91
0 188 89
0 199 89
3 209 90
9 218 94
17 226 99
29 234 106
43 240 116
59 245 126
77 249 138
96 252 151
116 254 164
136 254 178
156 254 190
175 252 202
193 248 212
210 244 220
224 238 225
236 232 229
245 224 229
251 216 227
254 206 223
254 196 216
251 185 208
244 173 197
235 161 186
223 149 174
209 137 162
192 124 150
174 112 139
155 99 128
135 87 119
115 75 111
95 64 105
76 53 99
59 43 95
42 34 93
28 26 91
17 19 90
8 13 89
2 8 89
0 4 89
0 1 89
4 0 89
11 0 89
20 1 89
32 3 89
47 6 90
64 11 91
82 17 92
101 24 95
121 31 99
141 40 103
161 50 110
180 60 117
198 71 125
213 83 134
227 95 144
238 107 154
247 120 165
252 132 174
254 145 183
254 157 191
250 169 197
242 181 201
232 192 203
220 203 203
205 212 200
188 221 195
170 229 188
150 236 180
130 242 170
110 247 159
90 251 147
72 253 135
54 254 124
39 254 114
25 253 105
14 251 98
6 247 93
1 242 90
0 236 89
1 229 90
5 221 92
13 212 96
23 202 101
36 192 107
51 180 113
68 169 118
87 157 124
106 144 128
126 132 131
146 119 134
166 107 134
185 94 133
202 82 131
217 71 128
230 60 124
241 49 119
248 40 114
253 31 109
254 23 104
253 16 100
248 11 96
240 6 93
230 3 91
216 1 89
201 0 89
184 0 89
165 1 90
145 4 90
125 8 91
105 13 92
86 19 93
67 27 93
50 35 93
35 44 93
22 54 92
12 65 91
5 76 90
1 88 89
0 100 89
2 112 89
18 170 97
30 158 101
44 146 105
60 133 109
78 121 113
97 108 116
117 96 118
137 84 118
157 72 118
176 61 117
194 51 114
210 41 111
225 32 108
236 24 104
245 17 100
251 11 96
254 7 93
254 3 91
251 1 90
244 0 89
235 0 89
223 1 90
208 4 91
192 7 93
173 12 94
154 18 96
134 26 98
114 34 99
94 43 99
75 53 99
58 63 98
42 74 97
28 86 95
16 98 93
8 110 91
2 123 90
0 136 89
0 148 89
4 160 91
11 172 94
21 184 99
33 195 105
48 205 114
65 215 124
83 223 136
102 231 149
122 238 163
142 244 178
162 248 192
181 251 205
198 254 218
214 254 228
228 254 237
239 253 243
247 250 247
252 246 247
254 241 245
253 234 241
249 227 234
242 219 224
232 209 213
219 199 201
204 189 187
187 177 174
169 166 160
149 153 148
129 141 136
109 128 125
89 116 115
71 103 108
53 91 101
38 79 97
25 68 93
14 57 91
6 47 90
1 37 89
0 29 89
1 21 89
6 15 89
13 9 89
24 5 89
37 2 89
52 0 89
69 0 89
88 0 89
107 2 89
127 5 91
147 9 92
167 15 95
185 21 99
203 29 104
218 37 110
231 47 116
241 57 124
249 67 132
253 79 140
254 91 148
253 103 156
248 115 162
240 128 167
229 141 171
216 153 173
200 165 173
183 177 172
164 188 168
144 199 162
124 209 155
104 218 147
85 227 138
66 234 129
49 240 119
34 246 111
22 250 103
12 252 97
5 254 92
1 254 89
0 254 89
2 252 90
7 248 94
15 244 99
27 238 105
40 231 113
56 224 121
74 215 129
92 206 138
112 195 145
132 184 151
152 173 156
172 161 160
190 148 161
207 136 161
221 123 159
234 111 155
243 98 150
250 86 144
254 75 137
254 63 130
252 53 123
246 43 116
237 34 110
226 26 104
212 19 99
196 13 95
178 8 92
159 4 90
139 1 89
119 0 89
99 0 89
80 1 89
62 3 89
45 7 90
31 11 90
19 17 90
10 24 89
3 32 89
0 41 89
0 50 89
3 61 89
9 72 90
18 84 93
49 197 113
66 186 120
84 174 126
103 163 132
123 150 136
143 138 139
163 125 141
182 113 141
199 100 140
215 88 137
228 76 134
239 65 129
247 54 123
253 44 118
254 35 112
253 27 106
249 20 102
242 13 97
231 8 94
218 4 91
203 1 90
186 0 89
168 0 89
148 0 89
128 3 90
108 6 91
88 11 91
70 16 92
53 23 92
37 31 92
24 39 91
14 49 91
6 59 90
1 70 89
0 82 89
1 94 89
6 106 90
14 119 93
24 131 97
37 144 103
53 156 110
70 168 119
89 180 130
108 191 142
128 202 155
148 212 169
168 221 184
186 229 198
203 236 212
219 242 224
231 247 235
242 250 244
249 253 250
253 254 254
254 254 254
252 253 252
247 251 248
239 247 240
228 242 230
215 237 219
199 230 206
182 222 192
163 213 178
143 203 163
123 192 150
103 181 137
84 170 125
65 158 115
49 145 107
34 133 100
21 120 95
11 108 92
4 95 90
0 83 89
0 72 89
2 61 89
8 50 90
16 41 90
27 32 91
41 24 91
57 17 91
75 11 91
93 6 90
113 3 90
133 1 89
153 0 89
173 0 89
191 1 90
207 4 91
222 8 93
234 13 97
244 19 101
250 26 106
254 34 111
254 43 117
251 53 123
246 64 129
237 75 134
225 87 139
211 99 142
195 111 144
177 124 145
158 136 144
138 149 142
118 161 138
98 173 132
79 185 126
61 196 119
45 206 113
30 215 106
18 224 100
9 232 95
3 238 91
0 244 89
0 248 89
3 252 91
9 254 95
19 254 101
30 254 109
45 252 118
61 250 128
79 245 139
98 240 149
118 234 160
138 226 169
158 218 177
177 209 184
195 199 188
211 188 191
225 177 191
237 165 189
246 153 185
252 140 179
254 128 172
254 115 164
250 103 155
244 90 145
234 79 136
222 67 127
207 56 119
191 46 112
173 37 105
153 28 100
133 21 96
113 14 93
93 9 91
74 5 90
57 2 89
41 0 89
27 0 89
16 0 89
7 2 89
2 5 89
0 10 89
0 15 89
4 22 89
11 29 90
21 38 91
34 47 93
49 57 96
90 219 139
109 210 148
129 200 155
149 190 161
169 178 166
187 167 169
204 155 170
219 142 169
232 130 166
242 117 161
249 104 156
253 92 149
254 80 141
252 69 133
247 58 126
239 48 118
228 38 111
214 30 105
198 22 100
181 15 96
162 10 93
142 5 91
122 2 90
102 0 89
83 0 89
64 0 89
48 2 89
33 5 89
21 9 89
11 14 89
4 21 89
0 28 89
0 36 89
2 46 89
8 56 90
17 67 92
28 78 94
42 90 98
58 102 104
75 114 111
94 127 120
114 140 130
134 152 141
154 164 154
174 176 167
192 187 181
208 198 194
223 208 208
235 218 220
244 226 230
251 233 238
254 240 245
254 245 248
251 249 249
245 252 247
236 254 242
225 254 235
210 254 225
194 252 214
176 249 201
157 244 187
137 239 173
117 232 158
97 224 145
78 216 132
60 206 121
44 196 111
30 185 103
18 174 97
9 162 93
3 150 90
0 137 89
0 124 89
3 112 90
10 100 91
19 87 93
31 76 95
46 64 96
62 54 97
80 44 98
99 35 98
119 26 97
139 19 96
159 13 94
178 8 93
196 4 91
212 1 90
226 0 89
237 0 89
246 1 89
252 3 91
254 6 93
254 11 96
250 17 100
243 23 104
234 31 108
221 40 112
206 50 115
190 60 118
172 71 120
152 83 121
132 95 121
112 107 120
92 119 117
73 132 114
56 145 110
40 157 105
27 169 100
15 181 96
7 192 92
2 202 90
0 212 89
1 221 89
5 229 92
12 236 96
22 242 103
35 247 111
50 251 121
66 253 132
85 254 144
104 254 157
124 253 169
144 251 182
164 247 193
183 242 202
200 236 210
216 229 215
229 221 218
240 212 219
248 202 217
253 192 213
254 181 207
253 169 198
249 157 189
241 145 178
231 132 167
218 119 155
202 107 144
185 95 134
167 83 124
147 71 116
127 60 108
107 50 103
88 40 98
69 31 94
52 23 92
37 17 90
24 11 89
13 6 89
5 3 89
1 1 89
0 0 89
1 0 89
6 1 89
14 4 89
25 8 89
38 13 90
54 19 91
71 26 94
90 35 97
135 237 171
155 230 180
175 222 188
193 213 194
209 204 198
223 193 199
235 182 199
245 171 196
251 159 191
254 146 184
254 134 176
251 121 167
245 109 157
236 96 147
224 84 137
210 73 128
193 62 119
175 51 112
156 41 105
136 32 100
116 24 96
96 18 93
77 12 91
59 7 90
43 3 89
29 1 89
17 0 89
9 0 89
3 1 89
0 4 89
0 7 89
4 12 89
10 18 89
20 25 90
32 33 92
46 42 94
63 52 97
81 63 102
100 74 108
120 86 115
140 98 124
160 110 134
179 123 145
197 135 157
213 148 169
227 160 182
238 172 194
246 184 205
252 195 214
254 205 222
254 214 228
250 223 231
243 231 232
233 238 231
220 243 226
206 248 219
189 251 210
171 254 200
151 254 187
131 254 174
111 253 161
91 250 147
73 246 135
55 241 123
39 234 113
26 227 104
15 219 97
7 210 93
2 200 90
0 189 89
1 178 89
5 166 91
12 154 94
22 141 97
35 129 101
50 116 104
67 104 107
86 92 109
105 80 110
125 68 111
145 57 110
165 47 109
184 38 107
201 29 104
216 22 101
230 15 98
240 10 95
248 5 92
253 2 90
254 0 89
253 0 89
248 0 89
241 2 90
230 5 92
217 9 94
202 14 96
184 21 99
166 28 101
146 37 103
126 46 104
106 56 104
87 67 104
68 79 103
51 90 101
36 103 98
23 115 96
13 128 93
5 140 91
1 153 89
0 165 89
1 177 90
6 188 92
15 199 96
25 209 103
39 218 111
54 226 121
72 234 132
91 240 145
110 245 158
130 249 172
150 252 186
170 254 199
188 254 211
205 254 222
220 252 230
233 248 237
242 244 240
250 238 241
254 232 239
254 224 235
252 215 228
247 206 219
238 196 208
227 185 196
213 173 183
198 161 170
180 149 157
161 136 145
141 124 134
121 111 123
101 99 114
82 87 107
64 75 101
47 64 97
32 53 93
20 43 91
10 34 90
4 26 89
0 19 89
0 13 89
2 8 89
8 4 89
17 1 89
29 0 89
43 0 89
59 1 89
76 3 89
95 6 90
115 11 92
135 17 95
180 249 204
198 245 213
214 239 220
227 233 224
238 225 226
247 217 226
252 207 223
254 197 217
254 186 210
249 175 200
242 163 190
232 151 178
220 138 167
205 126 155
188 113 143
170 101 133
150 88 123
130 77 114
110 65 107
90 55 102
72 45 97
54 35 94
39 27 92
25 20 90
14 13 89
6 8 89
1 4 89
0 1 89
1 0 89
5 0 89
13 0 89
23 3 89
36 6 89
51 10 90
68 16 92
87 23 94
106 31 97
126 39 102
146 49 107
166 59 114
185 70 122
202 82 131
217 94 141
230 106 151
241 118 162
248 131 172
253 143 182
254 156 190
253 168 198
248 180 203
240 191 206
229 201 207
216 211 206
201 220 202
184 228 196
165 236 188
145 242 179
125 247 168
105 250 156
86 253 144
67 254 133
50 254 122
35 253 112
22 251 103
12 247 97
5 243 92
1 237 89
0 230 89
2 222 90
7 213 93
15 203 97
26 193 102
40 182 107
55 170 113
73 158 118
92 146 123
111 133 127
131 121 129
151 108 131
171 96 131
189 84 129
206 72 127
221 61 123
233 51 119
243 41 114
250 32 109
254 24 105
254 17 100
252 11 96
246 7 93
238 3 91
226 1 89
213 0 89
197 0 89
179 1 89
160 4 90
140 8 92
120 13 93
100 19 94
81 26 94
63 34 94
46 43 94
32 53 93
20 63 92
10 75 91
4 86 90
0 98 89
0 111 89
3 123 90
9 136 92
18 148 96
29 161 101
43 173 108
59 184 117
77 195 128
96 205 140
116 215 153
136 224 167
156 231 181
176 238 196
193 244 210
210 248 222
224 252 233
236 254 242
245 254 248
251 254 252
254 252 253
254 250 251
251 246 246
244 240 239
235 234 230
223 227 218
209 218 206
192 209 192
174 199 178
155 188 164
135 177 150
115 165 138
95 153 126
76 141 116
58 128 108
42 116 101
28 103 96
17 91 93
8 79 90
2 68 89
0 57 89
0 47 89
4 37 89
11 29 90
20 21 90
33 15 90
47 9 90
64 5 90
82 2 89
101 0 89
121 0 89
141 0 89
161 2 90
180 5 91
218 254 231
231 253 238
241 250 243
249 246 245
253 241 245
254 235 242
253 228 236
248 220 228
240 211 218
229 201 206
216 190 194
200 179 180
183 167 167
164 155 154
144 142 141
124 130 130
104 117 120
85 105 112
66 93 105
49 81 99
34 69 95
22 58 92
12 48 90
5 38 89
0 30 89
0 22 89
2 16 89
7 10 89
16 6 89
27 2 89
40 0 89
56 0 89
74 0 89
93 2 89
112 5 90
132 9 92
152 14 94
172 20 98
190 28 102
207 36 108
221 45 115
234 55 122
243 66 130
250 78 139
254 89 147
254 102 155
252 114 162
246 127 169
237 139 173
226 152 176
212 164 178
196 176 177
178 187 174
159 198 169
139 208 163
119 217 155
99 226 146
80 233 137
62 240 127
45 245 117
31 249 109
19 252 101
10 254 95
3 254 91
0 254 89
0 252 89
3 249 91
9 244 95
18 239 100
30 232 107
44 225 114
60 216 122
78 207 130
97 196 138
117 186 145
137 174 150
157 162 154
176 150 157
194 137 157
211 125 156
225 112 153
236 100 149
245 88 144
251 76 138
254 65 131
254 54 124
251 44 117
244 35 111
235 27 105
222 19 100
208 13 96
191 8 93
173 4 91
154 1 89
134 0 89
114 0 89
94 1 89
75 3 89
58 6 90
42 11 90
28 16 90
16 23 90
8 31 89
2 40 89
0 49 89
0 60 89
4 71 90
11 82 91
21 94 94
33 107 98
48 119 104
65 132 111
83 144 120
102 157 130
122 169 142
143 180 155
162 192 168
181 202 182
199 212 197
214 221 210
228 229 222
239 236 233
247 242 242
252 247 248
254 251 252
253 253 253
249 254 251
242 254 246
232 253 239
219 251 229
204 247 218
187 242 205
169 236 191
149 229 176
129 221 162
109 212 148
89 203 135
71 192 124
53 181 114
38 169 105
25 157 99
14 145 94
6 132 91
1 120 89
0 107 89
1 95 89
6 83 90
13 71 91
24 60 92
37 50 94
52 40 94
69 31 94
88 24 94
107 17 93
127 11 92
147 6 91
167 3 90
186 1 89
203 0 89
218 0 89
244 253 246
250 254 252
254 254 254
254 253 254
251 251 250
246 248 244
237 243 236
225 237 225
211 230 213
195 223 200
177 214 186
158 204 171
138 194 157
118 183 144
98 171 132
79 159 121
61 147 112
45 134 104
30 122 98
18 109 94
9 97 91
3 85 90
0 73 89
0 62 89
3 51 89
9 42 90
19 33 90
31 25 91
45 18 91
61 12 91
79 7 90
98 3 90
118 1 89
139 0 89
158 0 89
177 1 89
195 3 91
211 7 93
225 12 96
237 18 100
246 25 105
252 33 110
254 42 116
254 52 123
250 62 129
244 74 135
234 85 140
222 97 144
207 110 147
191 122 149
172 135 148
153 147 147
133 160 143
113 172 139
93 183 133
74 194 126
57 205 119
41 214 111
27 223 104
16 231 98
7 238 94
2 243 90
0 248 89
0 251 89
4 253 92
11 254 97
21 254 103
34 253 111
49 250 120
66 246 130
84 241 141
103 235 151
123 227 161
144 219 169
163 210 177
182 200 182
199 189 186
215 178 187
228 166 186
239 154 183
247 142 179
253 129 172
254 117 165
253 104 156
249 92 147
241 80 138
231 68 129
218 58 121
203 47 114
186 38 107
168 29 102
148 22 97
128 15 94
108 10 92
88 5 90
70 2 89
53 0 89
37 0 89
24 0 89
13 2 89
6 5 89
1 9 89
0 14 89
1 21 89
6 28 89
14 37 90
24 46 92
37 56 94
53 67 98
70 78 103
89 90 109
108 102 117
128 115 127
149 127 137
168 140 149
187 152 162
204 165 175
219 176 188
231 188 200
242 199 212
249 209 222
253 218 230
254 226 236
252 234 240
247 240 241
239 245 239
228 249 234
215 252 227
199 254 218
182 254 207
163 254 195
143 252 181
123 248 167
103 244 153
84 238 140
65 232 128
48 224 117
34 216 108
21 206 100
11 196 95
4 185 91
0 173 89
0 162 89
2 149 90
8 137 92
16 124 94
27 112 97
41 99 99
57 87 102
75 75 103
94 64 104
113 53 104
133 44 104
153 34 102
173 26 101
191 19 98
207 13 96
222 8 93
234 4 91
244 1 90
254 245 248
254 249 250
250 252 250
243 254 247
233 254 241
221 254 232
206 252 222
190 249 210
171 245 196
152 239 182
132 233 168
112 225 153
92 217 140
73 208 128
56 197 117
40 187 108
26 175 101
15 163 95
7 151 92
2 139 90
0 126 89
1 113 89
5 101 90
12 89 92
22 77 93
35 66 95
50 55 96
67 45 97
85 36 97
104 27 96
124 20 95
145 14 94
164 8 93
183 4 91
200 2 90
216 0 89
229 0 89
240 0 89
248 2 91
253 6 93
254 10 96
253 16 99
249 23 103
241 30 108
231 39 112
218 48 116
202 59 119
185 70 122
167 81 124
147 93 124
127 105 123
107 118 121
87 131 118
69 143 114
52 156 109
36 168 105
23 179 100
13 191 95
5 201 92
1 211 90
0 220 89
1 228 90
6 235 93
14 241 98
25 246 105
38 250 113
54 253 124
71 254 135
90 254 147
109 253 160
129 251 172
150 247 184
169 243 194
187 237 202
204 230 209
219 222 213
232 213 215
242 204 215
249 193 212
253 182 207
254 170 200
252 158 191
247 146 181
239 134 170
228 121 159
214 108 148
198 96 138
181 84 128
162 72 119
142 61 111
122 51 105
102 41 100
83 32 96
64 24 93
48 17 91
33 11 90
21 7 89
11 3 89
4 1 89
0 0 89
0 0 89
2 1 89
8 4 89
17 7 89
28 12 90
42 18 91
58 26 93
76 34 95
95 43 99
114 52 104
135 63 111
154 74 118
174 86 127
192 98 137
208 110 148
223 123 159
235 136 170
244 148 181
251 160 192
254 172 201
254 184 208
251 195 214
245 205 218
236 215 219
224 223 217
210 231 213
194 238 207
176 244 199
157 248 189
137 251 177
117 254 165
97 254 152
78 254 140
60 253 128
44 250 117
30 246 108
18 241 100
9 234 94
3 227 91
0 219 89
0 209 89
3 199 91
10 189 94
19 177 98
31 166 102
46 153 107
62 141 111
80 128 115
99 116 118
119 103 121
140 91 121
159 79 121
178 68 120
196 57 118
212 47 114
226 37 111
237 29 107
246 21 102
252 15 99
254 9 95
248 230 235
241 237 235
230 243 232
217 248 226
202 251 218
184 253 208
166 254 197
146 254 184
126 253 170
106 250 157
86 246 143
68 241 131
51 235 120
36 228 110
23 220 102
13 211 96
5 201 92
1 190 89
0 179 89
1 167 90
7 155 92
15 143 94
26 130 97
39 118 101
55 105 104
72 93 106
91 81 108
110 69 109
131 59 108
151 48 108
170 39 106
188 30 103
205 22 101
220 16 98
233 10 95
243 6 93
250 2 91
254 0 89
254 0 89
252 0 89
247 2 90
238 4 92
227 9 94
213 14 97
197 20 99
180 28 102
161 36 104
141 45 105
121 55 106
101 66 106
82 77 105
63 89 103
47 101 101
32 114 98
20 126 95
10 139 93
4 151 90
0 164 89
0 175 89
2 187 90
8 198 93
17 208 98
29 217 105
43 226 114
59 233 124
77 239 136
96 245 149
115 249 163
136 252 176
155 254 190
175 254 203
193 254 214
209 252 224
223 249 231
235 244 236
245 239 238
251 232 238
254 225 235
254 216 229
251 207 222
245 197 212
236 186 201
224 174 189
209 163 176
193 150 163
175 138 151
156 125 139
136 113 128
116 100 119
96 88 111
77 76 104
59 65 99
43 54 95
29 44 92
17 35 90
8 27 89
3 20 89
0 13 89
0 8 89
4 4 89
10 1 89
20 0 89
32 0 89
46 0 89
63 3 89
81 6 90
100 11 92
120 16 94
141 23 97
160 31 102
179 39 107
197 49 114
213 59 121
227 70 130
238 82 139
246 94 148
252 106 157
254 119 166
254 131 174
250 144 181
243 156 186
233 168 189
220 180 190
206 191 189
189 202 186
170 212 181
151 221 174
131 229 166
111 236 156
91 242 145
72 247 135
55 250 124
39 253 114
26 254 106
15 254 99
7 253 93
2 251 90
0 247 89
1 242 89
5 237 92
12 230 96
23 222 102
35 213 108
50 203 115
67 192 122
86 181 129
105 170 135
125 158 140
146 145 143
165 133 145
184 120 145
201 108 144
217 95 142
230 83 138
240 72 133
248 61 128
253 50 122
254 41 115
253 32 110
248 24 104
226 210 211
212 219 208
197 228 203
179 235 196
160 241 187
140 246 177
120 250 166
100 253 154
81 254 141
63 254 130
46 253 119
32 251 109
19 248 101
10 243 95
3 237 91
0 231 89
0 223 89
3 214 90
9 204 94
18 194 98
29 183 103
43 171 108
60 159 113
77 147 118
97 135 122
116 122 125
137 109 127
156 97 128
176 85 127
194 73 125
210 62 122
224 52 119
236 42 114
245 33 110
251 25 105
254 18 101
254 12 97
251 7 94
244 3 91
235 1 90
223 0 89
209 0 89
192 1 89
174 3 90
155 7 92
135 12 93
115 18 94
95 25 95
76 33 95
58 42 95
42 52 94
28 62 93
17 73 92
8 85 91
2 97 89
0 109 89
0 122 89
4 135 90
11 147 93
20 159 97
33 171 103
47 183 111
64 194 121
82 204 132
102 214 145
121 223 158
142 231 172
161 237 187
180 243 201
198 248 214
214 251 226
227 253 236
238 254 244
247 254 249
252 253 252
254 250 252
254 246 248
249 241 243
242 235 234
232 228 224
220 219 212
205 210 199
188 200 185
169 190 171
150 178 157
130 167 144
110 155 132
90 142 122
71 130 113
54 117 105
39 104 99
25 92 95
14 80 92
6 69 90
1 58 89
0 48 89
1 38 89
5 30 89
13 22 90
23 15 90
36 10 90
51 5 90
68 2 89
87 0 89
106 0 89
127 0 89
147 2 90
166 5 91
185 9 93
202 14 96
217 21 100
230 28 105
241 36 111
248 46 118
253 56 125
254 67 132
253 78 139
248 90 146
240 102 152
229 114 156
216 127 159
201 140 161
183 152 160
165 164 158
145 176 154
125 187 149
105 198 142
85 208 134
67 218 126
50 226 118
35 233 110
22 240 103
12 245 97
5 249 92
1 252 89
0 254 89
2 254 90
7 254 94
15 252 99
26 249 106
40 244 114
55 239 123
73 232 132
92 224 142
111 216 150
132 206 158
152 196 165
171 185 170
189 174 173
206 162 174
221 150 173
233 137 171
243 125 166
250 112 161
254 100 154
254 87 146
252 76 138
246 64 130
238 54 122
226 44 114
191 186 180
173 197 176
154 207 170
134 216 163
114 225 154
94 232 145
75 239 135
57 244 125
41 249 115
28 252 107
16 254 100
8 254 94
2 254 90
0 252 89
0 249 89
4 245 92
11 240 96
21 233 101
33 226 108
48 217 116
65 208 123
83 198 131
103 187 138
123 175 144
143 164 149
162 151 152
181 139 153
199 126 153
214 114 151
228 101 148
239 89 143
247 77 138
252 66 132
254 55 125
253 45 118
249 36 112
242 28 106
232 20 101
219 14 97
204 9 93
187 5 91
168 2 90
149 0 89
129 0 89
109 0 89
89 2 89
71 6 90
53 10 90
38 16 90
25 22 90
14 30 90
6 39 89
1 48 89
0 58 89
1 69 89
6 81 90
13 93 92
24 105 95
37 118 100
52 130 106
69 143 114
88 155 124
107 167 135
128 179 147
148 190 161
167 201 175
186 211 189
203 220 203
218 228 216
231 235 228
241 241 238
249 246 246
253 250 251
254 253 253
253 254 253
248 254 250
240 253 244
229 251 236
215 248 225
200 243 213
182 237 200
164 230 185
144 222 171
124 213 157
104 204 143
84 193 131
66 182 120
49 171 110
34 159 103
22 146 97
12 134 93
5 121 90
0 109 89
0 96 89
2 84 89
7 73 90
16 62 91
27 51 92
40 41 93
56 32 94
74 24 93
93 18 93
112 12 92
133 7 91
153 3 90
172 1 89
190 0 89
207 0 89
221 1 90
234 4 91
243 7 94
250 12 97
254 18 101
254 25 106
252 33 111
246 42 116
237 52 121
226 63 125
212 74 129
196 86 132
178 98 133
159 110 134
139 123 133
119 135 130
99 148 126
80 160 122
62 172 116
45 184 110
31 195 104
19 205 99
10 214 94
3 223 91
0 231 89
0 238 89
3 243 91
9 248 95
18 251 101
30 254 108
44 254 118
60 254 128
78 253 140
98 250 151
117 246 163
138 241 174
157 234 183
177 227 192
194 219 198
211 210 202
225 200 204
236 189 203
245 178 200
251 166 196
254 154 189
254 141 181
250 129 172
244 116 162
235 104 151
222 92 141
208 80 131
191 68 122
148 158 149
128 170 145
108 182 139
88 193 133
70 203 125
52 213 118
37 222 110
24 230 103
13 237 97
6 243 93
1 247 90
0 251 89
1 253 90
6 254 93
14 254 98
24 253 105
38 250 113
53 246 122
70 242 132
89 235 142
109 228 152
129 220 161
149 211 169
168 201 175
187 191 180
204 179 182
219 168 183
232 156 181
242 143 177
249 131 172
253 118 165
254 106 158
252 93 149
247 81 140
239 70 132
228 59 123
215 49 116
199 39 109
182 30 103
163 23 98
143 16 95
123 10 92
103 6 90
83 2 89
65 0 89
48 0 89
34 0 89
21 2 89
11 4 89
4 8 89
0 14 89
0 20 89
2 27 89
8 36 89
16 45 91
27 55 93
41 66 96
57 77 100
75 89 106
94 101 113
114 113 122
134 126 132
154 138 143
173 151 156
191 163 169
208 175 182
222 186 195
234 197 207
244 207 218
250 217 228
254 225 235
254 233 240
251 239 243
245 245 243
237 249 240
225 252 234
211 254 226
195 254 216
177 254 204
158 252 191
138 249 177
118 245 163
98 239 149
79 233 136
61 225 124
44 217 114
30 207 105
18 197 98
9 186 93
3 175 90
0 163 89
0 151 89
3 138 90
9 126 92
19 113 94
31 101 97
45 88 99
61 77 101
79 65 102
99 55 103
119 45 102
139 35 101
158 27 100
178 20 98
195 14 96
211 8 94
225 4 92
237 1 90
246 0 89
252 0 89
254 0 89
254 3 91
250 6 93
244 10 96
234 16 99
222 23 102
207 31 105
190 39 108
172 49 110
153 59 112
133 70 113
113 82 112
93 94 111
74 106 109
57 118 106
41 131 103
27 143 99
16 156 95
7 168 92
2 180 90
0 191 89
0 201 89
4 211 91
11 220 96
21 228 102
34 236 110
49 242 119
66 247 130
84 250 143
104 253 156
124 254 169
144 254 182
163 253 195
182 251 206
200 247 215
215 243 222
229 237 227
239 230 230
247 222 229
253 213 226
254 203 221
253 193 214
249 182 205
241 170 194
231 158 182
218 146 170
203 133 158
186 121 146
168 108 135
148 96 125
102 129 123
83 142 119
64 154 114
48 166 109
33 178 104
20 189 99
11 200 95
4 210 91
0 219 89
0 227 89
2 235 90
8 241 94
17 246 100
28 250 107
42 253 116
58 254 127
76 254 138
95 254 150
115 251 163
135 248 174
155 243 185
174 238 195
192 231 202
208 223 208
223 214 211
235 205 212
244 194 210
251 183 206
254 172 201
254 160 193
251 147 184
245 135 174
236 122 163
224 110 152
210 97 141
194 85 131
176 74 122
157 63 114
137 52 107
117 42 102
97 33 97
78 25 94
60 18 92
44 12 90
30 7 89
18 3 89
9 1 89
3 0 89
0 0 89
0 1 89
3 3 89
10 7 89
19 12 89
31 18 90
46 25 92
62 33 94
80 42 97
100 51 102
120 62 108
140 73 115
159 85 123
178 97 133
196 109 144
212 122 155
226 134 167
237 147 178
246 159 189
252 171 199
254 183 208
254 194 215
250 204 219
243 214 222
233 222 222
221 230 219
206 237 214
190 243 207
171 248 197
152 251 187
132 253 174
112 254 162
92 254 149
73 253 136
56 250 125
40 246 114
26 241 105
15 235 98
7 228 93
2 220 90
0 211 89
1 201 89
5 190 91
12 179 94
22 167 98
35 155 103
50 142 107
67 130 111
85 117 114
105 105 117
125 93 118
145 81 119
164 69 118
183 58 116
200 48 114
216 38 110
229 30 107
240 22 103
248 16 99
253 10 96
254 6 93
253 2 91
249 0 89
241 0 89
231 0 89
218 2 90
202 5 91
185 9 93
167 14 95
147 20 97
127 28 98
107 36 99
87 45 99
69 55 99
52 66 98
36 78 96
23 89 94
13 102 92
5 114 90
1 127 89
0 139 89
1 152 89
6 164 92
14 176 95
25 187 101
38 198 108
54 208 118
71 217 129
90 226 141
110 233 154
130 240 168
150 245 183
169 249 197
188 252 210
204 254 222
219 254 232
232 254 240
242 252 245
249 249 247
253 244 247
254 239 244
252 232 239
247 225 231
239 216 221
228 207 209
214 196 196
198 186 183
181 174 169
162 162 156
142 150 143
122 137 132
102 125 121
59 100 104
43 112 101
29 125 98
17 137 95
8 150 92
3 162 90
0 174 89
0 185 89
4 196 91
10 207 94
20 216 100
32 225 107
47 232 117
63 239 128
81 244 140
101 249 153
121 252 167
141 254 180
160 254 193
179 254 205
197 252 216
213 249 225
227 245 231
238 240 235
246 233 236
252 226 234
254 217 230
254 208 224
250 198 215
243 187 205
233 176 194
220 164 181
205 152 169
189 139 156
170 127 144
151 114 133
131 102 123
111 89 114
91 78 107
72 66 101
55 56 97
39 45 93
26 36 91
15 28 90
7 20 89
2 14 89
0 9 89
1 5 89
5 2 89
12 0 89
23 0 89
35 0 89
51 2 89
68 6 90
86 10 91
106 15 93
126 22 96
146 30 100
165 38 105
184 48 112
201 58 119
217 69 127
230 81 136
240 92 146
248 105 155
253 117 165
254 130 173
253 142 181
248 155 187
240 167 192
230 179 194
217 190 194
201 201 192
184 210 188
166 220 182
146 228 174
126 235 165
106 241 154
86 246 143
68 250 132
51 253 122
36 254 112
23 254 104
12 253 97
5 251 92
1 248 90
0 243 89
1 237 90
7 230 93
15 223 97
26 214 103
39 204 109
55 194 116
72 183 123
91 171 129
111 159 134
131 147 138
151 134 141
170 122 142
188 109 142
205 97 140
220 85 137
233 73 132
243 62 127
250 51 122
254 42 116
254 33 110
252 25 105
247 18 100
238 12 96
227 7 93
213 3 91
197 1 89
180 0 89
161 0 89
141 1 89
121 3 90
101 7 91
82 12 91
63 18 92
47 25 92
32 33 92
20 42 91
10 52 90
4 62 89
0 74 89
0 85 89
2 97 89
8 110 91
17 122 94
29 135 99
43 147 105
59 160 113
77 172 123
96 183 134
116 194 146
136 205 160
156 214 174
175 223 189
193 231 203
209 238 216
224 243 228
235 248 238
245 251 246
251 253 252
254 254 254
254 254 254
251 253 251
245 250 245
236 246 237
224 241 227
209 235 215
193 227 201
175 219 187
156 210 173
136 200 158
116 189 145
96 178 133
77 166 122
59 154 112
25 72 93
14 84 92
6 96 90
1 108 89
0 120 89
1 133 89
5 146 91
13 158 94
23 170 99
36 182 106
51 193 114
68 203 125
87 213 136
107 222 149
127 230 163
147 237 178
166 243 192
185 247 206
202 251 219
217 253 230
230 254 239
241 254 245
248 253 250
253 250 251
254 247 249
253 242 245
248 236 238
240 228 229
229 220 218
216 211 206
201 202 192
183 191 178
165 180 165
145 168 151
125 156 139
105 144 127
85 131 118
67 118 109
50 106 102
35 94 97
22 82 93
12 70 91
5 59 90
1 49 89
0 39 89
2 31 89
7 23 89
15 16 89
26 10 89
40 6 89
55 3 89
73 0 89
92 0 89
112 0 89
132 1 89
152 4 91
171 8 93
189 13 96
206 20 99
221 27 104
233 35 110
243 45 117
250 55 124
254 65 131
254 77 139
252 88 146
246 101 152
238 113 158
226 126 162
212 138 164
196 151 165
179 163 163
160 175 160
140 186 156
120 197 149
100 207 142
81 217 134
62 225 125
46 233 116
31 239 108
19 245 101
10 249 95
3 252 91
0 254 89
0 254 89
3 254 91
9 252 95
18 249 100
29 245 107
44 239 116
60 233 125
78 225 134
97 217 143
117 208 151
137 197 158
157 187 164
176 175 168
194 163 170
210 151 170
224 139 168
236 126 165
245 113 160
251 101 154
254 89 147
254 77 139
251 66 131
244 55 123
235 45 116
223 36 109
209 27 104
192 20 99
174 14 95
155 8 92
135 4 90
115 2 89
95 0 89
76 0 89
58 0 89
42 2 89
28 6 89
17 10 89
8 16 89
2 23 89
0 30 89
0 39 89
4 48 89
11 59 90
20 70 92
33 81 96
47 93 100
64 105 106
82 118 114
102 131 123
122 143 133
142 155 145
161 168 158
180 179 172
198 191 185
214 201 199
227 211 212
238 220 223
247 228 233
252 235 241
254 241 246
253 246 249
249 250 248
242 253 246
232 254 240
220 254 232
205 253 221
188 251 209
169 247 196
150 243 182
130 237 168
110 230 154
90 222 140
71 213 128
54 204 117
38 193 108
25 182 101
5 47 89
0 57 89
0 68 89
2 80 89
7 91 91
16 104 93
27 116 97
41 129 102
56 141 109
74 154 118
93 166 128
113 178 140
133 189 153
153 200 167
172 210 181
190 219 195
207 227 209
222 234 222
234 241 233
243 246 242
250 250 249
254 253 253
254 254 254
252 254 253
246 254 248
237 251 241
226 248 232
212 243 221
196 238 208
178 231 194
159 223 180
139 215 165
119 205 151
99 195 138
80 184 126
62 172 116
45 160 107
31 148 101
19 135 95
10 123 92
3 110 90
0 98 89
0 86 89
3 74 89
9 63 90
18 52 91
30 42 92
44 33 93
61 25 93
79 18 93
98 12 92
118 7 91
138 4 90
158 1 89
177 0 89
195 0 89
211 1 89
225 3 91
236 7 93
245 12 96
251 17 100
254 24 105
254 32 110
250 41 115
244 51 121
234 61 126
222 73 130
208 84 134
191 96 136
173 109 137
154 121 137
134 134 135
114 146 131
94 159 127
75 171 122
57 182 116
41 193 109
28 204 103
16 213 98
8 222 93
2 230 90
0 237 89
0 243 89
4 248 92
11 251 96
21 253 103
33 254 111
48 254 120
65 253 131
83 250 142
103 246 154
123 241 165
143 235 175
162 228 184
181 220 191
199 211 196
214 201 199
228 190 200
239 179 198
247 167 195
252 155 189
254 143 182
253 130 173
249 118 164
242 105 154
232 93 144
219 81 134
204 69 125
187 59 117
168 48 110
149 39 104
129 30 99
109 22 95
89 16 92
70 10 91
53 6 90
38 2 89
24 0 89
14 0 89
6 0 89
1 2 89
0 4 89
1 9 89
6 14 89
13 20 89
24 28 90
37 36 92
52 45 95
69 55 99
88 66 104
108 77 110
128 89 118
148 101 127
167 114 138
186 126 149
203 139 161
218 151 173
231 163 186
241 175 197
249 187 208
253 198 217
254 208 224
253 217 229
248 226 232
240 233 232
229 239 229
215 245 224
200 249 216
182 252 206
164 254 195
144 254 183
124 254 169
104 252 156
84 249 143
66 244 130
49 239 119
34 232 109
22 225 101
12 216 95
5 207 91
0 26 89
3 35 89
10 44 90
19 54 91
31 64 94
45 76 98
61 87 103
80 99 109
99 112 117
119 124 127
139 137 138
159 149 150
178 162 162
195 174 176
212 185 189
226 196 202
237 206 214
246 216 225
252 224 233
254 232 240
254 239 244
250 244 245
243 249 244
234 252 239
222 254 233
207 254 224
190 254 213
172 252 200
153 249 186
133 245 172
113 240 158
93 233 144
74 226 132
56 218 120
41 208 111
27 198 103
16 188 97
7 176 92
2 164 90
0 152 89
0 140 89
4 127 90
12 114 92
22 102 95
34 90 97
49 78 99
66 67 100
84 56 101
104 46 101
124 36 100
144 28 99
163 21 98
182 14 96
200 9 94
215 5 92
229 2 90
239 0 89
248 0 89
253 0 89
254 2 91
253 5 93
249 10 95
241 15 98
231 22 102
218 30 106
203 38 109
186 48 112
167 58 114
148 69 115
128 80 115
108 92 114
88 104 112
69 117 110
52 129 106
37 142 102
24 154 98
13 167 95
6 178 92
1 190 89
0 200 89
1 210 90
6 219 92
14 228 97
24 235 104
38 241 112
53 246 122
70 250 134
89 253 147
109 254 160
129 254 173
149 253 185
168 251 197
187 248 207
204 243 216
219 237 222
232 231 225
242 223 227
249 214 225
253 204 221
254 194 215
252 183 207
247 171 197
239 159 186
228 147 175
215 135 163
199 122 151
181 109 140
163 97 129
143 85 120
123 73 112
103 62 105
83 52 100
65 42 96
48 33 93
33 25 91
21 18 90
11 12 89
4 7 89
0 3 89
0 1 89
2 0 89
8 0 89
16 1 89
27 3 89
41 7 90
57 12 91
75 18 92
94 25 95
114 33 98
134 42 103
154 52 109
173 62 116
191 73 125
208 85 134
222 97 144
234 109 155
244 122 165
250 134 175
254 147 184
254 159 193
251 171 199
245 183 204
237 194 206
225 204 206
211 214 204
195 223 200
177 231 193
158 237 185
138 243 175
118 248 164
98 251 152
79 253 140
61 254 129
44 254 118
30 253 109
18 250 101
9 246 95
3 241 91
0 235 89
0 228 89
12 11 89
22 17 90
35 24 91
50 32 93
67 40 96
85 50 100
105 61 105
125 72 112
145 83 120
164 95 129
183 108 139
200 120 151
216 133 162
229 145 174
240 158 186
248 170 196
253 181 206
254 192 214
253 203 220
248 213 224
241 222 225
230 229 224
217 236 220
202 242 214
185 247 206
166 251 196
147 253 184
127 254 171
107 254 158
87 253 145
69 250 133
51 247 121
36 242 111
23 236 103
13 229 97
5 221 92
1 212 89
0 202 89
1 191 90
6 180 92
14 168 95
25 156 99
38 144 103
54 131 107
71 119 111
90 106 113
110 94 115
130 82 116
150 70 116
169 59 115
188 49 113
205 40 110
220 31 106
232 23 103
242 16 99
249 11 96
253 6 93
254 3 91
252 0 89
247 0 89
239 0 89
227 1 90
214 4 91
198 8 93
180 13 95
162 20 97
142 27 99
122 35 100
102 44 100
82 54 100
64 65 100
47 76 98
33 88 96
20 100 94
11 113 92
4 125 90
0 138 89
0 150 89
2 162 90
8 174 93
17 186 97
28 197 103
42 207 111
58 216 121
76 225 133
95 232 145
115 239 159
135 244 173
155 249 187
174 252 201
192 254 214
208 254 225
223 254 234
235 252 240
244 249 244
251 245 246
254 240 244
254 233 240
251 226 234
245 217 225
236 208 214
224 198 202
210 187 189
194 175 176
176 164 163
157 151 150
137 139 138
117 126 127
97 114 117
78 101 109
60 89 103
44 77 97
29 66 94
18 55 91
9 45 90
3 36 89
0 28 89
0 20 89
3 14 89
10 9 89
19 5 89
31 2 89
46 0 89
62 0 89
80 0 89
100 2 89
120 6 91
140 10 93
160 16 95
179 22 99
196 30 104
212 39 110
226 48 117
238 58 125
246 69 133
252 81 141
254 93 149
254 105 157
250 118 164
243 130 170
233 143 174
221 155 177
206 167 177
189 179 176
171 190 172
152 201 167
132 211 160
112 220 152
92 228 143
73 235 133
56 241 123
40 246 114
26 250 106
15 253 99
7 254 94
2 254 90
0 253 89
1 251 89
5 248 92
12 243 97
39 2 89
55 5 90
72 9 91
91 15 92
111 21 95
131 29 99
151 37 103
170 47 109
189 57 116
205 68 125
220 79 134
233 91 143
243 103 153
250 116 163
254 128 172
254 141 181
252 153 188
247 166 193
238 177 197
227 189 198
213 199 198
197 209 194
180 219 189
161 227 182
141 234 173
121 240 163
101 246 152
81 250 141
63 253 130
47 254 119
32 254 110
20 254 102
10 251 96
4 248 91
0 244 89
0 238 89
3 231 91
8 224 94
17 215 98
29 205 104
43 195 110
59 184 117
77 172 123
96 161 128
116 148 133
136 136 136
156 123 138
175 111 138
193 98 137
209 86 135
224 74 132
235 63 127
245 53 122
251 43 116
254 34 111
254 26 106
251 18 101
245 12 97
235 7 94
224 4 91
209 1 90
193 0 89
175 0 89
156 1 89
136 3 90
116 7 91
96 11 92
77 17 92
59 24 92
43 32 92
29 41 92
17 51 91
8 61 90
2 72 89
0 84 89
0 96 89
4 108 90
10 121 92
20 133 96
32 146 101
47 158 108
63 170 117
81 182 127
101 193 139
121 203 152
141 213 166
161 222 180
180 230 195
197 237 208
213 243 221
227 247 232
238 251 242
247 253 249
252 254 253
254 254 254
254 253 253
250 250 249
243 246 242
233 242 233
220 235 221
205 228 209
189 220 195
170 211 181
151 201 167
131 191 153
111 179 140
91 168 128
72 156 118
55 143 109
39 131 102
26 118 97
15 106 93
7 93 90
2 81 89
0 70 89
1 59 89
5 49 89
12 39 90
23 30 91
36 23 91
51 16 91
68 10 91
86 6 90
106 2 90
126 0 89
146 0 89
165 0 89
184 2 90
201 4 91
217 8 94
230 14 97
240 20 101
248 27 106
253 36 112
255 45 118
253 55 124
248 66 131
240 77 136
230 89 141
217 101 145
201 113 147
184 126 148
165 138 148
146 151 145
126 163 141
106 175 136
86 186 130
68 197 123
51 207 116
36 217 109
23 225 102
12 233 96
5 239 92
1 245 90
0 249 89
2 252 90
7 254 93
15 254 99
26 254 106
39 252 114
78 0 89
97 0 89
117 1 89
137 4 90
157 8 92
176 13 95
194 19 98
210 26 103
224 34 109
236 43 115
245 53 122
251 64 130
254 75 138
254 87 145
251 99 153
244 111 159
235 124 163
223 137 167
208 149 168
192 161 168
174 173 166
155 185 162
135 196 156
115 206 149
95 215 141
76 224 132
58 232 123
42 238 115
28 244 107
17 248 100
8 252 94
2 254 91
0 254 89
0 254 89
4 252 92
11 249 96
20 245 102
33 240 109
47 234 117
64 226 126
82 218 135
102 209 143
122 199 151
142 188 157
162 176 162
181 165 165
198 152 166
214 140 166
227 127 163
239 115 159
247 102 154
252 90 147
254 78 140
253 67 132
249 56 125
242 46 118
232 37 111
220 28 105
205 21 100
188 14 96
169 9 93
150 5 91
130 2 90
110 0 89
90 0 89
71 0 89
54 2 89
38 5 89
25 10 89
14 15 89
6 22 89
1 29 89
0 38 89
1 47 89
5 58 90
13 68 91
23 80 94
36 92 97
51 104 103
69 116 109
87 129 118
107 142 128
127 154 139
147 166 151
166 178 165
185 189 178
202 200 192
217 210 206
230 219 218
241 227 229
249 235 238
253 241 245
254 246 249
253 250 250
248 253 249
240 254 245
229 254 238
216 254 229
200 251 218
183 248 205
164 243 191
145 238 177
125 231 163
105 223 149
85 214 136
67 205 124
50 194 114
35 183 105
22 172 99
12 160 94
5 148 91
1 135 89
0 122 89
2 110 89
7 97 91
15 85 92
26 74 94
40 63 95
56 52 96
73 42 97
92 33 97
112 25 96
132 18 95
152 12 94
171 7 92
189 3 91
206 1 90
221 0 89
233 0 89
243 1 90
250 3 91
254 7 94
254 12 97
252 18 100
246 25 105
238 33 109
226 42 113
212 51 117
196 62 120
179 73 122
160 85 123
140 97 123
120 109 122
100 122 120
80 134 117
62 147 112
46 159 108
31 171 103
19 183 98
10 194 94
3 204 91
0 214 89
0 222 89
3 230 91
9 237 94
18 243 100
29 248 108
44 251 117
60 253 128
78 254 140
123 4 90
143 1 89
163 0 89
181 0 89
199 1 89
215 3 91
228 6 93
239 11 96
247 17 100
252 24 104
254 31 110
253 40 115
249 50 121
242 60 126
232 71 131
219 83 135
204 95 138
187 107 140
168 120 140
149 132 139
129 145 137
109 157 133
89 169 127
70 181 121
53 192 115
38 203 108
24 212 102
14 221 97
6 229 93
1 236 90
0 242 89
1 247 90
6 251 93
13 253 98
24 254 105
37 254 113
52 253 123
70 251 134
88 247 145
108 242 156
128 236 166
148 229 176
167 221 184
186 212 190
203 202 194
218 192 196
231 180 196
241 169 193
249 157 189
253 144 182
254 132 175
253 119 166
248 107 156
239 94 147
229 82 137
215 71 128
200 60 119
182 49 112
163 40 106
144 31 100
124 23 96
104 16 93
84 11 91
66 6 90
49 3 89
34 1 89
21 0 89
12 0 89
4 1 89
0 4 89
0 8 89
2 13 89
7 19 89
16 27 90
27 35 91
41 44 93
56 54 97
74 65 101
93 76 107
113 88 114
133 100 123
153 112 133
172 125 144
190 137 156
207 150 168
222 162 181
234 174 193
244 185 204
250 196 215
254 207 223
254 216 229
252 225 233
246 232 235
237 239 234
225 244 230
212 249 223
195 252 215
178 254 204
159 254 192
139 254 179
119 252 165
99 249 152
79 245 139
61 240 127
45 233 116
31 226 107
19 217 99
9 208 94
3 198 91
0 187 89
0 176 89
3 164 90
9 152 92
18 139 95
30 127 99
44 114 102
61 102 105
79 89 107
98 78 108
118 66 109
138 56 109
158 45 107
177 36 105
195 28 103
211 20 100
225 14 97
237 9 94
245 5 92
251 2 90
254 0 89
254 0 89
250 0 89
244 2 90
234 6 92
222 10 95
208 15 97
191 22 100
173 30 102
154 38 104
134 48 105
114 58 106
94 69 105
75 81 104
57 92 102
41 105 100
27 117 97
16 130 94
8 142 92
2 155 90
0 167 89
0 179 89
4 190 91
11 201 95
21 210 100
33 220 108
48 228 117
65 235 128
83 241 140
103 246 154
123 250 167
168 15 95
187 9 93
204 5 92
219 2 90
232 0 89
242 0 89
249 0 89
253 2 90
254 5 92
252 9 95
247 15 98
239 21 102
228 29 106
214 37 109
199 46 113
181 57 115
162 67 117
143 79 118
123 91 117
103 103 116
83 115 113
65 128 110
48 141 106
33 153 102
21 165 98
11 177 94
4 188 91
0 199 89
0 209 89
2 218 90
8 227 93
16 234 99
28 240 106
41 246 115
57 250 126
75 252 137
94 254 150
114 254 163
134 254 176
154 252 188
173 248 199
191 244 208
208 238 215
222 231 221
234 224 223
244 215 223
250 206 221
254 195 216
254 184 209
251 173 200
245 161 190
236 149 179
225 136 167
211 123 156
195 111 144
177 99 133
158 86 124
138 75 115
118 63 108
98 53 102
79 43 98
61 34 94
44 26 92
30 19 90
18 13 89
9 8 89
3 4 89
0 1 89
0 0 89
3 0 89
10 1 89
19 3 89
31 7 89
45 11 90
62 17 92
80 24 94
99 32 97
119 41 101
139 50 107
159 61 114
178 72 122
196 84 131
212 96 141
226 108 151
237 120 162
246 133 173
252 146 183
254 158 192
254 170 199
250 182 205
243 193 209
234 203 210
222 213 210
207 222 206
190 230 201
172 237 193
153 243 184
133 247 173
113 251 161
93 253 149
74 254 137
56 254 126
41 253 115
27 250 106
16 247 99
7 242 94
2 236 90
0 229 89
0 220 89
5 211 91
12 202 95
22 191 100
34 180 105
49 168 110
66 156 115
84 144 120
104 131 124
124 118 126
144 106 128
164 94 128
182 82 127
200 70 125
215 59 122
229 49 118
240 39 113
248 31 108
253 23 104
254 16 100
253 10 96
249 6 93
241 3 91
231 0 89
218 0 89
203 0 89
186 1 90
167 4 91
148 8 92
128 13 93
108 20 94
88 27 95
69 35 95
52 45 95
37 55 94
24 65 93
13 77 91
6 88 90
1 100 89
0 113 89
1 125 89
6 138 91
14 151 94
25 163 99
38 175 106
53 186 114
70 197 124
89 207 136
109 217 149
129 225 163
149 233 178
168 239 192
209 32 106
223 24 103
235 17 99
244 11 96
251 6 93
254 3 91
254 1 90
251 0 89
245 0 89
236 1 90
224 4 91
210 8 93
194 13 95
176 19 97
157 26 99
137 34 101
117 43 102
97 53 102
78 64 102
60 75 100
43 87 99
29 99 96
18 111 94
9 124 92
3 136 90
0 149 89
0 161 89
3 173 91
10 184 94
19 195 99
31 206 106
46 215 114
62 224 125
81 232 137
100 238 150
120 244 164
140 248 178
160 252 192
179 254 205
196 254 217
212 254 227
226 252 235
238 250 241
246 245 243
252 240 244
254 234 241
254 227 236
250 218 228
243 209 219
233 199 208
221 188 195
206 177 182
189 165 169
171 153 156
152 140 143
132 128 132
112 115 122
92 103 113
73 91 106
55 79 100
40 67 96
26 56 93
15 46 91
7 37 89
2 29 89
0 21 89
1 15 89
5 9 89
12 5 89
22 2 89
35 0 89
50 0 89
67 0 89
85 2 89
105 5 90
125 10 92
145 15 94
165 22 98
183 29 103
201 38 108
216 47 115
229 57 123
240 68 131
248 80 139
253 91 148
254 104 156
253 116 164
248 129 171
241 141 176
230 154 179
217 166 181
202 178 181
185 189 178
166 200 174
147 210 168
127 219 160
107 227 151
87 234 141
68 241 131
51 246 121
36 250 112
23 253 104
13 254 97
5 254 93
1 254 90
0 251 89
1 248 90
6 243 93
14 238 98
25 231 104
38 223 111
54 215 119
71 205 126
90 195 134
110 184 141
130 172 146
150 160 150
169 148 153
188 135 154
205 123 153
220 110 151
232 98 147
242 86 142
249 74 136
253 63 130
254 52 123
252 42 116
247 33 110
238 25 105
227 18 100
214 12 96
198 7 93
180 4 91
161 1 89
142 0 89
122 0 89
102 1 89
82 3 90
64 7 90
47 12 90
33 17 90
20 24 90
11 32 90
4 41 89
0 51 89
0 61 89
2 73 89
8 84 91
17 96 93
28 109 97
42 121 102
58 134 109
76 146 117
95 159 127
115 171 139
135 182 152
155 193 165
174 204 180
192 213 194
209 222 207
238 54 122
247 44 117
252 35 111
254 26 106
254 19 102
250 13 97
243 8 94
233 4 91
220 1 90
205 0 89
188 0 89
170 1 89
151 3 90
131 6 91
111 11 92
91 17 93
72 23 93
55 31 93
39 40 93
26 50 92
15 60 91
7 71 90
1 83 89
0 95 89
1 107 89
5 119 90
13 132 93
23 144 97
36 157 103
51 169 111
68 181 120
86 192 131
106 202 144
126 212 157
146 221 171
166 229 186
184 236 200
201 242 214
217 247 226
230 251 236
240 253 245
248 254 250
253 254 253
254 253 254
253 251 251
248 247 246
240 242 238
230 236 228
217 229 216
201 221 203
184 212 189
165 202 175
146 192 160
126 181 147
106 169 135
86 157 123
68 145 114
51 132 106
35 120 100
23 107 95
12 95 92
5 83 90
1 71 89
0 60 89
2 50 89
7 40 89
15 31 90
26 23 90
39 17 90
55 11 90
72 6 90
91 3 90
111 1 89
131 0 89
151 0 89
170 1 90
189 4 91
205 8 93
220 13 96
233 19 100
243 26 105
250 35 111
254 44 117
254 54 124
252 64 130
246 76 137
238 87 142
227 99 147
213 112 150
197 124 152
179 137 152
160 149 150
141 162 147
121 174 142
101 185 137
81 196 130
63 206 122
47 216 115
32 224 107
20 232 101
10 239 95
4 244 91
0 249 89
0 252 89
3 254 91
8 254 95
17 254 100
29 252 108
43 249 116
59 245 126
77 240 136
96 233 146
116 226 156
136 218 165
156 208 172
175 198 178
193 188 182
209 176 183
224 164 183
236 152 181
245 140 176
251 127 171
254 115 163
254 102 155
251 90 147
245 78 138
235 67 129
223 56 121
209 46 113
193 36 107
175 28 102
156 21 97
136 14 94
116 9 92
96 5 90
77 2 89
59 0 89
43 0 89
29 0 89
17 2 89
8 5 89
2 10 89
0 15 89
0 22 89
4 30 89
10 38 90
20 48 91
32 58 94
47 69 97
63 80 102
82 92 108
101 104 116
121 117 125
141 129 136
161 142 147
180 154 160
197 167 173
213 178 186
227 190 199
238 200 211
253 80 141
254 68 133
253 57 126
248 47 119
240 38 112
229 29 106
216 22 101
200 15 97
183 10 93
164 5 91
145 2 90
125 0 89
105 0 89
85 0 89
67 2 89
50 5 89
35 9 90
22 14 90
12 21 89
5 28 89
1 37 89
0 46 89
2 56 89
7 67 90
15 78 92
26 90 95
40 103 99
56 115 105
73 128 113
92 140 122
112 153 133
132 165 145
152 177 158
171 188 171
190 199 185
206 209 199
221 218 212
233 226 224
243 234 234
250 240 242
254 245 248
254 249 251
252 252 251
246 254 249
237 254 243
226 254 236
212 252 225
196 248 214
178 244 200
159 238 186
140 232 172
120 224 157
100 215 144
80 206 131
62 196 120
46 185 111
31 173 103
19 161 97
10 149 93
3 136 90
0 124 89
0 111 89
3 99 90
9 87 91
18 75 92
30 64 94
44 53 95
60 43 95
78 34 96
97 26 95
117 19 95
137 13 93
157 8 92
176 4 91
194 1 90
210 0 89
224 0 89
236 1 89
245 3 91
251 6 93
254 11 96
254 17 100
251 24 104
244 32 109
235 40 113
223 50 118
208 61 121
192 72 124
174 83 126
155 95 127
135 108 126
115 120 124
95 133 121
76 145 117
58 158 112
42 170 107
28 181 102
17 192 97
8 203 93
2 213 90
0 221 89
0 229 89
4 236 91
11 242 96
21 247 102
33 251 110
48 253 120
64 254 131
83 254 143
102 253 155
122 250 167
142 247 179
162 242 189
181 236 198
198 229 205
214 221 210
228 212 212
239 202 212
247 191 210
252 180 205
254 168 199
253 156 190
249 144 181
242 131 170
232 119 159
219 106 149
204 94 138
188 82 128
169 70 119
150 59 112
130 49 105
110 40 100
90 31 96
71 23 93
54 16 91
38 11 90
25 6 89
14 3 89
6 0 89
1 0 89
0 0 89
1 1 89
5 4 89
13 8 89
23 13 90
36 20 91
52 27 92
69 35 95
87 44 99
107 54 104
127 65 110
147 76 118
167 88 126
185 100 136
202 113 147
218 125 159
231 138 170
241 150 181
249 162 192
253 174 202
252 108 159
246 96 149
237 84 140
225 72 131
211 61 122
195 51 114
178 41 108
158 32 102
139 24 97
118 17 94
99 11 92
79 7 90
61 3 89
45 1 89
31 0 89
19 0 89
9 1 89
3 4 89
0 8 89
0 12 89
3 19 89
9 26 89
18 34 90
30 43 92
44 53 95
61 63 99
79 75 104
98 86 111
118 98 119
138 111 128
158 123 139
177 136 150
195 148 163
211 161 176
225 173 188
237 184 200
246 195 211
251 205 221
254 215 229
254 224 234
250 231 237
244 238 237
234 244 235
222 248 230
208 252 222
191 254 213
173 254 201
154 254 189
134 252 175
113 250 161
94 246 148
75 240 135
57 234 123
41 227 113
27 218 104
16 209 98
8 199 93
2 188 90
0 177 89
0 165 89
4 153 91
11 141 93
21 128 96
34 116 99
48 103 102
65 91 104
84 79 106
103 68 107
123 57 107
143 47 106
163 37 104
182 29 102
199 21 100
215 15 97
228 9 94
239 5 92
247 2 90
252 0 89
254 0 89
253 0 89
249 2 90
242 5 92
231 9 95
219 15 97
204 21 100
187 29 103
168 37 105
149 47 107
129 57 108
108 68 108
89 79 107
70 91 105
53 103 103
38 116 100
24 128 97
14 141 94
6 153 91
1 166 89
0 177 89
1 189 89
6 199 92
13 209 96
24 219 102
37 227 111
52 234 120
70 240 132
88 246 144
108 250 158
128 253 172
148 254 185
168 254 198
186 254 210
203 251 220
218 248 227
231 244 233
241 238 236
249 231 236
253 224 234
254 215 229
253 205 221
247 195 212
239 184 202
229 172 190
215 161 177
200 148 165
182 136 152
163 123 140
144 111 130
124 98 120
104 86 112
84 74 105
66 63 99
49 53 95
34 43 93
21 34 91
11 26 90
4 18 89
0 12 89
0 7 89
2 4 89
7 1 89
16 0 89
27 0 89
41 1 89
57 3 89
74 7 90
93 11 92
113 17 94
133 24 97
153 32 102
172 41 107
190 51 114
207 61 121
222 72 130
234 84 139
244 96 149
250 108 158
254 121 167
254 133 176
252 146 183
234 138 171
221 125 160
207 112 148
190 100 138
172 88 128
153 76 119
133 65 111
112 54 104
93 44 99
74 35 95
56 27 93
40 19 91
27 13 90
16 8 89
7 4 89
2 1 89
0 0 89
0 0 89
5 0 89
12 3 89
22 6 89
34 11 90
49 16 91
66 23 93
84 31 96
104 40 99
124 49 105
144 60 111
164 71 119
182 82 127
200 94 137
215 106 148
229 119 159
240 132 170
248 144 180
253 156 190
254 169 199
253 180 206
249 191 211
241 202 214
231 212 214
218 221 212
203 229 208
186 236 201
167 242 192
148 247 182
128 251 171
107 253 159
88 254 146
69 254 134
52 253 123
37 251 113
24 247 104
13 242 97
6 236 92
1 229 90
0 221 89
1 212 90
6 203 92
14 192 96
25 181 100
38 169 105
53 157 110
71 145 115
89 133 119
109 120 122
129 107 124
149 95 125
169 83 125
187 71 123
204 60 120
219 50 117
232 40 113
242 32 109
249 24 104
253 17 100
254 11 96
252 6 93
247 3 91
239 1 89
228 0 89
214 0 89
199 1 90
181 4 91
162 8 92
143 13 94
122 19 95
102 26 96
83 34 96
65 43 96
48 53 95
33 64 94
21 75 93
11 87 91
4 99 90
0 111 89
0 124 89
2 137 90
8 149 92
16 161 96
28 173 101
41 185 109
57 196 118
75 206 129
94 215 141
114 224 154
134 232 168
154 238 183
173 244 197
191 248 211
208 252 223
222 254 233
235 254 242
244 254 247
251 252 251
254 249 251
254 245 248
251 240 243
245 234 236
236 226 226
225 218 214
211 209 201
194 199 188
177 188 174
157 177 160
138 165 147
117 152 135
98 140 124
78 127 114
60 115 107
44 102 100
30 90 96
18 78 92
9 67 90
3 56 89
0 46 89
0 37 89
3 28 89
10 21 89
19 14 89
31 9 90
45 5 89
62 2 89
80 0 89
99 0 89
119 0 89
139 2 90
159 5 91
178 10 93
196 15 97
212 22 101
226 29 106
237 38 112
246 47 119
252 57 126
254 68 133
254 80 141
250 92 148
243 104 154
234 116 159
202 166 175
185 154 162
166 142 149
147 129 137
126 117 127
106 104 117
87 92 109
68 80 103
51 69 98
36 58 94
23 47 92
13 38 90
5 29 89
1 22 89
0 15 89
1 10 89
6 5 89
14 2 89
25 0 89
39 0 89
54 0 89
71 2 89
90 5 90
110 9 91
130 14 94
150 21 97
170 28 101
188 37 107
205 46 113
220 56 120
232 67 129
242 78 137
249 90 146
254 102 155
254 115 164
252 127 171
247 140 177
238 152 182
227 164 185
214 176 185
198 188 184
180 198 180
161 209 175
142 218 168
121 226 159
101 234 150
82 240 139
64 245 129
47 249 119
33 252 110
20 254 102
11 254 96
4 254 92
0 252 89
0 248 89
2 244 91
8 239 94
17 232 99
28 224 105
42 216 112
58 206 120
76 196 127
95 185 134
115 174 140
135 162 145
155 149 148
174 137 150
192 124 150
209 112 149
223 99 146
235 87 141
244 75 136
251 64 130
254 53 124
254 44 117
251 34 111
245 26 106
236 19 101
224 13 96
210 8 93
194 4 91
176 1 90
156 0 89
137 0 89
116 1 89
97 3 90
77 6 90
60 11 91
43 17 91
29 24 91
18 31 90
9 40 90
3 50 89
0 60 89
0 71 89
3 83 90
10 95 91
19 107 94
32 120 99
46 132 105
63 145 112
81 157 121
100 169 132
120 181 144
140 192 158
160 203 172
179 212 186
197 221 200
213 229 213
226 236 226
238 242 236
246 247 244
252 251 250
254 253 254
254 254 254
250 254 251
243 253 246
233 251 238
221 247 228
206 242 216
189 236 203
171 229 189
152 221 175
132 212 160
111 202 147
92 192 134
73 180 123
55 169 113
40 157 105
26 144 99
15 132 94
7 119 91
2 107 89
0 94 89
1 82 89
5 71 90
12 60 91
22 49 92
35 40 92
50 31 93
67 23 93
85 16 92
105 11 92
125 6 91
145 3 90
165 1 89
183 0 89
201 0 89
216 1 90
229 4 91
240 8 94
248 13 97
253 19 102
254 27 106
253 35 112
248 44 117
241 54 122
230 65 127
217 76 131
202 88 134
160 193 168
141 182 154
120 170 141
100 158 130
81 146 119
63 134 110
46 121 103
32 108 98
20 96 94
10 84 91
4 72 90
0 61 89
0 51 89
3 41 89
8 32 90
17 24 90
29 17 90
43 11 90
59 7 90
77 3 89
96 1 89
116 0 89
136 0 89
156 1 89
175 4 91
193 7 93
209 12 96
224 18 100
236 25 104
245 34 110
251 43 116
254 52 123
254 63 130
251 74 137
245 86 143
235 98 148
223 110 152
209 123 155
193 136 156
175 148 155
155 160 153
136 172 149
115 184 143
96 195 137
77 205 129
59 215 121
43 223 113
29 231 106
17 238 99
8 244 94
2 248 91
0 251 89
0 254 89
4 254 92
10 254 96
20 253 102
32 250 110
47 246 118
63 241 128
82 234 138
101 227 148
121 219 157
141 209 165
161 200 171
180 189 176
197 178 179
213 166 179
227 154 178
238 141 175
247 129 170
252 116 164
254 103 156
254 91 148
250 79 140
243 68 131
233 57 123
220 47 115
205 37 109
188 29 103
170 21 98
151 15 95
130 9 92
110 5 90
91 2 89
72 0 89
55 0 89
39 0 89
25 2 89
15 5 89
7 9 89
1 15 89
0 21 89
1 29 89
5 37 89
13 46 90
23 57 92
36 67 95
51 79 99
68 91 105
86 103 112
106 115 120
126 128 130
146 141 141
166 153 154
184 165 167
202 177 180
217 188 193
230 199 206
241 209 218
248 218 227
253 227 235
254 234 241
253 240 244
248 246 245
240 250 242
230 252 237
217 254 230
201 254 220
184 254 208
165 252 195
146 248 181
125 244 167
105 238 153
86 231 140
67 224 128
50 215 117
35 206 108
23 195 100
12 184 95
5 173 91
1 161 89
0 149 89
2 136 89
7 124 91
15 111 93
26 99 95
39 86 98
55 75 99
72 64 101
91 53 101
111 43 101
131 34 100
151 26 99
170 19 97
189 13 95
206 8 93
220 4 91
233 1 90
243 0 89
250 0 89
254 1 90
254 3 91
252 7 93
246 11 96
238 17 99
227 24 103
213 32 106
197 41 109
179 50 112
160 61 114
114 216 152
95 207 139
76 197 127
58 186 116
42 175 108
28 163 101
17 150 95
8 138 92
2 125 90
0 113 89
0 100 89
4 88 90
11 76 91
21 65 92
33 54 93
48 44 94
64 35 95
83 27 95
102 20 94
122 13 93
142 8 92
162 4 91
181 1 90
198 0 89
214 0 89
228 0 89
239 3 91
247 6 93
252 10 96
254 16 100
253 23 104
249 31 109
242 39 113
232 49 118
219 59 122
204 70 126
187 82 128
169 94 129
150 106 130
129 119 128
109 131 126
90 144 122
71 156 117
54 168 112
38 180 107
25 191 101
14 202 96
6 212 92
1 221 90
0 229 89
1 236 90
5 242 92
13 247 97
23 250 104
36 253 113
52 254 123
69 254 134
87 253 146
107 251 158
127 247 169
147 242 180
167 237 190
185 230 198
202 222 204
218 213 207
231 203 209
241 193 208
249 181 204
253 170 199
254 158 192
253 145 183
248 133 173
240 120 163
229 108 152
216 95 142
200 83 132
183 72 123
164 61 114
145 50 108
124 41 102
104 32 97
85 24 94
67 17 92
50 11 90
35 6 89
22 3 89
12 1 89
5 0 89
1 0 89
0 1 89
2 4 89
7 8 89
15 13 89
26 19 90
40 26 91
56 34 94
73 43 97
92 53 101
112 64 107
132 75 114
152 87 123
171 99 132
190 111 143
206 124 154
221 136 166
233 149 178
243 161 189
250 173 200
254 184 209
254 195 216
252 206 221
246 215 224
237 224 225
226 232 223
212 238 218
196 244 211
178 248 202
159 252 191
140 254 179
119 254 167
99 254 154
80 252 141
62 250 129
46 245 118
31 240 108
19 234 100
10 227 95
3 218 91
0 209 89
0 199 89
3 188 90
9 177 93
18 165 97
30 153 101
44 140 105
60 128 109
78 115 112
97 103 114
117 91 116
137 79 117
157 67 116
176 56 114
194 46 112
210 37 109
224 29 105
236 21 102
245 15 98
251 9 95
254 5 92
254 2 90
251 0 89
244 0 89
235 0 89
223 2 90
208 5 92
192 9 94
174 15 96
154 21 97
135 29 99
114 38 100
70 235 131
53 228 120
37 219 110
24 210 102
14 200 96
6 190 92
1 179 89
0 167 89
1 155 89
6 142 91
13 130 93
24 117 96
37 105 99
53 92 101
70 80 103
88 69 104
108 58 105
128 48 105
148 38 103
168 30 102
186 22 99
203 15 97
218 10 95
231 5 92
241 2 90
249 0 89
253 0 89
254 0 89
253 2 90
247 5 92
239 9 94
228 14 97
215 20 100
199 28 103
182 36 106
163 46 108
144 56 109
123 66 110
103 78 109
84 90 108
66 102 106
49 114 103
34 127 100
21 139 97
11 152 93
4 164 91
0 176 89
0 187 89
2 198 90
7 208 93
16 218 98
27 226 105
41 233 113
57 240 124
74 245 136
93 249 148
113 252 162
133 254 175
153 254 189
172 254 201
191 252 212
207 249 221
222 244 227
234 239 232
244 232 233
250 224 233
254 216 229
254 206 223
252 196 215
246 185 205
237 174 194
225 162 182
211 150 170
195 137 157
177 125 145
158 112 134
138 100 124
118 87 115
98 76 108
79 64 102
61 54 97
45 44 94
31 35 92
19 26 90
9 19 89
3 13 89
0 8 89
0 4 89
3 1 89
9 0 89
18 0 89
30 1 89
45 3 89
61 6 90
79 11 91
98 17 93
118 23 96
138 31 100
158 40 105
177 50 111
195 60 119
211 71 127
225 82 136
237 94 146
246 107 156
251 119 166
254 132 175
254 144 183
250 157 189
244 169 194
234 181 197
222 192 198
207 202 196
191 212 192
173 221 187
153 229 179
133 236 170
113 242 159
94 247 148
75 251 137
57 253 126
41 254 116
27 254 107
16 253 99
8 251 94
2 247 90
0 242 89
0 236 89
4 229 92
11 221 95
21 212 100
34 202 106
48 192 113
65 181 119
84 169 125
103 157 130
123 145 134
143 132 137
163 120 139
182 107 139
199 95 137
215 83 134
228 71 131
239 60 126
247 50 120
252 40 115
254 31 109
253 23 104
249 17 100
242 11 96
231 6 93
219 3 91
204 1 89
186 0 89
168 0 89
148 1 89
128 4 90
108 8 91
89 13 92
70 19 92
33 248 110
21 243 102
11 237 96
4 230 91
0 222 89
0 214 89
2 204 90
8 193 93
16 182 97
28 171 101
42 159 106
58 146 110
75 134 115
94 121 118
114 109 121
134 96 122
154 84 122
173 73 121
191 62 119
208 51 116
222 41 113
235 33 109
244 25 104
251 18 100
254 12 97
254 7 94
251 3 91
245 1 90
236 0 89
225 0 89
211 1 90
194 4 91
176 7 92
157 12 94
137 18 95
117 25 96
97 33 97
78 42 97
60 52 97
44 63 96
30 74 95
18 86 93
9 98 91
3 110 90
0 123 89
0 135 89
3 148 90
10 160 93
19 172 97
31 184 104
45 195 112
62 205 121
80 214 133
99 223 146
119 231 159
139 238 174
159 243 188
178 248 202
196 251 215
212 254 226
226 254 236
237 254 243
246 253 248
252 250 250
254 246 249
254 241 245
250 234 239
243 227 230
234 219 220
221 210 208
207 200 195
190 189 181
172 178 167
152 166 154
132 154 141
112 141 130
93 129 119
74 116 111
56 104 104
40 92 98
27 80 94
16 68 92
7 57 90
2 47 89
0 38 89
0 29 89
5 22 89
12 15 89
22 10 89
34 5 89
49 2 89
66 0 89
85 0 89
104 0 89
124 2 89
144 5 91
164 9 93
183 14 96
200 21 100
216 28 105
229 37 111
240 46 117
248 56 125
253 67 132
254 78 140
253 90 147
249 103 154
241 115 160
231 128 164
218 140 167
203 153 168
186 165 167
167 177 164
147 188 160
127 199 154
107 209 146
88 218 138
69 226 129
52 234 120
37 240 112
24 245 104
13 249 97
6 252 93
1 254 90
0 254 89
1 254 90
6 252 93
14 248 98
25 244 104
38 238 112
53 232 121
71 224 129
89 215 138
109 206 146
129 196 154
149 185 159
169 173 164
187 161 166
204 149 167
219 136 165
232 124 162
242 111 158
249 99 152
253 87 145
254 75 138
252 64 130
247 53 123
239 43 115
228 34 109
214 26 103
199 19 99
181 13 95
162 8 92
142 4 90
122 1 89
102 0 89
83 0 89
65 1 89
48 3 89
33 6 89
9 254 95
3 252 91
0 249 89
0 245 89
4 239 91
10 233 95
20 225 100
32 217 107
46 207 113
63 197 121
81 186 127
100 175 134
120 163 139
140 151 143
160 138 146
179 126 146
197 113 146
213 101 144
226 89 140
238 77 136
246 65 130
252 55 124
254 45 118
254 35 112
250 27 106
243 20 101
233 14 97
221 8 94
206 4 91
189 2 90
171 0 89
151 0 89
131 0 89
111 3 90
92 6 90
73 10 91
55 16 91
40 23 91
26 30 91
15 39 90
7 49 90
2 59 89
0 70 89
1 81 89
5 93 90
12 106 92
22 118 96
35 131 101
50 143 107
67 156 116
86 168 126
105 180 137
125 191 150
145 201 164
165 211 178
184 220 192
201 228 206
216 236 219
229 242 231
240 247 240
248 250 248
253 253 252
254 254 254
253 254 253
248 253 250
241 251 243
230 247 235
217 243 224
202 237 211
185 230 197
166 222 183
146 213 169
126 203 155
106 193 141
87 182 129
68 170 119
51 158 110
36 146 102
23 133 97
13 121 93
5 108 90
1 96 89
0 84 89
1 72 89
6 61 90
14 51 91
25 41 91
39 32 92
54 24 92
72 17 92
90 11 91
110 7 91
130 3 90
150 1 89
170 0 89
188 0 89
205 1 90
220 4 91
232 7 93
242 12 97
249 19 101
254 26 106
254 34 111
252 43 117
247 53 122
238 63 128
227 74 132
214 86 136
198 98 139
180 111 140
161 123 140
141 136 138
121 148 135
101 161 131
82 173 125
64 184 119
47 195 113
32 205 106
20 215 100
11 224 95
4 231 91
0 238 89
0 244 89
2 248 91
8 252 94
17 254 100
28 254 108
42 254 117
58 252 127
76 250 138
95 246 149
115 240 160
135 234 170
155 227 179
174 218 186
192 209 192
209 199 195
223 189 197
235 177 195
244 165 192
251 153 187
254 141 180
254 128 172
251 116 163
245 103 154
236 91 144
224 79 134
210 68 125
193 57 117
175 47 110
156 37 104
136 29 99
116 21 95
96 15 93
77 9 91
59 5 90
43 2 89
29 0 89
18 0 89
9 0 89
0 253 89
1 254 90
5 254 92
13 253 97
23 250 104
36 246 112
51 241 120
68 235 130
87 228 139
106 220 149
126 211 157
146 201 164
166 190 170
184 179 173
202 167 175
217 155 175
230 143 173
241 130 169
248 117 164
253 105 157
254 93 149
253 81 141
248 69 133
240 58 125
230 48 117
216 39 110
201 30 104
184 22 99
165 16 96
145 10 93
125 6 91
105 2 90
86 0 89
67 0 89
50 0 89
35 2 89
22 5 89
12 9 89
5 14 89
1 20 89
0 28 89
2 36 89
7 45 90
15 55 91
26 66 93
39 77 97
55 89 101
73 101 108
91 114 116
111 127 125
131 139 136
151 152 148
171 164 160
189 176 174
206 187 187
220 198 200
233 208 213
243 217 224
250 226 233
254 233 240
254 240 245
252 245 247
246 249 246
238 252 242
227 254 236
213 254 227
197 254 217
179 252 204
160 249 191
140 244 177
120 239 162
100 232 149
81 225 136
63 216 124
46 207 113
32 197 105
20 186 98
10 174 93
4 162 90
0 150 89
0 138 89
3 125 90
9 112 91
17 100 93
29 88 95
43 76 97
59 65 99
77 54 100
96 44 100
116 35 99
136 27 98
156 19 97
175 13 95
193 8 93
210 4 91
224 1 90
236 0 89
245 0 89
251 0 89
254 3 91
254 6 93
251 11 96
245 16 99
235 23 103
223 31 107
209 40 110
193 49 113
175 60 116
155 71 117
135 82 117
115 94 117
95 106 115
76 119 112
59 132 109
43 144 105
29 156 100
17 169 96
8 180 93
2 191 90
0 202 89
0 212 89
4 221 91
10 229 95
20 236 101
32 242 109
47 247 119
64 251 130
82 253 142
101 254 155
121 254 168
141 253 180
161 251 192
180 247 203
198 242 211
213 236 218
227 229 222
238 221 224
247 212 223
252 203 220
254 192 214
254 181 206
250 169 197
242 157 187
233 145 175
220 133 163
205 120 152
188 107 141
170 95 130
150 83 121
130 71 113
110 60 106
91 50 100
72 40 96
54 32 93
39 24 91
25 17 90
15 11 89
6 6 89
1 3 89
0 1 89
7 246 94
15 250 99
27 253 106
40 254 115
56 254 125
73 253 137
92 251 148
112 248 160
132 243 171
152 237 181
172 230 190
190 223 197
206 214 202
221 204 204
234 194 205
243 183 203
250 171 198
254 159 192
254 147 184
252 134 175
246 122 166
237 109 155
226 97 145
212 85 135
196 73 126
178 62 117
159 51 110
139 42 104
119 33 99
99 25 95
80 18 92
62 12 91
46 7 90
31 3 89
19 1 89
10 0 89
3 0 89
0 1 89
0 3 89
3 7 89
9 12 89
18 18 90
30 25 91
44 33 93
60 42 95
78 52 99
97 62 104
117 74 111
137 85 119
157 97 128
176 110 138
194 122 150
210 135 161
225 147 174
236 160 185
245 172 197
251 183 207
254 194 215
254 205 222
251 214 226
244 223 228
235 231 227
223 238 224
208 243 218
192 248 210
174 251 200
154 253 189
134 254 176
114 254 163
94 253 150
75 250 137
58 246 125
42 241 115
28 235 106
16 227 99
8 219 93
2 210 90
0 200 89
0 189 89
4 178 91
11 166 94
21 154 97
33 142 101
48 129 105
65 117 108
83 104 111
102 92 113
122 80 114
142 69 114
162 58 113
181 47 111
198 38 108
214 29 105
228 22 102
239 15 98
247 10 95
252 5 93
254 2 90
253 0 89
249 0 89
242 0 89
232 2 90
219 5 92
204 9 94
187 14 96
169 21 98
149 28 100
129 37 101
109 46 102
90 56 102
71 67 101
54 78 100
38 90 98
25 102 95
14 115 93
6 127 91
1 140 89
0 152 89
1 164 89
5 176 91
13 188 95
24 198 101
37 208 108
52 218 118
69 226 129
88 234 141
107 240 155
127 245 169
147 249 183
167 252 197
185 254 209
202 254 221
218 254 230
231 252 237
241 248 242
249 244 244
253 239 243
254 232 240
253 224 234
248 216 226
240 206 215
229 196 204
216 185 191
200 174 178
183 162 164
164 149 152
144 137 139
124 124 128
104 112 119
85 99 110
66 87 104
49 75 98
35 64 95
22 54 92
12 44 90
5 34 89
1 26 89
0 19 89
2 13 89
7 8 89
30 233 107
45 239 116
61 245 127
79 249 139
98 252 152
118 254 166
138 254 179
158 254 192
177 252 203
195 249 213
211 245 221
225 239 227
237 233 230
246 225 230
251 217 228
254 208 224
254 197 217
250 187 208
244 175 198
234 163 187
222 151 175
207 139 162
191 126 150
173 113 139
153 101 129
133 89 119
113 77 111
93 66 105
74 55 99
57 45 95
41 36 93
27 27 91
16 20 90
7 14 89
2 8 89
0 4 89
0 2 89
4 0 89
11 0 89
21 0 89
34 2 89
49 6 90
65 10 91
84 16 92
103 22 95
123 30 98
143 39 103
163 48 109
182 59 116
199 70 124
215 81 134
228 93 143
239 105 153
247 118 164
252 130 173
254 143 182
253 155 190
249 168 196
242 179 200
231 190 202
219 201 201
203 211 199
186 220 194
168 228 187
148 235 178
128 241 168
108 246 157
89 250 146
70 253 134
53 254 123
37 254 113
24 253 105
14 251 98
6 247 93
1 243 90
0 237 89
1 230 90
6 222 92
14 213 96
24 204 102
37 193 107
53 182 113
70 171 119
89 158 125
108 146 129
128 134 133
148 121 135
168 108 136
186 96 135
203 84 133
218 72 129
231 61 125
242 51 120
249 41 115
253 32 110
254 24 105
252 17 100
247 11 96
239 7 93
228 3 91
215 1 89
199 0 89
182 0 89
163 1 89
143 4 90
123 7 91
103 12 92
84 18 93
65 25 93
49 34 93
34 43 93
21 52 92
11 63 91
4 74 90
0 86 89
0 98 89
2 110 89
7 123 91
16 135 94
27 148 99
41 160 106
57 172 114
74 184 124
93 195 135
113 205 148
133 215 162
153 223 176
173 231 191
191 238 205
207 244 218
222 248 230
234 251 239
244 254 247
250 254 252
254 254 254
254 253 253
252 250 249
246 246 243
237 241 235
225 234 224
211 227 212
195 219 198
177 210 184
158 200 170
138 189 156
118 178 143
98 166 131
79 154 120
61 141 111
45 129 104
30 116 98
19 104 94
9 91 91
3 79 89
0 68 89
0 57 89
3 47 89
9 38 90
18 29 90
30 21 90
66 213 125
85 222 137
104 230 150
124 237 164
144 243 179
164 248 193
183 251 206
200 253 219
216 254 229
229 254 238
240 253 244
248 250 247
253 246 248
254 241 246
253 235 241
249 228 234
241 220 225
231 211 213
218 201 201
203 190 188
185 179 174
167 167 160
147 155 147
127 143 135
107 130 125
88 118 115
69 105 107
52 93 101
37 81 96
24 70 93
13 59 91
6 48 89
1 39 89
0 30 89
1 22 89
6 16 89
14 10 89
25 6 89
38 2 89
53 0 89
71 0 89
90 0 89
109 2 89
129 4 90
149 9 92
169 14 95
187 20 99
204 27 103
219 36 109
232 45 116
242 55 123
249 66 131
253 77 139
254 89 147
252 101 154
247 114 161
239 126 166
228 139 170
214 151 172
198 163 172
181 175 170
162 187 166
142 198 161
122 208 154
102 217 146
83 225 137
65 233 127
48 239 118
33 245 110
21 249 102
11 252 96
4 254 92
0 254 89
0 254 89
2 252 90
8 249 94
16 245 99
28 239 106
42 233 114
58 225 122
75 216 131
94 207 139
114 197 146
134 186 153
154 175 158
174 163 161
192 150 163
208 138 162
223 125 160
235 113 157
244 100 152
251 88 146
254 76 139
254 65 131
251 54 124
245 44 117
236 35 110
225 27 105
210 20 100
194 13 96
176 8 93
157 4 91
137 1 89
117 0 89
97 0 89
78 0 89
60 3 89
44 6 89
30 10 90
18 16 90
9 23 89
3 31 89
0 39 89
0 49 89
3 59 89
10 70 91
19 82 93
31 94 96
45 106 101
62 119 108
80 131 116
99 144 125
119 156 137
139 168 149
159 180 162
178 191 176
196 202 190
212 211 204
226 220 216
237 229 228
246 236 237
252 242 244
254 247 249
254 250 251
250 253 251
243 254 247
234 254 241
221 253 232
207 251 221
190 247 209
172 242 195
152 237 181
132 230 167
112 222 153
92 213 139
74 203 127
56 193 117
40 181 108
27 170 101
15 158 95
7 145 92
2 133 90
0 120 89
1 108 89
5 95 90
12 83 91
22 72 93
34 61 94
49 50 95
66 41 96
110 190 142
130 200 156
150 210 170
170 219 184
188 227 198
205 235 212
220 241 224
232 246 235
242 250 244
250 253 250
254 254 254
254 254 254
252 253 252
247 251 247
238 248 240
227 243 230
213 237 219
198 231 205
180 223 192
161 214 177
141 204 163
121 194 149
101 183 136
82 172 125
64 160 115
47 147 107
32 135 100
20 122 95
11 110 92
4 97 90
0 85 89
0 73 89
2 62 89
8 52 90
17 42 91
28 33 91
42 25 92
59 18 92
76 12 91
95 7 91
115 3 90
135 1 89
155 0 89
174 0 89
192 1 89
209 3 91
223 7 93
235 12 96
244 18 100
251 25 105
254 33 110
254 42 116
251 52 122
245 62 128
236 73 133
224 85 138
210 97 141
193 109 143
175 122 144
156 134 143
136 147 140
116 159 136
96 171 131
77 183 125
59 194 118
43 204 112
29 214 105
17 223 99
9 231 94
3 237 91
0 243 89
0 248 89
4 251 91
10 253 96
20 254 102
32 254 110
46 253 119
63 250 129
81 246 140
100 241 151
120 235 161
140 228 171
160 219 179
179 210 185
197 200 190
213 190 192
226 179 192
238 167 190
246 155 186
252 142 181
254 130 173
254 117 165
250 105 156
243 92 146
233 80 137
221 69 128
206 58 120
189 48 112
171 38 106
151 30 100
131 22 96
111 15 93
91 10 91
73 5 90
55 2 89
39 0 89
26 0 89
15 0 89
7 2 89
2 5 89
0 9 89
1 14 89
5 20 89
12 28 90
22 36 91
35 46 93
50 56 96
67 66 100
86 78 106
105 90 113
125 102 122
145 114 131
165 127 142
184 139 154
201 152 167
216 164 180
230 176 192
240 187 204
248 198 215
253 208 224
254 217 230
253 226 235
248 233 237
241 240 236
230 245 233
217 249 227
202 252 219
185 254 209
166 254 197
146 254 184
126 252 170
106 249 156
87 244 143
68 239 131
51 232 119
36 224 110
23 216 102
13 206 96
5 196 92
1 185 89
0 174 89
1 162 90
6 150 91
15 137 94
25 125 97
39 112 100
54 100 103
72 87 105
90 76 106
110 64 107
156 162 154
175 174 167
193 186 181
210 197 194
224 207 207
236 216 219
245 225 230
251 232 238
254 239 244
254 244 248
251 249 248
244 252 246
235 254 242
223 254 234
209 254 225
192 252 213
174 249 200
155 245 186
135 240 172
115 233 158
95 226 144
76 217 131
58 208 120
42 198 110
28 187 103
17 176 97
8 164 92
2 151 90
0 139 89
0 126 89
4 114 90
11 101 92
20 89 93
32 77 95
47 66 97
64 55 98
82 45 98
101 36 98
121 28 97
141 20 96
161 14 95
180 9 93
198 5 91
213 2 90
227 0 89
238 0 89
247 0 89
252 2 91
254 6 93
254 10 96
250 16 99
242 22 103
232 30 107
220 39 111
205 48 114
188 58 117
170 69 119
150 81 120
130 93 120
110 105 119
90 118 116
72 130 113
54 143 109
39 155 104
25 167 100
14 179 96
6 190 92
1 201 90
0 211 89
1 220 89
5 228 92
13 235 97
23 241 103
36 246 112
51 250 122
68 253 133
87 254 145
106 254 158
126 253 171
146 251 183
166 248 194
185 243 204
202 237 211
217 230 217
230 222 220
241 214 220
248 204 218
253 194 214
254 182 208
253 171 199
248 159 190
240 147 179
230 134 168
216 121 156
201 109 145
184 96 134
165 84 125
145 73 116
125 62 109
105 51 103
86 41 98
67 33 94
50 25 92
35 18 90
22 12 89
12 7 89
5 3 89
1 1 89
0 0 89
2 0 89
7 1 89
15 4 89
26 7 89
39 12 90
55 18 91
73 25 94
91 33 97
111 42 101
131 52 106
151 63 113
171 74 121
189 86 130
206 98 140
221 110 151
233 123 162
243 135 173
250 148 183
254 160 193
254 172 201
252 183 207
246 194 211
238 205 213
226 214 213
213 223 210
197 231 205
179 238 198
160 243 189
140 248 178
120 251 166
100 254 154
81 254 142
63 254 130
46 253 119
32 250 109
20 246 101
10 241 95
4 235 91
0 227 89
0 219 89
3 210 90
9 200 93
17 189 97
29 178 102
43 166 107
59 154 112
77 142 117
96 129 121
116 116 124
136 104 125
156 92 126
198 133 157
214 146 169
228 158 181
239 170 193
247 182 204
252 193 213
254 203 221
253 213 227
249 222 230
242 230 231
232 237 229
219 243 225
204 247 218
187 251 209
169 253 198
149 254 186
129 254 173
109 253 160
89 250 146
71 247 134
53 242 122
38 235 112
25 228 103
14 220 97
6 211 92
1 201 90
0 191 89
1 180 89
6 168 91
13 156 94
24 143 98
37 131 101
52 118 105
69 106 108
88 93 110
107 81 111
127 70 112
147 59 111
167 49 110
186 39 108
203 30 105
218 23 102
231 16 98
241 10 95
249 6 93
253 2 91
254 0 89
253 0 89
248 0 89
240 2 90
229 4 92
216 8 94
200 14 96
183 20 98
164 27 100
144 36 102
124 45 103
104 55 103
85 65 103
66 77 102
49 89 100
34 101 98
22 113 95
12 126 93
5 138 91
1 151 89
0 163 89
2 175 90
7 186 92
15 197 97
27 207 103
40 217 111
56 225 121
74 233 133
92 239 146
112 245 159
132 249 173
152 252 187
172 254 200
190 255 213
207 254 223
221 252 232
234 249 238
243 245 241
250 239 242
254 233 240
254 225 235
252 217 228
246 207 219
237 197 209
226 186 197
212 175 184
196 163 171
178 151 158
159 138 145
139 126 134
119 113 123
99 101 114
80 89 107
62 77 101
45 65 96
31 55 93
19 45 91
10 35 90
3 27 89
0 20 89
0 14 89
3 8 89
9 4 89
18 2 89
30 0 89
44 0 89
60 0 89
78 3 89
97 6 90
117 10 92
137 16 95
157 23 98
176 30 103
194 39 108
210 49 115
225 59 123
236 70 131
245 81 140
251 93 149
254 106 158
254 118 166
251 131 173
244 143 178
235 156 182
223 168 184
208 180 184
192 191 182
173 201 178
154 211 172
134 220 165
114 228 156
94 235 146
75 242 136
58 247 125
42 250 116
28 253 107
16 254 100
8 254 94
2 253 90
0 251 89
0 247 89
4 243 92
11 237 96
21 230 101
33 222 108
48 213 115
65 203 123
83 193 130
102 182 137
122 170 142
142 158 147
162 146 149
181 133 151
198 121 150
231 104 150
242 116 161
249 129 171
253 142 181
254 154 189
252 166 196
247 178 201
239 189 205
228 200 206
215 210 204
199 219 200
182 227 195
163 235 187
143 241 177
123 246 166
103 250 155
84 253 143
65 254 132
49 254 121
34 254 111
21 251 103
11 248 96
4 243 92
0 238 89
0 231 89
2 223 90
8 214 93
16 205 97
27 194 103
41 183 108
57 172 114
75 160 119
93 148 124
113 135 128
133 122 131
153 110 132
173 98 132
191 85 131
207 74 128
222 63 125
234 52 120
244 42 115
250 33 110
254 25 105
254 18 101
251 12 97
246 7 94
237 3 91
225 1 90
211 0 89
195 0 89
177 1 89
158 3 90
138 7 91
118 12 92
98 18 93
79 25 94
61 33 94
45 41 94
30 51 93
18 62 92
9 73 91
3 84 90
0 97 89
0 109 89
3 121 90
9 134 92
19 147 96
30 159 101
45 171 109
61 183 118
79 194 128
98 204 140
118 214 154
138 222 168
158 230 182
177 237 196
195 243 210
211 248 223
225 251 234
237 253 242
246 254 249
252 254 252
254 253 253
254 250 251
250 246 246
244 241 239
234 235 230
222 228 218
207 220 205
191 211 192
172 201 177
153 190 163
133 179 150
113 167 137
93 155 126
74 143 116
57 130 108
41 117 101
27 105 96
16 93 93
7 81 90
2 69 89
0 58 89
0 48 89
4 39 89
11 30 90
21 22 90
34 16 90
49 10 90
66 6 90
84 2 89
103 0 89
123 0 89
143 0 89
163 2 90
182 5 91
199 9 93
215 14 97
228 20 101
239 28 106
247 36 112
253 45 118
254 55 125
253 66 132
249 77 138
242 89 144
231 101 149
218 114 153
203 126 155
186 139 155
168 152 154
148 164 151
128 176 147
108 187 141
88 198 134
70 208 126
53 217 118
37 226 110
24 233 103
14 240 97
6 245 93
1 249 90
0 252 89
1 254 90
6 254 93
14 254 98
24 252 105
37 249 113
53 244 122
70 239 132
89 232 142
108 225 151
128 216 160
148 207 167
168 197 173
186 186 177
203 174 180
219 162 180
231 150 178
251 76 138
254 88 146
254 100 154
251 112 161
245 125 167
236 137 172
224 150 175
210 162 176
194 174 175
176 185 172
157 196 168
137 207 161
117 216 154
97 225 145
78 232 135
60 239 126
44 244 116
30 249 108
18 252 101
9 254 95
3 254 91
0 254 89
0 252 89
3 249 91
10 245 95
19 240 101
31 233 108
46 226 115
62 217 124
80 208 132
99 198 139
119 187 146
139 176 152
159 164 156
178 152 158
196 139 159
212 127 158
226 114 155
237 102 151
246 90 145
252 78 139
254 66 132
254 56 125
250 46 118
243 36 112
234 28 106
221 20 101
206 14 96
190 9 93
172 5 91
152 2 90
132 0 89
112 0 89
92 0 89
73 2 89
56 5 90
40 10 90
27 15 90
15 22 90
7 30 89
2 38 89
0 48 89
1 58 89
5 69 90
12 80 91
22 92 94
35 105 98
50 117 104
66 130 111
85 142 120
104 155 130
124 167 142
144 179 155
164 190 169
183 200 183
200 210 197
216 219 210
229 228 222
240 235 233
248 241 242
253 246 248
254 250 252
253 253 252
249 254 250
241 254 246
231 253 238
218 251 229
202 248 217
185 243 204
167 237 190
147 230 176
127 223 161
107 214 148
87 204 135
69 194 123
52 183 113
36 171 105
23 159 99
13 147 94
5 134 91
1 122 89
0 109 89
1 97 89
6 85 90
14 73 91
25 62 93
38 51 94
54 42 95
71 33 95
90 25 95
109 18 94
129 12 93
149 7 92
169 3 90
187 1 89
204 0 89
219 0 89
232 1 90
242 3 91
249 7 94
253 12 97
254 18 101
252 25 105
247 33 110
239 42 115
228 52 119
214 62 123
198 73 126
181 85 128
162 97 129
142 110 129
122 122 127
102 135 124
83 147 120
64 160 115
48 172 110
33 183 104
21 194 99
11 205 95
4 214 91
0 223 89
0 231 89
2 238 90
8 243 94
17 248 100
28 251 107
42 253 116
58 254 127
75 254 138
94 253 150
114 250 162
134 246 174
154 241 184
174 235 193
192 227 200
208 219 206
223 210 209
235 200 209
244 189 207
251 178 203
254 50 122
250 61 128
243 72 134
233 83 139
220 95 143
206 108 146
189 120 147
171 133 147
151 145 145
131 158 142
111 170 137
91 182 131
72 193 125
55 203 118
39 213 110
26 222 104
15 230 98
7 237 93
2 242 90
0 247 89
1 251 89
5 253 92
12 254 97
22 254 104
35 253 112
50 250 121
67 247 131
86 242 142
105 236 152
125 229 162
145 220 171
165 211 178
184 202 184
201 191 187
216 180 188
230 168 188
240 156 185
248 144 180
253 131 174
254 119 166
253 106 158
248 94 149
241 82 139
230 70 130
217 59 122
202 49 114
184 39 108
166 31 102
146 23 97
126 16 94
106 10 92
87 6 90
68 3 89
51 0 89
36 0 89
23 0 89
13 1 89
5 4 89
1 8 89
0 13 89
1 20 89
7 27 89
15 35 90
25 44 92
39 54 94
54 65 98
72 76 103
91 88 109
110 100 117
130 113 127
150 125 137
170 138 149
188 150 161
205 163 174
220 175 187
233 186 200
242 197 211
250 207 221
254 216 229
254 225 235
252 233 239
247 239 240
238 245 238
227 249 233
213 252 226
197 254 217
180 254 206
161 254 193
141 252 180
121 249 166
101 245 152
82 239 139
64 233 127
47 225 116
32 217 107
20 208 100
10 197 94
4 187 91
0 175 89
0 163 89
2 151 90
8 139 92
17 126 94
29 114 97
43 101 100
59 89 102
76 77 104
95 66 105
115 55 105
135 45 105
155 36 103
175 27 101
193 20 99
209 14 96
223 9 94
235 4 92
245 2 90
251 0 89
254 0 89
254 0 89
251 2 91
245 6 93
236 10 95
224 16 98
210 22 101
193 30 104
175 39 106
156 48 108
136 59 109
116 70 110
96 81 109
77 93 107
59 105 105
43 118 102
29 130 99
17 143 95
9 155 92
3 168 90
0 179 89
0 190 89
4 201 91
10 211 95
20 220 100
32 228 108
46 235 117
63 241 128
81 246 140
100 250 153
120 253 167
140 254 180
160 254 193
179 253 205
197 251 215
213 247 224
227 243 230
238 237 233
246 230 234
252 222 232
254 213 228
254 204 221
240 29 107
229 38 111
216 47 115
201 57 118
183 68 121
165 79 122
145 91 123
125 104 122
105 116 120
86 129 117
67 141 113
50 154 109
35 166 104
22 178 99
12 189 95
5 200 91
1 210 89
0 219 89
2 227 90
7 234 93
15 241 98
26 246 105
40 250 114
55 253 125
73 254 136
92 254 149
111 254 161
131 251 173
151 248 185
171 244 195
189 238 204
206 231 211
221 223 215
233 215 217
243 205 216
250 195 213
254 184 208
254 172 201
252 160 192
246 148 182
238 135 171
226 123 160
213 110 149
197 98 138
179 86 128
160 74 119
140 63 111
120 52 105
100 43 100
81 34 96
63 25 93
46 18 91
32 12 90
19 7 89
10 4 89
4 1 89
0 0 89
0 0 89
3 1 89
9 3 89
18 7 89
29 12 90
43 17 91
60 24 93
77 32 95
96 41 99
116 51 104
136 61 110
156 73 118
176 84 127
193 96 137
210 109 147
224 121 158
236 134 170
245 146 181
251 159 191
254 171 200
254 182 207
251 193 213
244 204 216
235 213 217
223 222 216
209 230 212
192 237 205
174 243 197
155 247 187
135 251 176
115 253 163
95 254 151
76 254 139
58 253 127
42 250 116
28 246 107
17 241 99
8 235 94
2 228 90
0 220 89
0 211 89
4 201 91
11 190 94
20 179 98
33 167 103
47 155 108
64 143 112
82 130 116
101 118 119
121 105 122
142 93 123
161 81 122
180 70 121
198 59 119
214 48 115
227 39 112
238 30 107
247 22 103
252 16 99
254 10 96
254 6 93
249 2 91
242 0 89
232 0 89
220 0 89
205 2 90
188 4 91
170 9 93
150 14 94
130 20 96
110 27 97
90 36 97
72 45 97
54 55 96
39 66 95
25 77 94
14 89 92
6 101 91
1 114 89
0 126 89
1 139 89
5 151 91
13 163 94
23 175 99
36 187 106
51 197 115
68 208 125
87 217 137
106 225 150
126 233 164
146 239 179
166 245 193
185 249 207
202 252 219
217 254 230
230 254 239
241 254 245
248 252 249
253 249 250
254 245 248
253 239 243
248 233 236
240 225 227
212 13 96
196 19 99
178 26 101
159 35 103
139 44 104
119 54 105
99 64 105
80 75 104
62 87 103
45 99 100
31 112 98
19 124 95
10 137 92
3 149 90
0 162 89
0 174 89
3 185 90
9 196 94
18 206 99
30 216 105
44 224 114
60 232 125
78 239 137
97 244 150
117 249 164
138 252 177
157 254 191
176 254 204
194 254 215
211 252 225
225 249 232
236 245 237
245 240 239
251 234 239
254 226 236
254 218 230
251 208 222
244 198 213
235 188 201
222 176 189
208 164 176
191 152 163
173 140 151
154 127 139
134 115 128
114 102 119
94 90 111
75 78 104
57 67 99
42 56 95
28 46 92
16 37 90
8 28 89
2 21 89
0 14 89
0 9 89
4 5 89
11 2 89
21 0 89
33 0 89
48 0 89
65 2 89
83 5 90
102 10 91
122 15 94
143 22 97
162 29 101
181 38 107
199 48 113
214 58 121
228 69 129
239 80 138
247 92 147
252 104 156
254 117 165
253 129 173
249 142 179
242 154 184
232 166 188
219 178 189
204 190 188
187 200 185
169 210 180
149 219 173
129 227 164
109 235 154
89 241 144
71 246 133
53 250 123
38 253 114
25 254 105
14 254 98
6 253 93
1 251 90
0 248 89
1 243 90
6 238 92
13 231 97
24 223 103
37 214 109
52 205 116
69 194 123
88 183 130
107 172 136
127 160 141
148 147 144
167 135 147
186 122 147
203 110 146
218 97 143
231 85 139
241 73 134
249 62 129
253 52 123
254 42 116
253 33 110
248 25 105
240 18 100
229 12 96
215 7 93
200 3 91
183 1 89
164 0 89
144 0 89
124 1 89
104 3 90
85 7 90
66 12 91
49 18 91
34 25 91
22 33 91
12 42 90
5 52 89
0 62 89
0 73 89
2 85 89
7 97 91
16 109 93
27 122 97
40 134 103
56 147 110
74 159 119
93 171 130
112 183 141
132 194 155
152 204 169
172 214 183
190 223 197
207 230 211
221 237 223
234 243 234
243 248 243
250 251 250
254 253 253
254 254 254
252 254 252
246 253 248
237 250 241
226 246 231
212 241 219
172 3 90
153 6 91
133 11 93
113 17 94
93 24 95
74 32 95
57 40 95
41 50 94
27 60 93
16 72 92
7 83 90
2 95 89
0 107 89
0 120 89
4 133 90
11 145 93
21 157 98
34 170 104
49 181 112
66 192 121
84 203 133
103 213 145
123 221 159
144 229 173
163 236 188
182 242 202
199 247 215
215 251 227
228 253 237
239 254 245
247 254 250
253 253 252
254 250 252
253 247 249
249 242 243
241 236 235
231 229 224
218 221 212
203 212 199
186 202 185
168 191 171
148 180 157
128 169 144
108 156 132
88 144 121
70 131 112
52 119 105
37 106 99
24 94 95
13 82 92
6 71 90
1 60 89
0 49 89
1 40 89
6 31 89
14 23 90
24 16 90
37 11 90
53 6 90
70 3 89
89 0 89
108 0 89
128 0 89
149 1 89
168 4 91
187 8 93
204 13 96
219 19 100
231 27 105
242 35 111
249 44 117
253 54 124
254 65 131
252 76 138
247 88 145
239 100 150
228 112 155
215 125 158
199 138 159
182 150 159
163 162 157
143 174 153
123 186 147
103 197 141
84 207 133
65 216 125
48 225 117
34 232 109
21 239 102
11 244 96
4 249 92
0 252 89
0 254 89
2 254 90
8 254 94
16 252 99
27 249 106
41 245 115
57 240 124
75 233 134
94 226 143
113 217 152
134 208 160
153 198 167
173 187 172
191 176 175
208 164 176
222 151 175
234 139 172
244 126 168
250 114 162
254 101 155
254 89 147
251 77 139
246 66 131
237 55 122
225 45 115
211 36 108
195 28 103
177 20 98
158 14 95
138 9 92
118 5 90
98 2 89
79 0 89
61 0 89
45 0 89
30 2 89
18 6 89
9 10 89
3 16 89
0 22 89
0 30 89
3 39 89
9 48 90
19 58 92
31 69 94
45 81 98
61 93 103
79 105 110
98 117 119
118 130 128
139 143 139
158 155 152
177 167 165
195 179 178
211 190 192
225 201 205
237 211 217
246 220 227
252 228 235
254 235 242
254 241 245
250 246 246
244 250 245
234 253 240
222 254 233
207 254 224
191 253 212
172 251 200
127 0 89
107 0 89
87 2 89
69 5 90
52 9 90
36 15 90
23 21 90
13 29 90
5 37 89
1 47 89
0 57 89
1 68 89
6 79 90
14 91 92
25 103 95
38 116 100
54 128 107
71 141 115
90 153 124
109 165 135
130 177 148
150 189 161
169 199 175
187 209 189
204 218 203
219 227 216
232 234 228
242 240 238
249 246 245
253 250 251
254 252 253
252 254 253
247 254 250
239 254 244
228 252 235
214 248 225
198 244 212
181 238 199
162 231 185
142 224 170
122 215 156
102 205 143
83 195 130
64 184 119
48 173 110
33 161 102
21 148 97
11 136 93
4 123 90
0 111 89
0 98 89
2 86 89
8 74 90
17 63 92
28 53 93
42 43 93
58 34 94
76 26 94
95 19 93
114 12 93
135 7 91
154 4 90
174 1 89
192 0 89
208 0 89
223 1 89
235 3 91
244 7 93
251 11 96
254 17 100
254 24 105
251 32 110
245 41 115
236 51 120
224 61 124
210 72 128
194 84 131
176 96 132
157 108 132
137 121 131
117 133 129
97 146 125
78 158 120
60 170 115
44 182 109
30 193 104
18 203 98
9 213 94
3 222 91
0 230 89
0 237 89
3 243 91
10 247 95
19 251 101
31 253 109
46 254 119
62 254 129
80 253 141
100 250 153
119 247 164
140 242 175
159 235 185
178 228 193
196 220 199
212 211 203
226 201 205
237 191 205
246 180 202
252 168 197
254 156 190
254 143 182
250 131 173
243 118 162
233 106 152
221 93 142
206 81 132
190 70 123
171 59 115
152 49 108
132 39 102
112 30 98
92 23 94
73 16 92
56 10 90
40 6 89
26 2 89
15 0 89
7 0 89
2 0 89
0 2 89
1 4 89
5 8 89
12 14 89
22 20 90
35 27 91
50 36 93
67 45 96
85 55 101
104 65 106
124 77 113
145 89 122
164 101 131
183 113 142
200 126 153
216 138 165
229 151 177
240 163 189
248 175 200
253 186 209
254 197 217
253 207 223
249 217 227
241 225 228
231 233 226
218 239 222
202 245 216
185 249 207
167 252 196
147 254 184
127 255 172
