P3
384 216
255
255 255 255 255 255 255 20 150 90 20 150 90 20 150 90 20 150 90 20 150 90 20 150 90 20 150 90 20 150 90 20 150 90 20 150 90 20 150 90 20 150 90 20 150 90 20 150 90 20 150 90 20 150 90 20 150 90 20 150 90 20 150 90 20 150 90 20 150 90 20 150 90 20 150 90 20 150 90 20 150 90 20 150 90 20 150 90 20 150 90 20 150 90 20 150 90 20 150 90 20 150 90 20 150 90 20 150 90 20 150 90 20 150 90 20 150 90 20 150 90 20 150 90 20 150 90 20 150 90 20 150 90 20 150 90 20 150 90 20 150 90 20 150 90 20 150 90 20 150 90 20 150 90 20 150 90 20 150 90 20 150 90 20 150 90 20 150 90 20 150 90 20 150 90 20 150 90 20 150 90 20 150 90 20 150 90 20 150 90 20 150 90 20 150 90 20 150 90 20 150 90 20 150 90 20 150 90 20 150 90 20 150 90 20 150 90 20 150 90 20 150 90 20 150 90 20 150 90 20 150 90 20 150 90 20 150 90 20 150 90 20 150 90 20 150 90 20 150 90 20 150 90 20 150 90 20 150 90 20 150 90 20 150 90 20 150 90 20 150 90 20 150 90 20 150 90 20 150 90 20 150 90 20 150 90 20 150 90 20 150 90 20 150 90 20 150 90 20 150 90 20 150 90 20 150 90 20 150 90 20 150 90 20 150 90 20 150 90 20 150 90 20 150 90 20 150 90 20 150 90 20 150 90 20 150 90 20 150 90 20 150 90 20 150 90 20 150 90 20 150 90 20 150 90 20 150 90 20 150 90 20 150 90 20 150 90 20 150 90 20 150 90 20 150 90 20 150 90 20 150 90 20 150 90 20 150 90 20 150 90 20 150 90 20 150 90 20 150 90 20 150 90 20 150 90 20 150 90 20 150 90 20 150 90 20 150 90 20 150 90 20 150 90 20 150 90 20 150 90 20 150 90 20 150 90 20 150 90 20 150 90 20 150 90 20 150 90 20 150 90 20 150 90 20 150 90 20 150 90 20 150 90 20 150 90 20 150 90 20 150 90 20 150 90 20 150 90 20 150 90 20 150 90 20 150 90 20 150 90 20 150 90 20 150 90 20 150 90 20 150 90 20 150 90 20 150 90 20 150 90 20 150 90 20 150 90 20 150 90 20 150 90 20 150 90 20 150 90 20 150 90 20 150 90 20 150 90 20 150 90 20 150 90 20 150 90 20 150 90 20 150 90 20 150 90 20 150 90 20 150 90 20 150 90 20 150 90 20 150 90 20 150 90 20 150 90 255 120 40 20 150 90 20 150 90 20 150 90 20 150 90 20 150 90 20 150 90 20 150 90 20 150 90 20 150 90 20 150 90 20 150 90 20 150 90 20 150 90 20 150 90 20 150 90 20 150 90 20 150 90 20 150 90 20 150 90 20 150 90 20 150 90 20 150 90 255 132 186 255 132 186 255 132 186 20 150 90 20 150 90 20 150 90 20 150 90 20 150 90 20 150 90 20 150 90 20 150 90 20 150 90 20 150 90 20 150 90 20 150 90 20 150 90 20 150 90 20 150 90 20 150 90 20 150 90 20 150 90 20 150 90 20 150 90 20 150 90 20 150 90 20 150 90 20 150 90 20 150 90 20 150 90 20 150 90 20 150 90 20 150 90 20 150 90 20 150 90 20 150 90 20 150 90 20 150 90 20 150 90 20 150 90 20 150 90 20 150 90 20 150 90 20 150 90 20 150 90 20 150 90 20 150 90 20 150 90 20 150 90 20 150 90 20 150 90 20 150 90 20 150 90 20 150 90 20 150 90 20 150 90 20 150 90 20 150 90 20 150 90 20 150 90 20 150 90 20 150 90 20 150 90 20 150 90 20 150 90 20 150 90 20 150 90 20 150 90 20 150 90 20 150 90 20 150 90 20 150 90 20 150 90 20 150 90 20 150 90 20 150 90 20 150 90 20 150 90 20 150 90 20 150 90 20 150 90 20 150 90 20 150 90 20 150 90 20 150 90 20 150 90 20 150 90 20 150 90 20 150 90 20 150 90 20 150 90 20 150 90 20 150 90 20 150 90 20 150 90 20 150 90 20 150 90 20 150 90 20 150 90 20 150 90 20 150 90 20 150 90 20 150 90 20 150 90 20 150 90 20 150 90 20 150 90 20 150 90 20 150 90 20 150 90 20 150 90 20 150 90 20 150 90 20 150 90 20 150 90 20 150 90 20 150 90 20 150 90 20 150 90 20 150 90 20 150 90 20 150 90 20 150 90 20 150 90 20 150 90 20 150 90 20 150 90 20 150 90 20 150 90 20 150 90 20 150 90 20 150 90 20 150 90 20 150 90 20 150 90 20 150 90 20 150 90 20 150 90 20 150 90 20 150 90 20 150 90 20 150 90 20 150 90 20 150 90 20 150 90 20 150 90 20 150 90 20 150 90 20 150 90 20 150 90 20 150 90 20 150 90 20 150 90 20 150 90 20 150 90 20 150 90 20 150 90 20 150 90 20 150 90 20 150 90 20 150 90 20 150 90 20 150 90 20 150 90 20 150 90 20 150 90 20 150 90 20 150 90 20 150 90 20 150 90 
20 149 90 20 149 90 255 255 255 255 255 255 20 149 90 20 149 90 20 149 90 20 149 90 20 149 90 20 149 90 20 149 90 20 149 90 20 149 90 20 149 90 20 149 90 20 149 90 20 149 90 20 149 90 20 149 90 20 149 90 20 149 90 20 149 90 20 149 90 20 149 90 20 149 90 20 149 90 20 149 90 20 149 90 20 149 90 20 149 90 20 149 90 20 149 90 20 149 90 20 149 90 20 149 90 20 149 90 20 149 90 20 149 90 20 149 90 20 149 90 20 149 90 20 149 90 20 149 90 20 149 90 20 149 90 20 149 90 20 149 90 20 149 90 20 149 90 20 149 90 20 149 90 20 149 90 20 149 90 20 149 90 20 149 90 20 149 90 20 149 90 20 149 90 20 149 90 20 149 90 20 149 90 20 149 90 20 149 90 20 149 90 20 149 90 20 149 90 20 149 90 20 149 90 20 149 90 20 149 90 20 149 90 20 149 90 20 149 90 20 149 90 20 149 90 20 149 90 20 149 90 20 149 90 20 149 90 20 149 90 20 149 90 20 149 90 20 149 90 20 149 90 20 149 90 20 149 90 20 149 90 20 149 90 20 149 90 20 149 90 20 149 90 20 149 90 20 149 90 20 149 90 20 149 90 20 149 90 20 149 90 20 149 90 20 149 90 20 149 90 20 149 90 20 149 90 20 149 90 20 149 90 20 149 90 20 149 90 20 149 90 20 149 90 20 149 90 20 149 90 20 149 90 20 149 90 20 149 90 20 149 90 20 149 90 20 149 90 20 149 90 20 149 90 20 149 90 20 149 90 20 149 90 20 149 90 20 149 90 20 149 90 20 149 90 20 149 90 20 149 90 20 149 90 20 149 90 20 149 90 20 149 90 20 149 90 20 149 90 20 149 90 20 149 90 20 149 90 20 149 90 20 149 90 20 149 90 20 149 90 20 149 90 20 149 90 20 149 90 20 149 90 20 149 90 20 149 90 20 149 90 20 149 90 20 149 90 20 149 90 20 149 90 20 149 90 20 149 90 20 149 90 20 149 90 20 149 90 20 149 90 20 149 90 20 149 90 20 149 90 20 149 90 20 149 90 20 149 90 20 149 90 20 149 90 20 149 90 20 149 90 20 149 90 20 149 90 20 149 90 20 149 90 20 149 90 20 149 90 20 149 90 20 149 90 20 149 90 20 149 90 20 149 90 20 149 90 20 149 90 20 149 90 20 149 90 20 149 90 20 149 90 20 149 90 20 149 90 20 149 90 20 149 90 20 149 90 20 149 90 255 136 183 255 136 183 255 120 40 20 149 90 20 149 90 20 149 90 20 149 90 20 149 90 20 149 90 20 149 90 20 149 90 20 149 90 20 149 90 20 149 90 20 149 90 20 149 90 20 149 90 20 149 90 20 149 90 20 149 90 20 149 90 20 149 90 20 149 90 20 149 90 20 149 90 255 132 186 255 132 186 255 132 186 20 149 90 20 149 90 20 149 90 20 149 90 20 149 90 20 149 90 20 149 90 20 149 90 20 149 90 20 149 90 20 149 90 20 149 90 20 149 90 20 149 90 20 149 90 20 149 90 20 149 90 20 149 90 20 149 90 20 149 90 20 149 90 20 149 90 20 149 90 20 149 90 20 149 90 20 149 90 20 149 90 20 149 90 20 149 90 20 149 90 20 149 90 20 149 90 20 149 90 20 149 90 20 149 90 20 149 90 20 149 90 20 149 90 20 149 90 20 149 90 20 149 90 20 149 90 20 149 90 20 149 90 20 149 90 20 149 90 20 149 90 20 149 90 20 149 90 20 149 90 20 149 90 20 149 90 20 149 90 20 149 90 20 149 90 20 149 90 20 149 90 20 149 90 20 149 90 20 149 90 20 149 90 20 149 90 20 149 90 20 149 90 20 149 90 20 149 90 20 149 90 20 149 90 20 149 90 20 149 90 20 149 90 20 149 90 20 149 90 20 149 90 20 149 90 20 149 90 20 149 90 20 149 90 20 149 90 20 149 90 20 149 90 20 149 90 20 149 90 20 149 90 20 149 90 20 149 90 20 149 90 20 149 90 20 149 90 20 149 90 20 149 90 20 149 90 20 149 90 20 149 90 20 149 90 20 149 90 20 149 90 20 149 90 20 149 90 20 149 90 20 149 90 20 149 90 20 149 90 20 149 90 20 149 90 20 149 90 20 149 90 20 149 90 20 149 90 20 149 90 20 149 90 20 149 90 20 149 90 20 149 90 20 149 90 20 149 90 20 149 90 20 149 90 20 149 90 20 149 90 20 149 90 20 149 90 20 149 90 20 149 90 20 149 90 20 149 90 20 149 90 20 149 90 20 149 90 20 149 90 20 149 90 20 149 90 20 149 90 20 149 90 20 149 90 20 149 90 20 149 90 20 149 90 20 149 90 20 149 90 20 149 90 20 149 90 20 149 90 20 149 90 20 149 90 20 149 90 20 149 90 20 149 90 20 149 90 20 149 90 20 149 90 20 149 90 20 149 90 20 149 90 20 149 90 20 149 90 20 149 90 20 149 90 20 149 90 20 149 90 20 149 90 20 149 90 20 149 90 20 149 90 20 149 90 20 149 90 
20 148 91 20 148 91 20 148 91 20 148 91 255 255 255 255 255 255 20 148 91 20 148 91 20 148 91 20 148 91 20 148 91 20 148 91 20 148 91 20 148 91 20 148 91 20 148 91 20 148 91 20 148 91 20 148 91 20 148 91 20 148 91 20 148 91 20 148 91 20 148 91 20 148 91 20 148 91 20 148 91 20 148 91 20 148 91 20 148 91 20 148 91 20 148 91 20 148 91 20 148 91 20 148 91 20 148 91 20 148 91 20 148 91 20 148 91 20 148 91 20 148 91 20 148 91 20 148 91 20 148 91 20 148 91 20 148 91 20 148 91 20 148 91 20 148 91 20 148 91 20 148 91 20 148 91 20 148 91 20 148 91 20 148 91 20 148 91 20 148 91 20 148 91 20 148 91 20 148 91 20 148 91 20 148 91 20 148 91 20 148 91 20 148 91 20 148 91 20 148 91 20 148 91 20 148 91 20 148 91 20 148 91 20 148 91 20 148 91 20 148 91 20 148 91 20 148 91 20 148 91 20 148 91 20 148 91 20 148 91 20 148 91 20 148 91 20 148 91 20 148 91 20 148 91 20 148 91 20 148 91 20 148 91 20 148 91 20 148 91 20 148 91 20 148 91 20 148 91 20 148 91 20 148 91 20 148 91 20 148 91 20 148 91 20 148 91 20 148 91 20 148 91 20 148 91 20 148 91 20 148 91 20 148 91 20 148 91 20 148 91 20 148 91 20 148 91 20 148 91 20 148 91 20 148 91 20 148 91 20 148 91 20 148 91 20 148 91 20 148 91 20 148 91 20 148 91 20 148 91 20 148 91 20 148 91 20 148 91 20 148 91 20 148 91 20 148 91 20 148 91 20 148 91 20 148 91 20 148 91 20 148 91 20 148 91 20 148 91 20 148 91 20 148 91 20 148 91 20 148 91 20 148 91 20 148 91 20 148 91 20 148 91 20 148 91 20 148 91 20 148 91 20 148 91 20 148 91 20 148 91 20 148 91 20 148 91 20 148 91 20 148 91 20 148 91 20 148 91 20 148 91 20 148 91 20 148 91 20 148 91 20 148 91 20 148 91 20 148 91 20 148 91 20 148 91 20 148 91 20 148 91 20 148 91 20 148 91 20 148 91 20 148 91 20 148 91 20 148 91 20 148 91 20 148 91 20 148 91 20 148 91 20 148 91 20 148 91 20 148 91 20 148 91 20 148 91 20 148 91 20 148 91 20 148 91 20 148 91 20 148 91 20 148 91 20 148 91 20 148 91 20 148 91 20 148 91 20 148 91 255 136 183 255 136 183 255 120 40 20 148 91 20 148 91 20 148 91 20 148 91 20 148 91 20 148 91 20 148 91 20 148 91 20 148 91 20 148 91 20 148 91 20 148 91 20 148 91 20 148 91 20 148 91 20 148 91 20 148 91 20 148 91 20 148 91 20 148 91 20 148 91 20 148 91 255 132 186 255 132 186 255 132 186 20 148 91 20 148 91 20 148 91 20 148 91 20 148 91 20 148 91 20 148 91 20 148 91 20 148 91 20 148 91 20 148 91 20 148 91 20 148 91 20 148 91 20 148 91 20 148 91 20 148 91 20 148 91 20 148 91 20 148 91 20 148 91 20 148 91 20 148 91 20 148 91 20 148 91 20 148 91 20 148 91 20 148 91 20 148 91 20 148 91 20 148 91 20 148 91 20 148 91 20 148 91 20 148 91 20 148 91 20 148 91 20 148 91 20 148 91 20 148 91 20 148 91 20 148 91 20 148 91 20 148 91 20 148 91 20 148 91 20 148 91 20 148 91 20 148 91 20 148 91 20 148 91 20 148 91 20 148 91 20 148 91 20 148 91 20 148 91 20 148 91 20 148 91 20 148 91 20 148 91 20 148 91 20 148 91 20 148 91 20 148 91 20 148 91 20 148 91 20 148 91 20 148 91 20 148 91 20 148 91 20 148 91 20 148 91 20 148 91 20 148 91 20 148 91 20 148 91 20 148 91 20 148 91 20 148 91 20 148 91 20 148 91 20 148 91 20 148 91 20 148 91 20 148 91 20 148 91 20 148 91 20 148 91 20 148 91 20 148 91 20 148 91 20 148 91 20 148 91 20 148 91 20 148 91 20 148 91 20 148 91 20 148 91 20 148 91 20 148 91 20 148 91 20 148 91 20 148 91 20 148 91 20 148 91 20 148 91 20 148 91 20 148 91 20 148 91 20 148 91 20 148 91 20 148 91 20 148 91 20 148 91 20 148 91 20 148 91 20 148 91 20 148 91 20 148 91 20 148 91 20 148 91 20 148 91 20 148 91 20 148 91 20 148 91 20 148 91 20 148 91 20 148 91 20 148 91 20 148 91 20 148 91 20 148 91 20 148 91 20 148 91 20 148 91 20 148 91 20 148 91 20 148 91 20 148 91 20 148 91 20 148 91 20 148 91 20 148 91 20 148 91 20 148 91 20 148 91 20 148 91 20 148 91 20 148 91 20 148 91 20 148 91 20 148 91 20 148 91 20 148 91 20 148 91 20 148 91 20 148 91 20 148 91 20 148 91 20 148 91 20 148 91 20 148 91 20 148 91 20 148 91 20 148 91 20 148 91 
21 148 92 21 148 92 21 148 92 21 148 92 21 148 92 21 148 92 255 255 255 255 255 255 21 148 92 21 148 92 21 148 92 21 148 92 21 148 92 21 148 92 21 148 92 21 148 92 21 148 92 21 148 92 21 148 92 21 148 92 21 148 92 21 148 92 21 148 92 21 148 92 21 148 92 21 148 92 21 148 92 21 148 92 21 148 92 21 148 92 21 148 92 21 148 92 21 148 92 21 148 92 21 148 92 21 148 92 21 148 92 21 148 92 21 148 92 21 148 92 21 148 92 21 148 92 21 148 92 21 148 92 21 148 92 21 148 92 21 148 92 21 148 92 21 148 92 21 148 92 21 148 92 21 148 92 21 148 92 21 148 92 21 148 92 21 148 92 21 148 92 21 148 92 21 148 92 21 148 92 21 148 92 21 148 92 21 148 92 21 148 92 21 148 92 21 148 92 21 148 92 21 148 92 21 148 92 21 148 92 21 148 92 21 148 92 21 148 92 21 148 92 21 148 92 21 148 92 21 148 92 21 148 92 21 148 92 21 148 92 21 148 92 21 148 92 21 148 92 21 148 92 21 148 92 21 148 92 21 148 92 21 148 92 21 148 92 21 148 92 21 148 92 21 148 92 21 148 92 21 148 92 21 148 92 21 148 92 21 148 92 21 148 92 21 148 92 21 148 92 21 148 92 21 148 92 21 148 92 21 148 92 21 148 92 21 148 92 21 148 92 21 148 92 21 148 92 21 148 92 21 148 92 21 148 92 21 148 92 21 148 92 21 148 92 21 148 92 21 148 92 21 148 92 21 148 92 21 148 92 21 148 92 21 148 92 21 148 92 21 148 92 21 148 92 21 148 92 21 148 92 21 148 92 21 148 92 21 148 92 21 148 92 21 148 92 21 148 92 21 148 92 21 148 92 21 148 92 21 148 92 21 148 92 21 148 92 21 148 92 21 148 92 21 148 92 21 148 92 21 148 92 21 148 92 21 148 92 21 148 92 21 148 92 21 148 92 21 148 92 21 148 92 21 148 92 21 148 92 21 148 92 21 148 92 21 148 92 21 148 92 21 148 92 21 148 92 21 148 92 21 148 92 21 148 92 21 148 92 21 148 92 21 148 92 21 148 92 21 148 92 21 148 92 21 148 92 21 148 92 21 148 92 21 148 92 21 148 92 21 148 92 21 148 92 21 148 92 21 148 92 21 148 92 21 148 92 21 148 92 21 148 92 21 148 92 21 148 92 21 148 92 21 148 92 21 148 92 21 148 92 21 148 92 21 148 92 21 148 92 255 136 183 255 136 183 255 120 40 21 148 92 21 148 92 21 148 92 21 148 92 21 148 92 21 148 92 21 148 92 21 148 92 21 148 92 21 148 92 21 148 92 21 148 92 21 148 92 21 148 92 21 148 92 21 148 92 21 148 92 21 148 92 21 148 92 21 148 92 21 148 92 255 132 186 255 132 186 255 132 186 21 148 92 21 148 92 21 148 92 21 148 92 21 148 92 21 148 92 21 148 92 21 148 92 21 148 92 21 148 92 21 148 92 21 148 92 21 148 92 21 148 92 21 148 92 21 148 92 21 148 92 21 148 92 21 148 92 21 148 92 21 148 92 21 148 92 21 148 92 21 148 92 21 148 92 21 148 92 21 148 92 21 148 92 21 148 92 21 148 92 21 148 92 21 148 92 21 148 92 21 148 92 21 148 92 21 148 92 21 148 92 21 148 92 21 148 92 21 148 92 21 148 92 21 148 92 21 148 92 21 148 92 21 148 92 21 148 92 21 148 92 21 148 92 21 148 92 21 148 92 21 148 92 21 148 92 21 148 92 21 148 92 21 148 92 21 148 92 21 148 92 21 148 92 21 148 92 21 148 92 21 148 92 21 148 92 21 148 92 21 148 92 21 148 92 21 148 92 21 148 92 21 148 92 21 148 92 21 148 92 21 148 92 21 148 92 21 148 92 21 148 92 21 148 92 21 148 92 21 148 92 21 148 92 21 148 92 21 148 92 21 148 92 21 148 92 21 148 92 21 148 92 21 148 92 21 148 92 21 148 92 21 148 92 21 148 92 21 148 92 21 148 92 21 148 92 21 148 92 21 148 92 21 148 92 21 148 92 21 148 92 21 148 92 21 148 92 21 148 92 21 148 92 21 148 92 21 148 92 21 148 92 21 148 92 21 148 92 21 148 92 21 148 92 21 148 92 21 148 92 21 148 92 21 148 92 21 148 92 21 148 92 21 148 92 21 148 92 21 148 92 21 148 92 21 148 92 21 148 92 21 148 92 21 148 92 21 148 92 21 148 92 21 148 92 21 148 92 21 148 92 21 148 92 21 148 92 21 148 92 21 148 92 21 148 92 21 148 92 21 148 92 21 148 92 21 148 92 21 148 92 21 148 92 21 148 92 21 148 92 21 148 92 21 148 92 21 148 92 21 148 92 21 148 92 21 148 92 21 148 92 21 148 92 21 148 92 21 148 92 21 148 92 21 148 92 21 148 92 21 148 92 21 148 92 21 148 92 21 148 92 21 148 92 21 148 92 21 148 92 21 148 92 21 148 92 21 148 92 21 148 92 21 148 92 21 148 92 21 148 92 
21 147 93 21 147 93 21 147 93 21 147 93 21 147 93 21 147 93 21 147 93 21 147 93 255 255 255 21 147 93 21 147 93 21 147 93 21 147 93 21 147 93 21 147 93 21 147 93 21 147 93 21 147 93 21 147 93 21 147 93 21 147 93 21 147 93 21 147 93 21 147 93 21 147 93 21 147 93 21 147 93 21 147 93 21 147 93 21 147 93 21 147 93 21 147 93 21 147 93 21 147 93 21 147 93 21 147 93 21 147 93 21 147 93 21 147 93 21 147 93 21 147 93 21 147 93 21 147 93 21 147 93 21 147 93 21 147 93 21 147 93 21 147 93 21 147 93 21 147 93 21 147 93 21 147 93 21 147 93 21 147 93 21 147 93 21 147 93 21 147 93 21 147 93 21 147 93 21 147 93 21 147 93 21 147 93 21 147 93 21 147 93 21 147 93 21 147 93 21 147 93 21 147 93 21 147 93 21 147 93 21 147 93 21 147 93 21 147 93 21 147 93 21 147 93 21 147 93 21 147 93 21 147 93 21 147 93 21 147 93 21 147 93 21 147 93 21 147 93 21 147 93 21 147 93 21 147 93 21 147 93 21 147 93 21 147 93 21 147 93 21 147 93 21 147 93 21 147 93 21 147 93 21 147 93 21 147 93 21 147 93 21 147 93 21 147 93 21 147 93 21 147 93 21 147 93 21 147 93 21 147 93 21 147 93 21 147 93 21 147 93 21 147 93 21 147 93 21 147 93 21 147 93 21 147 93 21 147 93 21 147 93 21 147 93 21 147 93 21 147 93 21 147 93 21 147 93 21 147 93 21 147 93 21 147 93 21 147 93 21 147 93 21 147 93 21 147 93 21 147 93 21 147 93 21 147 93 21 147 93 21 147 93 21 147 93 21 147 93 21 147 93 21 147 93 21 147 93 21 147 93 21 147 93 21 147 93 21 147 93 21 147 93 21 147 93 21 147 93 21 147 93 21 147 93 21 147 93 21 147 93 21 147 93 21 147 93 21 147 93 21 147 93 21 147 93 21 147 93 21 147 93 21 147 93 21 147 93 21 147 93 21 147 93 21 147 93 21 147 93 21 147 93 21 147 93 21 147 93 21 147 93 21 147 93 21 147 93 21 147 93 21 147 93 21 147 93 21 147 93 21 147 93 21 147 93 21 147 93 21 147 93 21 147 93 21 147 93 21 147 93 21 147 93 21 147 93 21 147 93 21 147 93 21 147 93 21 147 93 21 147 93 21 147 93 21 147 93 21 147 93 21 147 93 21 147 93 21 147 93 255 136 183 255 136 183 255 120 40 21 147 93 21 147 93 21 147 93 21 147 93 21 147 93 21 147 93 21 147 93 21 147 93 21 147 93 21 147 93 21 147 93 21 147 93 21 147 93 21 147 93 21 147 93 21 147 93 21 147 93 21 147 93 21 147 93 21 147 93 21 147 93 255 132 186 255 132 186 255 132 186 21 147 93 21 147 93 21 147 93 21 147 93 21 147 93 21 147 93 21 147 93 21 147 93 21 147 93 21 147 93 21 147 93 21 147 93 21 147 93 21 147 93 21 147 93 21 147 93 21 147 93 21 147 93 21 147 93 21 147 93 21 147 93 21 147 93 21 147 93 21 147 93 21 147 93 21 147 93 21 147 93 21 147 93 21 147 93 21 147 93 21 147 93 21 147 93 21 147 93 21 147 93 21 147 93 21 147 93 21 147 93 21 147 93 21 147 93 21 147 93 21 147 93 21 147 93 21 147 93 21 147 93 21 147 93 21 147 93 21 147 93 21 147 93 21 147 93 21 147 93 21 147 93 21 147 93 21 147 93 21 147 93 21 147 93 21 147 93 21 147 93 21 147 93 21 147 93 21 147 93 21 147 93 21 147 93 21 147 93 21 147 93 21 147 93 21 147 93 21 147 93 21 147 93 21 147 93 21 147 93 21 147 93 21 147 93 21 147 93 21 147 93 21 147 93 21 147 93 21 147 93 21 147 93 21 147 93 21 147 93 21 147 93 21 147 93 21 147 93 21 147 93 21 147 93 21 147 93 21 147 93 21 147 93 21 147 93 21 147 93 21 147 93 21 147 93 21 147 93 21 147 93 21 147 93 21 147 93 21 147 93 21 147 93 21 147 93 21 147 93 21 147 93 21 147 93 21 147 93 21 147 93 21 147 93 21 147 93 21 147 93 21 147 93 21 147 93 21 147 93 21 147 93 21 147 93 21 147 93 21 147 93 21 147 93 21 147 93 21 147 93 21 147 93 21 147 93 21 147 93 21 147 93 21 147 93 21 147 93 21 147 93 21 147 93 21 147 93 21 147 93 21 147 93 21 147 93 21 147 93 21 147 93 21 147 93 21 147 93 21 147 93 21 147 93 21 147 93 21 147 93 21 147 93 21 147 93 21 147 93 21 147 93 21 147 93 21 147 93 21 147 93 21 147 93 21 147 93 21 147 93 21 147 93 21 147 93 21 147 93 21 147 93 21 147 93 21 147 93 21 147 93 21 147 93 21 147 93 21 147 93 21 147 93 21 147 93 21 147 93 21 147 93 21 147 93 21 147 93 21 147 93 21 147 93 21 147 93 21 147 93 
21 147 94 21 147 94 21 147 94 21 147 94 21 147 94 21 147 94 21 147 94 21 147 94 21 147 94 255 255 255 255 255 255 21 147 94 21 147 94 21 147 94 21 147 94 21 147 94 21 147 94 21 147 94 21 147 94 21 147 94 21 147 94 21 147 94 21 147 94 21 147 94 21 147 94 21 147 94 21 147 94 21 147 94 21 147 94 21 147 94 21 147 94 21 147 94 21 147 94 21 147 94 21 147 94 21 147 94 21 147 94 21 147 94 21 147 94 21 147 94 21 147 94 21 147 94 21 147 94 21 147 94 21 147 94 21 147 94 21 147 94 21 147 94 21 147 94 21 147 94 21 147 94 21 147 94 21 147 94 21 147 94 21 147 94 21 147 94 21 147 94 21 147 94 21 147 94 21 147 94 21 147 94 21 147 94 21 147 94 21 147 94 21 147 94 21 147 94 21 147 94 21 147 94 21 147 94 21 147 94 21 147 94 21 147 94 21 147 94 21 147 94 21 147 94 21 147 94 21 147 94 21 147 94 21 147 94 21 147 94 21 147 94 21 147 94 21 147 94 21 147 94 21 147 94 21 147 94 21 147 94 21 147 94 21 147 94 21 147 94 21 147 94 21 147 94 21 147 94 21 147 94 21 147 94 21 147 94 21 147 94 21 147 94 21 147 94 21 147 94 21 147 94 21 147 94 21 147 94 21 147 94 21 147 94 21 147 94 21 147 94 21 147 94 21 147 94 21 147 94 21 147 94 21 147 94 21 147 94 21 147 94 21 147 94 21 147 94 21 147 94 21 147 94 21 147 94 21 147 94 21 147 94 21 147 94 21 147 94 21 147 94 21 147 94 21 147 94 21 147 94 21 147 94 21 147 94 21 147 94 21 147 94 21 147 94 21 147 94 21 147 94 21 147 94 21 147 94 21 147 94 21 147 94 21 147 94 21 147 94 21 147 94 21 147 94 21 147 94 21 147 94 21 147 94 21 147 94 21 147 94 21 147 94 21 147 94 21 147 94 21 147 94 21 147 94 21 147 94 21 147 94 21 147 94 21 147 94 21 147 94 21 147 94 21 147 94 21 147 94 21 147 94 21 147 94 21 147 94 21 147 94 21 147 94 21 147 94 21 147 94 21 147 94 21 147 94 21 147 94 21 147 94 21 147 94 21 147 94 21 147 94 21 147 94 21 147 94 21 147 94 21 147 94 21 147 94 21 147 94 21 147 94 21 147 94 21 147 94 21 147 94 21 147 94 21 147 94 21 147 94 21 147 94 21 147 94 21 147 94 255 136 183 255 136 183 255 120 40 21 147 94 21 147 94 21 147 94 21 147 94 21 147 94 21 147 94 21 147 94 21 147 94 21 147 94 21 147 94 21 147 94 21 147 94 21 147 94 21 147 94 21 147 94 21 147 94 21 147 94 21 147 94 21 147 94 21 147 94 21 147 94 255 132 186 255 132 186 255 132 186 21 147 94 21 147 94 21 147 94 21 147 94 21 147 94 21 147 94 21 147 94 21 147 94 21 147 94 21 147 94 21 147 94 21 147 94 21 147 94 21 147 94 21 147 94 21 147 94 21 147 94 21 147 94 21 147 94 21 147 94 21 147 94 21 147 94 21 147 94 255 128 189 255 128 189 255 128 189 21 147 94 21 147 94 21 147 94 21 147 94 21 147 94 21 147 94 21 147 94 21 147 94 21 147 94 21 147 94 21 147 94 21 147 94 21 147 94 21 147 94 21 147 94 21 147 94 21 147 94 21 147 94 21 147 94 21 147 94 21 147 94 21 147 94 21 147 94 21 147 94 21 147 94 21 147 94 21 147 94 21 147 94 21 147 94 21 147 94 21 147 94 21 147 94 21 147 94 21 147 94 21 147 94 21 147 94 21 147 94 21 147 94 21 147 94 21 147 94 21 147 94 21 147 94 21 147 94 21 147 94 21 147 94 21 147 94 21 147 94 21 147 94 21 147 94 21 147 94 21 147 94 21 147 94 21 147 94 21 147 94 21 147 94 21 147 94 21 147 94 21 147 94 21 147 94 21 147 94 21 147 94 21 147 94 21 147 94 21 147 94 21 147 94 21 147 94 21 147 94 21 147 94 21 147 94 21 147 94 21 147 94 21 147 94 21 147 94 21 147 94 21 147 94 21 147 94 21 147 94 21 147 94 21 147 94 21 147 94 21 147 94 21 147 94 21 147 94 21 147 94 21 147 94 21 147 94 21 147 94 21 147 94 21 147 94 21 147 94 21 147 94 21 147 94 21 147 94 21 147 94 21 147 94 21 147 94 21 147 94 21 147 94 21 147 94 21 147 94 21 147 94 21 147 94 21 147 94 21 147 94 21 147 94 21 147 94 21 147 94 21 147 94 21 147 94 21 147 94 21 147 94 21 147 94 21 147 94 21 147 94 21 147 94 21 147 94 21 147 94 21 147 94 21 147 94 21 147 94 21 147 94 21 147 94 21 147 94 21 147 94 21 147 94 21 147 94 21 147 94 21 147 94 21 147 94 21 147 94 21 147 94 21 147 94 21 147 94 21 147 94 21 147 94 21 147 94 21 147 94 21 147 94 21 147 94 21 147 94 21 147 94 
22 146 95 22 146 95 22 146 95 22 146 95 22 146 95 22 146 95 22 146 95 22 146 95 22 146 95 22 146 95 22 146 95 255 255 255 255 255 255 22 146 95 22 146 95 22 146 95 22 146 95 22 146 95 22 146 95 22 146 95 22 146 95 22 146 95 22 146 95 22 146 95 22 146 95 22 146 95 22 146 95 22 146 95 22 146 95 22 146 95 22 146 95 22 146 95 22 146 95 22 146 95 22 146 95 22 146 95 22 146 95 22 146 95 22 146 95 22 146 95 22 146 95 22 146 95 22 146 95 22 146 95 22 146 95 22 146 95 22 146 95 22 146 95 22 146 95 22 146 95 22 146 95 22 146 95 22 146 95 22 146 95 22 146 95 22 146 95 22 146 95 22 146 95 22 146 95 22 146 95 22 146 95 22 146 95 22 146 95 22 146 95 22 146 95 22 146 95 22 146 95 22 146 95 22 146 95 22 146 95 22 146 95 22 146 95 22 146 95 22 146 95 22 146 95 22 146 95 22 146 95 22 146 95 22 146 95 22 146 95 22 146 95 22 146 95 22 146 95 22 146 95 22 146 95 22 146 95 22 146 95 22 146 95 22 146 95 22 146 95 22 146 95 22 146 95 22 146 95 22 146 95 22 146 95 22 146 95 22 146 95 22 146 95 22 146 95 22 146 95 22 146 95 22 146 95 22 146 95 22 146 95 22 146 95 22 146 95 22 146 95 22 146 95 22 146 95 22 146 95 22 146 95 22 146 95 22 146 95 22 146 95 22 146 95 22 146 95 22 146 95 22 146 95 22 146 95 22 146 95 22 146 95 22 146 95 22 146 95 22 146 95 22 146 95 22 146 95 22 146 95 22 146 95 22 146 95 22 146 95 22 146 95 22 146 95 22 146 95 22 146 95 22 146 95 22 146 95 22 146 95 22 146 95 22 146 95 22 146 95 22 146 95 22 146 95 22 146 95 22 146 95 22 146 95 22 146 95 22 146 95 22 146 95 22 146 95 22 146 95 22 146 95 22 146 95 22 146 95 22 146 95 22 146 95 22 146 95 22 146 95 22 146 95 22 146 95 22 146 95 22 146 95 22 146 95 22 146 95 22 146 95 22 146 95 22 146 95 22 146 95 255 140 180 255 140 180 255 140 180 22 146 95 22 146 95 22 146 95 22 146 95 22 146 95 22 146 95 22 146 95 22 146 95 22 146 95 22 146 95 22 146 95 22 146 95 22 146 95 22 146 95 22 146 95 22 146 95 22 146 95 22 146 95 22 146 95 22 146 95 255 136 183 255 136 183 255 120 40 22 146 95 22 146 95 22 146 95 22 146 95 22 146 95 22 146 95 22 146 95 22 146 95 22 146 95 22 146 95 22 146 95 22 146 95 22 146 95 22 146 95 22 146 95 22 146 95 22 146 95 22 146 95 22 146 95 22 146 95 22 146 95 255 132 186 255 132 186 255 132 186 22 146 95 22 146 95 22 146 95 22 146 95 22 146 95 22 146 95 22 146 95 22 146 95 22 146 95 22 146 95 22 146 95 22 146 95 22 146 95 22 146 95 22 146 95 22 146 95 22 146 95 22 146 95 22 146 95 22 146 95 22 146 95 22 146 95 22 146 95 255 128 189 255 128 189 255 128 189 22 146 95 22 146 95 22 146 95 22 146 95 22 146 95 22 146 95 22 146 95 22 146 95 22 146 95 22 146 95 22 146 95 22 146 95 22 146 95 22 146 95 22 146 95 22 146 95 22 146 95 22 146 95 22 146 95 22 146 95 22 146 95 22 146 95 22 146 95 22 146 95 22 146 95 22 146 95 22 146 95 22 146 95 22 146 95 22 146 95 22 146 95 22 146 95 22 146 95 22 146 95 22 146 95 22 146 95 22 146 95 22 146 95 22 146 95 22 146 95 22 146 95 22 146 95 22 146 95 22 146 95 22 146 95 22 146 95 22 146 95 22 146 95 22 146 95 22 146 95 22 146 95 22 146 95 22 146 95 22 146 95 22 146 95 22 146 95 22 146 95 22 146 95 22 146 95 22 146 95 22 146 95 22 146 95 22 146 95 22 146 95 22 146 95 22 146 95 22 146 95 22 146 95 22 146 95 22 146 95 22 146 95 22 146 95 22 146 95 22 146 95 22 146 95 22 146 95 22 146 95 22 146 95 22 146 95 22 146 95 22 146 95 22 146 95 22 146 95 22 146 95 22 146 95 22 146 95 22 146 95 22 146 95 22 146 95 22 146 95 22 146 95 22 146 95 22 146 95 22 146 95 22 146 95 22 146 95 22 146 95 22 146 95 22 146 95 22 146 95 22 146 95 22 146 95 22 146 95 22 146 95 22 146 95 22 146 95 22 146 95 22 146 95 22 146 95 22 146 95 22 146 95 22 146 95 22 146 95 22 146 95 22 146 95 22 146 95 22 146 95 22 146 95 22 146 95 22 146 95 22 146 95 22 146 95 22 146 95 22 146 95 22 146 95 22 146 95 22 146 95 22 146 95 22 146 95 22 146 95 22 146 95 22 146 95 22 146 95 22 146 95 22 146 95 22 146 95 22 146 95 22 146 95 22 146 95 22 146 95 22 146 95 
22 146 96 22 146 96 22 146 96 22 146 96 22 146 96 22 146 96 22 146 96 22 146 96 22 146 96 22 146 96 22 146 96 22 146 96 22 146 96 255 255 255 255 255 255 22 146 96 22 146 96 22 146 96 22 146 96 22 146 96 22 146 96 22 146 96 22 146 96 22 146 96 22 146 96 22 146 96 22 146 96 22 146 96 22 146 96 22 146 96 22 146 96 22 146 96 22 146 96 22 146 96 22 146 96 22 146 96 22 146 96 22 146 96 22 146 96 22 146 96 22 146 96 22 146 96 22 146 96 22 146 96 22 146 96 22 146 96 22 146 96 22 146 96 22 146 96 22 146 96 22 146 96 22 146 96 22 146 96 22 146 96 22 146 96 22 146 96 22 146 96 22 146 96 22 146 96 22 146 96 22 146 96 22 146 96 22 146 96 22 146 96 22 146 96 22 146 96 22 146 96 22 146 96 22 146 96 22 146 96 22 146 96 22 146 96 22 146 96 22 146 96 22 146 96 22 146 96 22 146 96 22 146 96 22 146 96 22 146 96 22 146 96 22 146 96 22 146 96 22 146 96 22 146 96 22 146 96 22 146 96 22 146 96 22 146 96 22 146 96 22 146 96 22 146 96 22 146 96 22 146 96 22 146 96 22 146 96 22 146 96 22 146 96 22 146 96 22 146 96 22 146 96 22 146 96 22 146 96 22 146 96 22 146 96 22 146 96 22 146 96 22 146 96 22 146 96 22 146 96 22 146 96 22 146 96 22 146 96 22 146 96 22 146 96 22 146 96 22 146 96 22 146 96 22 146 96 22 146 96 22 146 96 22 146 96 22 146 96 22 146 96 22 146 96 22 146 96 22 146 96 22 146 96 22 146 96 22 146 96 22 146 96 22 146 96 22 146 96 22 146 96 22 146 96 22 146 96 22 146 96 22 146 96 22 146 96 22 146 96 22 146 96 22 146 96 22 146 96 22 146 96 22 146 96 22 146 96 22 146 96 22 146 96 22 146 96 22 146 96 22 146 96 22 146 96 22 146 96 22 146 96 22 146 96 22 146 96 22 146 96 22 146 96 22 146 96 22 146 96 22 146 96 22 146 96 22 146 96 22 146 96 22 146 96 22 146 96 22 146 96 255 140 180 255 140 180 255 140 180 22 146 96 22 146 96 22 146 96 22 146 96 22 146 96 22 146 96 22 146 96 22 146 96 22 146 96 22 146 96 22 146 96 22 146 96 22 146 96 22 146 96 22 146 96 22 146 96 22 146 96 22 146 96 22 146 96 22 146 96 255 136 183 255 136 183 255 120 40 22 146 96 22 146 96 22 146 96 22 146 96 22 146 96 22 146 96 22 146 96 22 146 96 22 146 96 22 146 96 22 146 96 22 146 96 22 146 96 22 146 96 22 146 96 22 146 96 22 146 96 22 146 96 22 146 96 22 146 96 255 132 186 255 132 186 255 132 186 22 146 96 22 146 96 22 146 96 22 146 96 22 146 96 22 146 96 22 146 96 22 146 96 22 146 96 22 146 96 22 146 96 22 146 96 22 146 96 22 146 96 22 146 96 22 146 96 22 146 96 22 146 96 22 146 96 22 146 96 22 146 96 22 146 96 22 146 96 255 128 189 255 128 189 255 128 189 22 146 96 22 146 96 22 146 96 22 146 96 22 146 96 22 146 96 22 146 96 22 146 96 22 146 96 22 146 96 22 146 96 22 146 96 22 146 96 22 146 96 22 146 96 22 146 96 22 146 96 22 146 96 22 146 96 22 146 96 22 146 96 22 146 96 22 146 96 22 146 96 22 146 96 22 146 96 22 146 96 22 146 96 22 146 96 22 146 96 22 146 96 22 146 96 22 146 96 22 146 96 22 146 96 22 146 96 22 146 96 22 146 96 22 146 96 22 146 96 22 146 96 22 146 96 22 146 96 22 146 96 22 146 96 22 146 96 22 146 96 22 146 96 22 146 96 22 146 96 22 146 96 22 146 96 22 146 96 22 146 96 22 146 96 22 146 96 22 146 96 22 146 96 22 146 96 22 146 96 22 146 96 22 146 96 22 146 96 22 146 96 22 146 96 22 146 96 22 146 96 22 146 96 22 146 96 22 146 96 22 146 96 22 146 96 22 146 96 22 146 96 22 146 96 22 146 96 22 146 96 22 146 96 22 146 96 22 146 96 22 146 96 22 146 96 22 146 96 22 146 96 22 146 96 22 146 96 22 146 96 22 146 96 22 146 96 22 146 96 22 146 96 22 146 96 22 146 96 22 146 96 22 146 96 22 146 96 22 146 96 22 146 96 22 146 96 22 146 96 22 146 96 22 146 96 22 146 96 22 146 96 22 146 96 22 146 96 22 146 96 22 146 96 22 146 96 22 146 96 22 146 96 22 146 96 22 146 96 22 146 96 22 146 96 22 146 96 22 146 96 22 146 96 22 146 96 22 146 96 22 146 96 22 146 96 22 146 96 22 146 96 22 146 96 22 146 96 22 146 96 22 146 96 22 146 96 22 146 96 22 146 96 22 146 96 22 146 96 22 146 96 22 146 96 22 146 96 22 146 96 22 146 96 22 146 96 22 146 96 22 146 96 22 146 96 
22 145 97 22 145 97 22 145 97 22 145 97 22 145 97 22 145 97 22 145 97 22 145 97 22 145 97 22 145 97 22 145 97 22 145 97 22 145 97 22 145 97 22 145 97 255 255 255 22 145 97 22 145 97 22 145 97 22 145 97 22 145 97 22 145 97 22 145 97 22 145 97 22 145 97 22 145 97 22 145 97 22 145 97 22 145 97 22 145 97 22 145 97 22 145 97 22 145 97 22 145 97 22 145 97 22 145 97 22 145 97 22 145 97 22 145 97 22 145 97 22 145 97 22 145 97 22 145 97 22 145 97 22 145 97 22 145 97 22 145 97 22 145 97 22 145 97 22 145 97 22 145 97 22 145 97 22 145 97 22 145 97 22 145 97 22 145 97 22 145 97 22 145 97 22 145 97 22 145 97 22 145 97 22 145 97 22 145 97 22 145 97 22 145 97 22 145 97 22 145 97 22 145 97 22 145 97 22 145 97 22 145 97 22 145 97 22 145 97 22 145 97 22 145 97 22 145 97 22 145 97 22 145 97 22 145 97 22 145 97 22 145 97 22 145 97 22 145 97 22 145 97 22 145 97 22 145 97 22 145 97 22 145 97 22 145 97 22 145 97 22 145 97 22 145 97 22 145 97 22 145 97 22 145 97 22 145 97 22 145 97 22 145 97 22 145 97 22 145 97 22 145 97 22 145 97 22 145 97 22 145 97 22 145 97 22 145 97 22 145 97 22 145 97 22 145 97 22 145 97 22 145 97 22 145 97 22 145 97 22 145 97 22 145 97 22 145 97 22 145 97 22 145 97 22 145 97 22 145 97 22 145 97 22 145 97 22 145 97 22 145 97 22 145 97 22 145 97 22 145 97 22 145 97 22 145 97 22 145 97 22 145 97 22 145 97 22 145 97 22 145 97 22 145 97 22 145 97 22 145 97 22 145 97 22 145 97 22 145 97 22 145 97 22 145 97 22 145 97 22 145 97 22 145 97 22 145 97 22 145 97 22 145 97 22 145 97 22 145 97 22 145 97 22 145 97 22 145 97 22 145 97 22 145 97 22 145 97 22 145 97 22 145 97 22 145 97 22 145 97 22 145 97 22 145 97 22 145 97 22 145 97 22 145 97 22 145 97 22 145 97 255 140 180 255 140 180 255 140 180 22 145 97 22 145 97 22 145 97 22 145 97 22 145 97 22 145 97 22 145 97 22 145 97 22 145 97 22 145 97 22 145 97 22 145 97 22 145 97 22 145 97 22 145 97 22 145 97 22 145 97 22 145 97 22 145 97 22 145 97 255 136 183 255 136 183 255 120 40 22 145 97 22 145 97 22 145 97 22 145 97 22 145 97 22 145 97 22 145 97 22 145 97 22 145 97 22 145 97 22 145 97 22 145 97 22 145 97 22 145 97 22 145 97 22 145 97 22 145 97 22 145 97 22 145 97 22 145 97 255 132 186 255 132 186 255 132 186 22 145 97 22 145 97 22 145 97 22 145 97 22 145 97 22 145 97 22 145 97 22 145 97 22 145 97 22 145 97 22 145 97 22 145 97 22 145 97 22 145 97 22 145 97 22 145 97 22 145 97 22 145 97 22 145 97 22 145 97 22 145 97 22 145 97 22 145 97 255 128 189 255 128 189 255 128 189 22 145 97 22 145 97 22 145 97 22 145 97 22 145 97 22 145 97 22 145 97 22 145 97 22 145 97 22 145 97 22 145 97 22 145 97 22 145 97 22 145 97 22 145 97 22 145 97 22 145 97 22 145 97 22 145 97 22 145 97 22 145 97 22 145 97 22 145 97 22 145 97 22 145 97 22 145 97 22 145 97 22 145 97 22 145 97 22 145 97 22 145 97 22 145 97 22 145 97 22 145 97 22 145 97 22 145 97 22 145 97 22 145 97 22 145 97 22 145 97 22 145 97 22 145 97 22 145 97 22 145 97 22 145 97 22 145 97 22 145 97 22 145 97 22 145 97 22 145 97 22 145 97 22 145 97 22 145 97 22 145 97 22 145 97 22 145 97 22 145 97 22 145 97 22 145 97 22 145 97 22 145 97 22 145 97 22 145 97 22 145 97 22 145 97 22 145 97 22 145 97 22 145 97 22 145 97 22 145 97 22 145 97 22 145 97 22 145 97 22 145 97 22 145 97 22 145 97 22 145 97 22 145 97 22 145 97 22 145 97 22 145 97 22 145 97 22 145 97 22 145 97 22 145 97 22 145 97 22 145 97 22 145 97 22 145 97 22 145 97 22 145 97 22 145 97 22 145 97 22 145 97 22 145 97 22 145 97 22 145 97 22 145 97 22 145 97 22 145 97 22 145 97 22 145 97 22 145 97 22 145 97 22 145 97 22 145 97 22 145 97 22 145 97 22 145 97 22 145 97 22 145 97 22 145 97 22 145 97 22 145 97 22 145 97 22 145 97 22 145 97 22 145 97 22 145 97 22 145 97 22 145 97 22 145 97 22 145 97 22 145 97 22 145 97 22 145 97 22 145 97 22 145 97 22 145 97 22 145 97 22 145 97 22 145 97 22 145 97 22 145 97 22 145 97 22 145 97 22 145 97 22 145 97 22 145 97 22 145 97 22 145 97 22 145 97 
23 144 97 23 144 97 23 144 97 23 144 97 23 144 97 23 144 97 23 144 97 23 144 97 23 144 97 23 144 97 23 144 97 23 144 97 23 144 97 23 144 97 23 144 97 23 144 97 255 255 255 255 255 255 23 144 97 23 144 97 23 144 97 23 144 97 23 144 97 23 144 97 23 144 97 23 144 97 23 144 97 23 144 97 23 144 97 23 144 97 23 144 97 23 144 97 23 144 97 23 144 97 23 144 97 23 144 97 23 144 97 23 144 97 23 144 97 23 144 97 23 144 97 23 144 97 23 144 97 23 144 97 23 144 97 23 144 97 23 144 97 23 144 97 23 144 97 23 144 97 23 144 97 23 144 97 23 144 97 23 144 97 23 144 97 23 144 97 23 144 97 23 144 97 23 144 97 23 144 97 23 144 97 23 144 97 23 144 97 23 144 97 23 144 97 23 144 97 23 144 97 23 144 97 23 144 97 23 144 97 23 144 97 23 144 97 23 144 97 23 144 97 23 144 97 23 144 97 23 144 97 23 144 97 23 144 97 23 144 97 23 144 97 23 144 97 23 144 97 23 144 97 23 144 97 23 144 97 23 144 97 23 144 97 23 144 97 23 144 97 23 144 97 23 144 97 23 144 97 23 144 97 23 144 97 23 144 97 23 144 97 23 144 97 23 144 97 23 144 97 23 144 97 23 144 97 23 144 97 23 144 97 23 144 97 23 144 97 23 144 97 23 144 97 23 144 97 23 144 97 23 144 97 23 144 97 23 144 97 23 144 97 23 144 97 23 144 97 23 144 97 23 144 97 23 144 97 23 144 97 23 144 97 23 144 97 23 144 97 23 144 97 23 144 97 23 144 97 23 144 97 23 144 97 23 144 97 23 144 97 23 144 97 23 144 97 23 144 97 23 144 97 23 144 97 23 144 97 23 144 97 23 144 97 23 144 97 23 144 97 23 144 97 23 144 97 23 144 97 23 144 97 23 144 97 23 144 97 23 144 97 23 144 97 23 144 97 23 144 97 23 144 97 23 144 97 23 144 97 23 144 97 23 144 97 23 144 97 23 144 97 23 144 97 23 144 97 23 144 97 23 144 97 23 144 97 23 144 97 23 144 97 23 144 97 23 144 97 23 144 97 23 144 97 255 140 180 255 140 180 255 140 180 23 144 97 23 144 97 23 144 97 23 144 97 23 144 97 23 144 97 23 144 97 23 144 97 23 144 97 23 144 97 23 144 97 23 144 97 23 144 97 23 144 97 23 144 97 23 144 97 23 144 97 23 144 97 23 144 97 255 136 183 255 136 183 255 120 40 23 144 97 23 144 97 23 144 97 23 144 97 23 144 97 23 144 97 23 144 97 23 144 97 23 144 97 23 144 97 23 144 97 23 144 97 23 144 97 23 144 97 23 144 97 23 144 97 23 144 97 23 144 97 23 144 97 23 144 97 255 132 186 255 132 186 255 132 186 23 144 97 23 144 97 23 144 97 23 144 97 23 144 97 23 144 97 23 144 97 23 144 97 23 144 97 23 144 97 23 144 97 23 144 97 23 144 97 23 144 97 23 144 97 23 144 97 23 144 97 23 144 97 23 144 97 23 144 97 23 144 97 23 144 97 255 128 189 255 128 189 255 128 189 23 144 97 23 144 97 23 144 97 23 144 97 23 144 97 23 144 97 23 144 97 23 144 97 23 144 97 23 144 97 23 144 97 23 144 97 23 144 97 23 144 97 23 144 97 23 144 97 23 144 97 23 144 97 23 144 97 23 144 97 23 144 97 23 144 97 23 144 97 23 144 97 23 144 97 23 144 97 23 144 97 23 144 97 23 144 97 23 144 97 23 144 97 23 144 97 23 144 97 23 144 97 23 144 97 23 144 97 23 144 97 23 144 97 23 144 97 23 144 97 23 144 97 23 144 97 23 144 97 23 144 97 23 144 97 23 144 97 23 144 97 23 144 97 23 144 97 23 144 97 23 144 97 23 144 97 23 144 97 23 144 97 23 144 97 23 144 97 23 144 97 23 144 97 23 144 97 23 144 97 23 144 97 23 144 97 23 144 97 23 144 97 23 144 97 23 144 97 23 144 97 23 144 97 23 144 97 23 144 97 23 144 97 23 144 97 23 144 97 23 144 97 23 144 97 23 144 97 23 144 97 23 144 97 23 144 97 23 144 97 23 144 97 23 144 97 23 144 97 23 144 97 23 144 97 23 144 97 23 144 97 23 144 97 23 144 97 23 144 97 23 144 97 23 144 97 23 144 97 23 144 97 23 144 97 23 144 97 23 144 97 23 144 97 23 144 97 23 144 97 23 144 97 23 144 97 23 144 97 23 144 97 23 144 97 23 144 97 23 144 97 23 144 97 23 144 97 23 144 97 23 144 97 23 144 97 23 144 97 23 144 97 23 144 97 23 144 97 23 144 97 23 144 97 23 144 97 23 144 97 23 144 97 23 144 97 23 144 97 23 144 97 23 144 97 23 144 97 23 144 97 23 144 97 23 144 97 23 144 97 23 144 97 23 144 97 23 144 97 23 144 97 23 144 97 23 144 97 23 144 97 23 144 97 23 144 97 23 144 97 23 144 97 23 144 97 23 144 97 
23 144 98 23 144 98 23 144 98 23 144 98 23 144 98 23 144 98 23 144 98 23 144 98 23 144 98 23 144 98 23 144 98 23 144 98 23 144 98 23 144 98 23 144 98 23 144 98 23 144 98 23 144 98 255 255 255 255 255 255 23 144 98 23 144 98 23 144 98 23 144 98 23 144 98 23 144 98 23 144 98 23 144 98 23 144 98 23 144 98 23 144 98 23 144 98 23 144 98 23 144 98 23 144 98 23 144 98 23 144 98 23 144 98 23 144 98 23 144 98 23 144 98 23 144 98 23 144 98 23 144 98 23 144 98 23 144 98 23 144 98 23 144 98 23 144 98 23 144 98 23 144 98 23 144 98 23 144 98 23 144 98 23 144 98 23 144 98 23 144 98 23 144 98 23 144 98 23 144 98 23 144 98 23 144 98 23 144 98 23 144 98 23 144 98 23 144 98 23 144 98 23 144 98 23 144 98 23 144 98 23 144 98 23 144 98 23 144 98 23 144 98 23 144 98 23 144 98 23 144 98 23 144 98 23 144 98 23 144 98 23 144 98 23 144 98 23 144 98 23 144 98 23 144 98 23 144 98 23 144 98 23 144 98 23 144 98 23 144 98 23 144 98 23 144 98 23 144 98 23 144 98 23 144 98 23 144 98 23 144 98 23 144 98 23 144 98 23 144 98 23 144 98 23 144 98 23 144 98 23 144 98 23 144 98 23 144 98 23 144 98 23 144 98 23 144 98 23 144 98 23 144 98 23 144 98 23 144 98 23 144 98 23 144 98 23 144 98 23 144 98 23 144 98 23 144 98 23 144 98 23 144 98 23 144 98 23 144 98 23 144 98 23 144 98 23 144 98 23 144 98 23 144 98 23 144 98 23 144 98 23 144 98 23 144 98 23 144 98 23 144 98 23 144 98 23 144 98 23 144 98 23 144 98 23 144 98 23 144 98 23 144 98 23 144 98 23 144 98 23 144 98 23 144 98 23 144 98 23 144 98 23 144 98 23 144 98 23 144 98 23 144 98 23 144 98 23 144 98 23 144 98 23 144 98 23 144 98 23 144 98 23 144 98 23 144 98 23 144 98 23 144 98 23 144 98 23 144 98 23 144 98 23 144 98 23 144 98 23 144 98 23 144 98 255 140 180 255 140 180 255 140 180 23 144 98 23 144 98 23 144 98 23 144 98 23 144 98 23 144 98 23 144 98 23 144 98 23 144 98 23 144 98 23 144 98 23 144 98 23 144 98 23 144 98 23 144 98 23 144 98 23 144 98 23 144 98 23 144 98 255 136 183 255 136 183 255 120 40 23 144 98 23 144 98 23 144 98 23 144 98 23 144 98 23 144 98 23 144 98 23 144 98 23 144 98 23 144 98 23 144 98 23 144 98 23 144 98 23 144 98 23 144 98 23 144 98 23 144 98 23 144 98 23 144 98 23 144 98 255 132 186 255 132 186 255 132 186 23 144 98 23 144 98 23 144 98 23 144 98 23 144 98 23 144 98 23 144 98 23 144 98 23 144 98 23 144 98 23 144 98 23 144 98 23 144 98 23 144 98 23 144 98 23 144 98 23 144 98 23 144 98 23 144 98 23 144 98 23 144 98 23 144 98 255 128 189 255 128 189 255 128 189 23 144 98 23 144 98 23 144 98 23 144 98 23 144 98 23 144 98 23 144 98 23 144 98 23 144 98 23 144 98 23 144 98 23 144 98 23 144 98 23 144 98 23 144 98 23 144 98 23 144 98 23 144 98 23 144 98 23 144 98 23 144 98 23 144 98 23 144 98 23 144 98 23 144 98 23 144 98 23 144 98 23 144 98 23 144 98 23 144 98 23 144 98 23 144 98 23 144 98 23 144 98 23 144 98 23 144 98 23 144 98 23 144 98 23 144 98 23 144 98 23 144 98 23 144 98 23 144 98 23 144 98 23 144 98 23 144 98 23 144 98 23 144 98 23 144 98 23 144 98 23 144 98 23 144 98 23 144 98 23 144 98 23 144 98 23 144 98 23 144 98 23 144 98 23 144 98 23 144 98 23 144 98 23 144 98 23 144 98 23 144 98 23 144 98 23 144 98 23 144 98 23 144 98 23 144 98 23 144 98 23 144 98 23 144 98 23 144 98 23 144 98 23 144 98 23 144 98 23 144 98 23 144 98 23 144 98 23 144 98 23 144 98 23 144 98 23 144 98 23 144 98 23 144 98 23 144 98 23 144 98 23 144 98 23 144 98 23 144 98 23 144 98 23 144 98 23 144 98 23 144 98 23 144 98 23 144 98 23 144 98 23 144 98 23 144 98 23 144 98 23 144 98 23 144 98 23 144 98 23 144 98 23 144 98 23 144 98 23 144 98 23 144 98 23 144 98 23 144 98 23 144 98 23 144 98 23 144 98 23 144 98 23 144 98 23 144 98 23 144 98 23 144 98 23 144 98 23 144 98 23 144 98 23 144 98 23 144 98 23 144 98 23 144 98 23 144 98 23 144 98 23 144 98 23 144 98 23 144 98 23 144 98 23 144 98 23 144 98 23 144 98 23 144 98 23 144 98 23 144 98 23 144 98 23 144 98 23 144 98 23 144 98 23 144 98 23 144 98 
24 143 99 24 143 99 24 143 99 24 143 99 24 143 99 24 143 99 24 143 99 24 143 99 24 143 99 24 143 99 24 143 99 24 143 99 24 143 99 24 143 99 24 143 99 24 143 99 24 143 99 24 143 99 24 143 99 24 143 99 255 255 255 255 255 255 24 143 99 24 143 99 24 143 99 24 143 99 24 143 99 24 143 99 24 143 99 24 143 99 24 143 99 24 143 99 24 143 99 24 143 99 24 143 99 24 143 99 24 143 99 24 143 99 24 143 99 24 143 99 24 143 99 24 143 99 24 143 99 24 143 99 24 143 99 24 143 99 24 143 99 24 143 99 24 143 99 24 143 99 24 143 99 24 143 99 24 143 99 24 143 99 24 143 99 24 143 99 24 143 99 24 143 99 24 143 99 24 143 99 24 143 99 24 143 99 24 143 99 24 143 99 24 143 99 24 143 99 24 143 99 24 143 99 24 143 99 24 143 99 24 143 99 24 143 99 24 143 99 24 143 99 24 143 99 24 143 99 24 143 99 24 143 99 24 143 99 24 143 99 24 143 99 24 143 99 24 143 99 24 143 99 24 143 99 24 143 99 24 143 99 24 143 99 24 143 99 24 143 99 24 143 99 24 143 99 24 143 99 24 143 99 24 143 99 24 143 99 24 143 99 24 143 99 24 143 99 24 143 99 24 143 99 24 143 99 24 143 99 24 143 99 24 143 99 24 143 99 24 143 99 24 143 99 24 143 99 24 143 99 24 143 99 24 143 99 24 143 99 24 143 99 24 143 99 24 143 99 24 143 99 24 143 99 24 143 99 24 143 99 24 143 99 24 143 99 24 143 99 24 143 99 24 143 99 24 143 99 24 143 99 24 143 99 24 143 99 24 143 99 24 143 99 24 143 99 24 143 99 24 143 99 24 143 99 24 143 99 24 143 99 24 143 99 24 143 99 24 143 99 24 143 99 24 143 99 24 143 99 24 143 99 24 143 99 24 143 99 24 143 99 24 143 99 24 143 99 24 143 99 24 143 99 24 143 99 24 143 99 24 143 99 24 143 99 24 143 99 24 143 99 24 143 99 24 143 99 24 143 99 24 143 99 24 143 99 24 143 99 24 143 99 24 143 99 24 143 99 24 143 99 24 143 99 255 140 180 255 140 180 255 140 180 24 143 99 24 143 99 24 143 99 24 143 99 24 143 99 24 143 99 24 143 99 24 143 99 24 143 99 24 143 99 24 143 99 24 143 99 24 143 99 24 143 99 24 143 99 24 143 99 24 143 99 24 143 99 24 143 99 255 136 183 255 136 183 255 120 40 24 143 99 24 143 99 24 143 99 24 143 99 24 143 99 24 143 99 24 143 99 24 143 99 24 143 99 24 143 99 24 143 99 24 143 99 24 143 99 24 143 99 24 143 99 24 143 99 24 143 99 24 143 99 24 143 99 24 143 99 255 132 186 255 132 186 255 132 186 24 143 99 24 143 99 24 143 99 24 143 99 24 143 99 24 143 99 24 143 99 24 143 99 24 143 99 24 143 99 24 143 99 24 143 99 24 143 99 24 143 99 24 143 99 24 143 99 24 143 99 24 143 99 24 143 99 24 143 99 24 143 99 255 128 189 255 128 189 255 128 189 24 143 99 24 143 99 24 143 99 24 143 99 24 143 99 24 143 99 24 143 99 24 143 99 24 143 99 24 143 99 24 143 99 24 143 99 24 143 99 24 143 99 24 143 99 24 143 99 24 143 99 24 143 99 24 143 99 24 143 99 24 143 99 24 143 99 24 143 99 24 143 99 24 143 99 24 143 99 24 143 99 24 143 99 24 143 99 24 143 99 24 143 99 24 143 99 24 143 99 24 143 99 24 143 99 24 143 99 24 143 99 24 143 99 24 143 99 24 143 99 24 143 99 24 143 99 24 143 99 24 143 99 24 143 99 24 143 99 24 143 99 24 143 99 24 143 99 24 143 99 24 143 99 24 143 99 24 143 99 24 143 99 24 143 99 24 143 99 24 143 99 24 143 99 24 143 99 24 143 99 24 143 99 24 143 99 24 143 99 24 143 99 24 143 99 24 143 99 24 143 99 24 143 99 24 143 99 24 143 99 24 143 99 24 143 99 24 143 99 24 143 99 24 143 99 24 143 99 24 143 99 24 143 99 24 143 99 24 143 99 24 143 99 24 143 99 24 143 99 24 143 99 24 143 99 24 143 99 24 143 99 24 143 99 24 143 99 24 143 99 24 143 99 24 143 99 24 143 99 24 143 99 24 143 99 24 143 99 24 143 99 24 143 99 24 143 99 24 143 99 24 143 99 24 143 99 24 143 99 24 143 99 24 143 99 24 143 99 24 143 99 24 143 99 24 143 99 24 143 99 24 143 99 24 143 99 24 143 99 24 143 99 24 143 99 24 143 99 24 143 99 24 143 99 24 143 99 24 143 99 24 143 99 24 143 99 24 143 99 24 143 99 24 143 99 24 143 99 24 143 99 24 143 99 24 143 99 24 143 99 24 143 99 24 143 99 24 143 99 24 143 99 24 143 99 24 143 99 24 143 99 24 143 99 24 143 99 24 143 99 24 143 99 24 143 99 24 143 99 24 143 99 
24 143 100 24 143 100 24 143 100 24 143 100 24 143 100 24 143 100 24 143 100 24 143 100 24 143 100 24 143 100 24 143 100 24 143 100 24 143 100 24 143 100 24 143 100 24 143 100 24 143 100 24 143 100 24 143 100 24 143 100 24 143 100 24 143 100 255 255 255 255 255 255 24 143 100 24 143 100 24 143 100 24 143 100 24 143 100 24 143 100 24 143 100 24 143 100 24 143 100 24 143 100 24 143 100 24 143 100 24 143 100 24 143 100 24 143 100 24 143 100 24 143 100 24 143 100 24 143 100 24 143 100 24 143 100 24 143 100 24 143 100 24 143 100 24 143 100 24 143 100 24 143 100 24 143 100 24 143 100 24 143 100 24 143 100 24 143 100 24 143 100 24 143 100 24 143 100 24 143 100 24 143 100 24 143 100 24 143 100 24 143 100 24 143 100 24 143 100 24 143 100 24 143 100 24 143 100 24 143 100 24 143 100 24 143 100 24 143 100 24 143 100 24 143 100 24 143 100 24 143 100 24 143 100 24 143 100 24 143 100 24 143 100 24 143 100 24 143 100 24 143 100 24 143 100 24 143 100 24 143 100 24 143 100 24 143 100 24 143 100 24 143 100 24 143 100 24 143 100 24 143 100 24 143 100 24 143 100 24 143 100 24 143 100 24 143 100 24 143 100 24 143 100 24 143 100 24 143 100 24 143 100 24 143 100 24 143 100 24 143 100 24 143 100 24 143 100 24 143 100 24 143 100 24 143 100 24 143 100 24 143 100 24 143 100 24 143 100 24 143 100 24 143 100 24 143 100 24 143 100 24 143 100 24 143 100 24 143 100 24 143 100 24 143 100 24 143 100 24 143 100 24 143 100 24 143 100 24 143 100 24 143 100 24 143 100 24 143 100 24 143 100 24 143 100 24 143 100 24 143 100 24 143 100 24 143 100 24 143 100 24 143 100 24 143 100 24 143 100 24 143 100 24 143 100 24 143 100 24 143 100 24 143 100 24 143 100 24 143 100 24 143 100 24 143 100 24 143 100 24 143 100 24 143 100 24 143 100 24 143 100 24 143 100 24 143 100 24 143 100 24 143 100 24 143 100 24 143 100 24 143 100 24 143 100 24 143 100 24 143 100 24 143 100 255 140 180 255 140 180 255 140 180 24 143 100 24 143 100 24 143 100 24 143 100 24 143 100 24 143 100 24 143 100 24 143 100 24 143 100 24 143 100 24 143 100 24 143 100 24 143 100 24 143 100 24 143 100 24 143 100 24 143 100 24 143 100 24 143 100 255 136 183 255 136 183 255 120 40 24 143 100 24 143 100 24 143 100 24 143 100 24 143 100 24 143 100 24 143 100 24 143 100 24 143 100 24 143 100 24 143 100 24 143 100 24 143 100 24 143 100 24 143 100 24 143 100 24 143 100 24 143 100 24 143 100 255 132 186 255 132 186 255 132 186 24 143 100 24 143 100 24 143 100 24 143 100 24 143 100 24 143 100 24 143 100 24 143 100 24 143 100 24 143 100 24 143 100 24 143 100 24 143 100 24 143 100 24 143 100 24 143 100 24 143 100 24 143 100 24 143 100 24 143 100 24 143 100 24 143 100 255 128 189 255 128 189 255 128 189 24 143 100 24 143 100 24 143 100 24 143 100 24 143 100 24 143 100 24 143 100 24 143 100 24 143 100 24 143 100 24 143 100 24 143 100 24 143 100 24 143 100 24 143 100 24 143 100 24 143 100 24 143 100 24 143 100 24 143 100 24 143 100 24 143 100 24 143 100 24 143 100 24 143 100 24 143 100 24 143 100 24 143 100 24 143 100 24 143 100 24 143 100 24 143 100 24 143 100 24 143 100 24 143 100 24 143 100 24 143 100 24 143 100 24 143 100 24 143 100 24 143 100 24 143 100 24 143 100 24 143 100 24 143 100 24 143 100 24 143 100 24 143 100 24 143 100 24 143 100 24 143 100 24 143 100 24 143 100 24 143 100 24 143 100 24 143 100 24 143 100 24 143 100 24 143 100 24 143 100 24 143 100 24 143 100 24 143 100 24 143 100 24 143 100 24 143 100 24 143 100 24 143 100 24 143 100 24 143 100 24 143 100 24 143 100 24 143 100 24 143 100 24 143 100 24 143 100 24 143 100 24 143 100 24 143 100 24 143 100 24 143 100 24 143 100 24 143 100 24 143 100 24 143 100 24 143 100 24 143 100 24 143 100 24 143 100 24 143 100 24 143 100 24 143 100 24 143 100 24 143 100 24 143 100 24 143 100 24 143 100 24 143 100 24 143 100 24 143 100 24 143 100 24 143 100 24 143 100 24 143 100 24 143 100 24 143 100 24 143 100 24 143 100 24 143 100 24 143 100 24 143 100 24 143 100 24 143 100 24 143 100 24 143 100 24 143 100 24 143 100 24 143 100 24 143 100 24 143 100 24 143 100 24 143 100 24 143 100 24 143 100 24 143 100 24 143 100 24 143 100 24 143 100 24 143 100 24 143 100 24 143 100 24 143 100 24 143 100 24 143 100 24 143 100 24 143 100 24 143 100 24 143 100 24 143 100 24 143 100 24 143 100 24 143 100 24 143 100 24 143 100 
24 142 101 24 142 101 24 142 101 24 142 101 24 142 101 24 142 101 24 142 101 24 142 101 24 142 101 24 142 101 24 142 101 24 142 101 24 142 101 24 142 101 24 142 101 24 142 101 24 142 101 24 142 101 24 142 101 24 142 101 24 142 101 24 142 101 24 142 101 24 142 101 255 255 255 24 142 101 24 142 101 24 142 101 24 142 101 24 142 101 24 142 101 24 142 101 24 142 101 24 142 101 24 142 101 24 142 101 24 142 101 24 142 101 24 142 101 24 142 101 24 142 101 24 142 101 24 142 101 24 142 101 24 142 101 24 142 101 24 142 101 24 142 101 24 142 101 24 142 101 24 142 101 24 142 101 24 142 101 24 142 101 24 142 101 24 142 101 24 142 101 24 142 101 24 142 101 24 142 101 24 142 101 24 142 101 24 142 101 24 142 101 24 142 101 24 142 101 24 142 101 24 142 101 24 142 101 24 142 101 24 142 101 24 142 101 24 142 101 24 142 101 24 142 101 24 142 101 24 142 101 24 142 101 24 142 101 24 142 101 24 142 101 24 142 101 24 142 101 24 142 101 24 142 101 24 142 101 24 142 101 24 142 101 24 142 101 24 142 101 24 142 101 24 142 101 24 142 101 24 142 101 24 142 101 24 142 101 24 142 101 24 142 101 24 142 101 24 142 101 24 142 101 24 142 101 24 142 101 24 142 101 24 142 101 24 142 101 24 142 101 24 142 101 24 142 101 24 142 101 24 142 101 24 142 101 24 142 101 24 142 101 24 142 101 24 142 101 24 142 101 24 142 101 24 142 101 24 142 101 24 142 101 24 142 101 24 142 101 24 142 101 24 142 101 24 142 101 24 142 101 24 142 101 24 142 101 24 142 101 24 142 101 24 142 101 24 142 101 24 142 101 24 142 101 24 142 101 24 142 101 24 142 101 24 142 101 24 142 101 24 142 101 24 142 101 24 142 101 24 142 101 24 142 101 24 142 101 24 142 101 24 142 101 24 142 101 24 142 101 24 142 101 24 142 101 24 142 101 24 142 101 24 142 101 24 142 101 24 142 101 24 142 101 24 142 101 24 142 101 24 142 101 24 142 101 24 142 101 24 142 101 24 142 101 24 142 101 24 142 101 24 142 101 24 142 101 255 140 180 255 140 180 255 140 180 24 142 101 24 142 101 24 142 101 24 142 101 24 142 101 24 142 101 24 142 101 24 142 101 24 142 101 24 142 101 24 142 101 24 142 101 24 142 101 24 142 101 24 142 101 24 142 101 24 142 101 24 142 101 255 136 183 255 136 183 255 120 40 24 142 101 24 142 101 24 142 101 24 142 101 24 142 101 24 142 101 24 142 101 24 142 101 24 142 101 24 142 101 24 142 101 24 142 101 24 142 101 24 142 101 24 142 101 24 142 101 24 142 101 24 142 101 24 142 101 255 132 186 255 132 186 255 132 186 24 142 101 24 142 101 24 142 101 24 142 101 24 142 101 24 142 101 24 142 101 24 142 101 24 142 101 24 142 101 24 142 101 24 142 101 24 142 101 24 142 101 24 142 101 24 142 101 24 142 101 24 142 101 24 142 101 24 142 101 24 142 101 255 128 189 255 128 189 255 128 189 24 142 101 24 142 101 24 142 101 24 142 101 24 142 101 24 142 101 24 142 101 24 142 101 24 142 101 24 142 101 24 142 101 24 142 101 24 142 101 24 142 101 24 142 101 24 142 101 24 142 101 24 142 101 24 142 101 24 142 101 24 142 101 24 142 101 24 142 101 24 142 101 24 142 101 24 142 101 24 142 101 24 142 101 24 142 101 24 142 101 24 142 101 24 142 101 24 142 101 24 142 101 24 142 101 24 142 101 24 142 101 24 142 101 24 142 101 24 142 101 24 142 101 24 142 101 24 142 101 24 142 101 24 142 101 24 142 101 24 142 101 24 142 101 24 142 101 24 142 101 24 142 101 24 142 101 24 142 101 24 142 101 24 142 101 24 142 101 24 142 101 24 142 101 24 142 101 24 142 101 24 142 101 24 142 101 24 142 101 24 142 101 24 142 101 24 142 101 24 142 101 24 142 101 24 142 101 24 142 101 24 142 101 24 142 101 24 142 101 24 142 101 24 142 101 24 142 101 24 142 101 24 142 101 24 142 101 24 142 101 24 142 101 24 142 101 24 142 101 24 142 101 24 142 101 24 142 101 24 142 101 24 142 101 24 142 101 24 142 101 24 142 101 24 142 101 24 142 101 24 142 101 24 142 101 24 142 101 24 142 101 24 142 101 24 142 101 24 142 101 24 142 101 24 142 101 24 142 101 24 142 101 24 142 101 24 142 101 24 142 101 24 142 101 24 142 101 24 142 101 24 142 101 24 142 101 24 142 101 24 142 101 24 142 101 24 142 101 24 142 101 24 142 101 24 142 101 24 142 101 24 142 101 24 142 101 24 142 101 24 142 101 24 142 101 24 142 101 24 142 101 24 142 101 24 142 101 24 142 101 24 142 101 24 142 101 24 142 101 24 142 101 24 142 101 24 142 101 24 142 101 24 142 101 24 142 101 24 142 101 24 142 101 24 142 101 24 142 101 24 142 101 24 142 101 
25 142 102 25 142 102 25 142 102 25 142 102 25 142 102 25 142 102 25 142 102 25 142 102 25 142 102 25 142 102 25 142 102 25 142 102 25 142 102 25 142 102 25 142 102 25 142 102 25 142 102 25 142 102 25 142 102 25 142 102 25 142 102 25 142 102 25 142 102 25 142 102 25 142 102 255 255 255 255 255 255 25 142 102 25 142 102 25 142 102 25 142 102 25 142 102 25 142 102 25 142 102 25 142 102 25 142 102 25 142 102 25 142 102 25 142 102 25 142 102 25 142 102 25 142 102 25 142 102 25 142 102 25 142 102 25 142 102 25 142 102 25 142 102 25 142 102 25 142 102 25 142 102 25 142 102 25 142 102 25 142 102 25 142 102 25 142 102 25 142 102 25 142 102 25 142 102 25 142 102 25 142 102 25 142 102 25 142 102 25 142 102 25 142 102 25 142 102 25 142 102 25 142 102 25 142 102 25 142 102 25 142 102 25 142 102 25 142 102 25 142 102 25 142 102 25 142 102 25 142 102 25 142 102 25 142 102 25 142 102 25 142 102 25 142 102 25 142 102 25 142 102 25 142 102 25 142 102 25 142 102 25 142 102 25 142 102 25 142 102 25 142 102 25 142 102 25 142 102 25 142 102 25 142 102 25 142 102 25 142 102 25 142 102 25 142 102 25 142 102 25 142 102 25 142 102 25 142 102 25 142 102 25 142 102 25 142 102 25 142 102 25 142 102 25 142 102 25 142 102 25 142 102 25 142 102 25 142 102 25 142 102 25 142 102 25 142 102 25 142 102 25 142 102 25 142 102 25 142 102 25 142 102 25 142 102 25 142 102 25 142 102 25 142 102 25 142 102 25 142 102 25 142 102 25 142 102 25 142 102 25 142 102 25 142 102 25 142 102 25 142 102 25 142 102 25 142 102 25 142 102 25 142 102 25 142 102 25 142 102 25 142 102 25 142 102 25 142 102 25 142 102 25 142 102 25 142 102 25 142 102 25 142 102 25 142 102 25 142 102 25 142 102 25 142 102 25 142 102 25 142 102 25 142 102 25 142 102 25 142 102 25 142 102 25 142 102 25 142 102 25 142 102 25 142 102 25 142 102 25 142 102 25 142 102 25 142 102 25 142 102 25 142 102 25 142 102 255 140 180 255 140 180 255 140 180 25 142 102 25 142 102 25 142 102 25 142 102 25 142 102 25 142 102 25 142 102 25 142 102 25 142 102 25 142 102 25 142 102 25 142 102 25 142 102 25 142 102 25 142 102 25 142 102 25 142 102 25 142 102 255 136 183 255 136 183 255 120 40 25 142 102 25 142 102 25 142 102 25 142 102 25 142 102 25 142 102 25 142 102 25 142 102 25 142 102 25 142 102 25 142 102 25 142 102 25 142 102 25 142 102 25 142 102 25 142 102 25 142 102 25 142 102 25 142 102 255 132 186 255 132 186 255 132 186 25 142 102 25 142 102 25 142 102 25 142 102 25 142 102 25 142 102 25 142 102 25 142 102 25 142 102 25 142 102 25 142 102 25 142 102 25 142 102 25 142 102 25 142 102 25 142 102 25 142 102 25 142 102 25 142 102 25 142 102 25 142 102 255 128 189 255 128 189 255 128 189 25 142 102 25 142 102 25 142 102 25 142 102 25 142 102 25 142 102 25 142 102 25 142 102 25 142 102 25 142 102 25 142 102 25 142 102 25 142 102 25 142 102 25 142 102 25 142 102 25 142 102 25 142 102 25 142 102 25 142 102 25 142 102 25 142 102 25 142 102 25 142 102 25 142 102 25 142 102 25 142 102 25 142 102 25 142 102 25 142 102 25 142 102 25 142 102 25 142 102 25 142 102 25 142 102 25 142 102 25 142 102 25 142 102 25 142 102 25 142 102 25 142 102 25 142 102 25 142 102 25 142 102 25 142 102 25 142 102 25 142 102 25 142 102 25 142 102 25 142 102 25 142 102 25 142 102 25 142 102 25 142 102 25 142 102 25 142 102 25 142 102 25 142 102 25 142 102 25 142 102 25 142 102 25 142 102 25 142 102 25 142 102 25 142 102 25 142 102 25 142 102 25 142 102 25 142 102 25 142 102 25 142 102 25 142 102 25 142 102 25 142 102 25 142 102 25 142 102 25 142 102 25 142 102 25 142 102 25 142 102 25 142 102 25 142 102 25 142 102 25 142 102 25 142 102 25 142 102 25 142 102 25 142 102 25 142 102 25 142 102 25 142 102 25 142 102 25 142 102 25 142 102 25 142 102 25 142 102 25 142 102 25 142 102 25 142 102 25 142 102 25 142 102 25 142 102 25 142 102 25 142 102 25 142 102 25 142 102 25 142 102 25 142 102 25 142 102 25 142 102 25 142 102 25 142 102 25 142 102 25 142 102 25 142 102 25 142 102 25 142 102 25 142 102 25 142 102 25 142 102 25 142 102 25 142 102 25 142 102 25 142 102 25 142 102 25 142 102 25 142 102 25 142 102 25 142 102 25 142 102 25 142 102 25 142 102 25 142 102 25 142 102 25 142 102 25 142 102 25 142 102 25 142 102 25 142 102 25 142 102 25 142 102 25 142 102 25 142 102 25 142 102 25 142 102 
25 141 103 25 141 103 25 141 103 25 141 103 25 141 103 25 141 103 25 141 103 25 141 103 25 141 103 25 141 103 25 141 103 25 141 103 25 141 103 25 141 103 25 141 103 25 141 103 25 141 103 25 141 103 25 141 103 25 141 103 25 141 103 25 141 103 25 141 103 25 141 103 25 141 103 25 141 103 25 141 103 255 255 255 255 255 255 25 141 103 25 141 103 25 141 103 25 141 103 25 141 103 25 141 103 25 141 103 25 141 103 25 141 103 25 141 103 25 141 103 25 141 103 25 141 103 25 141 103 25 141 103 25 141 103 25 141 103 25 141 103 25 141 103 25 141 103 25 141 103 25 141 103 25 141 103 25 141 103 25 141 103 25 141 103 25 141 103 25 141 103 25 141 103 25 141 103 25 141 103 25 141 103 25 141 103 25 141 103 25 141 103 25 141 103 25 141 103 25 141 103 25 141 103 25 141 103 25 141 103 25 141 103 25 141 103 25 141 103 25 141 103 25 141 103 25 141 103 25 141 103 25 141 103 25 141 103 25 141 103 25 141 103 25 141 103 25 141 103 25 141 103 25 141 103 25 141 103 25 141 103 25 141 103 25 141 103 25 141 103 25 141 103 25 141 103 25 141 103 25 141 103 25 141 103 25 141 103 25 141 103 25 141 103 25 141 103 25 141 103 25 141 103 25 141 103 25 141 103 25 141 103 25 141 103 25 141 103 25 141 103 25 141 103 25 141 103 25 141 103 25 141 103 25 141 103 25 141 103 25 141 103 25 141 103 25 141 103 25 141 103 25 141 103 25 141 103 25 141 103 25 141 103 25 141 103 25 141 103 25 141 103 25 141 103 25 141 103 25 141 103 25 141 103 25 141 103 25 141 103 25 141 103 25 141 103 25 141 103 25 141 103 25 141 103 25 141 103 25 141 103 25 141 103 25 141 103 25 141 103 25 141 103 25 141 103 25 141 103 25 141 103 25 141 103 25 141 103 25 141 103 25 141 103 25 141 103 25 141 103 25 141 103 25 141 103 25 141 103 25 141 103 25 141 103 25 141 103 25 141 103 25 141 103 25 141 103 25 141 103 25 141 103 25 141 103 25 141 103 25 141 103 25 141 103 25 141 103 25 141 103 25 141 103 25 141 103 255 140 180 255 140 180 255 140 180 25 141 103 25 141 103 25 141 103 25 141 103 25 141 103 25 141 103 25 141 103 25 141 103 25 141 103 25 141 103 25 141 103 25 141 103 25 141 103 25 141 103 25 141 103 25 141 103 25 141 103 25 141 103 255 136 183 255 136 183 255 120 40 25 141 103 25 141 103 25 141 103 25 141 103 25 141 103 25 141 103 25 141 103 25 141 103 25 141 103 25 141 103 25 141 103 25 141 103 25 141 103 25 141 103 25 141 103 25 141 103 25 141 103 25 141 103 25 141 103 255 132 186 255 132 186 255 132 186 25 141 103 25 141 103 25 141 103 25 141 103 25 141 103 25 141 103 25 141 103 25 141 103 25 141 103 25 141 103 25 141 103 25 141 103 25 141 103 25 141 103 25 141 103 25 141 103 25 141 103 25 141 103 25 141 103 25 141 103 255 128 189 255 128 189 255 128 189 25 141 103 25 141 103 25 141 103 25 141 103 25 141 103 25 141 103 25 141 103 25 141 103 25 141 103 25 141 103 25 141 103 25 141 103 25 141 103 25 141 103 25 141 103 25 141 103 25 141 103 25 141 103 25 141 103 25 141 103 25 141 103 25 141 103 25 141 103 25 141 103 25 141 103 25 141 103 25 141 103 25 141 103 25 141 103 25 141 103 25 141 103 25 141 103 25 141 103 25 141 103 25 141 103 25 141 103 25 141 103 25 141 103 25 141 103 25 141 103 25 141 103 25 141 103 25 141 103 25 141 103 25 141 103 25 141 103 25 141 103 25 141 103 25 141 103 25 141 103 25 141 103 25 141 103 25 141 103 25 141 103 25 141 103 25 141 103 25 141 103 25 141 103 25 141 103 25 141 103 25 141 103 25 141 103 25 141 103 25 141 103 25 141 103 25 141 103 25 141 103 25 141 103 25 141 103 25 141 103 25 141 103 25 141 103 25 141 103 25 141 103 25 141 103 25 141 103 25 141 103 25 141 103 25 141 103 25 141 103 25 141 103 25 141 103 25 141 103 25 141 103 25 141 103 25 141 103 25 141 103 25 141 103 25 141 103 25 141 103 25 141 103 25 141 103 25 141 103 25 141 103 25 141 103 25 141 103 25 141 103 25 141 103 25 141 103 25 141 103 25 141 103 25 141 103 25 141 103 25 141 103 25 141 103 25 141 103 25 141 103 25 141 103 25 141 103 25 141 103 25 141 103 25 141 103 25 141 103 25 141 103 25 141 103 25 141 103 25 141 103 25 141 103 25 141 103 25 141 103 25 141 103 25 141 103 25 141 103 25 141 103 25 141 103 25 141 103 25 141 103 25 141 103 25 141 103 25 141 103 25 141 103 25 141 103 25 141 103 25 141 103 25 141 103 25 141 103 25 141 103 25 141 103 25 141 103 25 141 103 25 141 103 25 141 103 25 141 103 25 141 103 25 141 103 25 141 103 
25 141 103 25 141 103 25 141 103 25 141 103 25 141 103 25 141 103 25 141 103 25 141 103 25 141 103 25 141 103 25 141 103 25 141 103 25 141 103 25 141 103 25 141 103 25 141 103 25 141 103 25 141 103 25 141 103 25 141 103 25 141 103 25 141 103 25 141 103 25 141 103 25 141 103 25 141 103 25 141 103 25 141 103 25 141 103 255 255 255 255 255 255 25 141 103 25 141 103 25 141 103 25 141 103 25 141 103 25 141 103 25 141 103 25 141 103 25 141 103 25 141 103 25 141 103 25 141 103 25 141 103 25 141 103 25 141 103 25 141 103 25 141 103 25 141 103 25 141 103 25 141 103 25 141 103 25 141 103 25 141 103 25 141 103 25 141 103 25 141 103 25 141 103 25 141 103 25 141 103 25 141 103 25 141 103 25 141 103 25 141 103 25 141 103 25 141 103 25 141 103 25 141 103 25 141 103 25 141 103 25 141 103 25 141 103 25 141 103 25 141 103 25 141 103 25 141 103 25 141 103 25 141 103 25 141 103 25 141 103 25 141 103 25 141 103 25 141 103 25 141 103 25 141 103 25 141 103 25 141 103 25 141 103 25 141 103 25 141 103 25 141 103 25 141 103 25 141 103 25 141 103 25 141 103 25 141 103 25 141 103 25 141 103 25 141 103 25 141 103 25 141 103 25 141 103 25 141 103 25 141 103 25 141 103 25 141 103 25 141 103 25 141 103 25 141 103 25 141 103 25 141 103 25 141 103 25 141 103 25 141 103 25 141 103 25 141 103 25 141 103 25 141 103 25 141 103 25 141 103 25 141 103 25 141 103 25 141 103 25 141 103 25 141 103 25 141 103 25 141 103 25 141 103 25 141 103 25 141 103 25 141 103 25 141 103 25 141 103 25 141 103 25 141 103 25 141 103 25 141 103 25 141 103 25 141 103 25 141 103 25 141 103 25 141 103 25 141 103 25 141 103 25 141 103 25 141 103 25 141 103 25 141 103 25 141 103 25 141 103 25 141 103 25 141 103 25 141 103 25 141 103 25 141 103 25 141 103 25 141 103 25 141 103 25 141 103 25 141 103 25 141 103 25 141 103 25 141 103 25 141 103 25 141 103 25 141 103 25 141 103 25 141 103 25 141 103 255 140 180 255 140 180 255 140 180 25 141 103 25 141 103 25 141 103 25 141 103 25 141 103 25 141 103 25 141 103 25 141 103 25 141 103 25 141 103 25 141 103 25 141 103 25 141 103 25 141 103 25 141 103 25 141 103 25 141 103 25 141 103 255 136 183 255 136 183 255 120 40 25 141 103 25 141 103 25 141 103 25 141 103 25 141 103 25 141 103 25 141 103 25 141 103 25 141 103 25 141 103 25 141 103 25 141 103 25 141 103 25 141 103 25 141 103 25 141 103 25 141 103 25 141 103 255 132 186 255 132 186 255 132 186 25 141 103 25 141 103 25 141 103 25 141 103 25 141 103 25 141 103 25 141 103 25 141 103 25 141 103 25 141 103 25 141 103 25 141 103 25 141 103 25 141 103 25 141 103 25 141 103 25 141 103 25 141 103 25 141 103 25 141 103 25 141 103 255 128 189 255 128 189 255 128 189 25 141 103 25 141 103 25 141 103 25 141 103 25 141 103 25 141 103 25 141 103 25 141 103 25 141 103 25 141 103 25 141 103 25 141 103 25 141 103 25 141 103 25 141 103 25 141 103 25 141 103 25 141 103 25 141 103 25 141 103 25 141 103 25 141 103 25 141 103 25 141 103 25 141 103 255 124 192 255 124 192 255 124 192 25 141 103 25 141 103 25 141 103 25 141 103 25 141 103 25 141 103 25 141 103 25 141 103 25 141 103 25 141 103 25 141 103 25 141 103 25 141 103 25 141 103 25 141 103 25 141 103 25 141 103 25 141 103 25 141 103 25 141 103 25 141 103 25 141 103 25 141 103 25 141 103 25 141 103 25 141 103 25 141 103 25 141 103 25 141 103 25 141 103 25 141 103 25 141 103 25 141 103 25 141 103 25 141 103 25 141 103 25 141 103 25 141 103 25 141 103 25 141 103 25 141 103 25 141 103 25 141 103 25 141 103 25 141 103 25 141 103 25 141 103 25 141 103 25 141 103 25 141 103 25 141 103 25 141 103 25 141 103 25 141 103 25 141 103 25 141 103 25 141 103 25 141 103 25 141 103 25 141 103 25 141 103 25 141 103 25 141 103 25 141 103 25 141 103 25 141 103 25 141 103 25 141 103 25 141 103 25 141 103 25 141 103 25 141 103 25 141 103 25 141 103 25 141 103 25 141 103 25 141 103 25 141 103 25 141 103 25 141 103 25 141 103 25 141 103 25 141 103 25 141 103 25 141 103 25 141 103 25 141 103 25 141 103 25 141 103 25 141 103 25 141 103 25 141 103 25 141 103 25 141 103 25 141 103 25 141 103 25 141 103 25 141 103 25 141 103 25 141 103 25 141 103 25 141 103 25 141 103 25 141 103 25 141 103 25 141 103 25 141 103 25 141 103 25 141 103 25 141 103 25 141 103 25 141 103 25 141 103 25 141 103 25 141 103 25 141 103 25 141 103 25 141 103 
26 140 104 26 140 104 26 140 104 26 140 104 26 140 104 26 140 104 26 140 104 26 140 104 26 140 104 26 140 104 26 140 104 26 140 104 26 140 104 26 140 104 26 140 104 26 140 104 26 140 104 26 140 104 26 140 104 26 140 104 26 140 104 26 140 104 26 140 104 26 140 104 26 140 104 26 140 104 26 140 104 26 140 104 26 140 104 26 140 104 26 140 104 255 255 255 26 140 104 26 140 104 26 140 104 26 140 104 26 140 104 26 140 104 26 140 104 26 140 104 26 140 104 26 140 104 26 140 104 26 140 104 26 140 104 26 140 104 26 140 104 26 140 104 26 140 104 26 140 104 26 140 104 26 140 104 26 140 104 26 140 104 26 140 104 26 140 104 26 140 104 26 140 104 26 140 104 26 140 104 26 140 104 26 140 104 26 140 104 26 140 104 26 140 104 26 140 104 26 140 104 26 140 104 26 140 104 26 140 104 26 140 104 26 140 104 26 140 104 26 140 104 26 140 104 26 140 104 26 140 104 26 140 104 26 140 104 26 140 104 26 140 104 26 140 104 26 140 104 26 140 104 26 140 104 26 140 104 26 140 104 26 140 104 26 140 104 26 140 104 26 140 104 26 140 104 26 140 104 26 140 104 26 140 104 26 140 104 26 140 104 26 140 104 26 140 104 26 140 104 26 140 104 26 140 104 26 140 104 26 140 104 26 140 104 26 140 104 26 140 104 26 140 104 26 140 104 26 140 104 26 140 104 26 140 104 26 140 104 26 140 104 26 140 104 26 140 104 26 140 104 26 140 104 26 140 104 26 140 104 26 140 104 26 140 104 26 140 104 26 140 104 26 140 104 26 140 104 26 140 104 26 140 104 26 140 104 26 140 104 26 140 104 26 140 104 26 140 104 26 140 104 26 140 104 26 140 104 26 140 104 26 140 104 26 140 104 26 140 104 26 140 104 26 140 104 26 140 104 26 140 104 26 140 104 26 140 104 26 140 104 255 144 177 255 144 177 255 144 177 26 140 104 26 140 104 26 140 104 26 140 104 26 140 104 26 140 104 26 140 104 26 140 104 26 140 104 26 140 104 26 140 104 26 140 104 26 140 104 26 140 104 26 140 104 26 140 104 26 140 104 26 140 104 26 140 104 26 140 104 255 140 180 255 140 180 255 140 180 26 140 104 26 140 104 26 140 104 26 140 104 26 140 104 26 140 104 26 140 104 26 140 104 26 140 104 26 140 104 26 140 104 26 140 104 26 140 104 26 140 104 26 140 104 26 140 104 26 140 104 255 136 183 255 136 183 255 120 40 26 140 104 26 140 104 26 140 104 26 140 104 26 140 104 26 140 104 26 140 104 26 140 104 26 140 104 26 140 104 26 140 104 26 140 104 26 140 104 26 140 104 26 140 104 26 140 104 26 140 104 26 140 104 255 132 186 255 132 186 255 132 186 26 140 104 26 140 104 26 140 104 26 140 104 26 140 104 26 140 104 26 140 104 26 140 104 26 140 104 26 140 104 26 140 104 26 140 104 26 140 104 26 140 104 26 140 104 26 140 104 26 140 104 26 140 104 26 140 104 26 140 104 255 128 189 255 128 189 255 128 189 26 140 104 26 140 104 26 140 104 26 140 104 26 140 104 26 140 104 26 140 104 26 140 104 26 140 104 26 140 104 26 140 104 26 140 104 26 140 104 26 140 104 26 140 104 26 140 104 26 140 104 26 140 104 26 140 104 26 140 104 26 140 104 26 140 104 26 140 104 26 140 104 26 140 104 255 124 192 255 124 192 255 124 192 26 140 104 26 140 104 26 140 104 26 140 104 26 140 104 26 140 104 26 140 104 26 140 104 26 140 104 26 140 104 26 140 104 26 140 104 26 140 104 26 140 104 26 140 104 26 140 104 26 140 104 26 140 104 26 140 104 26 140 104 26 140 104 26 140 104 26 140 104 26 140 104 26 140 104 26 140 104 26 140 104 26 140 104 26 140 104 26 140 104 26 140 104 26 140 104 26 140 104 26 140 104 26 140 104 26 140 104 26 140 104 26 140 104 26 140 104 26 140 104 26 140 104 26 140 104 26 140 104 26 140 104 26 140 104 26 140 104 26 140 104 26 140 104 26 140 104 26 140 104 26 140 104 26 140 104 26 140 104 26 140 104 26 140 104 26 140 104 26 140 104 26 140 104 26 140 104 26 140 104 26 140 104 26 140 104 26 140 104 26 140 104 26 140 104 26 140 104 26 140 104 26 140 104 26 140 104 26 140 104 26 140 104 26 140 104 26 140 104 26 140 104 26 140 104 26 140 104 26 140 104 26 140 104 26 140 104 26 140 104 26 140 104 26 140 104 26 140 104 26 140 104 26 140 104 26 140 104 26 140 104 26 140 104 26 140 104 26 140 104 26 140 104 26 140 104 26 140 104 26 140 104 26 140 104 26 140 104 26 140 104 26 140 104 26 140 104 26 140 104 26 140 104 26 140 104 26 140 104 26 140 104 26 140 104 26 140 104 26 140 104 26 140 104 26 140 104 26 140 104 26 140 104 26 140 104 26 140 104 26 140 104 26 140 104 26 140 104 26 140 104 26 140 104 26 140 104 
26 139 105 26 139 105 26 139 105 26 139 105 26 139 105 26 139 105 26 139 105 26 139 105 26 139 105 26 139 105 26 139 105 26 139 105 26 139 105 26 139 105 26 139 105 26 139 105 26 139 105 26 139 105 26 139 105 26 139 105 26 139 105 26 139 105 26 139 105 26 139 105 26 139 105 26 139 105 26 139 105 26 139 105 26 139 105 26 139 105 26 139 105 26 139 105 255 255 255 255 255 255 26 139 105 26 139 105 26 139 105 26 139 105 26 139 105 26 139 105 26 139 105 26 139 105 26 139 105 26 139 105 26 139 105 26 139 105 26 139 105 26 139 105 26 139 105 26 139 105 26 139 105 26 139 105 26 139 105 26 139 105 26 139 105 26 139 105 26 139 105 26 139 105 26 139 105 26 139 105 26 139 105 26 139 105 26 139 105 26 139 105 26 139 105 26 139 105 26 139 105 26 139 105 26 139 105 26 139 105 26 139 105 26 139 105 26 139 105 26 139 105 26 139 105 26 139 105 26 139 105 26 139 105 26 139 105 26 139 105 26 139 105 26 139 105 26 139 105 26 139 105 26 139 105 26 139 105 26 139 105 26 139 105 26 139 105 26 139 105 26 139 105 26 139 105 26 139 105 26 139 105 26 139 105 26 139 105 26 139 105 26 139 105 26 139 105 26 139 105 26 139 105 26 139 105 26 139 105 26 139 105 26 139 105 26 139 105 26 139 105 26 139 105 26 139 105 26 139 105 26 139 105 26 139 105 26 139 105 26 139 105 26 139 105 26 139 105 26 139 105 26 139 105 26 139 105 26 139 105 26 139 105 26 139 105 26 139 105 26 139 105 26 139 105 26 139 105 26 139 105 26 139 105 26 139 105 26 139 105 26 139 105 26 139 105 26 139 105 26 139 105 26 139 105 26 139 105 26 139 105 26 139 105 26 139 105 26 139 105 26 139 105 26 139 105 26 139 105 26 139 105 26 139 105 26 139 105 26 139 105 255 144 177 255 144 177 255 144 177 26 139 105 26 139 105 26 139 105 26 139 105 26 139 105 26 139 105 26 139 105 26 139 105 26 139 105 26 139 105 26 139 105 26 139 105 26 139 105 26 139 105 26 139 105 26 139 105 26 139 105 26 139 105 26 139 105 26 139 105 255 140 180 255 140 180 255 140 180 26 139 105 26 139 105 26 139 105 26 139 105 26 139 105 26 139 105 26 139 105 26 139 105 26 139 105 26 139 105 26 139 105 26 139 105 26 139 105 26 139 105 26 139 105 26 139 105 26 139 105 255 136 183 255 136 183 255 120 40 26 139 105 26 139 105 26 139 105 26 139 105 26 139 105 26 139 105 26 139 105 26 139 105 26 139 105 26 139 105 26 139 105 26 139 105 26 139 105 26 139 105 26 139 105 26 139 105 26 139 105 26 139 105 255 132 186 255 132 186 255 132 186 26 139 105 26 139 105 26 139 105 26 139 105 26 139 105 26 139 105 26 139 105 26 139 105 26 139 105 26 139 105 26 139 105 26 139 105 26 139 105 26 139 105 26 139 105 26 139 105 26 139 105 26 139 105 26 139 105 26 139 105 255 128 189 255 128 189 255 128 189 26 139 105 26 139 105 26 139 105 26 139 105 26 139 105 26 139 105 26 139 105 26 139 105 26 139 105 26 139 105 26 139 105 26 139 105 26 139 105 26 139 105 26 139 105 26 139 105 26 139 105 26 139 105 26 139 105 26 139 105 26 139 105 26 139 105 26 139 105 26 139 105 255 124 192 255 124 192 255 124 192 26 139 105 26 139 105 26 139 105 26 139 105 26 139 105 26 139 105 26 139 105 26 139 105 26 139 105 26 139 105 26 139 105 26 139 105 26 139 105 26 139 105 26 139 105 26 139 105 26 139 105 26 139 105 26 139 105 26 139 105 26 139 105 26 139 105 26 139 105 26 139 105 26 139 105 26 139 105 26 139 105 26 139 105 26 139 105 26 139 105 26 139 105 26 139 105 26 139 105 26 139 105 26 139 105 26 139 105 26 139 105 26 139 105 26 139 105 26 139 105 26 139 105 26 139 105 26 139 105 26 139 105 26 139 105 26 139 105 26 139 105 26 139 105 26 139 105 26 139 105 26 139 105 26 139 105 26 139 105 26 139 105 26 139 105 26 139 105 26 139 105 26 139 105 26 139 105 26 139 105 26 139 105 26 139 105 26 139 105 26 139 105 26 139 105 26 139 105 26 139 105 26 139 105 26 139 105 26 139 105 26 139 105 26 139 105 26 139 105 26 139 105 26 139 105 26 139 105 26 139 105 26 139 105 26 139 105 26 139 105 26 139 105 26 139 105 26 139 105 26 139 105 26 139 105 26 139 105 26 139 105 26 139 105 26 139 105 26 139 105 26 139 105 26 139 105 26 139 105 26 139 105 26 139 105 26 139 105 26 139 105 26 139 105 26 139 105 26 139 105 26 139 105 26 139 105 26 139 105 26 139 105 26 139 105 26 139 105 26 139 105 26 139 105 26 139 105 26 139 105 26 139 105 26 139 105 26 139 105 26 139 105 26 139 105 26 139 105 26 139 105 26 139 105 26 139 105 26 139 105 
27 139 106 27 139 106 27 139 106 27 139 106 27 139 106 27 139 106 27 139 106 27 139 106 27 139 106 27 139 106 27 139 106 27 139 106 27 139 106 27 139 106 27 139 106 27 139 106 27 139 106 27 139 106 27 139 106 27 139 106 27 139 106 27 139 106 27 139 106 27 139 106 27 139 106 27 139 106 27 139 106 27 139 106 27 139 106 27 139 106 27 139 106 27 139 106 27 139 106 27 139 106 255 255 255 255 255 255 27 139 106 27 139 106 27 139 106 27 139 106 27 139 106 27 139 106 27 139 106 27 139 106 27 139 106 27 139 106 27 139 106 27 139 106 27 139 106 27 139 106 27 139 106 27 139 106 27 139 106 27 139 106 27 139 106 27 139 106 27 139 106 27 139 106 27 139 106 27 139 106 27 139 106 27 139 106 27 139 106 27 139 106 27 139 106 27 139 106 27 139 106 27 139 106 27 139 106 27 139 106 27 139 106 27 139 106 27 139 106 27 139 106 27 139 106 27 139 106 27 139 106 27 139 106 27 139 106 27 139 106 27 139 106 27 139 106 27 139 106 27 139 106 27 139 106 27 139 106 27 139 106 27 139 106 27 139 106 27 139 106 27 139 106 27 139 106 27 139 106 27 139 106 27 139 106 27 139 106 27 139 106 27 139 106 27 139 106 27 139 106 27 139 106 27 139 106 27 139 106 27 139 106 27 139 106 27 139 106 27 139 106 27 139 106 27 139 106 27 139 106 27 139 106 27 139 106 27 139 106 27 139 106 27 139 106 27 139 106 27 139 106 27 139 106 27 139 106 27 139 106 27 139 106 27 139 106 27 139 106 27 139 106 27 139 106 27 139 106 27 139 106 27 139 106 27 139 106 27 139 106 27 139 106 27 139 106 27 139 106 27 139 106 27 139 106 27 139 106 27 139 106 27 139 106 27 139 106 27 139 106 27 139 106 27 139 106 27 139 106 27 139 106 27 139 106 27 139 106 27 139 106 27 139 106 255 144 177 255 144 177 255 144 177 27 139 106 27 139 106 27 139 106 27 139 106 27 139 106 27 139 106 27 139 106 27 139 106 27 139 106 27 139 106 27 139 106 27 139 106 27 139 106 27 139 106 27 139 106 27 139 106 27 139 106 27 139 106 27 139 106 255 140 180 255 140 180 255 140 180 27 139 106 27 139 106 27 139 106 27 139 106 27 139 106 27 139 106 27 139 106 27 139 106 27 139 106 27 139 106 27 139 106 27 139 106 27 139 106 27 139 106 27 139 106 27 139 106 27 139 106 255 136 183 255 136 183 255 120 40 27 139 106 27 139 106 27 139 106 27 139 106 27 139 106 27 139 106 27 139 106 27 139 106 27 139 106 27 139 106 27 139 106 27 139 106 27 139 106 27 139 106 27 139 106 27 139 106 27 139 106 27 139 106 255 132 186 255 132 186 255 132 186 27 139 106 27 139 106 27 139 106 27 139 106 27 139 106 27 139 106 27 139 106 27 139 106 27 139 106 27 139 106 27 139 106 27 139 106 27 139 106 27 139 106 27 139 106 27 139 106 27 139 106 27 139 106 27 139 106 255 128 189 255 128 189 255 128 189 27 139 106 27 139 106 27 139 106 27 139 106 27 139 106 27 139 106 27 139 106 27 139 106 27 139 106 27 139 106 27 139 106 27 139 106 27 139 106 27 139 106 27 139 106 27 139 106 27 139 106 27 139 106 27 139 106 27 139 106 27 139 106 27 139 106 27 139 106 27 139 106 27 139 106 255 124 192 255 124 192 255 124 192 27 139 106 27 139 106 27 139 106 27 139 106 27 139 106 27 139 106 27 139 106 27 139 106 27 139 106 27 139 106 27 139 106 27 139 106 27 139 106 27 139 106 27 139 106 27 139 106 27 139 106 27 139 106 27 139 106 27 139 106 27 139 106 27 139 106 27 139 106 27 139 106 27 139 106 27 139 106 27 139 106 27 139 106 27 139 106 27 139 106 27 139 106 27 139 106 27 139 106 27 139 106 27 139 106 27 139 106 27 139 106 27 139 106 27 139 106 27 139 106 27 139 106 27 139 106 27 139 106 27 139 106 27 139 106 27 139 106 27 139 106 27 139 106 27 139 106 27 139 106 27 139 106 27 139 106 27 139 106 27 139 106 27 139 106 27 139 106 27 139 106 27 139 106 27 139 106 27 139 106 27 139 106 27 139 106 27 139 106 27 139 106 27 139 106 27 139 106 27 139 106 27 139 106 27 139 106 27 139 106 27 139 106 27 139 106 27 139 106 27 139 106 27 139 106 27 139 106 27 139 106 27 139 106 27 139 106 27 139 106 27 139 106 27 139 106 27 139 106 27 139 106 27 139 106 27 139 106 27 139 106 27 139 106 27 139 106 27 139 106 27 139 106 27 139 106 27 139 106 27 139 106 27 139 106 27 139 106 27 139 106 27 139 106 27 139 106 27 139 106 27 139 106 27 139 106 27 139 106 27 139 106 27 139 106 27 139 106 27 139 106 27 139 106 27 139 106 27 139 106 27 139 106 27 139 106 27 139 106 27 139 106 27 139 106 27 139 106 27 139 106 27 139 106 27 139 106 27 139 106 
27 138 107 27 138 107 27 138 107 27 138 107 27 138 107 27 138 107 27 138 107 27 138 107 27 138 107 27 138 107 27 138 107 27 138 107 27 138 107 27 138 107 27 138 107 27 138 107 27 138 107 27 138 107 27 138 107 27 138 107 27 138 107 27 138 107 27 138 107 27 138 107 27 138 107 27 138 107 27 138 107 27 138 107 27 138 107 27 138 107 27 138 107 27 138 107 27 138 107 27 138 107 27 138 107 27 138 107 255 255 255 255 255 255 27 138 107 27 138 107 27 138 107 27 138 107 27 138 107 27 138 107 27 138 107 27 138 107 27 138 107 27 138 107 27 138 107 27 138 107 27 138 107 27 138 107 27 138 107 27 138 107 27 138 107 27 138 107 27 138 107 27 138 107 27 138 107 27 138 107 27 138 107 27 138 107 27 138 107 27 138 107 27 138 107 27 138 107 27 138 107 27 138 107 27 138 107 27 138 107 27 138 107 27 138 107 27 138 107 27 138 107 27 138 107 27 138 107 27 138 107 27 138 107 27 138 107 27 138 107 27 138 107 27 138 107 27 138 107 27 138 107 27 138 107 27 138 107 27 138 107 27 138 107 27 138 107 27 138 107 27 138 107 27 138 107 27 138 107 27 138 107 27 138 107 27 138 107 27 138 107 27 138 107 27 138 107 27 138 107 27 138 107 27 138 107 27 138 107 27 138 107 27 138 107 27 138 107 27 138 107 27 138 107 27 138 107 27 138 107 27 138 107 27 138 107 27 138 107 27 138 107 27 138 107 27 138 107 27 138 107 27 138 107 27 138 107 27 138 107 27 138 107 27 138 107 27 138 107 27 138 107 27 138 107 27 138 107 27 138 107 27 138 107 27 138 107 27 138 107 27 138 107 27 138 107 27 138 107 27 138 107 27 138 107 27 138 107 27 138 107 27 138 107 27 138 107 27 138 107 27 138 107 27 138 107 27 138 107 27 138 107 27 138 107 27 138 107 27 138 107 27 138 107 255 144 177 255 144 177 255 144 177 27 138 107 27 138 107 27 138 107 27 138 107 27 138 107 27 138 107 27 138 107 27 138 107 27 138 107 27 138 107 27 138 107 27 138 107 27 138 107 27 138 107 27 138 107 27 138 107 27 138 107 27 138 107 27 138 107 255 140 180 255 140 180 255 140 180 27 138 107 27 138 107 27 138 107 27 138 107 27 138 107 27 138 107 27 138 107 27 138 107 27 138 107 27 138 107 27 138 107 27 138 107 27 138 107 27 138 107 27 138 107 27 138 107 27 138 107 255 136 183 255 136 183 255 120 40 27 138 107 27 138 107 27 138 107 27 138 107 27 138 107 27 138 107 27 138 107 27 138 107 27 138 107 27 138 107 27 138 107 27 138 107 27 138 107 27 138 107 27 138 107 27 138 107 27 138 107 27 138 107 255 132 186 255 132 186 255 132 186 27 138 107 27 138 107 27 138 107 27 138 107 27 138 107 27 138 107 27 138 107 27 138 107 27 138 107 27 138 107 27 138 107 27 138 107 27 138 107 27 138 107 27 138 107 27 138 107 27 138 107 27 138 107 27 138 107 255 128 189 255 128 189 255 128 189 27 138 107 27 138 107 27 138 107 27 138 107 27 138 107 27 138 107 27 138 107 27 138 107 27 138 107 27 138 107 27 138 107 27 138 107 27 138 107 27 138 107 27 138 107 27 138 107 27 138 107 27 138 107 27 138 107 27 138 107 27 138 107 27 138 107 27 138 107 27 138 107 255 124 192 255 124 192 255 124 192 27 138 107 27 138 107 27 138 107 27 138 107 27 138 107 27 138 107 27 138 107 27 138 107 27 138 107 27 138 107 27 138 107 27 138 107 27 138 107 27 138 107 27 138 107 27 138 107 27 138 107 27 138 107 27 138 107 27 138 107 27 138 107 27 138 107 27 138 107 27 138 107 27 138 107 27 138 107 27 138 107 27 138 107 27 138 107 27 138 107 27 138 107 27 138 107 27 138 107 27 138 107 27 138 107 27 138 107 27 138 107 27 138 107 27 138 107 27 138 107 27 138 107 27 138 107 27 138 107 27 138 107 27 138 107 27 138 107 27 138 107 27 138 107 27 138 107 27 138 107 27 138 107 27 138 107 27 138 107 27 138 107 27 138 107 27 138 107 27 138 107 27 138 107 27 138 107 27 138 107 27 138 107 27 138 107 27 138 107 27 138 107 27 138 107 27 138 107 27 138 107 27 138 107 27 138 107 27 138 107 27 138 107 27 138 107 27 138 107 27 138 107 27 138 107 27 138 107 27 138 107 27 138 107 27 138 107 27 138 107 27 138 107 27 138 107 27 138 107 27 138 107 27 138 107 27 138 107 27 138 107 27 138 107 27 138 107 27 138 107 27 138 107 27 138 107 27 138 107 27 138 107 27 138 107 27 138 107 27 138 107 27 138 107 27 138 107 27 138 107 27 138 107 27 138 107 27 138 107 27 138 107 27 138 107 27 138 107 27 138 107 27 138 107 27 138 107 27 138 107 27 138 107 27 138 107 27 138 107 27 138 107 27 138 107 27 138 107 27 138 107 27 138 107 27 138 107 27 138 107 27 138 107 
27 138 108 27 138 108 27 138 108 27 138 108 27 138 108 27 138 108 27 138 108 27 138 108 27 138 108 27 138 108 27 138 108 27 138 108 27 138 108 27 138 108 27 138 108 27 138 108 27 138 108 27 138 108 27 138 108 79 164 143 245 245 255 245 245 255 245 245 255 68 159 136 27 138 108 27 138 108 27 138 108 28 139 109 194 220 221 245 245 255 245 245 255 244 245 254 83 166 146 27 138 108 27 138 108 27 138 108 27 138 108 27 138 108 255 255 255 255 255 255 245 245 255 245 245 255 245 245 255 69 159 137 27 138 108 27 138 108 27 138 108 27 138 108 27 138 108 27 138 108 235 240 249 245 245 255 245 245 255 245 245 255 245 245 255 245 245 255 245 245 255 245 245 255 245 245 255 245 245 255 245 245 255 102 175 159 27 138 108 27 138 108 184 215 214 245 245 255 245 245 255 245 245 255 168 207 203 27 138 108 27 138 108 27 138 108 27 138 108 27 138 108 211 229 233 245 245 255 245 245 255 75 162 141 27 138 108 27 138 108 27 138 108 27 138 108 27 138 108 27 138 108 27 138 108 27 138 108 27 138 108 27 138 108 27 138 108 27 138 108 27 138 108 27 138 108 27 138 108 27 138 108 27 138 108 27 138 108 27 138 108 27 138 108 27 138 108 27 138 108 27 138 108 27 138 108 27 138 108 27 138 108 27 138 108 27 138 108 27 138 108 27 138 108 27 138 108 27 138 108 27 138 108 27 138 108 27 138 108 27 138 108 27 138 108 27 138 108 27 138 108 27 138 108 27 138 108 27 138 108 27 138 108 27 138 108 27 138 108 27 138 108 62 155 131 245 245 255 245 245 255 245 245 255 245 245 255 245 245 255 239 243 251 226 236 242 191 219 219 133 190 180 50 150 124 27 138 108 27 138 108 27 138 108 161 204 199 245 245 255 245 245 255 241 243 253 55 152 127 27 138 108 27 138 108 27 138 108 27 138 108 27 138 108 27 138 108 249 205 224 245 245 255 245 245 255 229 238 245 39 144 116 27 138 108 27 138 108 27 138 108 27 138 108 90 169 150 159 203 197 210 228 231 230 238 245 241 243 253 228 237 243 193 220 220 133 190 180 66 157 134 27 138 108 27 138 108 27 138 108 27 138 108 255 140 180 255 140 180 247 225 241 245 245 255 245 245 255 245 245 255 245 245 255 69 159 137 27 138 108 27 138 108 27 138 108 27 138 108 27 138 108 146 197 188 245 245 255 245 245 255 245 245 255 121 184 172 27 138 108 255 136 183 255 136 183 255 120 40 245 245 255 245 245 255 245 245 255 226 236 242 27 138 108 27 138 108 27 138 108 133 190 180 245 245 255 245 245 255 245 245 255 245 245 255 245 245 255 245 245 255 245 245 255 245 245 255 245 245 255 245 245 255 253 164 206 255 132 186 27 138 108 27 138 108 27 138 108 27 138 108 27 138 108 27 138 108 27 138 108 27 138 108 27 138 108 27 138 108 27 138 108 27 138 108 27 138 108 27 138 108 27 138 108 27 138 108 27 138 108 27 138 108 27 138 108 255 128 189 255 128 189 255 128 189 27 138 108 27 138 108 27 138 108 27 138 108 27 138 108 27 138 108 27 138 108 27 138 108 27 138 108 27 138 108 27 138 108 27 138 108 27 138 108 27 138 108 27 138 108 27 138 108 27 138 108 27 138 108 27 138 108 27 138 108 27 138 108 27 138 108 27 138 108 27 138 108 255 124 192 255 124 192 255 124 192 27 138 108 27 138 108 27 138 108 27 138 108 27 138 108 27 138 108 27 138 108 27 138 108 27 138 108 27 138 108 27 138 108 27 138 108 27 138 108 27 138 108 27 138 108 27 138 108 27 138 108 27 138 108 27 138 108 27 138 108 27 138 108 27 138 108 27 138 108 27 138 108 27 138 108 27 138 108 27 138 108 27 138 108 27 138 108 27 138 108 27 138 108 27 138 108 27 138 108 27 138 108 27 138 108 27 138 108 27 138 108 27 138 108 27 138 108 27 138 108 27 138 108 27 138 108 27 138 108 27 138 108 27 138 108 27 138 108 27 138 108 27 138 108 27 138 108 27 138 108 27 138 108 27 138 108 27 138 108 27 138 108 27 138 108 27 138 108 27 138 108 27 138 108 27 138 108 27 138 108 27 138 108 27 138 108 27 138 108 27 138 108 27 138 108 27 138 108 27 138 108 27 138 108 27 138 108 27 138 108 27 138 108 27 138 108 27 138 108 27 138 108 27 138 108 27 138 108 27 138 108 27 138 108 27 138 108 27 138 108 27 138 108 27 138 108 27 138 108 27 138 108 27 138 108 27 138 108 27 138 108 27 138 108 27 138 108 27 138 108 27 138 108 27 138 108 27 138 108 27 138 108 27 138 108 27 138 108 27 138 108 27 138 108 27 138 108 27 138 108 27 138 108 27 138 108 27 138 108 27 138 108 27 138 108 27 138 108 27 138 108 27 138 108 27 138 108 27 138 108 27 138 108 27 138 108 27 138 108 27 138 108 27 138 108 27 138 108 27 138 108 27 138 108 27 138 108 27 138 108 27 138 108 27 138 108 
28 137 109 28 137 109 28 137 109 28 137 109 28 137 109 28 137 109 28 137 109 28 137 109 28 137 109 28 137 109 28 137 109 28 137 109 28 137 109 28 137 109 28 137 109 28 137 109 28 137 109 28 137 109 28 137 109 79 163 144 245 245 255 245 245 255 245 245 255 69 158 137 28 137 109 28 137 109 28 137 109 111 178 165 245 245 255 245 245 255 245 245 255 150 198 191 28 137 109 28 137 109 28 137 109 28 137 109 28 137 109 50 148 124 244 245 254 245 245 255 255 255 255 245 245 255 245 245 255 134 190 180 28 137 109 28 137 109 28 137 109 28 137 109 28 137 109 28 137 109 235 240 249 245 245 255 245 245 255 245 245 255 245 245 255 245 245 255 245 245 255 245 245 255 245 245 255 245 245 255 245 245 255 103 175 160 28 137 109 28 137 109 184 215 214 245 245 255 245 245 255 245 245 255 241 243 253 53 150 126 28 137 109 28 137 109 28 137 109 28 137 109 212 229 233 245 245 255 245 245 255 76 161 141 28 137 109 28 137 109 28 137 109 28 137 109 28 137 109 28 137 109 28 137 109 28 137 109 28 137 109 28 137 109 28 137 109 28 137 109 28 137 109 28 137 109 28 137 109 28 137 109 28 137 109 28 137 109 28 137 109 28 137 109 28 137 109 28 137 109 28 137 109 28 137 109 28 137 109 28 137 109 28 137 109 28 137 109 28 137 109 28 137 109 28 137 109 28 137 109 28 137 109 28 137 109 28 137 109 28 137 109 28 137 109 28 137 109 28 137 109 28 137 109 28 137 109 28 137 109 28 137 109 28 137 109 28 137 109 28 137 109 62 154 132 245 245 255 245 245 255 245 245 255 245 245 255 245 245 255 245 245 255 245 245 255 245 245 255 245 245 255 236 241 249 114 180 167 28 137 109 28 137 109 56 151 128 241 243 253 245 245 255 245 245 255 154 200 194 28 137 109 28 137 109 28 137 109 28 137 109 28 137 109 54 150 127 246 243 253 245 245 255 245 245 255 131 189 179 28 137 109 28 137 109 28 137 109 57 152 129 197 221 223 245 245 255 245 245 255 245 245 255 245 245 255 245 245 255 245 245 255 245 245 255 245 245 255 245 245 255 45 146 121 28 137 109 28 137 109 28 137 109 255 140 180 254 151 188 246 245 255 245 245 255 245 245 255 245 245 255 245 245 255 134 190 180 28 137 109 28 137 109 28 137 109 28 137 109 28 137 109 156 201 196 245 245 255 245 245 255 245 245 255 181 213 212 28 137 109 255 136 183 255 136 183 255 120 40 245 245 255 245 245 255 245 245 255 237 241 250 28 137 109 28 137 109 28 137 109 134 190 180 245 245 255 245 245 255 245 245 255 245 245 255 245 245 255 245 245 255 245 245 255 245 245 255 245 245 255 245 245 255 253 164 206 255 132 186 28 137 109 28 137 109 28 137 109 28 137 109 28 137 109 28 137 109 28 137 109 28 137 109 28 137 109 28 137 109 28 137 109 28 137 109 28 137 109 28 137 109 28 137 109 28 137 109 28 137 109 28 137 109 28 137 109 255 128 189 255 128 189 255 128 189 28 137 109 28 137 109 28 137 109 28 137 109 28 137 109 28 137 109 28 137 109 28 137 109 28 137 109 28 137 109 28 137 109 28 137 109 28 137 109 28 137 109 28 137 109 28 137 109 28 137 109 28 137 109 28 137 109 28 137 109 28 137 109 28 137 109 28 137 109 255 124 192 255 124 192 255 124 192 28 137 109 28 137 109 28 137 109 28 137 109 28 137 109 28 137 109 28 137 109 28 137 109 28 137 109 28 137 109 28 137 109 28 137 109 28 137 109 28 137 109 28 137 109 28 137 109 28 137 109 28 137 109 28 137 109 28 137 109 28 137 109 28 137 109 28 137 109 28 137 109 28 137 109 28 137 109 28 137 109 28 137 109 28 137 109 28 137 109 28 137 109 28 137 109 28 137 109 28 137 109 28 137 109 28 137 109 28 137 109 28 137 109 28 137 109 28 137 109 28 137 109 28 137 109 28 137 109 28 137 109 28 137 109 28 137 109 28 137 109 28 137 109 28 137 109 28 137 109 28 137 109 28 137 109 28 137 109 28 137 109 28 137 109 28 137 109 28 137 109 28 137 109 28 137 109 28 137 109 28 137 109 28 137 109 28 137 109 28 137 109 28 137 109 28 137 109 28 137 109 28 137 109 28 137 109 28 137 109 28 137 109 28 137 109 28 137 109 28 137 109 28 137 109 28 137 109 28 137 109 28 137 109 28 137 109 28 137 109 28 137 109 28 137 109 28 137 109 28 137 109 28 137 109 28 137 109 28 137 109 28 137 109 28 137 109 28 137 109 28 137 109 28 137 109 28 137 109 28 137 109 28 137 109 28 137 109 28 137 109 28 137 109 28 137 109 28 137 109 28 137 109 28 137 109 28 137 109 28 137 109 28 137 109 28 137 109 28 137 109 28 137 109 28 137 109 28 137 109 28 137 109 28 137 109 28 137 109 28 137 109 28 137 109 28 137 109 28 137 109 28 137 109 28 137 109 28 137 109 28 137 109 28 137 109 28 137 109 
28 137 110 28 137 110 28 137 110 28 137 110 28 137 110 28 137 110 28 137 110 28 137 110 28 137 110 28 137 110 28 137 110 28 137 110 28 137 110 28 137 110 28 137 110 28 137 110 28 137 110 28 137 110 28 137 110 79 163 144 245 245 255 245 245 255 245 245 255 69 158 138 28 137 110 28 137 110 43 145 120 227 236 243 245 245 255 245 245 255 210 228 232 35 141 115 28 137 110 28 137 110 28 137 110 28 137 110 28 137 110 113 180 167 245 245 255 245 245 255 227 236 243 255 255 255 255 255 255 197 221 223 28 137 110 28 137 110 28 137 110 28 137 110 28 137 110 28 137 110 235 240 249 245 245 255 245 245 255 245 245 255 245 245 255 245 245 255 245 245 255 245 245 255 245 245 255 245 245 255 245 245 255 103 175 160 28 137 110 28 137 110 184 215 215 245 245 255 245 245 255 245 245 255 245 245 255 147 197 190 28 137 110 28 137 110 28 137 110 28 137 110 212 229 233 245 245 255 245 245 255 76 161 142 28 137 110 28 137 110 28 137 110 28 137 110 28 137 110 28 137 110 28 137 110 28 137 110 28 137 110 28 137 110 28 137 110 28 137 110 28 137 110 28 137 110 28 137 110 28 137 110 28 137 110 28 137 110 28 137 110 28 137 110 28 137 110 28 137 110 28 137 110 28 137 110 28 137 110 28 137 110 28 137 110 28 137 110 28 137 110 28 137 110 28 137 110 28 137 110 28 137 110 28 137 110 28 137 110 28 137 110 28 137 110 28 137 110 28 137 110 28 137 110 28 137 110 28 137 110 28 137 110 28 137 110 28 137 110 28 137 110 62 154 133 245 245 255 245 245 255 245 245 255 245 245 255 245 245 255 245 245 255 245 245 255 245 245 255 245 245 255 245 245 255 245 245 255 100 173 158 28 137 110 28 137 110 162 204 199 245 245 255 245 245 255 237 241 250 47 147 123 28 137 110 28 137 110 28 137 110 28 137 110 158 202 197 245 245 255 245 245 255 246 237 249 255 149 181 28 137 110 28 137 110 64 155 134 228 237 244 245 245 255 245 245 255 245 245 255 245 245 255 245 245 255 245 245 255 245 245 255 245 245 255 245 245 255 245 245 255 45 146 122 28 137 110 28 137 110 28 137 110 255 140 180 252 181 210 245 245 255 245 245 255 227 236 243 245 245 255 245 245 255 197 221 223 28 137 110 28 137 110 28 137 110 28 137 110 28 137 110 167 206 203 245 245 255 245 245 255 245 245 255 235 240 249 34 140 114 255 136 183 255 136 183 255 120 40 245 245 255 245 245 255 245 245 255 245 245 255 31 139 112 28 137 110 28 137 110 134 190 181 245 245 255 245 245 255 245 245 255 245 245 255 245 245 255 245 245 255 245 245 255 245 245 255 245 245 255 245 245 255 253 164 206 255 132 186 28 137 110 28 137 110 28 137 110 28 137 110 28 137 110 28 137 110 28 137 110 28 137 110 28 137 110 28 137 110 28 137 110 28 137 110 28 137 110 28 137 110 28 137 110 28 137 110 28 137 110 28 137 110 255 128 189 255 128 189 255 128 189 28 137 110 28 137 110 28 137 110 28 137 110 28 137 110 28 137 110 28 137 110 28 137 110 28 137 110 28 137 110 28 137 110 28 137 110 28 137 110 28 137 110 28 137 110 28 137 110 28 137 110 28 137 110 28 137 110 28 137 110 28 137 110 28 137 110 28 137 110 28 137 110 255 124 192 255 124 192 255 124 192 28 137 110 28 137 110 28 137 110 28 137 110 28 137 110 28 137 110 28 137 110 28 137 110 28 137 110 28 137 110 28 137 110 28 137 110 28 137 110 28 137 110 28 137 110 28 137 110 28 137 110 28 137 110 28 137 110 28 137 110 28 137 110 28 137 110 28 137 110 28 137 110 28 137 110 28 137 110 28 137 110 28 137 110 28 137 110 28 137 110 28 137 110 28 137 110 28 137 110 28 137 110 28 137 110 28 137 110 28 137 110 28 137 110 28 137 110 28 137 110 28 137 110 28 137 110 28 137 110 28 137 110 28 137 110 28 137 110 28 137 110 28 137 110 28 137 110 28 137 110 28 137 110 28 137 110 28 137 110 28 137 110 28 137 110 28 137 110 28 137 110 28 137 110 28 137 110 28 137 110 28 137 110 28 137 110 28 137 110 28 137 110 28 137 110 28 137 110 28 137 110 28 137 110 28 137 110 28 137 110 28 137 110 28 137 110 28 137 110 28 137 110 28 137 110 28 137 110 28 137 110 28 137 110 28 137 110 28 137 110 28 137 110 28 137 110 28 137 110 28 137 110 28 137 110 28 137 110 28 137 110 28 137 110 28 137 110 28 137 110 28 137 110 28 137 110 28 137 110 28 137 110 28 137 110 28 137 110 28 137 110 28 137 110 28 137 110 28 137 110 28 137 110 28 137 110 28 137 110 28 137 110 28 137 110 28 137 110 28 137 110 28 137 110 28 137 110 28 137 110 28 137 110 28 137 110 28 137 110 28 137 110 28 137 110 28 137 110 28 137 110 28 137 110 28 137 110 28 137 110 28 137 110 28 137 110 28 137 110 
28 136 110 28 136 110 28 136 110 28 136 110 28 136 110 28 136 110 28 136 110 28 136 110 28 136 110 28 136 110 28 136 110 28 136 110 28 136 110 28 136 110 28 136 110 28 136 110 28 136 110 28 136 110 28 136 110 79 162 144 245 245 255 245 245 255 245 245 255 69 157 138 28 136 110 28 136 110 156 201 196 245 245 255 245 245 255 241 243 253 72 158 139 28 136 110 28 136 110 28 136 110 28 136 110 28 136 110 28 136 110 177 211 210 245 245 255 245 245 255 121 183 172 245 245 255 245 245 255 255 255 255 255 255 255 28 136 110 28 136 110 28 136 110 28 136 110 28 136 110 28 136 110 28 136 110 28 136 110 32 138 113 245 245 255 245 245 255 245 245 255 117 181 169 28 136 110 28 136 110 28 136 110 28 136 110 28 136 110 28 136 110 184 215 215 245 245 255 245 245 255 245 245 255 245 245 255 233 239 247 40 142 118 28 136 110 28 136 110 28 136 110 212 228 233 245 245 255 245 245 255 76 160 142 28 136 110 28 136 110 28 136 110 28 136 110 28 136 110 28 136 110 28 136 110 28 136 110 28 136 110 28 136 110 28 136 110 28 136 110 28 136 110 28 136 110 28 136 110 28 136 110 28 136 110 28 136 110 28 136 110 28 136 110 28 136 110 28 136 110 28 136 110 28 136 110 28 136 110 28 136 110 28 136 110 28 136 110 28 136 110 28 136 110 28 136 110 28 136 110 28 136 110 28 136 110 28 136 110 28 136 110 28 136 110 28 136 110 28 136 110 28 136 110 28 136 110 28 136 110 28 136 110 28 136 110 28 136 110 28 136 110 62 153 133 245 245 255 245 245 255 245 245 255 79 162 144 28 136 110 34 139 114 70 157 138 169 207 205 245 245 255 245 245 255 245 245 255 214 230 235 28 136 110 28 136 110 57 151 130 241 243 253 245 245 255 245 245 255 142 194 186 28 136 110 28 136 110 28 136 110 55 150 128 240 243 252 245 245 255 245 245 255 251 191 213 255 144 177 28 136 110 34 139 114 208 227 231 245 245 255 245 245 255 245 245 255 200 222 225 97 171 156 46 145 122 32 138 113 44 144 121 77 161 143 135 190 182 206 225 229 45 145 121 28 136 110 28 136 110 28 136 110 255 140 180 249 212 232 245 245 255 245 245 255 121 183 172 245 245 255 245 245 255 243 244 254 46 145 122 28 136 110 28 136 110 28 136 110 28 136 110 178 211 210 245 245 255 245 245 255 245 245 255 245 245 255 83 164 147 255 136 183 255 138 185 255 120 40 245 245 255 244 245 254 245 245 255 245 245 255 41 143 119 28 136 110 28 136 110 134 189 181 245 245 255 245 245 255 232 239 246 28 136 110 28 136 110 28 136 110 28 136 110 28 136 110 28 136 110 255 132 186 255 132 186 255 132 186 28 136 110 28 136 110 28 136 110 28 136 110 28 136 110 28 136 110 28 136 110 28 136 110 28 136 110 28 136 110 28 136 110 28 136 110 28 136 110 28 136 110 28 136 110 28 136 110 28 136 110 28 136 110 255 128 189 255 128 189 255 128 189 28 136 110 28 136 110 28 136 110 28 136 110 28 136 110 28 136 110 28 136 110 28 136 110 28 136 110 28 136 110 28 136 110 28 136 110 28 136 110 28 136 110 28 136 110 28 136 110 28 136 110 28 136 110 28 136 110 28 136 110 28 136 110 28 136 110 28 136 110 255 124 192 255 124 192 255 124 192 28 136 110 28 136 110 28 136 110 28 136 110 28 136 110 28 136 110 28 136 110 28 136 110 28 136 110 28 136 110 28 136 110 28 136 110 28 136 110 28 136 110 28 136 110 28 136 110 28 136 110 28 136 110 28 136 110 28 136 110 28 136 110 28 136 110 28 136 110 28 136 110 28 136 110 28 136 110 28 136 110 28 136 110 28 136 110 28 136 110 28 136 110 28 136 110 28 136 110 28 136 110 28 136 110 28 136 110 28 136 110 28 136 110 28 136 110 28 136 110 28 136 110 28 136 110 28 136 110 28 136 110 28 136 110 28 136 110 28 136 110 28 136 110 28 136 110 28 136 110 28 136 110 28 136 110 28 136 110 28 136 110 28 136 110 28 136 110 28 136 110 28 136 110 28 136 110 28 136 110 28 136 110 28 136 110 28 136 110 28 136 110 28 136 110 28 136 110 28 136 110 28 136 110 28 136 110 28 136 110 28 136 110 28 136 110 28 136 110 28 136 110 28 136 110 28 136 110 28 136 110 28 136 110 28 136 110 28 136 110 28 136 110 28 136 110 28 136 110 28 136 110 28 136 110 28 136 110 28 136 110 28 136 110 28 136 110 28 136 110 28 136 110 28 136 110 28 136 110 28 136 110 28 136 110 28 136 110 28 136 110 28 136 110 28 136 110 28 136 110 28 136 110 28 136 110 28 136 110 28 136 110 28 136 110 28 136 110 28 136 110 28 136 110 28 136 110 28 136 110 28 136 110 28 136 110 28 136 110 28 136 110 28 136 110 28 136 110 28 136 110 28 136 110 28 136 110 28 136 110 28 136 110 28 136 110 28 136 110 28 136 110 
29 136 111 29 136 111 29 136 111 29 136 111 29 136 111 29 136 111 29 136 111 29 136 111 29 136 111 29 136 111 29 136 111 29 136 111 29 136 111 29 136 111 29 136 111 29 136 111 29 136 111 29 136 111 29 136 111 80 162 145 245 245 255 245 245 255 245 245 255 70 157 138 29 136 111 74 159 141 243 244 254 245 245 255 245 245 255 136 190 182 29 136 111 29 136 111 29 136 111 29 136 111 29 136 111 29 136 111 35 139 115 234 240 248 245 245 255 237 241 250 36 140 116 219 232 238 245 245 255 245 245 255 109 176 164 255 255 255 255 255 255 29 136 111 29 136 111 29 136 111 29 136 111 29 136 111 29 136 111 33 138 114 245 245 255 245 245 255 245 245 255 117 181 170 29 136 111 29 136 111 29 136 111 29 136 111 29 136 111 29 136 111 185 215 215 245 245 255 245 245 255 245 245 255 245 245 255 245 245 255 126 185 176 29 136 111 29 136 111 29 136 111 212 228 233 245 245 255 245 245 255 77 160 143 29 136 111 29 136 111 29 136 111 29 136 111 29 136 111 29 136 111 29 136 111 29 136 111 29 136 111 29 136 111 29 136 111 29 136 111 29 136 111 29 136 111 29 136 111 41 142 119 217 231 236 245 245 255 245 245 255 237 241 250 59 151 131 29 136 111 29 136 111 29 136 111 29 136 111 102 173 160 245 245 255 245 245 255 245 245 255 110 177 165 29 136 111 29 136 111 29 136 111 29 136 111 29 136 111 29 136 111 29 136 111 29 136 111 29 136 111 29 136 111 29 136 111 29 136 111 29 136 111 29 136 111 29 136 111 29 136 111 63 153 134 245 245 255 245 245 255 245 245 255 80 162 145 29 136 111 29 136 111 29 136 111 29 136 111 177 211 210 245 245 255 245 245 255 245 245 255 57 151 130 29 136 111 29 136 111 163 204 200 245 245 255 245 245 255 232 239 246 41 142 119 29 136 111 29 136 111 159 202 198 245 245 255 245 245 255 227 236 243 255 149 181 255 144 177 255 144 177 116 180 169 245 245 255 245 245 255 245 245 255 175 210 208 33 138 114 29 136 111 29 136 111 29 136 111 29 136 111 29 136 111 29 136 111 29 136 111 29 136 111 29 136 111 29 136 111 29 136 111 255 143 182 246 240 252 245 245 255 237 241 250 36 140 116 219 232 238 245 245 255 245 245 255 109 176 164 29 136 111 29 136 111 29 136 111 29 136 111 188 217 217 245 245 255 217 231 236 226 236 243 245 245 255 142 193 186 255 136 183 253 163 201 255 120 40 244 245 254 191 218 219 245 245 255 245 245 255 53 148 127 29 136 111 29 136 111 134 189 181 245 245 255 245 245 255 232 239 246 29 136 111 29 136 111 29 136 111 29 136 111 29 136 111 255 132 186 255 132 186 255 132 186 29 136 111 29 136 111 29 136 111 29 136 111 29 136 111 29 136 111 29 136 111 29 136 111 29 136 111 29 136 111 29 136 111 29 136 111 29 136 111 29 136 111 29 136 111 29 136 111 29 136 111 29 136 111 255 128 189 255 128 189 255 128 189 29 136 111 29 136 111 29 136 111 29 136 111 29 136 111 29 136 111 29 136 111 29 136 111 29 136 111 29 136 111 29 136 111 29 136 111 29 136 111 29 136 111 29 136 111 29 136 111 29 136 111 29 136 111 29 136 111 29 136 111 29 136 111 29 136 111 29 136 111 255 124 192 255 124 192 255 124 192 29 136 111 29 136 111 29 136 111 29 136 111 29 136 111 29 136 111 29 136 111 29 136 111 29 136 111 29 136 111 29 136 111 29 136 111 29 136 111 29 136 111 29 136 111 29 136 111 29 136 111 29 136 111 29 136 111 29 136 111 29 136 111 29 136 111 29 136 111 29 136 111 29 136 111 29 136 111 29 136 111 29 136 111 29 136 111 29 136 111 29 136 111 29 136 111 29 136 111 29 136 111 29 136 111 29 136 111 29 136 111 29 136 111 29 136 111 29 136 111 29 136 111 29 136 111 29 136 111 29 136 111 29 136 111 29 136 111 29 136 111 29 136 111 29 136 111 29 136 111 29 136 111 29 136 111 29 136 111 29 136 111 29 136 111 29 136 111 29 136 111 29 136 111 29 136 111 29 136 111 29 136 111 29 136 111 29 136 111 29 136 111 29 136 111 29 136 111 29 136 111 29 136 111 29 136 111 29 136 111 29 136 111 29 136 111 29 136 111 29 136 111 29 136 111 29 136 111 29 136 111 29 136 111 29 136 111 29 136 111 29 136 111 29 136 111 29 136 111 29 136 111 29 136 111 29 136 111 29 136 111 29 136 111 29 136 111 29 136 111 29 136 111 29 136 111 29 136 111 29 136 111 29 136 111 29 136 111 29 136 111 29 136 111 29 136 111 29 136 111 29 136 111 29 136 111 29 136 111 29 136 111 29 136 111 29 136 111 29 136 111 29 136 111 29 136 111 29 136 111 29 136 111 29 136 111 29 136 111 29 136 111 29 136 111 29 136 111 29 136 111 29 136 111 29 136 111 29 136 111 29 136 111 29 136 111 29 136 111 29 136 111 29 136 111 
29 135 112 29 135 112 29 135 112 29 135 112 29 135 112 29 135 112 29 135 112 29 135 112 29 135 112 29 135 112 29 135 112 29 135 112 29 135 112 29 135 112 29 135 112 29 135 112 29 135 112 29 135 112 29 135 112 80 161 146 245 245 255 245 245 255 245 245 255 70 156 139 31 136 114 201 223 226 245 245 255 245 245 255 200 222 225 33 137 115 29 135 112 29 135 112 29 135 112 29 135 112 29 135 112 29 135 112 88 165 151 245 245 255 245 245 255 185 215 215 29 135 112 161 202 200 245 245 255 245 245 255 172 208 207 29 135 112 29 135 112 255 255 255 29 135 112 29 135 112 29 135 112 29 135 112 29 135 112 33 137 115 245 245 255 245 245 255 245 245 255 117 180 171 29 135 112 29 135 112 29 135 112 29 135 112 29 135 112 29 135 112 185 215 215 245 245 255 245 245 255 194 219 221 245 245 255 245 245 255 220 233 239 33 137 115 29 135 112 29 135 112 212 228 233 245 245 255 245 245 255 77 160 144 29 135 112 29 135 112 29 135 112 29 135 112 29 135 112 29 135 112 29 135 112 29 135 112 29 135 112 29 135 112 29 135 112 29 135 112 29 135 112 29 135 112 29 135 112 29 135 112 78 160 145 242 244 253 245 245 255 245 245 255 189 217 218 29 135 112 29 135 112 29 135 112 43 142 121 224 235 242 245 245 255 245 245 255 176 210 210 29 135 112 29 135 112 29 135 112 29 135 112 29 135 112 29 135 112 29 135 112 29 135 112 29 135 112 29 135 112 29 135 112 29 135 112 29 135 112 29 135 112 29 135 112 29 135 112 29 135 112 63 153 135 245 245 255 245 245 255 245 245 255 80 161 146 29 135 112 29 135 112 29 135 112 29 135 112 107 175 164 245 245 255 245 245 255 245 245 255 78 160 144 29 135 112 29 135 112 58 150 131 241 243 253 245 245 255 245 245 255 130 187 179 29 135 112 54 148 129 240 243 252 245 245 255 245 245 255 127 185 177 255 144 177 255 144 177 255 144 177 202 224 227 245 245 255 245 245 255 229 237 245 42 142 121 29 135 112 29 135 112 29 135 112 29 135 112 29 135 112 29 135 112 29 135 112 29 135 112 29 135 112 29 135 112 29 135 112 29 135 112 88 165 151 245 245 255 245 245 255 248 216 234 29 135 112 161 202 200 245 245 255 245 245 255 172 208 207 29 135 112 29 135 112 29 135 112 29 135 112 199 222 225 245 245 255 210 227 232 159 202 199 245 245 255 200 222 225 255 136 183 250 193 221 255 120 40 192 218 220 157 200 197 245 245 255 245 245 255 64 153 135 29 135 112 29 135 112 134 189 182 245 245 255 245 245 255 232 239 247 29 135 112 29 135 112 29 135 112 29 135 112 29 135 112 255 132 186 255 132 186 255 132 186 29 135 112 29 135 112 29 135 112 29 135 112 29 135 112 29 135 112 29 135 112 29 135 112 29 135 112 29 135 112 29 135 112 29 135 112 29 135 112 29 135 112 29 135 112 29 135 112 29 135 112 29 135 112 255 128 189 255 128 189 255 128 189 29 135 112 29 135 112 29 135 112 29 135 112 29 135 112 29 135 112 29 135 112 29 135 112 29 135 112 29 135 112 29 135 112 29 135 112 29 135 112 29 135 112 29 135 112 29 135 112 29 135 112 29 135 112 29 135 112 29 135 112 29 135 112 29 135 112 255 124 192 255 124 192 255 124 192 29 135 112 29 135 112 29 135 112 29 135 112 29 135 112 29 135 112 29 135 112 29 135 112 29 135 112 29 135 112 29 135 112 29 135 112 29 135 112 29 135 112 29 135 112 29 135 112 29 135 112 29 135 112 29 135 112 29 135 112 29 135 112 29 135 112 29 135 112 29 135 112 29 135 112 29 135 112 29 135 112 29 135 112 29 135 112 29 135 112 29 135 112 29 135 112 29 135 112 29 135 112 29 135 112 29 135 112 29 135 112 29 135 112 29 135 112 29 135 112 29 135 112 29 135 112 29 135 112 29 135 112 29 135 112 29 135 112 29 135 112 29 135 112 29 135 112 29 135 112 29 135 112 29 135 112 29 135 112 29 135 112 29 135 112 29 135 112 29 135 112 29 135 112 29 135 112 29 135 112 29 135 112 29 135 112 29 135 112 29 135 112 29 135 112 29 135 112 29 135 112 29 135 112 29 135 112 29 135 112 29 135 112 29 135 112 29 135 112 29 135 112 29 135 112 29 135 112 29 135 112 29 135 112 29 135 112 29 135 112 29 135 112 29 135 112 29 135 112 29 135 112 29 135 112 29 135 112 29 135 112 29 135 112 29 135 112 29 135 112 29 135 112 29 135 112 29 135 112 29 135 112 29 135 112 29 135 112 29 135 112 29 135 112 29 135 112 29 135 112 29 135 112 29 135 112 29 135 112 29 135 112 29 135 112 29 135 112 29 135 112 29 135 112 29 135 112 29 135 112 29 135 112 29 135 112 29 135 112 29 135 112 29 135 112 29 135 112 29 135 112 29 135 112 29 135 112 29 135 112 29 135 112 29 135 112 29 135 112 29 135 112 29 135 112 29 135 112 
30 134 113 30 134 113 30 134 113 30 134 113 30 134 113 30 134 113 30 134 113 30 134 113 30 134 113 30 134 113 30 134 113 30 134 113 30 134 113 30 134 113 30 134 113 30 134 113 30 134 113 30 134 113 30 134 113 81 160 147 245 245 255 245 245 255 245 245 255 71 155 140 119 180 172 245 245 255 245 245 255 237 241 250 63 151 135 30 134 113 30 134 113 30 134 113 30 134 113 30 134 113 30 134 113 30 134 113 151 197 193 245 245 255 245 245 255 125 183 176 30 134 113 103 172 161 245 245 255 245 245 255 232 239 247 34 136 116 30 134 113 30 134 113 255 255 255 255 255 255 30 134 113 30 134 113 30 134 113 34 136 116 245 245 255 245 245 255 245 245 255 118 180 171 30 134 113 30 134 113 30 134 113 30 134 113 30 134 113 30 134 113 185 214 216 245 245 255 245 245 255 114 178 169 233 239 247 245 245 255 245 245 255 105 173 163 30 134 113 30 134 113 212 228 233 245 245 255 245 245 255 77 159 145 30 134 113 30 134 113 30 134 113 30 134 113 30 134 113 30 134 113 30 134 113 30 134 113 30 134 113 30 134 113 30 134 113 30 134 113 30 134 113 30 134 113 30 134 113 30 134 113 30 134 113 139 190 185 245 245 255 245 245 255 245 245 255 114 177 168 30 134 113 30 134 113 160 201 199 245 245 255 245 245 255 225 235 242 47 143 125 30 134 113 30 134 113 30 134 113 30 134 113 30 134 113 30 134 113 30 134 113 30 134 113 30 134 113 30 134 113 30 134 113 30 134 113 30 134 113 30 134 113 30 134 113 30 134 113 30 134 113 64 152 136 245 245 255 245 245 255 245 245 255 81 160 147 30 134 113 30 134 113 30 134 113 30 134 113 118 180 171 245 245 255 245 245 255 245 245 255 67 154 138 30 134 113 30 134 113 30 134 113 164 203 202 245 245 255 245 245 255 222 233 240 34 136 116 144 193 188 245 245 255 245 245 255 225 235 242 39 139 119 30 134 113 255 144 177 255 151 182 246 244 255 245 245 255 245 245 255 155 199 196 30 134 113 30 134 113 30 134 113 30 134 113 30 134 113 30 134 113 30 134 113 30 134 113 30 134 113 30 134 113 30 134 113 30 134 113 30 134 113 151 197 193 245 245 255 245 245 255 251 187 214 30 134 113 103 172 161 245 245 255 245 245 255 232 239 247 34 136 116 30 134 113 30 134 113 30 134 113 209 227 232 245 245 255 204 224 228 94 167 156 245 245 255 242 244 253 255 142 187 248 222 240 255 120 40 119 180 172 151 197 193 245 245 255 245 245 255 75 157 143 30 134 113 30 134 113 135 188 182 245 245 255 245 245 255 232 239 247 30 134 113 30 134 113 30 134 113 30 134 113 30 134 113 255 132 186 255 132 186 255 132 186 30 134 113 30 134 113 30 134 113 30 134 113 30 134 113 30 134 113 30 134 113 30 134 113 30 134 113 30 134 113 30 134 113 30 134 113 30 134 113 30 134 113 30 134 113 30 134 113 30 134 113 30 134 113 255 128 189 255 128 189 255 128 189 30 134 113 30 134 113 30 134 113 30 134 113 30 134 113 30 134 113 30 134 113 30 134 113 30 134 113 30 134 113 30 134 113 30 134 113 30 134 113 30 134 113 30 134 113 30 134 113 30 134 113 30 134 113 30 134 113 30 134 113 30 134 113 255 124 192 255 124 192 255 124 192 30 134 113 30 134 113 30 134 113 30 134 113 30 134 113 30 134 113 30 134 113 30 134 113 30 134 113 30 134 113 30 134 113 30 134 113 30 134 113 30 134 113 30 134 113 30 134 113 30 134 113 30 134 113 30 134 113 30 134 113 30 134 113 30 134 113 30 134 113 30 134 113 30 134 113 30 134 113 30 134 113 30 134 113 30 134 113 30 134 113 30 134 113 30 134 113 30 134 113 30 134 113 30 134 113 30 134 113 30 134 113 30 134 113 30 134 113 30 134 113 30 134 113 30 134 113 30 134 113 30 134 113 30 134 113 30 134 113 30 134 113 30 134 113 30 134 113 30 134 113 30 134 113 30 134 113 30 134 113 30 134 113 30 134 113 30 134 113 30 134 113 30 134 113 30 134 113 30 134 113 30 134 113 30 134 113 30 134 113 30 134 113 30 134 113 30 134 113 30 134 113 30 134 113 30 134 113 30 134 113 30 134 113 30 134 113 30 134 113 30 134 113 30 134 113 30 134 113 30 134 113 30 134 113 30 134 113 30 134 113 30 134 113 30 134 113 30 134 113 30 134 113 30 134 113 30 134 113 30 134 113 30 134 113 30 134 113 30 134 113 30 134 113 30 134 113 30 134 113 30 134 113 30 134 113 30 134 113 30 134 113 30 134 113 30 134 113 30 134 113 30 134 113 30 134 113 30 134 113 30 134 113 30 134 113 30 134 113 30 134 113 30 134 113 30 134 113 30 134 113 30 134 113 30 134 113 30 134 113 30 134 113 30 134 113 30 134 113 30 134 113 30 134 113 30 134 113 30 134 113 30 134 113 30 134 113 30 134 113 30 134 113 30 134 113 30 134 113 30 134 113 
30 134 114 30 134 114 30 134 114 30 134 114 30 134 114 30 134 114 30 134 114 30 134 114 30 134 114 30 134 114 30 134 114 30 134 114 30 134 114 30 134 114 30 134 114 30 134 114 30 134 114 30 134 114 30 134 114 81 160 148 245 245 255 245 245 255 245 245 255 88 164 153 230 238 246 245 245 255 245 245 255 122 182 175 30 134 114 30 134 114 30 134 114 30 134 114 30 134 114 30 134 114 30 134 114 30 134 114 214 229 235 245 245 255 245 245 255 67 153 138 30 134 114 46 142 124 243 244 254 245 245 255 245 245 255 84 162 150 30 134 114 30 134 114 30 134 114 30 134 114 255 255 255 255 255 255 30 134 114 34 136 117 245 245 255 245 245 255 245 245 255 118 180 172 30 134 114 30 134 114 30 134 114 30 134 114 30 134 114 30 134 114 185 214 216 245 245 255 245 245 255 104 173 163 151 196 193 245 245 255 245 245 255 202 223 227 30 134 114 30 134 114 212 228 233 245 245 255 245 245 255 77 159 145 30 134 114 30 134 114 30 134 114 30 134 114 30 134 114 30 134 114 30 134 114 30 134 114 30 134 114 30 134 114 30 134 114 30 134 114 30 134 114 30 134 114 30 134 114 30 134 114 30 134 114 33 136 116 197 220 224 245 245 255 245 245 255 231 238 246 51 145 128 82 161 148 244 245 254 245 245 255 245 245 255 95 168 157 30 134 114 30 134 114 30 134 114 30 134 114 30 134 114 30 134 114 30 134 114 30 134 114 30 134 114 30 134 114 30 134 114 30 134 114 30 134 114 30 134 114 30 134 114 30 134 114 30 134 114 30 134 114 64 152 137 245 245 255 245 245 255 245 245 255 81 160 148 30 134 114 30 134 114 30 134 114 32 135 116 194 219 222 245 245 255 245 245 255 235 240 248 35 137 118 30 134 114 30 134 114 30 134 114 60 150 134 241 243 253 245 245 255 245 245 255 113 177 168 229 237 244 245 245 255 245 245 255 125 183 177 30 134 114 30 134 114 255 144 177 253 168 196 245 245 255 245 245 255 245 245 255 106 173 164 30 134 114 30 134 114 77 159 145 245 245 255 245 245 255 245 245 255 245 245 255 245 245 255 245 245 255 61 150 134 30 134 114 30 134 114 30 134 114 214 229 235 245 245 255 245 245 255 254 158 193 30 134 114 46 142 124 243 244 254 245 245 255 245 245 255 84 162 150 30 134 114 30 134 114 30 134 114 220 232 239 245 245 255 199 222 225 41 140 122 241 243 253 245 245 255 252 171 206 246 243 254 255 120 40 56 148 132 144 193 189 245 245 255 245 245 255 86 163 151 30 134 114 30 134 114 135 188 183 245 245 255 245 245 255 245 245 255 245 245 255 245 245 255 245 245 255 245 245 255 245 245 255 245 245 255 246 238 251 255 132 186 30 134 114 30 134 114 30 134 114 30 134 114 30 134 114 30 134 114 30 134 114 30 134 114 30 134 114 30 134 114 30 134 114 30 134 114 30 134 114 30 134 114 30 134 114 30 134 114 30 134 114 255 128 189 255 128 189 255 128 189 30 134 114 30 134 114 30 134 114 30 134 114 30 134 114 30 134 114 30 134 114 30 134 114 30 134 114 30 134 114 30 134 114 30 134 114 30 134 114 30 134 114 30 134 114 30 134 114 30 134 114 30 134 114 30 134 114 30 134 114 30 134 114 30 134 114 255 124 192 255 124 192 255 124 192 30 134 114 30 134 114 30 134 114 30 134 114 30 134 114 30 134 114 30 134 114 30 134 114 30 134 114 30 134 114 30 134 114 30 134 114 30 134 114 30 134 114 30 134 114 30 134 114 30 134 114 30 134 114 30 134 114 30 134 114 30 134 114 30 134 114 30 134 114 30 134 114 30 134 114 30 134 114 30 134 114 30 134 114 30 134 114 30 134 114 30 134 114 30 134 114 30 134 114 30 134 114 30 134 114 30 134 114 30 134 114 30 134 114 30 134 114 30 134 114 30 134 114 30 134 114 30 134 114 30 134 114 30 134 114 30 134 114 30 134 114 30 134 114 30 134 114 30 134 114 30 134 114 30 134 114 30 134 114 30 134 114 30 134 114 30 134 114 30 134 114 30 134 114 30 134 114 30 134 114 30 134 114 30 134 114 30 134 114 30 134 114 30 134 114 30 134 114 30 134 114 30 134 114 30 134 114 30 134 114 30 134 114 30 134 114 30 134 114 30 134 114 30 134 114 30 134 114 30 134 114 30 134 114 30 134 114 30 134 114 30 134 114 30 134 114 30 134 114 30 134 114 30 134 114 30 134 114 30 134 114 30 134 114 30 134 114 30 134 114 30 134 114 30 134 114 30 134 114 30 134 114 30 134 114 30 134 114 30 134 114 30 134 114 30 134 114 30 134 114 30 134 114 30 134 114 30 134 114 30 134 114 30 134 114 30 134 114 30 134 114 30 134 114 30 134 114 30 134 114 30 134 114 30 134 114 30 134 114 30 134 114 30 134 114 30 134 114 30 134 114 30 134 114 30 134 114 30 134 114 30 134 114 30 134 114 30 134 114 30 134 114 30 134 114 30 134 114 30 134 114 
30 133 115 30 133 115 30 133 115 30 133 115 30 133 115 30 133 115 30 133 115 30 133 115 30 133 115 30 133 115 30 133 115 30 133 115 30 133 115 30 133 115 30 133 115 30 133 115 30 133 115 30 133 115 30 133 115 81 160 148 245 245 255 245 245 255 245 245 255 202 223 227 245 245 255 245 245 255 193 218 221 31 134 116 30 133 115 30 133 115 30 133 115 30 133 115 30 133 115 30 133 115 30 133 115 63 151 137 245 245 255 245 245 255 222 233 240 30 133 115 30 133 115 30 133 115 201 222 227 245 245 255 245 245 255 147 194 192 30 133 115 30 133 115 30 133 115 30 133 115 30 133 115 30 133 115 255 255 255 255 255 255 245 245 255 245 245 255 245 245 255 118 179 172 30 133 115 30 133 115 30 133 115 30 133 115 30 133 115 30 133 115 185 214 216 245 245 255 245 245 255 104 172 164 57 147 133 242 244 253 245 245 255 245 245 255 84 161 150 30 133 115 212 228 234 245 245 255 245 245 255 77 158 146 30 133 115 30 133 115 30 133 115 30 133 115 30 133 115 30 133 115 30 133 115 30 133 115 30 133 115 30 133 115 30 133 115 30 133 115 30 133 115 30 133 115 30 133 115 30 133 115 30 133 115 30 133 115 59 148 134 234 239 248 245 245 255 245 245 255 178 210 212 210 227 233 245 245 255 245 245 255 161 201 200 30 133 115 30 133 115 30 133 115 30 133 115 30 133 115 30 133 115 30 133 115 30 133 115 30 133 115 30 133 115 30 133 115 30 133 115 30 133 115 30 133 115 30 133 115 30 133 115 30 133 115 30 133 115 30 133 115 64 151 137 245 245 255 245 245 255 245 245 255 81 160 148 30 133 115 42 140 123 77 158 146 180 211 213 245 245 255 245 245 255 245 245 255 161 201 200 30 133 115 30 133 115 30 133 115 30 133 115 30 133 115 164 203 202 245 245 255 245 245 255 237 241 250 245 245 255 245 245 255 224 234 241 38 137 120 30 133 115 30 133 115 30 133 115 252 176 202 245 245 255 245 245 255 245 245 255 84 161 150 30 133 115 30 133 115 77 158 146 245 245 255 245 245 255 245 245 255 245 245 255 245 245 255 245 245 255 61 149 135 30 133 115 30 133 115 63 151 137 245 245 255 245 245 255 247 234 247 255 140 180 30 133 115 30 133 115 201 222 227 245 245 255 245 245 255 147 194 192 30 133 115 30 133 115 30 133 115 230 238 246 245 245 255 193 218 222 30 133 115 197 220 224 245 245 255 248 221 239 245 245 255 255 120 40 30 133 115 137 189 185 245 245 255 245 245 255 97 168 159 30 133 115 30 133 115 135 188 183 245 245 255 245 245 255 245 245 255 245 245 255 245 245 255 245 245 255 245 245 255 245 245 255 245 245 255 246 238 251 255 132 186 30 133 115 30 133 115 30 133 115 30 133 115 30 133 115 30 133 115 30 133 115 30 133 115 30 133 115 30 133 115 30 133 115 30 133 115 30 133 115 30 133 115 30 133 115 30 133 115 30 133 115 255 128 189 255 128 189 255 128 189 30 133 115 30 133 115 30 133 115 30 133 115 30 133 115 30 133 115 30 133 115 30 133 115 30 133 115 30 133 115 30 133 115 30 133 115 30 133 115 30 133 115 30 133 115 30 133 115 30 133 115 30 133 115 30 133 115 30 133 115 30 133 115 255 124 192 255 124 192 255 124 192 30 133 115 30 133 115 30 133 115 30 133 115 30 133 115 30 133 115 30 133 115 30 133 115 30 133 115 30 133 115 30 133 115 30 133 115 30 133 115 30 133 115 30 133 115 30 133 115 30 133 115 30 133 115 30 133 115 30 133 115 30 133 115 30 133 115 30 133 115 30 133 115 30 133 115 30 133 115 30 133 115 30 133 115 30 133 115 30 133 115 30 133 115 30 133 115 30 133 115 30 133 115 30 133 115 30 133 115 30 133 115 30 133 115 30 133 115 30 133 115 30 133 115 30 133 115 30 133 115 30 133 115 30 133 115 30 133 115 30 133 115 30 133 115 30 133 115 30 133 115 30 133 115 30 133 115 30 133 115 30 133 115 30 133 115 30 133 115 30 133 115 30 133 115 30 133 115 30 133 115 30 133 115 30 133 115 30 133 115 30 133 115 30 133 115 30 133 115 30 133 115 30 133 115 30 133 115 30 133 115 30 133 115 30 133 115 30 133 115 30 133 115 30 133 115 30 133 115 30 133 115 30 133 115 30 133 115 30 133 115 30 133 115 30 133 115 30 133 115 30 133 115 30 133 115 30 133 115 30 133 115 30 133 115 30 133 115 30 133 115 30 133 115 30 133 115 30 133 115 30 133 115 30 133 115 30 133 115 30 133 115 30 133 115 30 133 115 30 133 115 30 133 115 30 133 115 30 133 115 30 133 115 30 133 115 30 133 115 30 133 115 30 133 115 30 133 115 30 133 115 30 133 115 30 133 115 30 133 115 30 133 115 30 133 115 30 133 115 30 133 115 30 133 115 30 133 115 30 133 115 30 133 115 30 133 115 30 133 115 30 133 115 30 133 115 30 133 115 30 133 115 30 133 115 
31 133 116 31 133 116 31 133 116 31 133 116 31 133 116 31 133 116 31 133 116 31 133 116 31 133 116 31 133 116 31 133 116 31 133 116 31 133 116 31 133 116 31 133 116 31 133 116 31 133 116 31 133 116 31 133 116 82 160 149 245 245 255 245 245 255 245 245 255 212 228 234 245 245 255 245 245 255 225 235 242 48 142 127 31 133 116 31 133 116 31 133 116 31 133 116 31 133 116 31 133 116 31 133 116 127 183 178 245 245 255 245 245 255 163 202 202 31 133 116 31 133 116 31 133 116 143 192 189 245 245 255 245 245 255 211 228 233 31 133 116 31 133 116 31 133 116 31 133 116 31 133 116 31 133 116 31 133 116 35 135 119 255 255 255 255 255 255 245 245 255 118 179 173 31 133 116 31 133 116 31 133 116 31 133 116 31 133 116 31 133 116 185 214 216 245 245 255 245 245 255 105 172 164 31 133 116 174 208 209 245 245 255 245 245 255 182 212 214 31 133 116 212 228 234 245 245 255 245 245 255 78 158 147 31 133 116 31 133 116 31 133 116 31 133 116 31 133 116 31 133 116 31 133 116 31 133 116 31 133 116 31 133 116 31 133 116 31 133 116 31 133 116 31 133 116 31 133 116 31 133 116 31 133 116 31 133 116 31 133 116 110 175 168 245 245 255 245 245 255 245 245 255 245 245 255 245 245 255 217 231 237 41 139 123 31 133 116 31 133 116 31 133 116 31 133 116 31 133 116 31 133 116 31 133 116 31 133 116 31 133 116 31 133 116 31 133 116 31 133 116 31 133 116 31 133 116 31 133 116 31 133 116 31 133 116 31 133 116 31 133 116 65 151 138 245 245 255 245 245 255 245 245 255 245 245 255 245 245 255 245 245 255 245 245 255 245 245 255 245 245 255 245 245 255 222 233 240 52 144 130 31 133 116 31 133 116 31 133 116 31 133 116 31 133 116 61 149 136 241 243 253 245 245 255 245 245 255 245 245 255 245 245 255 123 182 176 31 133 116 31 133 116 31 133 116 31 133 116 252 178 204 245 245 255 245 245 255 245 245 255 82 160 150 31 133 116 31 133 116 78 158 147 245 245 255 245 245 255 245 245 255 245 245 255 245 245 255 245 245 255 62 149 136 31 133 116 31 133 116 127 183 178 245 245 255 245 245 255 249 205 226 255 140 180 255 140 180 31 133 116 143 192 189 245 245 255 245 245 255 211 228 233 31 133 116 31 133 116 31 133 116 240 243 252 245 245 255 187 215 217 31 133 116 141 191 188 245 245 255 245 245 255 245 245 255 255 120 40 31 133 116 131 186 181 245 245 255 245 245 255 108 173 166 31 133 116 31 133 116 135 188 184 245 245 255 245 245 255 245 245 255 245 245 255 245 245 255 245 245 255 245 245 255 245 245 255 245 245 255 246 238 251 31 133 116 31 133 116 31 133 116 31 133 116 31 133 116 31 133 116 31 133 116 31 133 116 31 133 116 31 133 116 31 133 116 31 133 116 31 133 116 31 133 116 31 133 116 31 133 116 31 133 116 255 128 189 255 128 189 255 128 189 31 133 116 31 133 116 31 133 116 31 133 116 31 133 116 31 133 116 31 133 116 31 133 116 31 133 116 31 133 116 31 133 116 31 133 116 31 133 116 31 133 116 31 133 116 31 133 116 31 133 116 31 133 116 31 133 116 31 133 116 31 133 116 255 124 192 255 124 192 255 124 192 31 133 116 31 133 116 31 133 116 31 133 116 31 133 116 31 133 116 31 133 116 31 133 116 31 133 116 31 133 116 31 133 116 31 133 116 31 133 116 31 133 116 31 133 116 31 133 116 31 133 116 31 133 116 31 133 116 31 133 116 31 133 116 31 133 116 31 133 116 31 133 116 31 133 116 31 133 116 31 133 116 31 133 116 31 133 116 31 133 116 31 133 116 31 133 116 31 133 116 31 133 116 31 133 116 31 133 116 31 133 116 31 133 116 31 133 116 31 133 116 31 133 116 31 133 116 31 133 116 31 133 116 31 133 116 31 133 116 31 133 116 31 133 116 31 133 116 31 133 116 31 133 116 31 133 116 31 133 116 31 133 116 31 133 116 31 133 116 31 133 116 31 133 116 31 133 116 31 133 116 31 133 116 31 133 116 31 133 116 31 133 116 31 133 116 31 133 116 31 133 116 31 133 116 31 133 116 31 133 116 31 133 116 31 133 116 31 133 116 31 133 116 31 133 116 31 133 116 31 133 116 31 133 116 31 133 116 31 133 116 31 133 116 31 133 116 31 133 116 31 133 116 31 133 116 31 133 116 31 133 116 31 133 116 31 133 116 31 133 116 31 133 116 31 133 116 31 133 116 31 133 116 31 133 116 31 133 116 31 133 116 31 133 116 31 133 116 31 133 116 31 133 116 31 133 116 31 133 116 31 133 116 31 133 116 31 133 116 31 133 116 31 133 116 31 133 116 31 133 116 31 133 116 31 133 116 31 133 116 31 133 116 31 133 116 31 133 116 31 133 116 31 133 116 31 133 116 31 133 116 31 133 116 31 133 116 31 133 116 31 133 116 31 133 116 31 133 116 31 133 116 31 133 116 31 133 116 
31 132 116 31 132 116 31 132 116 31 132 116 31 132 116 31 132 116 31 132 116 31 132 116 31 132 116 31 132 116 31 132 116 31 132 116 31 132 116 31 132 116 31 132 116 31 132 116 31 132 116 31 132 116 31 132 116 82 159 149 245 245 255 245 245 255 245 245 255 96 166 158 235 240 249 245 245 255 245 245 255 176 209 210 31 132 116 31 132 116 31 132 116 31 132 116 31 132 116 31 132 116 31 132 116 189 216 219 245 245 255 245 245 255 104 171 164 31 132 116 31 132 116 31 132 116 84 160 151 245 245 255 245 245 255 245 245 255 60 147 135 31 132 116 31 132 116 31 132 116 31 132 116 31 132 116 31 132 116 35 134 119 245 245 255 245 245 255 255 255 255 118 178 173 31 132 116 31 132 116 31 132 116 31 132 116 31 132 116 31 132 116 185 214 216 245 245 255 245 245 255 105 171 164 31 132 116 79 158 147 245 245 255 245 245 255 244 245 254 65 150 138 212 228 234 245 245 255 245 245 255 78 157 147 31 132 116 31 132 116 31 132 116 31 132 116 31 132 116 31 132 116 31 132 116 31 132 116 31 132 116 31 132 116 31 132 116 31 132 116 31 132 116 31 132 116 31 132 116 31 132 116 31 132 116 31 132 116 31 132 116 31 132 116 172 207 208 245 245 255 245 245 255 245 245 255 244 245 254 82 159 150 31 132 116 31 132 116 31 132 116 31 132 116 31 132 116 31 132 116 31 132 116 31 132 116 31 132 116 31 132 116 31 132 116 31 132 116 31 132 116 31 132 116 31 132 116 31 132 116 31 132 116 31 132 116 31 132 116 31 132 116 65 150 138 245 245 255 245 245 255 245 245 255 245 245 255 245 245 255 245 245 255 245 245 255 245 245 255 245 245 255 207 225 231 64 150 138 31 132 116 31 132 116 31 132 116 31 132 116 31 132 116 31 132 116 31 132 116 165 203 203 245 245 255 245 245 255 245 245 255 223 234 241 38 136 121 31 132 116 31 132 116 31 132 116 31 132 116 90 163 155 245 245 255 245 245 255 245 245 255 97 167 159 31 132 116 31 132 116 31 132 116 31 132 116 31 132 116 72 154 143 245 245 255 245 245 255 245 245 255 62 148 136 31 132 116 31 132 116 189 216 219 245 245 255 245 245 255 252 176 206 255 140 180 255 140 180 31 132 116 84 160 151 245 245 255 245 245 255 245 245 255 60 147 135 31 132 116 37 136 120 245 245 255 245 245 255 180 211 213 31 132 116 85 161 151 245 245 255 245 245 255 245 245 255 255 120 40 31 132 116 124 181 177 245 245 255 245 245 255 118 178 173 31 132 116 31 132 116 135 187 184 245 245 255 245 245 255 232 238 247 31 132 116 31 132 116 31 132 116 31 132 116 255 132 186 255 132 186 255 132 186 31 132 116 31 132 116 31 132 116 31 132 116 31 132 116 31 132 116 31 132 116 31 132 116 31 132 116 31 132 116 31 132 116 31 132 116 31 132 116 31 132 116 31 132 116 31 132 116 31 132 116 255 128 189 255 128 189 255 128 189 31 132 116 31 132 116 31 132 116 31 132 116 31 132 116 31 132 116 31 132 116 31 132 116 31 132 116 31 132 116 31 132 116 31 132 116 31 132 116 31 132 116 31 132 116 31 132 116 31 132 116 31 132 116 31 132 116 31 132 116 255 124 192 255 124 192 255 124 192 31 132 116 31 132 116 31 132 116 31 132 116 31 132 116 31 132 116 31 132 116 31 132 116 31 132 116 31 132 116 31 132 116 31 132 116 31 132 116 31 132 116 31 132 116 31 132 116 31 132 116 31 132 116 31 132 116 31 132 116 31 132 116 31 132 116 31 132 116 31 132 116 31 132 116 31 132 116 31 132 116 31 132 116 31 132 116 31 132 116 31 132 116 31 132 116 31 132 116 31 132 116 31 132 116 31 132 116 31 132 116 31 132 116 31 132 116 31 132 116 31 132 116 31 132 116 31 132 116 31 132 116 31 132 116 31 132 116 31 132 116 31 132 116 31 132 116 31 132 116 31 132 116 31 132 116 31 132 116 31 132 116 31 132 116 31 132 116 31 132 116 31 132 116 31 132 116 31 132 116 31 132 116 31 132 116 31 132 116 31 132 116 31 132 116 31 132 116 31 132 116 31 132 116 31 132 116 31 132 116 31 132 116 31 132 116 31 132 116 31 132 116 31 132 116 31 132 116 31 132 116 31 132 116 31 132 116 31 132 116 31 132 116 31 132 116 31 132 116 31 132 116 31 132 116 31 132 116 31 132 116 31 132 116 31 132 116 31 132 116 31 132 116 31 132 116 31 132 116 31 132 116 31 132 116 31 132 116 31 132 116 31 132 116 31 132 116 31 132 116 31 132 116 31 132 116 31 132 116 31 132 116 31 132 116 31 132 116 31 132 116 31 132 116 31 132 116 31 132 116 31 132 116 31 132 116 31 132 116 31 132 116 31 132 116 31 132 116 31 132 116 31 132 116 31 132 116 31 132 116 31 132 116 31 132 116 31 132 116 31 132 116 31 132 116 31 132 116 31 132 116 31 132 116 31 132 116 31 132 116 
31 132 117 31 132 117 31 132 117 31 132 117 31 132 117 31 132 117 31 132 117 31 132 117 31 132 117 31 132 117 31 132 117 31 132 117 31 132 117 31 132 117 31 132 117 31 132 117 31 132 117 31 132 117 31 132 117 82 159 150 245 245 255 245 245 255 245 245 255 72 154 143 128 184 180 245 245 255 245 245 255 245 245 255 112 175 169 31 132 117 31 132 117 31 132 117 31 132 117 31 132 117 42 138 125 240 243 252 245 245 255 245 245 255 245 245 255 245 245 255 245 245 255 245 245 255 245 245 255 245 245 255 245 245 255 245 245 255 123 181 176 31 132 117 31 132 117 31 132 117 31 132 117 31 132 117 31 132 117 35 134 120 245 245 255 245 245 255 245 245 255 255 255 255 255 255 255 31 132 117 31 132 117 31 132 117 31 132 117 31 132 117 185 214 217 245 245 255 245 245 255 105 171 165 31 132 117 31 132 117 198 220 225 245 245 255 245 245 255 154 197 197 212 228 234 245 245 255 245 245 255 78 157 148 31 132 117 31 132 117 31 132 117 31 132 117 31 132 117 31 132 117 31 132 117 31 132 117 31 132 117 31 132 117 31 132 117 31 132 117 31 132 117 31 132 117 31 132 117 31 132 117 31 132 117 31 132 117 31 132 117 33 133 119 191 217 220 245 245 255 245 245 255 245 245 255 245 245 255 105 171 165 31 132 117 31 132 117 31 132 117 31 132 117 31 132 117 31 132 117 31 132 117 31 132 117 31 132 117 31 132 117 31 132 117 31 132 117 31 132 117 31 132 117 31 132 117 31 132 117 31 132 117 31 132 117 31 132 117 31 132 117 65 150 139 245 245 255 245 245 255 245 245 255 245 245 255 245 245 255 246 242 252 247 234 246 249 214 229 107 172 166 35 134 120 31 132 117 31 132 117 31 132 117 31 132 117 31 132 117 31 132 117 31 132 117 31 132 117 64 150 139 245 245 255 245 245 255 245 245 255 129 184 181 31 132 117 31 132 117 31 132 117 31 132 117 31 132 117 66 151 140 245 245 255 245 245 255 245 245 255 133 186 183 31 132 117 31 132 117 31 132 117 31 132 117 31 132 117 72 154 143 245 245 255 245 245 255 245 245 255 62 148 137 31 132 117 42 138 125 240 243 252 245 245 255 245 245 255 245 245 255 245 245 255 245 245 255 245 245 255 245 245 255 245 245 255 245 245 255 245 245 255 123 181 176 31 132 117 47 141 128 245 245 255 245 245 255 174 207 209 31 132 117 37 136 121 237 241 250 245 245 255 246 238 251 255 120 40 31 132 117 117 177 172 245 245 255 245 245 255 129 184 181 31 132 117 31 132 117 135 187 184 245 245 255 245 245 255 232 238 247 31 132 117 31 132 117 31 132 117 31 132 117 255 132 186 255 132 186 255 132 186 31 132 117 31 132 117 31 132 117 31 132 117 31 132 117 31 132 117 31 132 117 31 132 117 31 132 117 31 132 117 31 132 117 31 132 117 31 132 117 31 132 117 31 132 117 31 132 117 255 128 189 255 128 189 255 128 189 31 132 117 31 132 117 31 132 117 31 132 117 31 132 117 31 132 117 31 132 117 31 132 117 31 132 117 31 132 117 31 132 117 31 132 117 31 132 117 31 132 117 31 132 117 31 132 117 31 132 117 31 132 117 31 132 117 31 132 117 255 124 192 255 124 192 255 124 192 31 132 117 31 132 117 31 132 117 31 132 117 31 132 117 31 132 117 31 132 117 31 132 117 31 132 117 31 132 117 31 132 117 31 132 117 31 132 117 31 132 117 31 132 117 31 132 117 31 132 117 31 132 117 31 132 117 31 132 117 31 132 117 31 132 117 31 132 117 31 132 117 31 132 117 31 132 117 31 132 117 31 132 117 31 132 117 31 132 117 31 132 117 31 132 117 255 120 195 31 132 117 31 132 117 31 132 117 31 132 117 31 132 117 31 132 117 31 132 117 31 132 117 31 132 117 31 132 117 31 132 117 31 132 117 31 132 117 31 132 117 31 132 117 31 132 117 31 132 117 31 132 117 31 132 117 31 132 117 31 132 117 31 132 117 31 132 117 31 132 117 31 132 117 31 132 117 31 132 117 31 132 117 31 132 117 31 132 117 31 132 117 31 132 117 31 132 117 31 132 117 31 132 117 31 132 117 31 132 117 31 132 117 31 132 117 31 132 117 31 132 117 31 132 117 31 132 117 31 132 117 31 132 117 31 132 117 31 132 117 31 132 117 31 132 117 31 132 117 31 132 117 31 132 117 31 132 117 31 132 117 31 132 117 31 132 117 31 132 117 31 132 117 31 132 117 31 132 117 31 132 117 31 132 117 31 132 117 31 132 117 31 132 117 31 132 117 31 132 117 31 132 117 31 132 117 31 132 117 31 132 117 31 132 117 31 132 117 31 132 117 31 132 117 31 132 117 31 132 117 31 132 117 31 132 117 31 132 117 31 132 117 31 132 117 31 132 117 31 132 117 31 132 117 31 132 117 31 132 117 31 132 117 31 132 117 31 132 117 31 132 117 31 132 117 31 132 117 31 132 117 31 132 117 31 132 117 31 132 117 31 132 117 
32 131 118 32 131 118 32 131 118 32 131 118 32 131 118 32 131 118 32 131 118 32 131 118 32 131 118 32 131 118 32 131 118 32 131 118 32 131 118 32 131 118 32 131 118 32 131 118 32 131 118 32 131 118 32 131 118 82 158 151 245 245 255 245 245 255 245 245 255 72 153 144 36 133 121 206 225 230 245 245 255 245 245 255 233 239 247 59 146 136 32 131 118 32 131 118 32 131 118 32 131 118 102 168 163 245 245 255 245 245 255 245 245 255 245 245 255 245 245 255 245 245 255 245 245 255 245 245 255 245 245 255 245 245 255 245 245 255 186 214 218 32 131 118 32 131 118 32 131 118 32 131 118 32 131 118 32 131 118 36 133 121 245 245 255 245 245 255 245 245 255 119 178 174 32 131 118 255 255 255 255 255 255 32 131 118 32 131 118 32 131 118 186 213 217 245 245 255 245 245 255 106 171 166 32 131 118 32 131 118 103 169 164 245 245 255 245 245 255 232 238 247 220 232 239 245 245 255 245 245 255 79 156 148 32 131 118 32 131 118 32 131 118 32 131 118 32 131 118 32 131 118 32 131 118 32 131 118 32 131 118 32 131 118 32 131 118 32 131 118 32 131 118 32 131 118 32 131 118 32 131 118 32 131 118 32 131 118 32 131 118 138 188 186 245 245 255 245 245 255 239 242 251 245 245 255 245 245 255 232 238 247 58 145 135 32 131 118 32 131 118 32 131 118 32 131 118 32 131 118 32 131 118 32 131 118 32 131 118 32 131 118 32 131 118 32 131 118 32 131 118 32 131 118 32 131 118 32 131 118 32 131 118 32 131 118 32 131 118 32 131 118 66 149 140 245 245 255 245 245 255 245 245 255 82 158 151 32 131 118 32 131 118 255 148 174 255 148 174 255 148 174 32 131 118 32 131 118 32 131 118 32 131 118 32 131 118 32 131 118 32 131 118 32 131 118 32 131 118 42 137 125 245 245 255 245 245 255 245 245 255 109 172 168 32 131 118 32 131 118 32 131 118 32 131 118 32 131 118 33 132 119 230 237 246 245 245 255 245 245 255 247 226 241 32 131 118 32 131 118 32 131 118 32 131 118 32 131 118 72 153 144 245 245 255 245 245 255 245 245 255 62 147 138 32 131 118 102 168 163 245 245 255 245 245 255 245 245 255 245 245 255 245 245 255 245 245 255 245 245 255 245 245 255 245 245 255 245 245 255 245 245 255 186 214 218 32 131 118 59 146 136 245 245 255 245 245 255 168 204 206 32 131 118 32 131 118 187 214 218 245 245 255 249 208 231 255 120 40 32 131 118 111 173 169 245 245 255 245 245 255 140 189 188 32 131 118 32 131 118 136 187 185 245 245 255 245 245 255 232 238 247 32 131 118 32 131 118 32 131 118 32 131 118 255 132 186 255 132 186 255 132 186 32 131 118 32 131 118 32 131 118 32 131 118 32 131 118 32 131 118 32 131 118 32 131 118 32 131 118 32 131 118 32 131 118 32 131 118 32 131 118 32 131 118 32 131 118 32 131 118 255 128 189 255 128 189 255 128 189 32 131 118 32 131 118 32 131 118 32 131 118 32 131 118 32 131 118 32 131 118 32 131 118 32 131 118 32 131 118 32 131 118 32 131 118 32 131 118 32 131 118 32 131 118 32 131 118 32 131 118 32 131 118 32 131 118 32 131 118 255 124 192 255 124 192 255 124 192 32 131 118 32 131 118 32 131 118 32 131 118 32 131 118 32 131 118 32 131 118 32 131 118 32 131 118 32 131 118 32 131 118 32 131 118 32 131 118 32 131 118 32 131 118 32 131 118 32 131 118 32 131 118 32 131 118 32 131 118 32 131 118 32 131 118 32 131 118 32 131 118 32 131 118 32 131 118 32 131 118 32 131 118 32 131 118 32 131 118 32 131 118 255 120 195 255 120 195 32 131 118 32 131 118 32 131 118 32 131 118 32 131 118 32 131 118 32 131 118 32 131 118 32 131 118 32 131 118 32 131 118 32 131 118 32 131 118 32 131 118 32 131 118 32 131 118 32 131 118 32 131 118 32 131 118 32 131 118 32 131 118 32 131 118 32 131 118 32 131 118 32 131 118 32 131 118 32 131 118 32 131 118 32 131 118 32 131 118 32 131 118 32 131 118 32 131 118 32 131 118 32 131 118 32 131 118 32 131 118 32 131 118 32 131 118 32 131 118 32 131 118 32 131 118 32 131 118 32 131 118 32 131 118 32 131 118 32 131 118 32 131 118 32 131 118 32 131 118 32 131 118 32 131 118 32 131 118 32 131 118 32 131 118 32 131 118 32 131 118 32 131 118 32 131 118 32 131 118 32 131 118 32 131 118 32 131 118 32 131 118 32 131 118 32 131 118 32 131 118 32 131 118 32 131 118 32 131 118 32 131 118 32 131 118 32 131 118 32 131 118 32 131 118 32 131 118 32 131 118 32 131 118 32 131 118 32 131 118 32 131 118 32 131 118 32 131 118 32 131 118 32 131 118 32 131 118 32 131 118 32 131 118 32 131 118 32 131 118 32 131 118 32 131 118 32 131 118 32 131 118 32 131 118 32 131 118 32 131 118 32 131 118 
32 131 119 32 131 119 32 131 119 32 131 119 32 131 119 32 131 119 32 131 119 32 131 119 32 131 119 32 131 119 32 131 119 32 131 119 32 131 119 32 131 119 32 131 119 32 131 119 32 131 119 32 131 119 32 131 119 82 158 151 245 245 255 245 245 255 245 245 255 72 153 145 32 131 119 80 157 150 244 245 254 245 245 255 245 245 255 194 218 223 34 132 121 32 131 119 32 131 119 32 131 119 164 202 203 245 245 255 245 245 255 245 245 255 245 245 255 245 245 255 245 245 255 245 245 255 245 245 255 245 245 255 245 245 255 245 245 255 239 242 251 42 136 125 32 131 119 32 131 119 32 131 119 32 131 119 32 131 119 36 133 122 245 245 255 245 245 255 245 245 255 119 178 175 32 131 119 32 131 119 32 131 119 255 255 255 255 255 255 32 131 119 186 213 217 245 245 255 245 245 255 106 171 166 32 131 119 32 131 119 35 133 121 217 230 237 245 245 255 245 245 255 245 245 255 245 245 255 245 245 255 79 156 149 32 131 119 32 131 119 32 131 119 32 131 119 32 131 119 32 131 119 32 131 119 32 131 119 32 131 119 32 131 119 32 131 119 32 131 119 32 131 119 32 131 119 32 131 119 32 131 119 32 131 119 32 131 119 84 159 152 242 244 253 245 245 255 244 245 254 89 162 156 216 229 236 245 245 255 245 245 255 195 218 223 35 133 121 32 131 119 32 131 119 32 131 119 32 131 119 32 131 119 32 131 119 32 131 119 32 131 119 32 131 119 32 131 119 32 131 119 32 131 119 32 131 119 32 131 119 32 131 119 32 131 119 32 131 119 32 131 119 66 149 141 245 245 255 245 245 255 245 245 255 82 158 151 32 131 119 32 131 119 32 131 119 255 148 174 255 148 174 255 148 174 32 131 119 32 131 119 32 131 119 32 131 119 32 131 119 32 131 119 32 131 119 32 131 119 42 137 126 245 245 255 245 245 255 245 245 255 109 172 168 32 131 119 32 131 119 32 131 119 32 131 119 32 131 119 32 131 119 161 200 201 245 245 255 245 245 255 245 245 255 123 180 177 32 131 119 32 131 119 32 131 119 32 131 119 72 153 145 245 245 255 245 245 255 245 245 255 62 147 139 32 131 119 164 202 203 245 245 255 245 245 255 245 245 255 245 245 255 245 245 255 245 245 255 245 245 255 245 245 255 245 245 255 245 245 255 245 245 255 239 242 251 42 136 125 69 151 143 245 245 255 245 245 255 161 200 202 32 131 119 32 131 119 32 131 119 255 136 183 255 136 183 255 120 40 32 131 119 104 170 165 245 245 255 245 245 255 151 195 195 32 131 119 32 131 119 136 187 185 245 245 255 245 245 255 232 238 247 32 131 119 32 131 119 32 131 119 255 132 186 255 132 186 255 132 186 32 131 119 32 131 119 32 131 119 32 131 119 32 131 119 32 131 119 32 131 119 32 131 119 32 131 119 32 131 119 32 131 119 32 131 119 32 131 119 32 131 119 32 131 119 32 131 119 255 128 189 255 128 189 255 128 189 32 131 119 32 131 119 32 131 119 32 131 119 32 131 119 32 131 119 32 131 119 32 131 119 32 131 119 32 131 119 32 131 119 32 131 119 32 131 119 32 131 119 32 131 119 32 131 119 32 131 119 32 131 119 32 131 119 32 131 119 255 124 192 255 124 192 255 124 192 32 131 119 32 131 119 32 131 119 32 131 119 32 131 119 32 131 119 32 131 119 32 131 119 32 131 119 32 131 119 32 131 119 32 131 119 32 131 119 32 131 119 32 131 119 32 131 119 32 131 119 32 131 119 32 131 119 32 131 119 32 131 119 32 131 119 32 131 119 32 131 119 32 131 119 32 131 119 32 131 119 32 131 119 32 131 119 32 131 119 255 120 195 255 120 195 255 120 195 255 120 195 32 131 119 32 131 119 32 131 119 32 131 119 32 131 119 32 131 119 32 131 119 32 131 119 32 131 119 32 131 119 32 131 119 32 131 119 32 131 119 32 131 119 32 131 119 32 131 119 32 131 119 32 131 119 32 131 119 32 131 119 32 131 119 32 131 119 32 131 119 32 131 119 32 131 119 32 131 119 32 131 119 32 131 119 32 131 119 32 131 119 32 131 119 32 131 119 32 131 119 32 131 119 32 131 119 32 131 119 32 131 119 32 131 119 32 131 119 32 131 119 32 131 119 32 131 119 32 131 119 32 131 119 32 131 119 32 131 119 32 131 119 32 131 119 32 131 119 32 131 119 32 131 119 32 131 119 32 131 119 32 131 119 32 131 119 32 131 119 32 131 119 32 131 119 32 131 119 32 131 119 32 131 119 32 131 119 32 131 119 32 131 119 32 131 119 32 131 119 32 131 119 32 131 119 32 131 119 32 131 119 32 131 119 32 131 119 32 131 119 32 131 119 32 131 119 32 131 119 32 131 119 32 131 119 32 131 119 32 131 119 32 131 119 32 131 119 32 131 119 32 131 119 32 131 119 32 131 119 32 131 119 32 131 119 32 131 119 32 131 119 32 131 119 32 131 119 32 131 119 32 131 119 32 131 119 32 131 119 32 131 119 32 131 119 
33 130 120 33 130 120 33 130 120 33 130 120 33 130 120 33 130 120 33 130 120 33 130 120 33 130 120 33 130 120 33 130 120 33 130 120 33 130 120 33 130 120 33 130 120 33 130 120 33 130 120 33 130 120 33 130 120 83 157 152 245 245 255 245 245 255 245 245 255 73 152 146 33 130 120 33 130 120 161 200 202 245 245 255 245 245 255 245 245 255 132 184 183 33 130 120 33 130 120 34 131 121 225 234 242 245 245 255 245 245 255 91 162 157 33 130 120 33 130 120 33 130 120 33 130 120 33 130 120 84 158 153 245 245 255 245 245 255 245 245 255 99 166 162 33 130 120 33 130 120 33 130 120 33 130 120 33 130 120 37 132 123 245 245 255 245 245 255 245 245 255 120 177 175 33 130 120 33 130 120 33 130 120 33 130 120 33 130 120 255 255 255 186 213 218 245 245 255 245 245 255 106 170 167 33 130 120 33 130 120 33 130 120 126 181 180 245 245 255 245 245 255 245 245 255 245 245 255 245 245 255 80 156 150 33 130 120 33 130 120 33 130 120 33 130 120 33 130 120 33 130 120 33 130 120 33 130 120 33 130 120 33 130 120 33 130 120 33 130 120 33 130 120 33 130 120 33 130 120 33 130 120 33 130 120 49 139 131 222 233 241 245 245 255 245 245 255 165 202 204 33 130 120 94 163 159 245 245 255 245 245 255 245 245 255 136 186 186 33 130 120 33 130 120 33 130 120 33 130 120 33 130 120 33 130 120 33 130 120 33 130 120 33 130 120 33 130 120 33 130 120 33 130 120 33 130 120 33 130 120 33 130 120 33 130 120 33 130 120 33 130 120 67 148 142 245 245 255 245 245 255 245 245 255 83 157 152 33 130 120 33 130 120 33 130 120 255 148 174 255 148 174 255 148 174 33 130 120 33 130 120 33 130 120 33 130 120 33 130 120 33 130 120 33 130 120 33 130 120 43 136 127 245 245 255 245 245 255 245 245 255 110 172 169 33 130 120 33 130 120 33 130 120 33 130 120 33 130 120 33 130 120 65 148 141 239 242 251 245 245 255 245 245 255 246 245 255 159 199 201 76 153 147 43 135 126 38 133 123 104 169 165 245 245 255 245 245 255 245 245 255 63 147 139 34 131 121 225 234 242 245 245 255 245 245 255 91 162 157 33 130 120 255 140 180 255 140 180 255 140 180 33 130 120 84 158 153 245 245 255 245 245 255 245 245 255 99 166 162 81 156 151 245 245 255 245 245 255 155 196 198 33 130 120 33 130 120 33 130 120 255 136 183 255 136 183 255 120 40 33 130 120 97 165 161 245 245 255 245 245 255 162 200 202 33 130 120 33 130 120 136 186 186 245 245 255 245 245 255 232 238 247 33 130 120 33 130 120 33 130 120 255 132 186 255 132 186 255 132 186 33 130 120 33 130 120 33 130 120 33 130 120 33 130 120 33 130 120 33 130 120 33 130 120 33 130 120 33 130 120 33 130 120 33 130 120 33 130 120 33 130 120 33 130 120 33 130 120 255 128 189 255 128 189 255 128 189 33 130 120 33 130 120 33 130 120 33 130 120 33 130 120 33 130 120 33 130 120 33 130 120 33 130 120 33 130 120 33 130 120 33 130 120 33 130 120 33 130 120 33 130 120 33 130 120 33 130 120 33 130 120 33 130 120 255 124 192 255 124 192 255 124 192 33 130 120 33 130 120 33 130 120 33 130 120 33 130 120 33 130 120 33 130 120 33 130 120 33 130 120 33 130 120 33 130 120 33 130 120 33 130 120 33 130 120 33 130 120 33 130 120 33 130 120 33 130 120 33 130 120 33 130 120 33 130 120 33 130 120 33 130 120 33 130 120 33 130 120 33 130 120 33 130 120 33 130 120 33 130 120 33 130 120 255 120 195 255 120 195 255 120 195 255 120 195 33 130 120 33 130 120 33 130 120 33 130 120 33 130 120 33 130 120 33 130 120 33 130 120 33 130 120 33 130 120 33 130 120 33 130 120 33 130 120 33 130 120 33 130 120 33 130 120 33 130 120 33 130 120 33 130 120 33 130 120 33 130 120 33 130 120 33 130 120 33 130 120 33 130 120 33 130 120 33 130 120 33 130 120 33 130 120 33 130 120 33 130 120 33 130 120 33 130 120 33 130 120 33 130 120 33 130 120 33 130 120 33 130 120 33 130 120 33 130 120 33 130 120 33 130 120 33 130 120 33 130 120 33 130 120 33 130 120 33 130 120 33 130 120 33 130 120 33 130 120 33 130 120 33 130 120 33 130 120 33 130 120 33 130 120 33 130 120 33 130 120 33 130 120 33 130 120 33 130 120 33 130 120 33 130 120 33 130 120 33 130 120 33 130 120 33 130 120 33 130 120 33 130 120 33 130 120 33 130 120 33 130 120 33 130 120 33 130 120 33 130 120 33 130 120 33 130 120 33 130 120 33 130 120 33 130 120 33 130 120 33 130 120 33 130 120 33 130 120 33 130 120 33 130 120 33 130 120 33 130 120 33 130 120 33 130 120 33 130 120 33 130 120 33 130 120 33 130 120 33 130 120 33 130 120 33 130 120 33 130 120 33 130 120 33 130 120 
33 129 121 33 129 121 33 129 121 33 129 121 33 129 121 33 129 121 33 129 121 33 129 121 33 129 121 33 129 121 33 129 121 33 129 121 33 129 121 33 129 121 33 129 121 33 129 121 33 129 121 33 129 121 33 129 121 83 157 153 245 245 255 245 245 255 245 245 255 73 151 147 33 129 121 33 129 121 48 137 130 227 235 244 245 245 255 245 245 255 240 242 252 73 151 147 33 129 121 77 153 149 245 245 255 245 245 255 240 243 252 43 134 127 33 129 121 33 129 121 33 129 121 33 129 121 33 129 121 38 132 125 238 241 251 245 245 255 245 245 255 162 200 203 33 129 121 33 129 121 236 240 249 245 245 255 245 245 255 245 245 255 245 245 255 245 245 255 245 245 255 245 245 255 245 245 255 245 245 255 245 245 255 106 169 168 33 129 121 33 129 121 255 255 255 255 255 255 245 245 255 106 169 168 33 129 121 33 129 121 33 129 121 44 135 128 232 238 247 245 245 255 245 245 255 245 245 255 245 245 255 80 155 151 33 129 121 33 129 121 33 129 121 33 129 121 33 129 121 33 129 121 33 129 121 33 129 121 33 129 121 33 129 121 33 129 121 33 129 121 33 129 121 33 129 121 33 129 121 33 129 121 33 129 121 182 211 215 245 245 255 245 245 255 230 237 246 51 139 132 33 129 121 33 129 121 177 208 212 245 245 255 245 245 255 241 243 253 79 154 150 33 129 121 33 129 121 33 129 121 33 129 121 33 129 121 33 129 121 33 129 121 33 129 121 33 129 121 33 129 121 33 129 121 33 129 121 33 129 121 33 129 121 33 129 121 33 129 121 33 129 121 67 148 142 245 245 255 245 245 255 245 245 255 83 157 153 33 129 121 33 129 121 33 129 121 33 129 121 255 148 174 255 148 174 255 148 174 33 129 121 33 129 121 33 129 121 33 129 121 33 129 121 33 129 121 33 129 121 43 135 128 245 245 255 245 245 255 245 245 255 110 171 170 33 129 121 33 129 121 33 129 121 33 129 121 33 129 121 33 129 121 33 129 121 121 177 177 245 245 255 245 245 255 245 245 255 245 245 255 245 245 255 245 245 255 245 245 255 245 245 255 245 245 255 245 245 255 245 245 255 63 146 140 77 153 149 245 245 255 245 245 255 240 243 252 43 134 127 33 129 121 255 140 180 255 140 180 255 140 180 33 129 121 38 132 125 238 241 251 245 245 255 245 245 255 162 200 203 91 161 158 245 245 255 245 245 255 149 192 194 33 129 121 33 129 121 33 129 121 255 136 183 255 136 183 255 120 40 33 129 121 91 161 158 245 245 255 245 245 255 172 205 209 33 129 121 33 129 121 136 186 186 245 245 255 245 245 255 245 245 255 245 245 255 245 245 255 245 245 255 245 245 255 245 245 255 245 245 255 245 245 255 93 162 159 33 129 121 33 129 121 33 129 121 33 129 121 33 129 121 33 129 121 33 129 121 33 129 121 33 129 121 33 129 121 33 129 121 33 129 121 33 129 121 255 128 189 255 128 189 255 128 189 33 129 121 33 129 121 33 129 121 33 129 121 33 129 121 33 129 121 33 129 121 33 129 121 33 129 121 33 129 121 33 129 121 33 129 121 33 129 121 33 129 121 33 129 121 33 129 121 33 129 121 33 129 121 33 129 121 255 124 192 255 124 192 255 124 192 33 129 121 33 129 121 33 129 121 33 129 121 33 129 121 33 129 121 33 129 121 33 129 121 33 129 121 33 129 121 33 129 121 33 129 121 33 129 121 33 129 121 33 129 121 33 129 121 33 129 121 33 129 121 33 129 121 33 129 121 33 129 121 33 129 121 33 129 121 33 129 121 33 129 121 33 129 121 33 129 121 33 129 121 33 129 121 33 129 121 255 120 195 255 120 195 255 120 195 255 120 195 33 129 121 33 129 121 33 129 121 33 129 121 33 129 121 33 129 121 33 129 121 33 129 121 33 129 121 33 129 121 33 129 121 33 129 121 33 129 121 33 129 121 33 129 121 33 129 121 33 129 121 33 129 121 33 129 121 33 129 121 33 129 121 33 129 121 33 129 121 33 129 121 33 129 121 33 129 121 33 129 121 33 129 121 33 129 121 33 129 121 33 129 121 33 129 121 33 129 121 33 129 121 33 129 121 33 129 121 33 129 121 33 129 121 33 129 121 33 129 121 33 129 121 33 129 121 33 129 121 33 129 121 33 129 121 33 129 121 33 129 121 33 129 121 33 129 121 33 129 121 33 129 121 33 129 121 33 129 121 33 129 121 33 129 121 33 129 121 33 129 121 33 129 121 33 129 121 33 129 121 33 129 121 33 129 121 33 129 121 33 129 121 33 129 121 33 129 121 33 129 121 33 129 121 33 129 121 33 129 121 33 129 121 33 129 121 33 129 121 33 129 121 33 129 121 33 129 121 33 129 121 33 129 121 33 129 121 33 129 121 33 129 121 33 129 121 33 129 121 33 129 121 33 129 121 33 129 121 33 129 121 33 129 121 33 129 121 33 129 121 33 129 121 33 129 121 33 129 121 33 129 121 33 129 121 33 129 121 33 129 121 33 129 121 33 129 121 33 129 121 
33 129 122 33 129 122 33 129 122 33 129 122 33 129 122 33 129 122 33 129 122 33 129 122 33 129 122 33 129 122 33 129 122 33 129 122 33 129 122 33 129 122 33 129 122 33 129 122 33 129 122 33 129 122 33 129 122 83 157 154 245 245 255 245 245 255 245 245 255 73 151 147 33 129 122 33 129 122 33 129 122 111 172 171 245 245 255 245 245 255 245 245 255 209 226 233 39 133 126 139 187 188 245 245 255 245 245 255 196 218 224 33 129 122 33 129 122 33 129 122 33 129 122 33 129 122 33 129 122 33 129 122 192 216 222 245 245 255 245 245 255 223 233 241 34 130 123 33 129 122 236 240 249 245 245 255 245 245 255 245 245 255 245 245 255 245 245 255 245 245 255 245 245 255 245 245 255 245 245 255 245 245 255 106 169 168 33 129 122 33 129 122 186 213 218 245 245 255 255 255 255 255 255 255 33 129 122 33 129 122 33 129 122 33 129 122 149 193 195 245 245 255 245 245 255 245 245 255 245 245 255 80 155 152 33 129 122 33 129 122 33 129 122 33 129 122 33 129 122 33 129 122 33 129 122 33 129 122 33 129 122 33 129 122 33 129 122 33 129 122 33 129 122 33 129 122 33 129 122 33 129 122 127 181 181 245 245 255 245 245 255 245 245 255 118 176 175 33 129 122 33 129 122 33 129 122 57 143 138 236 240 249 245 245 255 245 245 255 216 229 237 44 135 129 33 129 122 33 129 122 33 129 122 33 129 122 33 129 122 33 129 122 33 129 122 33 129 122 33 129 122 33 129 122 33 129 122 33 129 122 33 129 122 33 129 122 33 129 122 33 129 122 67 148 143 245 245 255 245 245 255 245 245 255 83 157 154 33 129 122 33 129 122 33 129 122 33 129 122 33 129 122 255 148 174 255 148 174 255 148 174 33 129 122 33 129 122 33 129 122 33 129 122 33 129 122 33 129 122 43 135 129 245 245 255 245 245 255 245 245 255 110 171 170 33 129 122 33 129 122 33 129 122 33 129 122 33 129 122 33 129 122 33 129 122 33 129 122 114 173 173 246 240 252 245 245 255 245 245 255 245 245 255 245 245 255 245 245 255 245 245 255 245 245 255 245 245 255 242 244 253 59 144 139 139 187 188 245 245 255 245 245 255 196 218 224 33 129 122 33 129 122 255 140 180 255 140 180 255 140 180 33 129 122 33 129 122 192 216 222 245 245 255 245 245 255 223 233 241 102 167 166 245 245 255 245 245 255 142 189 191 33 129 122 33 129 122 33 129 122 255 136 183 255 136 183 255 120 40 33 129 122 84 157 154 245 245 255 245 245 255 183 211 216 33 129 122 33 129 122 136 186 187 245 245 255 245 245 255 245 245 255 245 245 255 245 245 255 245 245 255 245 245 255 245 245 255 245 245 255 245 245 255 93 162 160 33 129 122 33 129 122 33 129 122 33 129 122 33 129 122 33 129 122 33 129 122 33 129 122 33 129 122 33 129 122 33 129 122 33 129 122 33 129 122 255 128 189 255 128 189 255 128 189 33 129 122 33 129 122 33 129 122 33 129 122 33 129 122 33 129 122 33 129 122 33 129 122 33 129 122 33 129 122 33 129 122 33 129 122 33 129 122 33 129 122 33 129 122 33 129 122 33 129 122 33 129 122 33 129 122 255 124 192 255 124 192 255 124 192 33 129 122 33 129 122 33 129 122 33 129 122 33 129 122 33 129 122 33 129 122 33 129 122 33 129 122 33 129 122 33 129 122 33 129 122 33 129 122 33 129 122 33 129 122 33 129 122 33 129 122 33 129 122 33 129 122 33 129 122 33 129 122 33 129 122 33 129 122 33 129 122 33 129 122 33 129 122 33 129 122 33 129 122 33 129 122 255 120 195 255 120 195 255 120 195 33 129 122 33 129 122 33 129 122 33 129 122 33 129 122 33 129 122 33 129 122 33 129 122 33 129 122 33 129 122 33 129 122 33 129 122 33 129 122 33 129 122 33 129 122 33 129 122 33 129 122 33 129 122 33 129 122 33 129 122 33 129 122 33 129 122 33 129 122 33 129 122 33 129 122 33 129 122 33 129 122 33 129 122 33 129 122 33 129 122 33 129 122 33 129 122 33 129 122 33 129 122 33 129 122 33 129 122 33 129 122 33 129 122 33 129 122 33 129 122 33 129 122 33 129 122 33 129 122 33 129 122 33 129 122 33 129 122 33 129 122 33 129 122 33 129 122 33 129 122 33 129 122 33 129 122 33 129 122 33 129 122 33 129 122 33 129 122 33 129 122 33 129 122 33 129 122 33 129 122 33 129 122 33 129 122 33 129 122 33 129 122 33 129 122 33 129 122 33 129 122 33 129 122 33 129 122 33 129 122 33 129 122 33 129 122 33 129 122 33 129 122 33 129 122 33 129 122 33 129 122 33 129 122 33 129 122 33 129 122 33 129 122 33 129 122 33 129 122 33 129 122 33 129 122 33 129 122 33 129 122 33 129 122 33 129 122 33 129 122 33 129 122 33 129 122 33 129 122 33 129 122 33 129 122 33 129 122 33 129 122 33 129 122 33 129 122 33 129 122 33 129 122 33 129 122 
34 128 122 34 128 122 34 128 122 34 128 122 34 128 122 34 128 122 34 128 122 34 128 122 34 128 122 34 128 122 34 128 122 34 128 122 34 128 122 34 128 122 34 128 122 34 128 122 34 128 122 34 128 122 34 128 122 84 156 154 245 245 255 245 245 255 245 245 255 74 150 147 34 128 122 34 128 122 34 128 122 34 128 122 191 215 221 245 245 255 245 245 255 245 245 255 151 193 196 201 221 227 245 245 255 245 245 255 143 189 191 34 128 122 34 128 122 34 128 122 34 128 122 34 128 122 34 128 122 34 128 122 140 187 189 245 245 255 245 245 255 245 245 255 76 151 148 34 128 122 236 240 249 245 245 255 245 245 255 245 245 255 245 245 255 245 245 255 245 245 255 245 245 255 245 245 255 245 245 255 245 245 255 107 169 168 34 128 122 34 128 122 186 213 218 245 245 255 245 245 255 107 169 168 255 255 255 255 255 255 34 128 122 34 128 122 58 142 138 241 243 253 245 245 255 245 245 255 245 245 255 81 154 152 34 128 122 34 128 122 34 128 122 34 128 122 34 128 122 34 128 122 34 128 122 34 128 122 34 128 122 34 128 122 34 128 122 34 128 122 34 128 122 34 128 122 34 128 122 76 152 149 240 242 252 245 245 255 245 245 255 199 220 226 35 129 123 34 128 122 34 128 122 34 128 122 34 128 122 132 182 184 245 245 255 245 245 255 245 245 255 166 202 206 34 128 122 34 128 122 34 128 122 34 128 122 34 128 122 34 128 122 34 128 122 34 128 122 34 128 122 34 128 122 34 128 122 34 128 122 34 128 122 34 128 122 34 128 122 34 128 122 67 147 143 245 245 255 245 245 255 245 245 255 84 156 154 34 128 122 34 128 122 34 128 122 34 128 122 34 128 122 34 128 122 255 148 174 255 148 174 255 148 174 34 128 122 34 128 122 34 128 122 34 128 122 34 128 122 44 134 129 245 245 255 245 245 255 245 245 255 110 171 170 34 128 122 34 128 122 34 128 122 34 128 122 34 128 122 34 128 122 34 128 122 34 128 122 34 128 122 255 152 183 251 193 215 248 221 236 227 235 244 241 243 253 237 241 250 220 231 239 185 212 218 132 182 184 59 142 138 34 128 122 201 221 227 245 245 255 245 245 255 143 189 191 34 128 122 34 128 122 34 128 122 255 140 180 255 140 180 255 140 180 34 128 122 140 187 189 245 245 255 245 245 255 245 245 255 138 186 188 245 245 255 245 245 255 136 185 186 34 128 122 34 128 122 34 128 122 255 136 183 255 136 183 255 120 40 34 128 122 77 152 150 245 245 255 245 245 255 194 217 223 34 128 122 34 128 122 137 185 187 245 245 255 245 245 255 245 245 255 245 245 255 245 245 255 245 245 255 245 245 255 245 245 255 245 245 255 245 245 255 94 161 160 34 128 122 34 128 122 34 128 122 34 128 122 34 128 122 34 128 122 34 128 122 34 128 122 34 128 122 34 128 122 34 128 122 34 128 122 255 128 189 255 128 189 255 128 189 34 128 122 34 128 122 34 128 122 34 128 122 34 128 122 34 128 122 34 128 122 34 128 122 34 128 122 34 128 122 34 128 122 34 128 122 34 128 122 34 128 122 34 128 122 34 128 122 34 128 122 34 128 122 34 128 122 255 124 192 255 124 192 255 124 192 34 128 122 34 128 122 34 128 122 34 128 122 34 128 122 34 128 122 34 128 122 34 128 122 34 128 122 34 128 122 34 128 122 34 128 122 34 128 122 34 128 122 34 128 122 34 128 122 34 128 122 34 128 122 34 128 122 34 128 122 34 128 122 34 128 122 34 128 122 34 128 122 34 128 122 34 128 122 34 128 122 34 128 122 255 120 195 255 120 195 255 120 195 255 120 195 34 128 122 34 128 122 34 128 122 34 128 122 34 128 122 34 128 122 34 128 122 34 128 122 34 128 122 34 128 122 34 128 122 34 128 122 34 128 122 34 128 122 34 128 122 34 128 122 34 128 122 34 128 122 34 128 122 34 128 122 34 128 122 34 128 122 34 128 122 34 128 122 34 128 122 34 128 122 34 128 122 34 128 122 34 128 122 34 128 122 34 128 122 34 128 122 34 128 122 34 128 122 34 128 122 34 128 122 34 128 122 34 128 122 34 128 122 34 128 122 34 128 122 34 128 122 34 128 122 34 128 122 34 128 122 34 128 122 34 128 122 34 128 122 34 128 122 34 128 122 34 128 122 34 128 122 34 128 122 34 128 122 34 128 122 34 128 122 34 128 122 34 128 122 34 128 122 34 128 122 34 128 122 34 128 122 34 128 122 34 128 122 34 128 122 34 128 122 34 128 122 34 128 122 34 128 122 34 128 122 34 128 122 34 128 122 34 128 122 34 128 122 34 128 122 34 128 122 34 128 122 34 128 122 34 128 122 34 128 122 34 128 122 34 128 122 34 128 122 34 128 122 34 128 122 34 128 122 34 128 122 34 128 122 34 128 122 34 128 122 34 128 122 34 128 122 34 128 122 34 128 122 34 128 122 34 128 122 34 128 122 34 128 122 34 128 122 34 128 122 34 128 122 34 128 122 34 128 122 
34 128 123 34 128 123 34 128 123 34 128 123 34 128 123 34 128 123 34 128 123 34 128 123 34 128 123 34 128 123 34 128 123 34 128 123 34 128 123 34 128 123 34 128 123 34 128 123 34 128 123 34 128 123 34 128 123 34 128 123 34 128 123 34 128 123 34 128 123 34 128 123 34 128 123 34 128 123 34 128 123 34 128 123 34 128 123 34 128 123 34 128 123 34 128 123 34 128 123 34 128 123 34 128 123 34 128 123 34 128 123 34 128 123 34 128 123 34 128 123 34 128 123 34 128 123 34 128 123 34 128 123 34 128 123 34 128 123 34 128 123 34 128 123 34 128 123 34 128 123 34 128 123 34 128 123 34 128 123 34 128 123 34 128 123 34 128 123 34 128 123 34 128 123 34 128 123 34 128 123 34 128 123 34 128 123 34 128 123 34 128 123 34 128 123 34 128 123 34 128 123 34 128 123 34 128 123 34 128 123 255 255 255 255 255 255 34 128 123 34 128 123 34 128 123 34 128 123 34 128 123 34 128 123 34 128 123 34 128 123 34 128 123 34 128 123 34 128 123 34 128 123 34 128 123 34 128 123 34 128 123 34 128 123 34 128 123 34 128 123 34 128 123 34 128 123 34 128 123 34 128 123 34 128 123 34 128 123 34 128 123 34 128 123 34 128 123 34 128 123 34 128 123 34 128 123 34 128 123 34 128 123 34 128 123 34 128 123 34 128 123 34 128 123 34 128 123 34 128 123 34 128 123 34 128 123 34 128 123 34 128 123 34 128 123 34 128 123 34 128 123 34 128 123 34 128 123 34 128 123 34 128 123 34 128 123 34 128 123 34 128 123 34 128 123 34 128 123 34 128 123 34 128 123 34 128 123 34 128 123 34 128 123 34 128 123 34 128 123 34 128 123 34 128 123 34 128 123 255 148 174 255 148 174 255 148 174 34 128 123 34 128 123 34 128 123 34 128 123 34 128 123 34 128 123 34 128 123 34 128 123 34 128 123 34 128 123 34 128 123 34 128 123 34 128 123 34 128 123 34 128 123 34 128 123 34 128 123 34 128 123 34 128 123 255 144 177 255 144 177 255 144 177 34 128 123 34 128 123 34 128 123 34 128 123 34 128 123 34 128 123 34 128 123 34 128 123 34 128 123 34 128 123 34 128 123 34 128 123 34 128 123 34 128 123 255 140 180 255 140 180 255 140 180 34 128 123 34 128 123 34 128 123 34 128 123 34 128 123 34 128 123 34 128 123 34 128 123 34 128 123 34 128 123 34 128 123 50 10 20 50 10 20 50 10 20 255 120 40 34 128 123 34 128 123 34 128 123 34 128 123 34 128 123 34 128 123 34 128 123 34 128 123 34 128 123 34 128 123 34 128 123 34 128 123 34 128 123 255 132 186 255 132 186 255 132 186 34 128 123 34 128 123 34 128 123 34 128 123 34 128 123 34 128 123 34 128 123 34 128 123 34 128 123 34 128 123 34 128 123 34 128 123 34 128 123 34 128 123 34 128 123 255 128 189 255 128 189 255 128 189 34 128 123 34 128 123 34 128 123 34 128 123 34 128 123 34 128 123 34 128 123 34 128 123 34 128 123 34 128 123 34 128 123 34 128 123 34 128 123 34 128 123 34 128 123 34 128 123 34 128 123 34 128 123 255 124 192 255 124 192 255 124 192 34 128 123 34 128 123 34 128 123 34 128 123 34 128 123 34 128 123 34 128 123 34 128 123 34 128 123 34 128 123 34 128 123 34 128 123 34 128 123 34 128 123 34 128 123 34 128 123 34 128 123 34 128 123 34 128 123 34 128 123 34 128 123 34 128 123 34 128 123 34 128 123 34 128 123 34 128 123 34 128 123 34 128 123 255 120 195 255 120 195 255 120 195 255 120 195 34 128 123 34 128 123 34 128 123 34 128 123 34 128 123 34 128 123 34 128 123 34 128 123 34 128 123 34 128 123 34 128 123 34 128 123 34 128 123 34 128 123 34 128 123 34 128 123 34 128 123 34 128 123 34 128 123 34 128 123 34 128 123 34 128 123 34 128 123 34 128 123 34 128 123 34 128 123 34 128 123 34 128 123 34 128 123 34 128 123 34 128 123 34 128 123 34 128 123 34 128 123 34 128 123 34 128 123 34 128 123 34 128 123 34 128 123 34 128 123 34 128 123 34 128 123 34 128 123 34 128 123 34 128 123 34 128 123 34 128 123 34 128 123 34 128 123 34 128 123 34 128 123 34 128 123 34 128 123 34 128 123 34 128 123 34 128 123 34 128 123 34 128 123 34 128 123 34 128 123 34 128 123 34 128 123 34 128 123 34 128 123 34 128 123 34 128 123 34 128 123 34 128 123 34 128 123 34 128 123 34 128 123 34 128 123 34 128 123 34 128 123 34 128 123 34 128 123 34 128 123 34 128 123 34 128 123 34 128 123 34 128 123 34 128 123 34 128 123 34 128 123 34 128 123 34 128 123 34 128 123 34 128 123 34 128 123 34 128 123 34 128 123 34 128 123 34 128 123 34 128 123 34 128 123 34 128 123 34 128 123 34 128 123 34 128 123 34 128 123 34 128 123 34 128 123 34 128 123 34 128 123 
34 127 124 34 127 124 34 127 124 34 127 124 34 127 124 34 127 124 34 127 124 34 127 124 34 127 124 34 127 124 34 127 124 34 127 124 34 127 124 34 127 124 34 127 124 34 127 124 34 127 124 34 127 124 34 127 124 34 127 124 34 127 124 34 127 124 34 127 124 34 127 124 34 127 124 34 127 124 34 127 124 34 127 124 34 127 124 34 127 124 34 127 124 34 127 124 34 127 124 34 127 124 34 127 124 34 127 124 34 127 124 34 127 124 34 127 124 34 127 124 34 127 124 34 127 124 34 127 124 34 127 124 34 127 124 34 127 124 34 127 124 34 127 124 34 127 124 34 127 124 34 127 124 34 127 124 34 127 124 34 127 124 34 127 124 34 127 124 34 127 124 34 127 124 34 127 124 34 127 124 34 127 124 34 127 124 34 127 124 34 127 124 34 127 124 34 127 124 34 127 124 34 127 124 34 127 124 34 127 124 34 127 124 34 127 124 255 255 255 34 127 124 34 127 124 34 127 124 34 127 124 34 127 124 34 127 124 34 127 124 34 127 124 34 127 124 34 127 124 34 127 124 34 127 124 34 127 124 34 127 124 34 127 124 34 127 124 34 127 124 34 127 124 34 127 124 34 127 124 34 127 124 34 127 124 34 127 124 34 127 124 34 127 124 34 127 124 34 127 124 34 127 124 34 127 124 34 127 124 34 127 124 34 127 124 34 127 124 34 127 124 34 127 124 34 127 124 34 127 124 34 127 124 34 127 124 34 127 124 34 127 124 34 127 124 34 127 124 34 127 124 34 127 124 34 127 124 34 127 124 34 127 124 34 127 124 34 127 124 34 127 124 34 127 124 34 127 124 34 127 124 34 127 124 34 127 124 34 127 124 34 127 124 34 127 124 34 127 124 34 127 124 34 127 124 34 127 124 255 148 174 255 148 174 255 148 174 34 127 124 34 127 124 34 127 124 34 127 124 34 127 124 34 127 124 34 127 124 34 127 124 34 127 124 34 127 124 34 127 124 34 127 124 34 127 124 34 127 124 34 127 124 34 127 124 34 127 124 34 127 124 34 127 124 255 144 177 255 144 177 255 144 177 34 127 124 34 127 124 34 127 124 34 127 124 34 127 124 34 127 124 34 127 124 34 127 124 34 127 124 34 127 124 34 127 124 34 127 124 34 127 124 34 127 124 255 140 180 255 140 180 255 140 180 34 127 124 34 127 124 34 127 124 34 127 124 34 127 124 34 127 124 34 127 124 34 127 124 34 127 124 50 10 20 50 10 20 50 10 20 50 10 20 50 10 20 255 120 40 34 127 124 34 127 124 34 127 124 34 127 124 34 127 124 34 127 124 34 127 124 34 127 124 34 127 124 34 127 124 34 127 124 34 127 124 34 127 124 255 132 186 255 132 186 255 132 186 34 127 124 34 127 124 34 127 124 34 127 124 34 127 124 34 127 124 34 127 124 34 127 124 34 127 124 34 127 124 34 127 124 34 127 124 34 127 124 34 127 124 255 128 189 255 128 189 255 128 189 34 127 124 34 127 124 34 127 124 34 127 124 34 127 124 34 127 124 34 127 124 34 127 124 34 127 124 34 127 124 34 127 124 34 127 124 34 127 124 34 127 124 34 127 124 34 127 124 34 127 124 34 127 124 255 124 192 255 124 192 255 124 192 34 127 124 34 127 124 34 127 124 34 127 124 34 127 124 34 127 124 34 127 124 34 127 124 34 127 124 34 127 124 34 127 124 34 127 124 34 127 124 34 127 124 34 127 124 34 127 124 34 127 124 34 127 124 34 127 124 34 127 124 34 127 124 34 127 124 34 127 124 34 127 124 34 127 124 34 127 124 34 127 124 34 127 124 255 120 195 255 120 195 255 120 195 255 120 195 34 127 124 34 127 124 34 127 124 34 127 124 34 127 124 34 127 124 34 127 124 34 127 124 34 127 124 34 127 124 34 127 124 34 127 124 34 127 124 34 127 124 34 127 124 34 127 124 34 127 124 34 127 124 34 127 124 34 127 124 34 127 124 34 127 124 34 127 124 34 127 124 34 127 124 34 127 124 34 127 124 34 127 124 34 127 124 34 127 124 34 127 124 34 127 124 34 127 124 34 127 124 34 127 124 34 127 124 34 127 124 34 127 124 34 127 124 34 127 124 34 127 124 34 127 124 34 127 124 34 127 124 34 127 124 34 127 124 34 127 124 34 127 124 34 127 124 34 127 124 34 127 124 34 127 124 34 127 124 34 127 124 34 127 124 34 127 124 34 127 124 34 127 124 34 127 124 34 127 124 34 127 124 34 127 124 34 127 124 34 127 124 34 127 124 34 127 124 34 127 124 34 127 124 34 127 124 34 127 124 34 127 124 34 127 124 34 127 124 34 127 124 34 127 124 34 127 124 34 127 124 34 127 124 34 127 124 34 127 124 34 127 124 34 127 124 34 127 124 34 127 124 34 127 124 34 127 124 34 127 124 34 127 124 34 127 124 34 127 124 34 127 124 34 127 124 34 127 124 34 127 124 34 127 124 34 127 124 34 127 124 34 127 124 34 127 124 34 127 124 34 127 124 34 127 124 34 127 124 34 127 124 34 127 124 
35 127 125 35 127 125 35 127 125 35 127 125 35 127 125 35 127 125 35 127 125 35 127 125 35 127 125 35 127 125 35 127 125 35 127 125 35 127 125 35 127 125 35 127 125 35 127 125 35 127 125 35 127 125 35 127 125 35 127 125 35 127 125 35 127 125 35 127 125 35 127 125 35 127 125 35 127 125 35 127 125 35 127 125 35 127 125 35 127 125 35 127 125 35 127 125 35 127 125 35 127 125 35 127 125 35 127 125 35 127 125 35 127 125 35 127 125 35 127 125 35 127 125 35 127 125 35 127 125 35 127 125 35 127 125 35 127 125 35 127 125 35 127 125 35 127 125 35 127 125 35 127 125 35 127 125 35 127 125 35 127 125 35 127 125 35 127 125 35 127 125 35 127 125 35 127 125 35 127 125 35 127 125 35 127 125 35 127 125 35 127 125 35 127 125 35 127 125 35 127 125 35 127 125 35 127 125 35 127 125 35 127 125 35 127 125 35 127 125 255 255 255 255 255 255 35 127 125 35 127 125 35 127 125 35 127 125 35 127 125 35 127 125 35 127 125 35 127 125 35 127 125 35 127 125 35 127 125 35 127 125 35 127 125 35 127 125 35 127 125 35 127 125 35 127 125 35 127 125 35 127 125 35 127 125 35 127 125 35 127 125 35 127 125 35 127 125 35 127 125 35 127 125 35 127 125 35 127 125 35 127 125 35 127 125 35 127 125 35 127 125 35 127 125 35 127 125 35 127 125 35 127 125 35 127 125 35 127 125 35 127 125 35 127 125 35 127 125 35 127 125 35 127 125 35 127 125 35 127 125 35 127 125 35 127 125 35 127 125 35 127 125 35 127 125 35 127 125 35 127 125 35 127 125 35 127 125 35 127 125 35 127 125 35 127 125 35 127 125 35 127 125 35 127 125 35 127 125 35 127 125 255 148 174 255 148 174 255 148 174 35 127 125 35 127 125 35 127 125 35 127 125 35 127 125 35 127 125 35 127 125 35 127 125 35 127 125 35 127 125 35 127 125 35 127 125 35 127 125 35 127 125 35 127 125 35 127 125 35 127 125 35 127 125 35 127 125 255 144 177 255 144 177 255 144 177 35 127 125 35 127 125 35 127 125 35 127 125 35 127 125 35 127 125 35 127 125 35 127 125 35 127 125 35 127 125 35 127 125 35 127 125 35 127 125 255 140 180 255 140 180 255 140 180 35 127 125 35 127 125 35 127 125 35 127 125 35 127 125 35 127 125 35 127 125 50 10 20 50 10 20 50 10 20 50 10 20 50 10 20 50 10 20 50 10 20 255 120 40 50 10 20 35 127 125 35 127 125 35 127 125 35 127 125 35 127 125 35 127 125 35 127 125 35 127 125 35 127 125 35 127 125 35 127 125 35 127 125 255 132 186 255 132 186 255 132 186 35 127 125 35 127 125 35 127 125 35 127 125 35 127 125 35 127 125 35 127 125 35 127 125 35 127 125 35 127 125 35 127 125 35 127 125 35 127 125 35 127 125 255 128 189 255 128 189 255 128 189 35 127 125 35 127 125 35 127 125 35 127 125 35 127 125 35 127 125 35 127 125 35 127 125 35 127 125 35 127 125 35 127 125 35 127 125 35 127 125 35 127 125 35 127 125 35 127 125 35 127 125 255 124 192 255 124 192 255 124 192 35 127 125 35 127 125 35 127 125 35 127 125 35 127 125 35 127 125 35 127 125 35 127 125 35 127 125 35 127 125 35 127 125 35 127 125 35 127 125 35 127 125 35 127 125 35 127 125 35 127 125 35 127 125 35 127 125 35 127 125 35 127 125 35 127 125 35 127 125 35 127 125 35 127 125 35 127 125 35 127 125 35 127 125 255 120 195 255 120 195 255 120 195 35 127 125 35 127 125 35 127 125 35 127 125 35 127 125 35 127 125 35 127 125 35 127 125 35 127 125 35 127 125 35 127 125 35 127 125 35 127 125 35 127 125 35 127 125 35 127 125 35 127 125 35 127 125 35 127 125 35 127 125 35 127 125 35 127 125 35 127 125 35 127 125 35 127 125 35 127 125 35 127 125 35 127 125 35 127 125 35 127 125 35 127 125 35 127 125 35 127 125 35 127 125 35 127 125 35 127 125 35 127 125 35 127 125 35 127 125 35 127 125 35 127 125 35 127 125 35 127 125 35 127 125 35 127 125 35 127 125 35 127 125 35 127 125 35 127 125 35 127 125 35 127 125 35 127 125 35 127 125 35 127 125 35 127 125 35 127 125 35 127 125 35 127 125 35 127 125 35 127 125 35 127 125 35 127 125 35 127 125 35 127 125 35 127 125 35 127 125 35 127 125 35 127 125 35 127 125 35 127 125 35 127 125 35 127 125 35 127 125 35 127 125 35 127 125 35 127 125 35 127 125 35 127 125 35 127 125 35 127 125 35 127 125 35 127 125 35 127 125 35 127 125 35 127 125 35 127 125 35 127 125 35 127 125 35 127 125 35 127 125 35 127 125 35 127 125 35 127 125 35 127 125 35 127 125 35 127 125 35 127 125 35 127 125 35 127 125 35 127 125 35 127 125 35 127 125 35 127 125 35 127 125 35 127 125 35 127 125 35 127 125 
35 126 126 35 126 126 35 126 126 35 126 126 35 126 126 35 126 126 35 126 126 35 126 126 35 126 126 35 126 126 35 126 126 35 126 126 35 126 126 35 126 126 35 126 126 35 126 126 35 126 126 35 126 126 35 126 126 35 126 126 35 126 126 35 126 126 35 126 126 35 126 126 35 126 126 35 126 126 35 126 126 35 126 126 35 126 126 35 126 126 35 126 126 35 126 126 35 126 126 35 126 126 35 126 126 35 126 126 35 126 126 35 126 126 35 126 126 35 126 126 35 126 126 35 126 126 35 126 126 35 126 126 35 126 126 35 126 126 35 126 126 35 126 126 35 126 126 35 126 126 35 126 126 35 126 126 35 126 126 35 126 126 35 126 126 35 126 126 35 126 126 35 126 126 35 126 126 35 126 126 35 126 126 35 126 126 35 126 126 35 126 126 35 126 126 35 126 126 35 126 126 35 126 126 35 126 126 35 126 126 35 126 126 35 126 126 35 126 126 35 126 126 35 126 126 255 255 255 255 255 255 35 126 126 35 126 126 35 126 126 35 126 126 35 126 126 35 126 126 35 126 126 35 126 126 35 126 126 35 126 126 35 126 126 35 126 126 35 126 126 35 126 126 35 126 126 35 126 126 35 126 126 35 126 126 35 126 126 35 126 126 35 126 126 35 126 126 35 126 126 35 126 126 35 126 126 35 126 126 35 126 126 35 126 126 35 126 126 35 126 126 35 126 126 35 126 126 35 126 126 35 126 126 35 126 126 35 126 126 35 126 126 35 126 126 35 126 126 35 126 126 35 126 126 35 126 126 35 126 126 35 126 126 35 126 126 35 126 126 35 126 126 35 126 126 35 126 126 35 126 126 35 126 126 35 126 126 35 126 126 35 126 126 35 126 126 35 126 126 35 126 126 35 126 126 35 126 126 35 126 126 35 126 126 255 148 174 255 148 174 255 148 174 35 126 126 35 126 126 35 126 126 35 126 126 35 126 126 35 126 126 35 126 126 35 126 126 35 126 126 35 126 126 35 126 126 35 126 126 35 126 126 35 126 126 35 126 126 35 126 126 35 126 126 35 126 126 255 144 177 255 144 177 255 144 177 35 126 126 35 126 126 35 126 126 35 126 126 35 126 126 35 126 126 35 126 126 35 126 126 35 126 126 35 126 126 35 126 126 35 126 126 35 126 126 255 140 180 255 140 180 255 140 180 35 126 126 35 126 126 35 126 126 35 126 126 35 126 126 50 10 20 50 10 20 50 10 20 50 10 20 50 10 20 50 10 20 50 10 20 50 10 20 50 10 20 255 120 40 50 10 20 35 126 126 35 126 126 35 126 126 35 126 126 35 126 126 35 126 126 35 126 126 35 126 126 35 126 126 35 126 126 35 126 126 35 126 126 255 132 186 255 132 186 255 132 186 35 126 126 35 126 126 35 126 126 35 126 126 35 126 126 35 126 126 35 126 126 35 126 126 35 126 126 35 126 126 35 126 126 35 126 126 35 126 126 255 128 189 255 128 189 255 128 189 35 126 126 35 126 126 35 126 126 35 126 126 35 126 126 35 126 126 35 126 126 35 126 126 35 126 126 35 126 126 35 126 126 35 126 126 35 126 126 35 126 126 35 126 126 35 126 126 35 126 126 35 126 126 255 124 192 255 124 192 255 124 192 35 126 126 35 126 126 35 126 126 35 126 126 35 126 126 35 126 126 35 126 126 35 126 126 35 126 126 35 126 126 35 126 126 35 126 126 35 126 126 35 126 126 35 126 126 35 126 126 35 126 126 35 126 126 35 126 126 35 126 126 35 126 126 35 126 126 35 126 126 35 126 126 35 126 126 35 126 126 255 120 195 255 120 195 255 120 195 255 120 195 35 126 126 35 126 126 35 126 126 35 126 126 35 126 126 35 126 126 35 126 126 35 126 126 35 126 126 35 126 126 35 126 126 35 126 126 35 126 126 35 126 126 35 126 126 35 126 126 35 126 126 35 126 126 35 126 126 35 126 126 35 126 126 35 126 126 35 126 126 35 126 126 35 126 126 35 126 126 35 126 126 35 126 126 35 126 126 35 126 126 35 126 126 35 126 126 35 126 126 35 126 126 35 126 126 35 126 126 35 126 126 35 126 126 35 126 126 35 126 126 35 126 126 35 126 126 35 126 126 35 126 126 35 126 126 35 126 126 35 126 126 35 126 126 35 126 126 35 126 126 35 126 126 35 126 126 35 126 126 35 126 126 35 126 126 35 126 126 35 126 126 35 126 126 35 126 126 35 126 126 35 126 126 35 126 126 35 126 126 35 126 126 35 126 126 35 126 126 35 126 126 35 126 126 35 126 126 35 126 126 35 126 126 35 126 126 35 126 126 35 126 126 35 126 126 35 126 126 35 126 126 35 126 126 35 126 126 35 126 126 35 126 126 35 126 126 35 126 126 35 126 126 35 126 126 35 126 126 35 126 126 35 126 126 35 126 126 35 126 126 35 126 126 35 126 126 35 126 126 35 126 126 35 126 126 35 126 126 35 126 126 35 126 126 35 126 126 35 126 126 35 126 126 35 126 126 35 126 126 35 126 126 35 126 126 35 126 126 35 126 126 35 126 126 
36 126 127 36 126 127 36 126 127 36 126 127 36 126 127 36 126 127 36 126 127 36 126 127 36 126 127 36 126 127 36 126 127 36 126 127 36 126 127 36 126 127 36 126 127 36 126 127 36 126 127 36 126 127 36 126 127 36 126 127 36 126 127 36 126 127 36 126 127 36 126 127 36 126 127 36 126 127 36 126 127 36 126 127 36 126 127 36 126 127 36 126 127 36 126 127 36 126 127 36 126 127 36 126 127 36 126 127 36 126 127 36 126 127 36 126 127 36 126 127 36 126 127 36 126 127 36 126 127 36 126 127 36 126 127 36 126 127 36 126 127 36 126 127 36 126 127 36 126 127 36 126 127 36 126 127 36 126 127 36 126 127 36 126 127 36 126 127 36 126 127 36 126 127 36 126 127 36 126 127 36 126 127 36 126 127 36 126 127 36 126 127 36 126 127 36 126 127 36 126 127 36 126 127 36 126 127 36 126 127 36 126 127 36 126 127 36 126 127 36 126 127 36 126 127 36 126 127 36 126 127 255 255 255 255 255 255 36 126 127 36 126 127 36 126 127 36 126 127 36 126 127 36 126 127 36 126 127 36 126 127 36 126 127 36 126 127 36 126 127 36 126 127 36 126 127 36 126 127 36 126 127 36 126 127 36 126 127 36 126 127 36 126 127 36 126 127 36 126 127 36 126 127 36 126 127 36 126 127 36 126 127 36 126 127 36 126 127 36 126 127 36 126 127 36 126 127 36 126 127 36 126 127 36 126 127 36 126 127 36 126 127 36 126 127 36 126 127 36 126 127 36 126 127 36 126 127 36 126 127 36 126 127 36 126 127 36 126 127 36 126 127 36 126 127 36 126 127 36 126 127 36 126 127 36 126 127 36 126 127 36 126 127 36 126 127 36 126 127 36 126 127 36 126 127 36 126 127 36 126 127 36 126 127 36 126 127 255 148 174 255 148 174 255 148 174 36 126 127 36 126 127 36 126 127 36 126 127 36 126 127 36 126 127 36 126 127 36 126 127 36 126 127 36 126 127 36 126 127 36 126 127 36 126 127 36 126 127 36 126 127 36 126 127 36 126 127 36 126 127 255 144 177 255 144 177 255 144 177 36 126 127 36 126 127 36 126 127 36 126 127 36 126 127 36 126 127 36 126 127 36 126 127 36 126 127 36 126 127 36 126 127 36 126 127 36 126 127 255 140 180 255 140 180 255 140 180 36 126 127 36 126 127 50 10 20 50 10 20 50 10 20 50 10 20 50 10 20 50 10 20 50 10 20 50 10 20 50 10 20 50 10 20 50 10 20 255 120 40 50 10 20 36 126 127 36 126 127 36 126 127 36 126 127 36 126 127 36 126 127 36 126 127 36 126 127 36 126 127 36 126 127 36 126 127 255 132 186 255 132 186 255 132 186 36 126 127 36 126 127 36 126 127 36 126 127 36 126 127 36 126 127 36 126 127 36 126 127 36 126 127 36 126 127 36 126 127 36 126 127 36 126 127 36 126 127 255 128 189 255 128 189 255 128 189 36 126 127 36 126 127 36 126 127 36 126 127 36 126 127 36 126 127 36 126 127 36 126 127 36 126 127 36 126 127 36 126 127 36 126 127 36 126 127 36 126 127 36 126 127 36 126 127 36 126 127 255 124 192 255 124 192 255 124 192 36 126 127 36 126 127 36 126 127 36 126 127 36 126 127 36 126 127 36 126 127 36 126 127 36 126 127 36 126 127 36 126 127 36 126 127 36 126 127 36 126 127 36 126 127 36 126 127 36 126 127 36 126 127 36 126 127 36 126 127 36 126 127 36 126 127 36 126 127 36 126 127 36 126 127 36 126 127 255 120 195 255 120 195 255 120 195 255 120 195 36 126 127 36 126 127 36 126 127 36 126 127 36 126 127 36 126 127 36 126 127 36 126 127 36 126 127 36 126 127 36 126 127 36 126 127 36 126 127 36 126 127 36 126 127 36 126 127 36 126 127 36 126 127 36 126 127 36 126 127 36 126 127 36 126 127 36 126 127 36 126 127 36 126 127 36 126 127 36 126 127 36 126 127 36 126 127 36 126 127 36 126 127 36 126 127 36 126 127 36 126 127 36 126 127 36 126 127 36 126 127 36 126 127 36 126 127 36 126 127 36 126 127 36 126 127 36 126 127 36 126 127 36 126 127 36 126 127 36 126 127 36 126 127 36 126 127 36 126 127 36 126 127 36 126 127 36 126 127 36 126 127 36 126 127 36 126 127 36 126 127 36 126 127 36 126 127 36 126 127 36 126 127 36 126 127 36 126 127 36 126 127 36 126 127 36 126 127 36 126 127 36 126 127 36 126 127 36 126 127 36 126 127 36 126 127 36 126 127 36 126 127 36 126 127 36 126 127 36 126 127 36 126 127 36 126 127 36 126 127 36 126 127 36 126 127 36 126 127 36 126 127 36 126 127 36 126 127 36 126 127 36 126 127 36 126 127 36 126 127 36 126 127 36 126 127 36 126 127 36 126 127 36 126 127 36 126 127 36 126 127 36 126 127 36 126 127 36 126 127 36 126 127 36 126 127 36 126 127 36 126 127 36 126 127 36 126 127 36 126 127 36 126 127 36 126 127 
36 125 127 36 125 127 36 125 127 36 125 127 36 125 127 36 125 127 36 125 127 36 125 127 36 125 127 36 125 127 36 125 127 36 125 127 36 125 127 36 125 127 36 125 127 36 125 127 36 125 127 36 125 127 36 125 127 36 125 127 36 125 127 36 125 127 36 125 127 36 125 127 36 125 127 36 125 127 36 125 127 36 125 127 36 125 127 36 125 127 36 125 127 36 125 127 36 125 127 36 125 127 36 125 127 36 125 127 36 125 127 36 125 127 36 125 127 36 125 127 36 125 127 36 125 127 36 125 127 36 125 127 36 125 127 36 125 127 36 125 127 36 125 127 36 125 127 36 125 127 36 125 127 36 125 127 36 125 127 36 125 127 36 125 127 36 125 127 36 125 127 36 125 127 36 125 127 36 125 127 36 125 127 36 125 127 36 125 127 36 125 127 36 125 127 36 125 127 36 125 127 36 125 127 36 125 127 36 125 127 36 125 127 36 125 127 36 125 127 36 125 127 36 125 127 36 125 127 36 125 127 36 125 127 36 125 127 255 255 255 36 125 127 36 125 127 36 125 127 36 125 127 36 125 127 36 125 127 36 125 127 36 125 127 36 125 127 36 125 127 36 125 127 36 125 127 36 125 127 36 125 127 36 125 127 36 125 127 36 125 127 36 125 127 36 125 127 36 125 127 36 125 127 36 125 127 36 125 127 36 125 127 36 125 127 36 125 127 36 125 127 36 125 127 36 125 127 36 125 127 36 125 127 36 125 127 36 125 127 36 125 127 36 125 127 36 125 127 36 125 127 36 125 127 36 125 127 36 125 127 36 125 127 36 125 127 36 125 127 36 125 127 36 125 127 36 125 127 36 125 127 36 125 127 36 125 127 36 125 127 36 125 127 36 125 127 36 125 127 36 125 127 36 125 127 36 125 127 36 125 127 36 125 127 36 125 127 36 125 127 255 148 174 255 148 174 255 148 174 36 125 127 36 125 127 36 125 127 36 125 127 36 125 127 36 125 127 36 125 127 36 125 127 36 125 127 36 125 127 36 125 127 36 125 127 36 125 127 36 125 127 36 125 127 36 125 127 36 125 127 255 144 177 255 144 177 255 144 177 36 125 127 36 125 127 36 125 127 36 125 127 36 125 127 36 125 127 36 125 127 36 125 127 36 125 127 36 125 127 36 125 127 36 125 127 36 125 127 255 140 180 255 140 180 255 140 180 50 10 20 50 10 20 50 10 20 50 10 20 50 10 20 50 10 20 50 10 20 50 10 20 50 10 20 50 10 20 50 10 20 50 10 20 50 10 20 255 120 40 50 10 20 50 10 20 36 125 127 36 125 127 36 125 127 36 125 127 36 125 127 36 125 127 36 125 127 36 125 127 36 125 127 36 125 127 255 132 186 255 132 186 255 132 186 36 125 127 36 125 127 36 125 127 36 125 127 36 125 127 36 125 127 36 125 127 36 125 127 36 125 127 36 125 127 36 125 127 36 125 127 36 125 127 255 128 189 255 128 189 255 128 189 36 125 127 36 125 127 36 125 127 36 125 127 36 125 127 36 125 127 36 125 127 36 125 127 36 125 127 36 125 127 36 125 127 36 125 127 36 125 127 36 125 127 36 125 127 36 125 127 36 125 127 255 124 192 255 124 192 255 124 192 36 125 127 36 125 127 36 125 127 36 125 127 36 125 127 36 125 127 36 125 127 36 125 127 36 125 127 36 125 127 36 125 127 36 125 127 36 125 127 36 125 127 36 125 127 36 125 127 36 125 127 36 125 127 36 125 127 36 125 127 36 125 127 36 125 127 36 125 127 36 125 127 36 125 127 36 125 127 255 120 195 255 120 195 255 120 195 255 120 195 36 125 127 36 125 127 36 125 127 36 125 127 36 125 127 36 125 127 36 125 127 36 125 127 36 125 127 36 125 127 36 125 127 36 125 127 36 125 127 36 125 127 36 125 127 36 125 127 36 125 127 36 125 127 36 125 127 36 125 127 36 125 127 36 125 127 36 125 127 36 125 127 36 125 127 36 125 127 36 125 127 36 125 127 36 125 127 36 125 127 36 125 127 36 125 127 36 125 127 36 125 127 36 125 127 36 125 127 36 125 127 36 125 127 36 125 127 36 125 127 36 125 127 36 125 127 36 125 127 36 125 127 36 125 127 36 125 127 36 125 127 36 125 127 36 125 127 36 125 127 36 125 127 36 125 127 36 125 127 36 125 127 36 125 127 36 125 127 36 125 127 36 125 127 36 125 127 36 125 127 36 125 127 36 125 127 36 125 127 36 125 127 36 125 127 36 125 127 36 125 127 36 125 127 36 125 127 36 125 127 36 125 127 36 125 127 36 125 127 36 125 127 36 125 127 36 125 127 36 125 127 36 125 127 36 125 127 36 125 127 36 125 127 36 125 127 36 125 127 36 125 127 36 125 127 36 125 127 36 125 127 36 125 127 36 125 127 36 125 127 36 125 127 36 125 127 36 125 127 36 125 127 36 125 127 36 125 127 36 125 127 36 125 127 36 125 127 36 125 127 36 125 127 36 125 127 36 125 127 36 125 127 36 125 127 36 125 127 36 125 127 36 125 127 36 125 127 36 125 127 
36 124 128 36 124 128 36 124 128 36 124 128 36 124 128 36 124 128 36 124 128 36 124 128 36 124 128 36 124 128 36 124 128 36 124 128 36 124 128 36 124 128 36 124 128 36 124 128 36 124 128 36 124 128 36 124 128 36 124 128 36 124 128 36 124 128 36 124 128 36 124 128 36 124 128 36 124 128 36 124 128 36 124 128 36 124 128 36 124 128 36 124 128 36 124 128 36 124 128 36 124 128 36 124 128 36 124 128 36 124 128 36 124 128 36 124 128 36 124 128 36 124 128 36 124 128 36 124 128 36 124 128 36 124 128 36 124 128 36 124 128 36 124 128 36 124 128 36 124 128 36 124 128 36 124 128 36 124 128 36 124 128 36 124 128 36 124 128 36 124 128 36 124 128 36 124 128 36 124 128 36 124 128 36 124 128 36 124 128 36 124 128 36 124 128 36 124 128 36 124 128 36 124 128 36 124 128 36 124 128 36 124 128 36 124 128 36 124 128 36 124 128 36 124 128 36 124 128 36 124 128 36 124 128 36 124 128 36 124 128 255 255 255 255 255 255 36 124 128 36 124 128 36 124 128 36 124 128 36 124 128 36 124 128 36 124 128 36 124 128 36 124 128 36 124 128 36 124 128 36 124 128 36 124 128 36 124 128 36 124 128 36 124 128 36 124 128 36 124 128 36 124 128 36 124 128 36 124 128 36 124 128 36 124 128 36 124 128 36 124 128 36 124 128 36 124 128 36 124 128 36 124 128 36 124 128 36 124 128 36 124 128 36 124 128 36 124 128 36 124 128 36 124 128 36 124 128 36 124 128 36 124 128 36 124 128 36 124 128 36 124 128 36 124 128 36 124 128 36 124 128 36 124 128 36 124 128 36 124 128 36 124 128 36 124 128 36 124 128 36 124 128 36 124 128 36 124 128 36 124 128 36 124 128 36 124 128 36 124 128 255 148 174 255 148 174 255 148 174 36 124 128 36 124 128 36 124 128 36 124 128 36 124 128 36 124 128 36 124 128 36 124 128 36 124 128 36 124 128 36 124 128 36 124 128 36 124 128 36 124 128 36 124 128 36 124 128 36 124 128 36 124 128 255 144 177 255 144 177 255 144 177 36 124 128 36 124 128 36 124 128 36 124 128 36 124 128 36 124 128 36 124 128 36 124 128 36 124 128 36 124 128 36 124 128 36 124 128 255 140 180 50 10 20 50 10 20 50 10 20 50 10 20 50 10 20 50 10 20 50 10 20 50 10 20 50 10 20 50 10 20 50 10 20 50 10 20 50 10 20 50 10 20 50 10 20 255 120 40 50 10 20 50 10 20 36 124 128 36 124 128 36 124 128 36 124 128 36 124 128 36 124 128 36 124 128 36 124 128 36 124 128 36 124 128 255 132 186 255 132 186 255 132 186 36 124 128 36 124 128 36 124 128 36 124 128 36 124 128 36 124 128 36 124 128 36 124 128 36 124 128 36 124 128 36 124 128 36 124 128 36 124 128 255 128 189 255 128 189 255 128 189 36 124 128 36 124 128 36 124 128 36 124 128 36 124 128 36 124 128 36 124 128 36 124 128 36 124 128 36 124 128 36 124 128 36 124 128 36 124 128 36 124 128 36 124 128 36 124 128 255 124 192 255 124 192 255 124 192 36 124 128 36 124 128 36 124 128 36 124 128 36 124 128 36 124 128 36 124 128 36 124 128 36 124 128 36 124 128 36 124 128 36 124 128 36 124 128 36 124 128 36 124 128 36 124 128 36 124 128 36 124 128 36 124 128 36 124 128 36 124 128 36 124 128 36 124 128 36 124 128 36 124 128 36 124 128 255 120 195 255 120 195 255 120 195 36 124 128 36 124 128 36 124 128 36 124 128 36 124 128 36 124 128 36 124 128 36 124 128 36 124 128 36 124 128 36 124 128 36 124 128 36 124 128 36 124 128 36 124 128 36 124 128 36 124 128 36 124 128 36 124 128 36 124 128 36 124 128 36 124 128 36 124 128 36 124 128 36 124 128 36 124 128 36 124 128 36 124 128 36 124 128 36 124 128 36 124 128 36 124 128 36 124 128 36 124 128 36 124 128 36 124 128 36 124 128 36 124 128 36 124 128 36 124 128 36 124 128 36 124 128 36 124 128 36 124 128 36 124 128 36 124 128 36 124 128 36 124 128 36 124 128 36 124 128 36 124 128 36 124 128 36 124 128 36 124 128 36 124 128 36 124 128 36 124 128 36 124 128 36 124 128 36 124 128 36 124 128 36 124 128 36 124 128 36 124 128 36 124 128 36 124 128 36 124 128 36 124 128 36 124 128 36 124 128 36 124 128 36 124 128 36 124 128 36 124 128 36 124 128 36 124 128 36 124 128 36 124 128 36 124 128 36 124 128 36 124 128 36 124 128 36 124 128 36 124 128 36 124 128 36 124 128 36 124 128 36 124 128 36 124 128 36 124 128 36 124 128 36 124 128 36 124 128 36 124 128 36 124 128 36 124 128 36 124 128 36 124 128 36 124 128 36 124 128 36 124 128 36 124 128 36 124 128 36 124 128 36 124 128 36 124 128 36 124 128 36 124 128 36 124 128 36 124 128 36 124 128 36 124 128 
37 124 129 37 124 129 37 124 129 37 124 129 37 124 129 37 124 129 37 124 129 37 124 129 37 124 129 37 124 129 37 124 129 37 124 129 37 124 129 37 124 129 37 124 129 37 124 129 37 124 129 37 124 129 37 124 129 37 124 129 37 124 129 37 124 129 37 124 129 37 124 129 37 124 129 37 124 129 37 124 129 37 124 129 37 124 129 37 124 129 37 124 129 37 124 129 37 124 129 37 124 129 37 124 129 37 124 129 37 124 129 37 124 129 37 124 129 37 124 129 37 124 129 37 124 129 37 124 129 37 124 129 37 124 129 37 124 129 37 124 129 37 124 129 37 124 129 37 124 129 37 124 129 37 124 129 37 124 129 37 124 129 37 124 129 37 124 129 37 124 129 37 124 129 37 124 129 37 124 129 37 124 129 37 124 129 37 124 129 37 124 129 37 124 129 37 124 129 37 124 129 37 124 129 37 124 129 37 124 129 37 124 129 37 124 129 37 124 129 37 124 129 37 124 129 37 124 129 37 124 129 37 124 129 37 124 129 37 124 129 37 124 129 37 124 129 255 255 255 255 255 255 37 124 129 37 124 129 37 124 129 37 124 129 37 124 129 37 124 129 37 124 129 37 124 129 37 124 129 37 124 129 37 124 129 37 124 129 37 124 129 37 124 129 37 124 129 37 124 129 37 124 129 37 124 129 37 124 129 37 124 129 37 124 129 37 124 129 37 124 129 37 124 129 37 124 129 37 124 129 37 124 129 37 124 129 37 124 129 37 124 129 37 124 129 37 124 129 37 124 129 37 124 129 37 124 129 37 124 129 37 124 129 37 124 129 37 124 129 37 124 129 37 124 129 37 124 129 37 124 129 37 124 129 37 124 129 37 124 129 37 124 129 37 124 129 37 124 129 37 124 129 37 124 129 37 124 129 37 124 129 37 124 129 37 124 129 37 124 129 37 124 129 255 148 174 255 148 174 255 148 174 37 124 129 37 124 129 37 124 129 37 124 129 37 124 129 37 124 129 37 124 129 37 124 129 37 124 129 37 124 129 37 124 129 37 124 129 37 124 129 37 124 129 37 124 129 37 124 129 37 124 129 255 144 177 255 144 177 255 144 177 37 124 129 37 124 129 37 124 129 37 124 129 37 124 129 37 124 129 37 124 129 37 124 129 37 124 129 37 124 129 37 124 129 50 10 20 50 10 20 50 10 20 50 10 20 50 10 20 50 10 20 50 10 20 50 10 20 50 10 20 50 10 20 50 10 20 50 10 20 50 10 20 50 10 20 50 10 20 50 10 20 50 10 20 255 120 40 50 10 20 50 10 20 50 10 20 37 124 129 37 124 129 37 124 129 37 124 129 37 124 129 37 124 129 37 124 129 37 124 129 37 124 129 255 132 186 255 132 186 255 132 186 37 124 129 37 124 129 37 124 129 37 124 129 37 124 129 37 124 129 37 124 129 37 124 129 37 124 129 37 124 129 37 124 129 37 124 129 255 128 189 255 128 189 255 128 189 37 124 129 37 124 129 37 124 129 37 124 129 37 124 129 37 124 129 37 124 129 37 124 129 37 124 129 37 124 129 37 124 129 37 124 129 37 124 129 37 124 129 37 124 129 37 124 129 37 124 129 255 124 192 255 124 192 255 124 192 37 124 129 37 124 129 37 124 129 37 124 129 37 124 129 37 124 129 37 124 129 37 124 129 37 124 129 37 124 129 37 124 129 37 124 129 37 124 129 37 124 129 37 124 129 37 124 129 37 124 129 37 124 129 37 124 129 37 124 129 37 124 129 37 124 129 37 124 129 37 124 129 37 124 129 255 120 195 255 120 195 255 120 195 37 124 129 37 124 129 37 124 129 37 124 129 37 124 129 37 124 129 37 124 129 37 124 129 37 124 129 37 124 129 37 124 129 37 124 129 37 124 129 37 124 129 37 124 129 37 124 129 37 124 129 37 124 129 37 124 129 37 124 129 37 124 129 37 124 129 37 124 129 37 124 129 37 124 129 37 124 129 37 124 129 37 124 129 37 124 129 37 124 129 37 124 129 37 124 129 37 124 129 37 124 129 37 124 129 37 124 129 37 124 129 37 124 129 37 124 129 37 124 129 37 124 129 37 124 129 37 124 129 37 124 129 37 124 129 37 124 129 37 124 129 37 124 129 37 124 129 37 124 129 37 124 129 37 124 129 37 124 129 37 124 129 37 124 129 37 124 129 37 124 129 37 124 129 37 124 129 37 124 129 37 124 129 37 124 129 37 124 129 37 124 129 37 124 129 37 124 129 37 124 129 37 124 129 37 124 129 37 124 129 37 124 129 37 124 129 37 124 129 37 124 129 37 124 129 37 124 129 37 124 129 37 124 129 37 124 129 37 124 129 37 124 129 37 124 129 37 124 129 37 124 129 37 124 129 37 124 129 37 124 129 37 124 129 37 124 129 37 124 129 37 124 129 37 124 129 37 124 129 37 124 129 37 124 129 37 124 129 37 124 129 37 124 129 37 124 129 37 124 129 37 124 129 37 124 129 37 124 129 37 124 129 37 124 129 37 124 129 37 124 129 37 124 129 37 124 129 37 124 129 37 124 129 37 124 129 37 124 129 
37 123 130 37 123 130 37 123 130 37 123 130 37 123 130 37 123 130 37 123 130 37 123 130 37 123 130 37 123 130 37 123 130 37 123 130 37 123 130 37 123 130 37 123 130 37 123 130 37 123 130 37 123 130 37 123 130 37 123 130 37 123 130 37 123 130 37 123 130 37 123 130 37 123 130 37 123 130 37 123 130 37 123 130 37 123 130 37 123 130 37 123 130 37 123 130 37 123 130 37 123 130 37 123 130 37 123 130 37 123 130 37 123 130 37 123 130 37 123 130 37 123 130 37 123 130 37 123 130 37 123 130 37 123 130 37 123 130 37 123 130 37 123 130 37 123 130 37 123 130 37 123 130 37 123 130 37 123 130 37 123 130 37 123 130 37 123 130 37 123 130 37 123 130 37 123 130 37 123 130 37 123 130 37 123 130 37 123 130 37 123 130 37 123 130 37 123 130 37 123 130 37 123 130 37 123 130 37 123 130 37 123 130 37 123 130 37 123 130 37 123 130 37 123 130 37 123 130 37 123 130 37 123 130 37 123 130 37 123 130 37 123 130 37 123 130 37 123 130 37 123 130 255 255 255 255 255 255 37 123 130 37 123 130 37 123 130 37 123 130 37 123 130 37 123 130 37 123 130 37 123 130 37 123 130 37 123 130 37 123 130 37 123 130 37 123 130 37 123 130 37 123 130 37 123 130 37 123 130 37 123 130 37 123 130 37 123 130 37 123 130 37 123 130 37 123 130 37 123 130 37 123 130 37 123 130 37 123 130 37 123 130 37 123 130 37 123 130 37 123 130 37 123 130 37 123 130 37 123 130 37 123 130 37 123 130 37 123 130 37 123 130 37 123 130 37 123 130 37 123 130 37 123 130 37 123 130 37 123 130 37 123 130 37 123 130 37 123 130 37 123 130 37 123 130 37 123 130 37 123 130 37 123 130 37 123 130 37 123 130 37 123 130 37 123 130 255 148 174 255 148 174 255 148 174 37 123 130 37 123 130 37 123 130 37 123 130 37 123 130 37 123 130 37 123 130 37 123 130 37 123 130 37 123 130 37 123 130 37 123 130 37 123 130 37 123 130 37 123 130 37 123 130 37 123 130 255 144 177 255 144 177 255 144 177 37 123 130 37 123 130 37 123 130 37 123 130 37 123 130 37 123 130 37 123 130 50 10 20 50 10 20 50 10 20 50 10 20 50 10 20 50 10 20 50 10 20 50 10 20 50 10 20 50 10 20 50 10 20 50 10 20 50 10 20 50 10 20 50 10 20 50 10 20 50 10 20 50 10 20 50 10 20 50 10 20 255 120 40 50 10 20 50 10 20 50 10 20 37 123 130 37 123 130 37 123 130 37 123 130 37 123 130 37 123 130 37 123 130 37 123 130 37 123 130 255 132 186 255 132 186 255 132 186 37 123 130 37 123 130 37 123 130 37 123 130 37 123 130 37 123 130 37 123 130 37 123 130 37 123 130 37 123 130 37 123 130 37 123 130 255 128 189 255 128 189 255 128 189 37 123 130 37 123 130 37 123 130 37 123 130 37 123 130 37 123 130 37 123 130 37 123 130 37 123 130 37 123 130 37 123 130 37 123 130 37 123 130 37 123 130 37 123 130 37 123 130 255 124 192 255 124 192 255 124 192 37 123 130 37 123 130 37 123 130 37 123 130 37 123 130 37 123 130 37 123 130 37 123 130 37 123 130 37 123 130 37 123 130 37 123 130 37 123 130 37 123 130 37 123 130 37 123 130 37 123 130 37 123 130 37 123 130 37 123 130 37 123 130 37 123 130 37 123 130 37 123 130 255 120 195 255 120 195 255 120 195 255 120 195 37 123 130 37 123 130 37 123 130 37 123 130 37 123 130 37 123 130 37 123 130 37 123 130 37 123 130 37 123 130 37 123 130 37 123 130 37 123 130 37 123 130 37 123 130 37 123 130 37 123 130 37 123 130 37 123 130 37 123 130 37 123 130 37 123 130 37 123 130 37 123 130 37 123 130 37 123 130 37 123 130 37 123 130 37 123 130 37 123 130 37 123 130 37 123 130 37 123 130 37 123 130 37 123 130 37 123 130 37 123 130 37 123 130 37 123 130 37 123 130 37 123 130 37 123 130 37 123 130 37 123 130 37 123 130 37 123 130 37 123 130 37 123 130 37 123 130 37 123 130 37 123 130 37 123 130 37 123 130 37 123 130 37 123 130 37 123 130 37 123 130 37 123 130 37 123 130 37 123 130 37 123 130 37 123 130 37 123 130 37 123 130 37 123 130 37 123 130 37 123 130 37 123 130 37 123 130 37 123 130 37 123 130 37 123 130 37 123 130 37 123 130 37 123 130 37 123 130 37 123 130 37 123 130 37 123 130 37 123 130 37 123 130 37 123 130 37 123 130 37 123 130 37 123 130 37 123 130 37 123 130 37 123 130 37 123 130 37 123 130 37 123 130 37 123 130 37 123 130 37 123 130 37 123 130 37 123 130 37 123 130 37 123 130 37 123 130 37 123 130 37 123 130 37 123 130 37 123 130 37 123 130 37 123 130 37 123 130 37 123 130 37 123 130 37 123 130 37 123 130 37 123 130 37 123 130 37 123 130 37 123 130 
37 123 131 37 123 131 37 123 131 37 123 131 37 123 131 37 123 131 37 123 131 37 123 131 37 123 131 37 123 131 37 123 131 37 123 131 37 123 131 37 123 131 37 123 131 37 123 131 37 123 131 37 123 131 37 123 131 37 123 131 37 123 131 37 123 131 37 123 131 37 123 131 37 123 131 37 123 131 37 123 131 37 123 131 37 123 131 37 123 131 37 123 131 37 123 131 37 123 131 37 123 131 37 123 131 37 123 131 37 123 131 37 123 131 37 123 131 37 123 131 37 123 131 37 123 131 37 123 131 37 123 131 37 123 131 37 123 131 37 123 131 37 123 131 37 123 131 37 123 131 37 123 131 37 123 131 37 123 131 37 123 131 37 123 131 37 123 131 37 123 131 37 123 131 37 123 131 37 123 131 37 123 131 37 123 131 37 123 131 37 123 131 37 123 131 37 123 131 37 123 131 37 123 131 37 123 131 37 123 131 37 123 131 37 123 131 37 123 131 37 123 131 37 123 131 37 123 131 37 123 131 37 123 131 37 123 131 37 123 131 37 123 131 37 123 131 37 123 131 37 123 131 37 123 131 37 123 131 255 255 255 255 255 255 37 123 131 37 123 131 37 123 131 37 123 131 37 123 131 37 123 131 37 123 131 37 123 131 37 123 131 37 123 131 37 123 131 37 123 131 37 123 131 37 123 131 37 123 131 37 123 131 37 123 131 37 123 131 37 123 131 37 123 131 37 123 131 37 123 131 37 123 131 37 123 131 37 123 131 37 123 131 37 123 131 37 123 131 37 123 131 37 123 131 255 152 171 37 123 131 37 123 131 37 123 131 37 123 131 37 123 131 37 123 131 37 123 131 37 123 131 37 123 131 37 123 131 37 123 131 37 123 131 37 123 131 37 123 131 37 123 131 37 123 131 37 123 131 37 123 131 37 123 131 37 123 131 37 123 131 37 123 131 37 123 131 37 123 131 255 148 174 255 148 174 255 148 174 37 123 131 37 123 131 37 123 131 37 123 131 37 123 131 37 123 131 37 123 131 37 123 131 37 123 131 37 123 131 37 123 131 37 123 131 37 123 131 37 123 131 37 123 131 37 123 131 255 144 177 255 144 177 255 144 177 37 123 131 37 123 131 37 123 131 37 123 131 37 123 131 50 10 20 50 10 20 50 10 20 50 10 20 50 10 20 50 10 20 50 10 20 50 10 20 50 10 20 50 10 20 50 10 20 50 10 20 50 10 20 50 10 20 50 10 20 50 10 20 50 10 20 50 10 20 50 10 20 50 10 20 50 10 20 50 10 20 255 120 40 50 10 20 50 10 20 50 10 20 37 123 131 37 123 131 37 123 131 37 123 131 37 123 131 37 123 131 37 123 131 37 123 131 255 132 186 255 132 186 255 132 186 37 123 131 37 123 131 37 123 131 37 123 131 37 123 131 37 123 131 37 123 131 37 123 131 37 123 131 37 123 131 37 123 131 37 123 131 37 123 131 255 128 189 255 128 189 255 128 189 37 123 131 37 123 131 37 123 131 37 123 131 37 123 131 37 123 131 37 123 131 37 123 131 37 123 131 37 123 131 37 123 131 37 123 131 37 123 131 37 123 131 37 123 131 255 124 192 255 124 192 255 124 192 37 123 131 37 123 131 37 123 131 37 123 131 37 123 131 37 123 131 37 123 131 37 123 131 37 123 131 37 123 131 37 123 131 37 123 131 37 123 131 37 123 131 37 123 131 37 123 131 37 123 131 37 123 131 37 123 131 37 123 131 37 123 131 37 123 131 37 123 131 37 123 131 255 120 195 255 120 195 255 120 195 255 120 195 37 123 131 37 123 131 37 123 131 37 123 131 37 123 131 37 123 131 37 123 131 37 123 131 37 123 131 37 123 131 37 123 131 37 123 131 37 123 131 37 123 131 37 123 131 37 123 131 37 123 131 37 123 131 37 123 131 37 123 131 37 123 131 37 123 131 37 123 131 37 123 131 37 123 131 37 123 131 37 123 131 37 123 131 37 123 131 37 123 131 37 123 131 37 123 131 37 123 131 37 123 131 37 123 131 37 123 131 37 123 131 37 123 131 37 123 131 37 123 131 37 123 131 37 123 131 37 123 131 37 123 131 37 123 131 37 123 131 37 123 131 37 123 131 37 123 131 37 123 131 37 123 131 37 123 131 37 123 131 37 123 131 37 123 131 37 123 131 37 123 131 37 123 131 37 123 131 37 123 131 37 123 131 37 123 131 37 123 131 37 123 131 37 123 131 37 123 131 37 123 131 37 123 131 37 123 131 37 123 131 37 123 131 37 123 131 37 123 131 37 123 131 37 123 131 37 123 131 37 123 131 37 123 131 37 123 131 37 123 131 37 123 131 37 123 131 37 123 131 37 123 131 37 123 131 37 123 131 37 123 131 37 123 131 37 123 131 37 123 131 37 123 131 37 123 131 37 123 131 37 123 131 37 123 131 37 123 131 37 123 131 37 123 131 37 123 131 37 123 131 37 123 131 37 123 131 37 123 131 37 123 131 37 123 131 37 123 131 37 123 131 37 123 131 37 123 131 37 123 131 37 123 131 37 123 131 37 123 131 37 123 131 37 123 131 
38 122 132 38 122 132 38 122 132 38 122 132 38 122 132 38 122 132 38 122 132 38 122 132 38 122 132 38 122 132 38 122 132 38 122 132 38 122 132 38 122 132 38 122 132 38 122 132 38 122 132 38 122 132 38 122 132 38 122 132 38 122 132 38 122 132 38 122 132 38 122 132 38 122 132 38 122 132 38 122 132 38 122 132 38 122 132 38 122 132 38 122 132 38 122 132 38 122 132 38 122 132 38 122 132 38 122 132 38 122 132 38 122 132 38 122 132 38 122 132 38 122 132 38 122 132 38 122 132 38 122 132 38 122 132 38 122 132 38 122 132 38 122 132 38 122 132 38 122 132 38 122 132 38 122 132 38 122 132 38 122 132 38 122 132 38 122 132 38 122 132 38 122 132 38 122 132 38 122 132 38 122 132 38 122 132 38 122 132 38 122 132 38 122 132 38 122 132 38 122 132 38 122 132 38 122 132 38 122 132 38 122 132 38 122 132 38 122 132 38 122 132 38 122 132 38 122 132 38 122 132 38 122 132 38 122 132 38 122 132 38 122 132 38 122 132 38 122 132 38 122 132 38 122 132 38 122 132 38 122 132 38 122 132 255 255 255 38 122 132 38 122 132 38 122 132 38 122 132 38 122 132 38 122 132 38 122 132 38 122 132 38 122 132 38 122 132 38 122 132 38 122 132 38 122 132 38 122 132 38 122 132 38 122 132 38 122 132 38 122 132 38 122 132 38 122 132 38 122 132 38 122 132 38 122 132 38 122 132 38 122 132 38 122 132 38 122 132 38 122 132 38 122 132 255 152 171 255 152 171 38 122 132 38 122 132 38 122 132 38 122 132 38 122 132 38 122 132 38 122 132 38 122 132 38 122 132 38 122 132 38 122 132 38 122 132 38 122 132 38 122 132 38 122 132 38 122 132 38 122 132 38 122 132 38 122 132 38 122 132 38 122 132 38 122 132 38 122 132 38 122 132 255 148 174 255 148 174 255 148 174 38 122 132 38 122 132 38 122 132 38 122 132 38 122 132 38 122 132 38 122 132 38 122 132 38 122 132 38 122 132 38 122 132 38 122 132 38 122 132 38 122 132 38 122 132 255 144 177 255 144 177 255 144 177 38 122 132 38 122 132 38 122 132 50 10 20 50 10 20 50 10 20 50 10 20 50 10 20 50 10 20 50 10 20 50 10 20 50 10 20 50 10 20 50 10 20 50 10 20 50 10 20 50 10 20 50 10 20 50 10 20 50 10 20 50 10 20 50 10 20 50 10 20 50 10 20 50 10 20 50 10 20 50 10 20 255 120 40 50 10 20 50 10 20 50 10 20 50 10 20 38 122 132 38 122 132 38 122 132 38 122 132 38 122 132 38 122 132 38 122 132 255 132 186 255 132 186 255 132 186 38 122 132 38 122 132 38 122 132 38 122 132 38 122 132 38 122 132 38 122 132 38 122 132 38 122 132 38 122 132 38 122 132 38 122 132 255 128 189 255 128 189 255 128 189 38 122 132 38 122 132 38 122 132 38 122 132 38 122 132 38 122 132 38 122 132 38 122 132 38 122 132 38 122 132 38 122 132 38 122 132 38 122 132 38 122 132 38 122 132 255 124 192 255 124 192 255 124 192 38 122 132 38 122 132 38 122 132 38 122 132 38 122 132 38 122 132 38 122 132 38 122 132 38 122 132 38 122 132 38 122 132 38 122 132 38 122 132 38 122 132 38 122 132 38 122 132 38 122 132 38 122 132 38 122 132 38 122 132 38 122 132 38 122 132 38 122 132 38 122 132 255 120 195 255 120 195 255 120 195 255 120 195 38 122 132 38 122 132 38 122 132 38 122 132 38 122 132 38 122 132 38 122 132 38 122 132 38 122 132 38 122 132 38 122 132 38 122 132 38 122 132 38 122 132 38 122 132 38 122 132 38 122 132 38 122 132 38 122 132 38 122 132 38 122 132 38 122 132 38 122 132 38 122 132 38 122 132 38 122 132 38 122 132 38 122 132 38 122 132 38 122 132 38 122 132 38 122 132 38 122 132 38 122 132 38 122 132 38 122 132 38 122 132 38 122 132 38 122 132 38 122 132 38 122 132 38 122 132 38 122 132 38 122 132 38 122 132 38 122 132 38 122 132 38 122 132 38 122 132 38 122 132 38 122 132 38 122 132 38 122 132 38 122 132 38 122 132 38 122 132 38 122 132 38 122 132 38 122 132 38 122 132 38 122 132 38 122 132 38 122 132 38 122 132 38 122 132 38 122 132 38 122 132 38 122 132 38 122 132 38 122 132 38 122 132 38 122 132 38 122 132 38 122 132 38 122 132 38 122 132 38 122 132 38 122 132 38 122 132 38 122 132 38 122 132 38 122 132 38 122 132 38 122 132 38 122 132 38 122 132 38 122 132 38 122 132 38 122 132 38 122 132 38 122 132 38 122 132 38 122 132 38 122 132 38 122 132 38 122 132 38 122 132 38 122 132 38 122 132 38 122 132 38 122 132 38 122 132 38 122 132 38 122 132 38 122 132 38 122 132 38 122 132 38 122 132 38 122 132 38 122 132 38 122 132 38 122 132 38 122 132 38 122 132 38 122 132 38 122 132 
38 122 132 38 122 132 38 122 132 38 122 132 38 122 132 38 122 132 38 122 132 38 122 132 38 122 132 38 122 132 38 122 132 38 122 132 38 122 132 38 122 132 38 122 132 38 122 132 38 122 132 38 122 132 38 122 132 38 122 132 38 122 132 38 122 132 38 122 132 38 122 132 38 122 132 38 122 132 38 122 132 38 122 132 38 122 132 38 122 132 38 122 132 38 122 132 38 122 132 38 122 132 38 122 132 38 122 132 38 122 132 38 122 132 38 122 132 38 122 132 38 122 132 38 122 132 38 122 132 38 122 132 38 122 132 38 122 132 38 122 132 38 122 132 38 122 132 38 122 132 38 122 132 38 122 132 38 122 132 38 122 132 38 122 132 38 122 132 38 122 132 38 122 132 38 122 132 38 122 132 38 122 132 38 122 132 38 122 132 38 122 132 38 122 132 38 122 132 38 122 132 38 122 132 38 122 132 38 122 132 38 122 132 38 122 132 38 122 132 38 122 132 38 122 132 38 122 132 38 122 132 38 122 132 38 122 132 38 122 132 38 122 132 38 122 132 38 122 132 38 122 132 38 122 132 38 122 132 38 122 132 38 122 132 38 122 132 255 255 255 255 255 255 38 122 132 38 122 132 38 122 132 38 122 132 38 122 132 38 122 132 38 122 132 38 122 132 38 122 132 38 122 132 38 122 132 38 122 132 38 122 132 38 122 132 38 122 132 38 122 132 38 122 132 38 122 132 38 122 132 38 122 132 38 122 132 38 122 132 38 122 132 38 122 132 38 122 132 38 122 132 38 122 132 255 152 171 255 152 171 255 152 171 255 152 171 38 122 132 38 122 132 38 122 132 38 122 132 38 122 132 38 122 132 38 122 132 38 122 132 38 122 132 38 122 132 38 122 132 38 122 132 38 122 132 38 122 132 38 122 132 38 122 132 38 122 132 38 122 132 38 122 132 38 122 132 38 122 132 38 122 132 255 148 174 255 148 174 255 148 174 38 122 132 38 122 132 38 122 132 38 122 132 38 122 132 38 122 132 38 122 132 38 122 132 38 122 132 38 122 132 38 122 132 38 122 132 38 122 132 38 122 132 38 122 132 38 122 132 255 144 177 255 144 177 255 144 177 50 10 20 50 10 20 50 10 20 50 10 20 50 10 20 50 10 20 50 10 20 50 10 20 50 10 20 50 10 20 50 10 20 50 10 20 50 10 20 50 10 20 50 10 20 50 10 20 50 10 20 50 10 20 50 10 20 50 10 20 50 10 20 50 10 20 50 10 20 50 10 20 50 10 20 50 10 20 255 120 40 50 10 20 50 10 20 50 10 20 50 10 20 38 122 132 38 122 132 38 122 132 38 122 132 38 122 132 38 122 132 38 122 132 255 132 186 255 132 186 255 132 186 38 122 132 38 122 132 38 122 132 38 122 132 38 122 132 38 122 132 38 122 132 38 122 132 38 122 132 38 122 132 38 122 132 38 122 132 255 128 189 255 128 189 255 128 189 38 122 132 38 122 132 38 122 132 38 122 132 38 122 132 38 122 132 38 122 132 38 122 132 38 122 132 38 122 132 38 122 132 38 122 132 38 122 132 38 122 132 255 124 192 255 124 192 255 124 192 38 122 132 38 122 132 38 122 132 38 122 132 38 122 132 38 122 132 38 122 132 38 122 132 38 122 132 38 122 132 38 122 132 38 122 132 38 122 132 38 122 132 38 122 132 38 122 132 38 122 132 38 122 132 38 122 132 38 122 132 38 122 132 38 122 132 38 122 132 38 122 132 255 120 195 255 120 195 255 120 195 38 122 132 38 122 132 38 122 132 38 122 132 38 122 132 38 122 132 38 122 132 38 122 132 38 122 132 38 122 132 38 122 132 38 122 132 38 122 132 38 122 132 38 122 132 38 122 132 38 122 132 38 122 132 38 122 132 38 122 132 38 122 132 38 122 132 38 122 132 38 122 132 38 122 132 38 122 132 38 122 132 38 122 132 38 122 132 38 122 132 38 122 132 38 122 132 38 122 132 38 122 132 38 122 132 38 122 132 38 122 132 38 122 132 38 122 132 38 122 132 38 122 132 38 122 132 38 122 132 38 122 132 38 122 132 38 122 132 38 122 132 38 122 132 38 122 132 38 122 132 38 122 132 38 122 132 38 122 132 38 122 132 38 122 132 38 122 132 38 122 132 38 122 132 38 122 132 38 122 132 38 122 132 38 122 132 38 122 132 38 122 132 38 122 132 38 122 132 38 122 132 38 122 132 38 122 132 38 122 132 38 122 132 38 122 132 38 122 132 38 122 132 38 122 132 38 122 132 38 122 132 38 122 132 38 122 132 38 122 132 38 122 132 38 122 132 38 122 132 38 122 132 38 122 132 38 122 132 38 122 132 38 122 132 38 122 132 38 122 132 38 122 132 38 122 132 38 122 132 38 122 132 38 122 132 38 122 132 38 122 132 38 122 132 38 122 132 38 122 132 38 122 132 38 122 132 38 122 132 38 122 132 38 122 132 38 122 132 38 122 132 38 122 132 38 122 132 38 122 132 38 122 132 38 122 132 38 122 132 38 122 132 38 122 132 38 122 132 38 122 132 38 122 132 
38 121 133 38 121 133 38 121 133 38 121 133 38 121 133 38 121 133 38 121 133 38 121 133 38 121 133 38 121 133 38 121 133 38 121 133 38 121 133 38 121 133 38 121 133 38 121 133 38 121 133 38 121 133 38 121 133 38 121 133 38 121 133 38 121 133 38 121 133 38 121 133 38 121 133 38 121 133 38 121 133 38 121 133 38 121 133 38 121 133 38 121 133 38 121 133 38 121 133 38 121 133 38 121 133 38 121 133 38 121 133 38 121 133 38 121 133 38 121 133 38 121 133 38 121 133 38 121 133 38 121 133 38 121 133 38 121 133 38 121 133 38 121 133 38 121 133 38 121 133 38 121 133 38 121 133 38 121 133 38 121 133 38 121 133 38 121 133 38 121 133 38 121 133 38 121 133 38 121 133 38 121 133 38 121 133 38 121 133 38 121 133 38 121 133 38 121 133 38 121 133 38 121 133 38 121 133 38 121 133 38 121 133 38 121 133 38 121 133 38 121 133 38 121 133 38 121 133 38 121 133 38 121 133 38 121 133 38 121 133 38 121 133 38 121 133 38 121 133 38 121 133 38 121 133 38 121 133 38 121 133 38 121 133 38 121 133 38 121 133 38 121 133 255 255 255 255 255 255 38 121 133 38 121 133 38 121 133 38 121 133 38 121 133 38 121 133 38 121 133 38 121 133 38 121 133 38 121 133 38 121 133 38 121 133 38 121 133 38 121 133 38 121 133 38 121 133 38 121 133 38 121 133 38 121 133 38 121 133 38 121 133 38 121 133 38 121 133 38 121 133 38 121 133 38 121 133 255 152 171 255 152 171 255 152 171 255 152 171 38 121 133 38 121 133 38 121 133 38 121 133 38 121 133 38 121 133 38 121 133 38 121 133 38 121 133 38 121 133 38 121 133 38 121 133 38 121 133 38 121 133 38 121 133 38 121 133 38 121 133 38 121 133 38 121 133 38 121 133 38 121 133 38 121 133 255 148 174 255 148 174 255 148 174 38 121 133 38 121 133 38 121 133 38 121 133 38 121 133 38 121 133 38 121 133 38 121 133 38 121 133 38 121 133 38 121 133 38 121 133 38 121 133 38 121 133 38 121 133 255 144 177 50 10 20 50 10 20 50 10 20 50 10 20 50 10 20 50 10 20 50 10 20 50 10 20 50 10 20 50 10 20 50 10 20 50 10 20 50 10 20 50 10 20 50 10 20 50 10 20 50 10 20 50 10 20 50 10 20 50 10 20 50 10 20 50 10 20 50 10 20 50 10 20 50 10 20 50 10 20 50 10 20 50 10 20 255 120 40 50 10 20 50 10 20 50 10 20 50 10 20 38 121 133 38 121 133 38 121 133 38 121 133 38 121 133 38 121 133 38 121 133 255 132 186 255 132 186 255 132 186 38 121 133 38 121 133 38 121 133 38 121 133 38 121 133 38 121 133 38 121 133 38 121 133 38 121 133 38 121 133 38 121 133 255 128 189 255 128 189 255 128 189 38 121 133 38 121 133 38 121 133 38 121 133 38 121 133 38 121 133 38 121 133 38 121 133 38 121 133 38 121 133 38 121 133 38 121 133 38 121 133 38 121 133 38 121 133 255 124 192 255 124 192 255 124 192 38 121 133 38 121 133 38 121 133 38 121 133 38 121 133 38 121 133 38 121 133 38 121 133 38 121 133 38 121 133 38 121 133 38 121 133 38 121 133 38 121 133 38 121 133 38 121 133 38 121 133 38 121 133 38 121 133 38 121 133 38 121 133 38 121 133 255 120 195 255 120 195 255 120 195 255 120 195 38 121 133 38 121 133 38 121 133 38 121 133 38 121 133 38 121 133 38 121 133 38 121 133 38 121 133 38 121 133 38 121 133 38 121 133 38 121 133 38 121 133 38 121 133 38 121 133 38 121 133 38 121 133 38 121 133 38 121 133 38 121 133 38 121 133 38 121 133 38 121 133 38 121 133 38 121 133 38 121 133 38 121 133 38 121 133 38 121 133 38 121 133 38 121 133 38 121 133 38 121 133 38 121 133 38 121 133 38 121 133 38 121 133 38 121 133 38 121 133 38 121 133 38 121 133 38 121 133 38 121 133 38 121 133 38 121 133 38 121 133 38 121 133 38 121 133 38 121 133 38 121 133 38 121 133 38 121 133 38 121 133 38 121 133 38 121 133 38 121 133 38 121 133 38 121 133 38 121 133 38 121 133 38 121 133 38 121 133 38 121 133 38 121 133 38 121 133 38 121 133 38 121 133 38 121 133 38 121 133 38 121 133 38 121 133 38 121 133 38 121 133 38 121 133 38 121 133 38 121 133 38 121 133 38 121 133 38 121 133 38 121 133 38 121 133 38 121 133 38 121 133 38 121 133 38 121 133 38 121 133 38 121 133 38 121 133 38 121 133 38 121 133 38 121 133 38 121 133 38 121 133 38 121 133 38 121 133 38 121 133 38 121 133 38 121 133 38 121 133 38 121 133 38 121 133 38 121 133 38 121 133 38 121 133 38 121 133 38 121 133 38 121 133 38 121 133 38 121 133 38 121 133 38 121 133 38 121 133 38 121 133 38 121 133 38 121 133 38 121 133 38 121 133 38 121 133 
39 120 134 39 120 134 39 120 134 39 120 134 39 120 134 39 120 134 39 120 134 39 120 134 39 120 134 39 120 134 39 120 134 39 120 134 39 120 134 39 120 134 39 120 134 39 120 134 39 120 134 39 120 134 39 120 134 39 120 134 39 120 134 39 120 134 39 120 134 39 120 134 39 120 134 39 120 134 39 120 134 39 120 134 39 120 134 39 120 134 39 120 134 39 120 134 39 120 134 39 120 134 39 120 134 39 120 134 39 120 134 39 120 134 39 120 134 39 120 134 39 120 134 39 120 134 39 120 134 39 120 134 39 120 134 39 120 134 39 120 134 39 120 134 39 120 134 39 120 134 39 120 134 39 120 134 39 120 134 39 120 134 39 120 134 39 120 134 39 120 134 39 120 134 39 120 134 39 120 134 39 120 134 39 120 134 39 120 134 39 120 134 39 120 134 39 120 134 39 120 134 39 120 134 39 120 134 39 120 134 39 120 134 39 120 134 39 120 134 39 120 134 39 120 134 39 120 134 39 120 134 39 120 134 39 120 134 39 120 134 39 120 134 39 120 134 39 120 134 39 120 134 39 120 134 39 120 134 39 120 134 39 120 134 39 120 134 39 120 134 39 120 134 39 120 134 39 120 134 255 255 255 255 255 255 39 120 134 39 120 134 39 120 134 39 120 134 39 120 134 39 120 134 39 120 134 39 120 134 39 120 134 39 120 134 39 120 134 39 120 134 39 120 134 39 120 134 39 120 134 39 120 134 39 120 134 39 120 134 39 120 134 39 120 134 39 120 134 39 120 134 39 120 134 39 120 134 39 120 134 255 152 171 255 152 171 255 152 171 255 152 171 39 120 134 39 120 134 39 120 134 39 120 134 39 120 134 39 120 134 39 120 134 39 120 134 39 120 134 39 120 134 39 120 134 39 120 134 39 120 134 39 120 134 39 120 134 39 120 134 39 120 134 39 120 134 39 120 134 39 120 134 39 120 134 39 120 134 255 148 174 255 148 174 255 148 174 39 120 134 39 120 134 39 120 134 39 120 134 39 120 134 39 120 134 39 120 134 39 120 134 39 120 134 39 120 134 39 120 134 39 120 134 39 120 134 50 10 20 50 10 20 50 10 20 50 10 20 50 10 20 50 10 20 50 10 20 50 10 20 50 10 20 50 10 20 50 10 20 50 10 20 50 10 20 50 10 20 50 10 20 50 10 20 50 10 20 50 10 20 50 10 20 50 10 20 50 10 20 50 10 20 50 10 20 50 10 20 50 10 20 50 10 20 50 10 20 50 10 20 50 10 20 50 10 20 255 120 40 50 10 20 50 10 20 50 10 20 50 10 20 50 10 20 39 120 134 39 120 134 39 120 134 39 120 134 39 120 134 255 132 186 255 132 186 255 132 186 39 120 134 39 120 134 39 120 134 39 120 134 39 120 134 39 120 134 39 120 134 39 120 134 39 120 134 39 120 134 39 120 134 39 120 134 255 128 189 255 128 189 255 128 189 39 120 134 39 120 134 39 120 134 39 120 134 39 120 134 39 120 134 39 120 134 39 120 134 39 120 134 39 120 134 39 120 134 39 120 134 39 120 134 39 120 134 255 124 192 255 124 192 255 124 192 39 120 134 39 120 134 39 120 134 39 120 134 39 120 134 39 120 134 39 120 134 39 120 134 39 120 134 39 120 134 39 120 134 39 120 134 39 120 134 39 120 134 39 120 134 39 120 134 39 120 134 39 120 134 39 120 134 39 120 134 39 120 134 39 120 134 255 120 195 255 120 195 255 120 195 255 120 195 39 120 134 39 120 134 39 120 134 39 120 134 39 120 134 39 120 134 39 120 134 39 120 134 39 120 134 39 120 134 39 120 134 39 120 134 39 120 134 39 120 134 39 120 134 39 120 134 39 120 134 39 120 134 39 120 134 39 120 134 39 120 134 39 120 134 39 120 134 39 120 134 39 120 134 39 120 134 39 120 134 39 120 134 39 120 134 39 120 134 39 120 134 39 120 134 39 120 134 39 120 134 39 120 134 39 120 134 39 120 134 39 120 134 39 120 134 39 120 134 39 120 134 39 120 134 39 120 134 39 120 134 39 120 134 39 120 134 39 120 134 39 120 134 39 120 134 39 120 134 39 120 134 39 120 134 39 120 134 39 120 134 39 120 134 39 120 134 39 120 134 39 120 134 39 120 134 39 120 134 39 120 134 39 120 134 39 120 134 39 120 134 39 120 134 39 120 134 39 120 134 39 120 134 39 120 134 39 120 134 39 120 134 39 120 134 39 120 134 39 120 134 39 120 134 39 120 134 39 120 134 39 120 134 39 120 134 39 120 134 39 120 134 39 120 134 39 120 134 39 120 134 39 120 134 39 120 134 39 120 134 39 120 134 39 120 134 39 120 134 39 120 134 39 120 134 39 120 134 39 120 134 39 120 134 39 120 134 39 120 134 39 120 134 39 120 134 39 120 134 39 120 134 39 120 134 39 120 134 39 120 134 39 120 134 39 120 134 39 120 134 39 120 134 39 120 134 39 120 134 39 120 134 39 120 134 39 120 134 39 120 134 39 120 134 39 120 134 39 120 134 39 120 134 39 120 134 39 120 134 
39 120 135 39 120 135 39 120 135 39 120 135 39 120 135 39 120 135 39 120 135 39 120 135 39 120 135 39 120 135 39 120 135 39 120 135 39 120 135 39 120 135 39 120 135 39 120 135 39 120 135 39 120 135 39 120 135 39 120 135 39 120 135 39 120 135 39 120 135 39 120 135 39 120 135 39 120 135 39 120 135 39 120 135 39 120 135 39 120 135 39 120 135 39 120 135 39 120 135 39 120 135 39 120 135 39 120 135 39 120 135 39 120 135 39 120 135 39 120 135 39 120 135 39 120 135 39 120 135 39 120 135 39 120 135 39 120 135 39 120 135 39 120 135 39 120 135 39 120 135 39 120 135 39 120 135 39 120 135 39 120 135 39 120 135 39 120 135 39 120 135 39 120 135 39 120 135 39 120 135 39 120 135 39 120 135 39 120 135 39 120 135 39 120 135 39 120 135 39 120 135 39 120 135 39 120 135 39 120 135 39 120 135 39 120 135 39 120 135 39 120 135 39 120 135 39 120 135 39 120 135 39 120 135 39 120 135 39 120 135 39 120 135 39 120 135 39 120 135 39 120 135 39 120 135 39 120 135 39 120 135 39 120 135 39 120 135 39 120 135 39 120 135 39 120 135 39 120 135 39 120 135 39 120 135 255 255 255 39 120 135 39 120 135 39 120 135 39 120 135 39 120 135 39 120 135 39 120 135 39 120 135 39 120 135 39 120 135 39 120 135 39 120 135 39 120 135 39 120 135 39 120 135 39 120 135 39 120 135 39 120 135 39 120 135 39 120 135 39 120 135 39 120 135 39 120 135 39 120 135 39 120 135 39 120 135 255 152 171 255 152 171 255 152 171 39 120 135 39 120 135 39 120 135 39 120 135 39 120 135 39 120 135 39 120 135 39 120 135 39 120 135 39 120 135 39 120 135 39 120 135 39 120 135 39 120 135 39 120 135 39 120 135 39 120 135 39 120 135 39 120 135 39 120 135 39 120 135 39 120 135 255 148 174 255 148 174 255 148 174 39 120 135 39 120 135 39 120 135 39 120 135 39 120 135 39 120 135 39 120 135 39 120 135 39 120 135 39 120 135 50 10 20 50 10 20 50 10 20 50 10 20 50 10 20 50 10 20 50 10 20 50 10 20 50 10 20 50 10 20 50 10 20 50 10 20 50 10 20 50 10 20 50 10 20 50 10 20 50 10 20 50 10 20 50 10 20 50 10 20 50 10 20 50 10 20 50 10 20 50 10 20 50 10 20 50 10 20 50 10 20 50 10 20 50 10 20 50 10 20 50 10 20 50 10 20 255 120 40 50 10 20 50 10 20 50 10 20 50 10 20 50 10 20 39 120 135 39 120 135 39 120 135 39 120 135 39 120 135 255 132 186 255 132 186 255 132 186 39 120 135 39 120 135 39 120 135 39 120 135 39 120 135 39 120 135 39 120 135 39 120 135 39 120 135 39 120 135 39 120 135 255 128 189 255 128 189 255 128 189 39 120 135 39 120 135 39 120 135 39 120 135 39 120 135 39 120 135 39 120 135 39 120 135 39 120 135 39 120 135 39 120 135 39 120 135 39 120 135 39 120 135 255 124 192 255 124 192 255 124 192 39 120 135 39 120 135 39 120 135 39 120 135 39 120 135 39 120 135 39 120 135 39 120 135 39 120 135 39 120 135 39 120 135 39 120 135 39 120 135 39 120 135 39 120 135 39 120 135 39 120 135 39 120 135 39 120 135 39 120 135 39 120 135 39 120 135 255 120 195 255 120 195 255 120 195 255 120 195 39 120 135 39 120 135 39 120 135 39 120 135 39 120 135 39 120 135 39 120 135 39 120 135 39 120 135 39 120 135 39 120 135 39 120 135 39 120 135 39 120 135 39 120 135 39 120 135 39 120 135 39 120 135 39 120 135 39 120 135 39 120 135 39 120 135 39 120 135 39 120 135 39 120 135 39 120 135 39 120 135 39 120 135 39 120 135 39 120 135 39 120 135 39 120 135 39 120 135 39 120 135 39 120 135 39 120 135 39 120 135 39 120 135 255 116 198 255 116 198 39 120 135 39 120 135 39 120 135 39 120 135 39 120 135 39 120 135 39 120 135 39 120 135 39 120 135 39 120 135 39 120 135 39 120 135 39 120 135 39 120 135 39 120 135 39 120 135 39 120 135 39 120 135 39 120 135 39 120 135 39 120 135 39 120 135 39 120 135 39 120 135 39 120 135 39 120 135 39 120 135 39 120 135 39 120 135 39 120 135 39 120 135 39 120 135 39 120 135 39 120 135 39 120 135 39 120 135 39 120 135 39 120 135 39 120 135 39 120 135 39 120 135 39 120 135 39 120 135 39 120 135 39 120 135 39 120 135 39 120 135 39 120 135 39 120 135 39 120 135 39 120 135 39 120 135 39 120 135 39 120 135 39 120 135 39 120 135 39 120 135 39 120 135 39 120 135 39 120 135 39 120 135 39 120 135 39 120 135 39 120 135 39 120 135 39 120 135 39 120 135 39 120 135 39 120 135 39 120 135 39 120 135 39 120 135 39 120 135 39 120 135 39 120 135 39 120 135 39 120 135 39 120 135 39 120 135 39 120 135 39 120 135 
40 119 136 40 119 136 40 119 136 40 119 136 40 119 136 40 119 136 40 119 136 40 119 136 40 119 136 40 119 136 40 119 136 40 119 136 40 119 136 40 119 136 40 119 136 40 119 136 40 119 136 40 119 136 40 119 136 40 119 136 40 119 136 40 119 136 40 119 136 40 119 136 40 119 136 40 119 136 40 119 136 40 119 136 40 119 136 40 119 136 40 119 136 40 119 136 40 119 136 40 119 136 40 119 136 40 119 136 40 119 136 40 119 136 40 119 136 40 119 136 40 119 136 40 119 136 40 119 136 40 119 136 40 119 136 40 119 136 40 119 136 40 119 136 40 119 136 40 119 136 40 119 136 40 119 136 40 119 136 40 119 136 40 119 136 40 119 136 40 119 136 40 119 136 40 119 136 40 119 136 40 119 136 40 119 136 40 119 136 40 119 136 40 119 136 40 119 136 40 119 136 40 119 136 40 119 136 40 119 136 40 119 136 40 119 136 40 119 136 40 119 136 40 119 136 40 119 136 40 119 136 40 119 136 40 119 136 40 119 136 40 119 136 40 119 136 40 119 136 40 119 136 40 119 136 40 119 136 40 119 136 40 119 136 40 119 136 40 119 136 40 119 136 40 119 136 40 119 136 40 119 136 40 119 136 40 119 136 255 255 255 255 255 255 40 119 136 40 119 136 40 119 136 40 119 136 40 119 136 40 119 136 40 119 136 40 119 136 40 119 136 40 119 136 40 119 136 40 119 136 40 119 136 40 119 136 40 119 136 40 119 136 40 119 136 40 119 136 40 119 136 40 119 136 40 119 136 40 119 136 40 119 136 40 119 136 40 119 136 255 152 171 255 152 171 255 152 171 255 152 171 40 119 136 40 119 136 40 119 136 40 119 136 40 119 136 40 119 136 40 119 136 40 119 136 40 119 136 40 119 136 40 119 136 40 119 136 40 119 136 40 119 136 40 119 136 40 119 136 40 119 136 40 119 136 40 119 136 40 119 136 40 119 136 255 148 174 255 148 174 255 148 174 40 119 136 40 119 136 40 119 136 40 119 136 40 119 136 40 119 136 40 119 136 50 10 20 50 10 20 50 10 20 50 10 20 50 10 20 50 10 20 50 10 20 50 10 20 50 10 20 50 10 20 50 10 20 50 10 20 50 10 20 50 10 20 50 10 20 50 10 20 50 10 20 50 10 20 50 10 20 50 10 20 50 10 20 50 10 20 50 10 20 50 10 20 50 10 20 50 10 20 50 10 20 50 10 20 50 10 20 50 10 20 50 10 20 50 10 20 50 10 20 50 10 20 255 120 40 50 10 20 50 10 20 50 10 20 50 10 20 50 10 20 50 10 20 40 119 136 40 119 136 40 119 136 40 119 136 255 132 186 255 132 186 255 132 186 40 119 136 40 119 136 40 119 136 40 119 136 40 119 136 40 119 136 40 119 136 40 119 136 40 119 136 40 119 136 40 119 136 255 128 189 255 128 189 255 128 189 40 119 136 40 119 136 40 119 136 40 119 136 40 119 136 40 119 136 40 119 136 40 119 136 40 119 136 40 119 136 40 119 136 40 119 136 40 119 136 255 124 192 255 124 192 255 124 192 40 119 136 40 119 136 40 119 136 40 119 136 40 119 136 40 119 136 40 119 136 40 119 136 40 119 136 40 119 136 40 119 136 40 119 136 40 119 136 40 119 136 40 119 136 40 119 136 40 119 136 40 119 136 40 119 136 40 119 136 40 119 136 40 119 136 255 120 195 255 120 195 255 120 195 40 119 136 40 119 136 40 119 136 40 119 136 40 119 136 40 119 136 40 119 136 40 119 136 40 119 136 40 119 136 40 119 136 40 119 136 40 119 136 40 119 136 40 119 136 40 119 136 40 119 136 40 119 136 40 119 136 40 119 136 40 119 136 40 119 136 40 119 136 40 119 136 40 119 136 40 119 136 40 119 136 40 119 136 40 119 136 40 119 136 40 119 136 40 119 136 40 119 136 40 119 136 40 119 136 40 119 136 40 119 136 40 119 136 255 116 198 255 116 198 255 116 198 255 116 198 40 119 136 40 119 136 40 119 136 40 119 136 40 119 136 40 119 136 40 119 136 40 119 136 40 119 136 40 119 136 40 119 136 40 119 136 40 119 136 40 119 136 40 119 136 40 119 136 40 119 136 40 119 136 40 119 136 40 119 136 40 119 136 40 119 136 40 119 136 40 119 136 40 119 136 40 119 136 40 119 136 40 119 136 40 119 136 40 119 136 40 119 136 40 119 136 40 119 136 40 119 136 40 119 136 40 119 136 40 119 136 40 119 136 40 119 136 40 119 136 40 119 136 40 119 136 40 119 136 40 119 136 40 119 136 40 119 136 40 119 136 40 119 136 40 119 136 40 119 136 40 119 136 40 119 136 40 119 136 40 119 136 40 119 136 40 119 136 40 119 136 40 119 136 40 119 136 40 119 136 40 119 136 40 119 136 40 119 136 40 119 136 40 119 136 40 119 136 40 119 136 40 119 136 40 119 136 40 119 136 40 119 136 40 119 136 40 119 136 40 119 136 40 119 136 40 119 136 40 119 136 40 119 136 40 119 136 40 119 136 40 119 136 
40 119 136 40 119 136 40 119 136 40 119 136 40 119 136 40 119 136 40 119 136 40 119 136 40 119 136 40 119 136 40 119 136 40 119 136 40 119 136 40 119 136 40 119 136 40 119 136 40 119 136 40 119 136 40 119 136 40 119 136 40 119 136 40 119 136 40 119 136 40 119 136 40 119 136 40 119 136 40 119 136 40 119 136 40 119 136 40 119 136 40 119 136 40 119 136 40 119 136 40 119 136 40 119 136 40 119 136 40 119 136 40 119 136 40 119 136 40 119 136 40 119 136 40 119 136 40 119 136 40 119 136 40 119 136 40 119 136 40 119 136 40 119 136 40 119 136 40 119 136 40 119 136 40 119 136 40 119 136 40 119 136 40 119 136 40 119 136 40 119 136 40 119 136 40 119 136 40 119 136 40 119 136 40 119 136 40 119 136 40 119 136 40 119 136 40 119 136 40 119 136 40 119 136 40 119 136 40 119 136 40 119 136 40 119 136 40 119 136 40 119 136 40 119 136 40 119 136 40 119 136 40 119 136 40 119 136 40 119 136 40 119 136 40 119 136 40 119 136 40 119 136 40 119 136 40 119 136 40 119 136 40 119 136 40 119 136 40 119 136 40 119 136 40 119 136 40 119 136 40 119 136 40 119 136 40 119 136 40 119 136 40 119 136 255 255 255 255 255 255 40 119 136 40 119 136 40 119 136 40 119 136 40 119 136 40 119 136 40 119 136 40 119 136 40 119 136 40 119 136 40 119 136 40 119 136 40 119 136 40 119 136 40 119 136 40 119 136 40 119 136 40 119 136 40 119 136 40 119 136 40 119 136 40 119 136 40 119 136 40 119 136 255 152 171 255 152 171 255 152 171 255 152 171 40 119 136 40 119 136 40 119 136 40 119 136 40 119 136 40 119 136 40 119 136 40 119 136 40 119 136 40 119 136 40 119 136 40 119 136 40 119 136 40 119 136 40 119 136 40 119 136 40 119 136 40 119 136 40 119 136 40 119 136 255 148 174 255 148 174 255 148 174 40 119 136 40 119 136 40 119 136 40 119 136 40 119 136 50 10 20 50 10 20 50 10 20 50 10 20 50 10 20 50 10 20 50 10 20 50 10 20 50 10 20 50 10 20 50 10 20 50 10 20 50 10 20 50 10 20 50 10 20 50 10 20 50 10 20 50 10 20 50 10 20 50 10 20 50 10 20 50 10 20 50 10 20 50 10 20 50 10 20 50 10 20 50 10 20 50 10 20 50 10 20 50 10 20 50 10 20 50 10 20 50 10 20 50 10 20 50 10 20 50 10 20 255 120 40 50 10 20 50 10 20 50 10 20 50 10 20 50 10 20 50 10 20 40 119 136 40 119 136 40 119 136 40 119 136 255 132 186 255 132 186 255 132 186 40 119 136 40 119 136 40 119 136 40 119 136 40 119 136 40 119 136 40 119 136 40 119 136 40 119 136 40 119 136 255 128 189 255 128 189 255 128 189 40 119 136 40 119 136 40 119 136 40 119 136 40 119 136 40 119 136 40 119 136 40 119 136 40 119 136 40 119 136 40 119 136 40 119 136 40 119 136 255 124 192 255 124 192 255 124 192 40 119 136 40 119 136 40 119 136 40 119 136 40 119 136 40 119 136 40 119 136 40 119 136 40 119 136 40 119 136 40 119 136 40 119 136 40 119 136 40 119 136 40 119 136 40 119 136 40 119 136 40 119 136 40 119 136 40 119 136 40 119 136 255 120 195 255 120 195 255 120 195 255 120 195 40 119 136 40 119 136 40 119 136 40 119 136 40 119 136 40 119 136 40 119 136 40 119 136 40 119 136 40 119 136 40 119 136 40 119 136 40 119 136 40 119 136 40 119 136 40 119 136 40 119 136 40 119 136 40 119 136 40 119 136 40 119 136 40 119 136 40 119 136 40 119 136 40 119 136 40 119 136 40 119 136 40 119 136 40 119 136 40 119 136 40 119 136 40 119 136 40 119 136 40 119 136 40 119 136 40 119 136 40 119 136 255 116 198 255 116 198 255 116 198 255 116 198 255 116 198 255 116 198 40 119 136 40 119 136 40 119 136 40 119 136 40 119 136 40 119 136 40 119 136 40 119 136 40 119 136 40 119 136 40 119 136 40 119 136 40 119 136 40 119 136 40 119 136 40 119 136 40 119 136 40 119 136 40 119 136 40 119 136 40 119 136 40 119 136 40 119 136 40 119 136 40 119 136 40 119 136 40 119 136 40 119 136 40 119 136 40 119 136 40 119 136 40 119 136 40 119 136 40 119 136 40 119 136 40 119 136 40 119 136 40 119 136 40 119 136 40 119 136 40 119 136 40 119 136 40 119 136 40 119 136 40 119 136 40 119 136 40 119 136 40 119 136 40 119 136 40 119 136 40 119 136 40 119 136 40 119 136 40 119 136 40 119 136 40 119 136 40 119 136 40 119 136 40 119 136 40 119 136 40 119 136 40 119 136 40 119 136 40 119 136 40 119 136 40 119 136 40 119 136 40 119 136 40 119 136 40 119 136 40 119 136 40 119 136 40 119 136 40 119 136 40 119 136 40 119 136 40 119 136 40 119 136 40 119 136 40 119 136 40 119 136 
40 118 137 40 118 137 40 118 137 40 118 137 40 118 137 40 118 137 40 118 137 40 118 137 40 118 137 40 118 137 40 118 137 40 118 137 40 118 137 40 118 137 40 118 137 40 118 137 40 118 137 40 118 137 40 118 137 40 118 137 40 118 137 40 118 137 40 118 137 40 118 137 40 118 137 40 118 137 40 118 137 40 118 137 40 118 137 40 118 137 40 118 137 40 118 137 40 118 137 40 118 137 40 118 137 40 118 137 40 118 137 40 118 137 40 118 137 40 118 137 40 118 137 40 118 137 40 118 137 40 118 137 40 118 137 40 118 137 40 118 137 40 118 137 40 118 137 40 118 137 40 118 137 40 118 137 40 118 137 40 118 137 40 118 137 40 118 137 40 118 137 40 118 137 40 118 137 40 118 137 40 118 137 40 118 137 40 118 137 40 118 137 40 118 137 40 118 137 40 118 137 40 118 137 40 118 137 40 118 137 40 118 137 40 118 137 40 118 137 40 118 137 40 118 137 40 118 137 40 118 137 40 118 137 40 118 137 40 118 137 40 118 137 40 118 137 40 118 137 40 118 137 40 118 137 40 118 137 40 118 137 40 118 137 40 118 137 40 118 137 40 118 137 40 118 137 40 118 137 40 118 137 40 118 137 40 118 137 40 118 137 40 118 137 40 118 137 40 118 137 255 255 255 255 255 255 40 118 137 40 118 137 40 118 137 40 118 137 40 118 137 40 118 137 40 118 137 40 118 137 40 118 137 40 118 137 40 118 137 40 118 137 40 118 137 40 118 137 40 118 137 40 118 137 40 118 137 40 118 137 40 118 137 40 118 137 40 118 137 40 118 137 40 118 137 255 152 171 255 152 171 255 152 171 255 152 171 40 118 137 40 118 137 40 118 137 40 118 137 40 118 137 40 118 137 40 118 137 40 118 137 40 118 137 40 118 137 40 118 137 40 118 137 40 118 137 40 118 137 40 118 137 40 118 137 40 118 137 40 118 137 40 118 137 40 118 137 255 148 174 255 148 174 255 148 174 40 118 137 50 10 20 50 10 20 50 10 20 50 10 20 50 10 20 50 10 20 50 10 20 50 10 20 50 10 20 50 10 20 50 10 20 50 10 20 50 10 20 50 10 20 50 10 20 50 10 20 50 10 20 50 10 20 50 10 20 50 10 20 50 10 20 50 10 20 50 10 20 50 10 20 50 10 20 50 10 20 50 10 20 50 10 20 50 10 20 50 10 20 50 10 20 50 10 20 50 10 20 50 10 20 50 10 20 50 10 20 50 10 20 50 10 20 50 10 20 255 120 40 50 10 20 50 10 20 50 10 20 50 10 20 50 10 20 50 10 20 40 118 137 40 118 137 40 118 137 40 118 137 255 132 186 255 132 186 255 132 186 40 118 137 40 118 137 40 118 137 40 118 137 40 118 137 40 118 137 40 118 137 40 118 137 40 118 137 40 118 137 255 128 189 255 128 189 255 128 189 40 118 137 40 118 137 40 118 137 40 118 137 40 118 137 40 118 137 40 118 137 40 118 137 40 118 137 40 118 137 40 118 137 40 118 137 40 118 137 255 124 192 255 124 192 255 124 192 40 118 137 40 118 137 40 118 137 40 118 137 40 118 137 40 118 137 40 118 137 40 118 137 40 118 137 40 118 137 40 118 137 40 118 137 40 118 137 40 118 137 40 118 137 40 118 137 40 118 137 40 118 137 40 118 137 40 118 137 255 120 195 255 120 195 255 120 195 255 120 195 40 118 137 40 118 137 40 118 137 40 118 137 40 118 137 40 118 137 40 118 137 40 118 137 40 118 137 40 118 137 40 118 137 40 118 137 40 118 137 40 118 137 40 118 137 40 118 137 40 118 137 40 118 137 40 118 137 40 118 137 40 118 137 40 118 137 40 118 137 40 118 137 40 118 137 40 118 137 40 118 137 40 118 137 40 118 137 40 118 137 40 118 137 40 118 137 40 118 137 40 118 137 40 118 137 40 118 137 255 116 198 255 116 198 255 116 198 255 116 198 255 116 198 255 116 198 40 118 137 40 118 137 40 118 137 40 118 137 40 118 137 40 118 137 40 118 137 40 118 137 40 118 137 40 118 137 40 118 137 40 118 137 40 118 137 40 118 137 40 118 137 40 118 137 40 118 137 40 118 137 40 118 137 40 118 137 40 118 137 40 118 137 40 118 137 40 118 137 40 118 137 40 118 137 40 118 137 40 118 137 40 118 137 40 118 137 40 118 137 40 118 137 40 118 137 40 118 137 40 118 137 40 118 137 40 118 137 40 118 137 40 118 137 40 118 137 40 118 137 40 118 137 40 118 137 40 118 137 40 118 137 40 118 137 40 118 137 40 118 137 40 118 137 40 118 137 40 118 137 40 118 137 40 118 137 40 118 137 40 118 137 40 118 137 40 118 137 40 118 137 40 118 137 40 118 137 40 118 137 40 118 137 40 118 137 40 118 137 40 118 137 40 118 137 40 118 137 40 118 137 40 118 137 40 118 137 40 118 137 40 118 137 40 118 137 40 118 137 40 118 137 40 118 137 40 118 137 40 118 137 40 118 137 40 118 137 40 118 137 40 118 137 40 118 137 
41 118 138 41 118 138 41 118 138 41 118 138 41 118 138 41 118 138 41 118 138 41 118 138 41 118 138 41 118 138 41 118 138 41 118 138 41 118 138 41 118 138 41 118 138 41 118 138 41 118 138 41 118 138 41 118 138 41 118 138 41 118 138 41 118 138 41 118 138 41 118 138 41 118 138 41 118 138 41 118 138 41 118 138 41 118 138 41 118 138 41 118 138 41 118 138 41 118 138 41 118 138 41 118 138 41 118 138 41 118 138 41 118 138 41 118 138 41 118 138 41 118 138 41 118 138 41 118 138 41 118 138 41 118 138 41 118 138 41 118 138 41 118 138 41 118 138 41 118 138 41 118 138 41 118 138 41 118 138 41 118 138 41 118 138 41 118 138 41 118 138 41 118 138 41 118 138 41 118 138 41 118 138 41 118 138 41 118 138 41 118 138 41 118 138 41 118 138 41 118 138 41 118 138 41 118 138 41 118 138 41 118 138 41 118 138 41 118 138 41 118 138 41 118 138 41 118 138 41 118 138 41 118 138 41 118 138 41 118 138 41 118 138 41 118 138 41 118 138 41 118 138 41 118 138 41 118 138 41 118 138 41 118 138 41 118 138 41 118 138 41 118 138 41 118 138 41 118 138 41 118 138 41 118 138 41 118 138 41 118 138 41 118 138 41 118 138 41 118 138 41 118 138 41 118 138 255 255 255 255 255 255 41 118 138 41 118 138 41 118 138 41 118 138 41 118 138 41 118 138 41 118 138 41 118 138 41 118 138 41 118 138 41 118 138 41 118 138 41 118 138 41 118 138 41 118 138 41 118 138 41 118 138 41 118 138 41 118 138 41 118 138 41 118 138 41 118 138 41 118 138 255 152 171 255 152 171 255 152 171 41 118 138 41 118 138 41 118 138 41 118 138 41 118 138 41 118 138 41 118 138 41 118 138 41 118 138 41 118 138 41 118 138 41 118 138 41 118 138 41 118 138 41 118 138 41 118 138 41 118 138 41 118 138 41 118 138 41 118 138 255 148 174 50 10 20 50 10 20 50 10 20 50 10 20 50 10 20 50 10 20 50 10 20 50 10 20 50 10 20 50 10 20 50 10 20 50 10 20 50 10 20 50 10 20 50 10 20 50 10 20 50 10 20 50 10 20 50 10 20 50 10 20 50 10 20 50 10 20 50 10 20 50 10 20 50 10 20 50 10 20 50 10 20 50 10 20 50 10 20 50 10 20 50 10 20 50 10 20 50 10 20 50 10 20 50 10 20 50 10 20 50 10 20 50 10 20 50 10 20 50 10 20 50 10 20 255 120 40 50 10 20 50 10 20 50 10 20 50 10 20 50 10 20 50 10 20 50 10 20 41 118 138 41 118 138 255 132 186 255 132 186 255 132 186 41 118 138 41 118 138 41 118 138 41 118 138 41 118 138 41 118 138 41 118 138 41 118 138 41 118 138 41 118 138 255 128 189 255 128 189 255 128 189 41 118 138 41 118 138 41 118 138 41 118 138 41 118 138 41 118 138 41 118 138 41 118 138 41 118 138 41 118 138 41 118 138 41 118 138 41 118 138 255 124 192 255 124 192 255 124 192 41 118 138 41 118 138 41 118 138 41 118 138 41 118 138 41 118 138 41 118 138 41 118 138 41 118 138 41 118 138 41 118 138 41 118 138 41 118 138 41 118 138 41 118 138 41 118 138 41 118 138 41 118 138 41 118 138 41 118 138 255 120 195 255 120 195 255 120 195 255 120 195 41 118 138 41 118 138 41 118 138 41 118 138 41 118 138 41 118 138 41 118 138 41 118 138 41 118 138 41 118 138 41 118 138 41 118 138 41 118 138 41 118 138 41 118 138 41 118 138 41 118 138 41 118 138 41 118 138 41 118 138 41 118 138 41 118 138 41 118 138 41 118 138 41 118 138 41 118 138 41 118 138 41 118 138 41 118 138 41 118 138 41 118 138 41 118 138 41 118 138 41 118 138 41 118 138 255 116 198 255 116 198 255 116 198 255 116 198 255 116 198 255 116 198 41 118 138 41 118 138 41 118 138 41 118 138 41 118 138 41 118 138 41 118 138 41 118 138 41 118 138 41 118 138 41 118 138 41 118 138 41 118 138 41 118 138 41 118 138 41 118 138 41 118 138 41 118 138 41 118 138 41 118 138 41 118 138 41 118 138 41 118 138 41 118 138 41 118 138 41 118 138 41 118 138 41 118 138 41 118 138 41 118 138 41 118 138 41 118 138 41 118 138 41 118 138 41 118 138 41 118 138 41 118 138 41 118 138 41 118 138 41 118 138 41 118 138 41 118 138 41 118 138 41 118 138 41 118 138 41 118 138 41 118 138 41 118 138 41 118 138 41 118 138 41 118 138 41 118 138 41 118 138 41 118 138 41 118 138 41 118 138 41 118 138 41 118 138 41 118 138 41 118 138 41 118 138 41 118 138 41 118 138 41 118 138 41 118 138 41 118 138 41 118 138 41 118 138 41 118 138 41 118 138 41 118 138 41 118 138 41 118 138 41 118 138 41 118 138 41 118 138 41 118 138 41 118 138 41 118 138 41 118 138 41 118 138 41 118 138 41 118 138 41 118 138 41 118 138 
41 117 139 41 117 139 41 117 139 41 117 139 41 117 139 41 117 139 41 117 139 41 117 139 41 117 139 41 117 139 41 117 139 41 117 139 41 117 139 41 117 139 41 117 139 41 117 139 41 117 139 41 117 139 41 117 139 41 117 139 41 117 139 41 117 139 41 117 139 41 117 139 41 117 139 41 117 139 41 117 139 41 117 139 41 117 139 41 117 139 41 117 139 41 117 139 41 117 139 41 117 139 41 117 139 41 117 139 41 117 139 41 117 139 41 117 139 41 117 139 41 117 139 41 117 139 41 117 139 41 117 139 41 117 139 41 117 139 41 117 139 41 117 139 41 117 139 41 117 139 41 117 139 41 117 139 41 117 139 41 117 139 41 117 139 41 117 139 41 117 139 41 117 139 41 117 139 41 117 139 41 117 139 41 117 139 41 117 139 41 117 139 41 117 139 41 117 139 41 117 139 41 117 139 41 117 139 41 117 139 41 117 139 41 117 139 41 117 139 41 117 139 41 117 139 41 117 139 41 117 139 41 117 139 41 117 139 41 117 139 41 117 139 41 117 139 41 117 139 41 117 139 41 117 139 41 117 139 41 117 139 41 117 139 41 117 139 41 117 139 41 117 139 41 117 139 41 117 139 41 117 139 41 117 139 41 117 139 41 117 139 41 117 139 41 117 139 41 117 139 41 117 139 41 117 139 41 117 139 41 117 139 255 255 255 41 117 139 41 117 139 41 117 139 41 117 139 41 117 139 41 117 139 41 117 139 41 117 139 41 117 139 41 117 139 41 117 139 41 117 139 41 117 139 41 117 139 41 117 139 41 117 139 41 117 139 41 117 139 41 117 139 41 117 139 41 117 139 41 117 139 41 117 139 255 152 171 255 152 171 255 152 171 255 152 171 41 117 139 41 117 139 41 117 139 41 117 139 41 117 139 41 117 139 41 117 139 41 117 139 41 117 139 41 117 139 41 117 139 41 117 139 41 117 139 41 117 139 41 117 139 41 117 139 41 117 139 50 10 20 50 10 20 50 10 20 50 10 20 50 10 20 50 10 20 50 10 20 50 10 20 50 10 20 50 10 20 50 10 20 50 10 20 50 10 20 50 10 20 50 10 20 50 10 20 50 10 20 50 10 20 50 10 20 50 10 20 50 10 20 50 10 20 50 10 20 50 10 20 50 10 20 50 10 20 50 10 20 50 10 20 50 10 20 50 10 20 50 10 20 50 10 20 50 10 20 50 10 20 50 10 20 50 10 20 50 10 20 50 10 20 50 10 20 50 10 20 50 10 20 50 10 20 50 10 20 255 120 40 50 10 20 50 10 20 50 10 20 50 10 20 50 10 20 50 10 20 50 10 20 41 117 139 41 117 139 255 132 186 255 132 186 255 132 186 41 117 139 41 117 139 41 117 139 41 117 139 41 117 139 41 117 139 41 117 139 41 117 139 41 117 139 41 117 139 255 128 189 255 128 189 255 128 189 41 117 139 41 117 139 41 117 139 41 117 139 41 117 139 41 117 139 41 117 139 41 117 139 41 117 139 41 117 139 41 117 139 41 117 139 255 124 192 255 124 192 255 124 192 41 117 139 41 117 139 41 117 139 41 117 139 41 117 139 41 117 139 41 117 139 41 117 139 41 117 139 41 117 139 41 117 139 41 117 139 41 117 139 41 117 139 41 117 139 41 117 139 41 117 139 41 117 139 41 117 139 41 117 139 255 120 195 255 120 195 255 120 195 41 117 139 41 117 139 41 117 139 41 117 139 41 117 139 41 117 139 41 117 139 41 117 139 41 117 139 41 117 139 41 117 139 41 117 139 41 117 139 41 117 139 41 117 139 41 117 139 41 117 139 41 117 139 41 117 139 41 117 139 41 117 139 41 117 139 41 117 139 41 117 139 41 117 139 41 117 139 41 117 139 41 117 139 41 117 139 41 117 139 41 117 139 41 117 139 41 117 139 41 117 139 41 117 139 255 116 198 255 116 198 255 116 198 255 116 198 255 116 198 255 116 198 41 117 139 41 117 139 41 117 139 41 117 139 41 117 139 41 117 139 41 117 139 41 117 139 41 117 139 41 117 139 41 117 139 41 117 139 41 117 139 41 117 139 41 117 139 41 117 139 41 117 139 41 117 139 41 117 139 41 117 139 41 117 139 41 117 139 41 117 139 41 117 139 41 117 139 41 117 139 41 117 139 41 117 139 41 117 139 41 117 139 41 117 139 41 117 139 41 117 139 41 117 139 41 117 139 41 117 139 41 117 139 41 117 139 41 117 139 41 117 139 41 117 139 41 117 139 41 117 139 41 117 139 41 117 139 41 117 139 41 117 139 41 117 139 41 117 139 41 117 139 41 117 139 41 117 139 41 117 139 41 117 139 41 117 139 41 117 139 41 117 139 41 117 139 41 117 139 41 117 139 41 117 139 41 117 139 41 117 139 41 117 139 41 117 139 41 117 139 41 117 139 41 117 139 41 117 139 41 117 139 41 117 139 41 117 139 41 117 139 41 117 139 41 117 139 41 117 139 41 117 139 41 117 139 41 117 139 41 117 139 41 117 139 41 117 139 41 117 139 41 117 139 41 117 139 41 117 139 41 117 139 
41 117 140 41 117 140 41 117 140 41 117 140 41 117 140 41 117 140 41 117 140 41 117 140 41 117 140 41 117 140 41 117 140 41 117 140 41 117 140 41 117 140 41 117 140 41 117 140 41 117 140 41 117 140 41 117 140 41 117 140 41 117 140 41 117 140 41 117 140 41 117 140 41 117 140 41 117 140 41 117 140 41 117 140 41 117 140 41 117 140 41 117 140 41 117 140 41 117 140 41 117 140 41 117 140 41 117 140 41 117 140 41 117 140 41 117 140 41 117 140 41 117 140 41 117 140 41 117 140 41 117 140 41 117 140 41 117 140 41 117 140 41 117 140 41 117 140 41 117 140 41 117 140 41 117 140 41 117 140 41 117 140 41 117 140 41 117 140 41 117 140 41 117 140 41 117 140 41 117 140 41 117 140 41 117 140 41 117 140 41 117 140 41 117 140 41 117 140 41 117 140 41 117 140 41 117 140 41 117 140 41 117 140 41 117 140 41 117 140 41 117 140 41 117 140 41 117 140 41 117 140 41 117 140 41 117 140 41 117 140 41 117 140 41 117 140 41 117 140 41 117 140 41 117 140 41 117 140 41 117 140 41 117 140 41 117 140 41 117 140 41 117 140 41 117 140 41 117 140 41 117 140 41 117 140 41 117 140 41 117 140 41 117 140 41 117 140 41 117 140 41 117 140 41 117 140 41 117 140 41 117 140 41 117 140 255 255 255 255 255 255 41 117 140 41 117 140 41 117 140 41 117 140 41 117 140 41 117 140 41 117 140 41 117 140 41 117 140 41 117 140 41 117 140 41 117 140 41 117 140 41 117 140 41 117 140 41 117 140 41 117 140 41 117 140 41 117 140 41 117 140 41 117 140 41 117 140 255 152 171 255 152 171 255 152 171 255 152 171 41 117 140 41 117 140 41 117 140 41 117 140 41 117 140 41 117 140 41 117 140 41 117 140 41 117 140 41 117 140 41 117 140 41 117 140 41 117 140 41 117 140 50 10 20 50 10 20 50 10 20 50 10 20 50 10 20 50 10 20 50 10 20 50 10 20 50 10 20 50 10 20 50 10 20 50 10 20 50 10 20 50 10 20 50 10 20 50 10 20 50 10 20 50 10 20 50 10 20 50 10 20 50 10 20 50 10 20 50 10 20 50 10 20 50 10 20 50 10 20 50 10 20 50 10 20 50 10 20 50 10 20 50 10 20 50 10 20 50 10 20 50 10 20 50 10 20 50 10 20 50 10 20 50 10 20 50 10 20 50 10 20 50 10 20 50 10 20 50 10 20 50 10 20 50 10 20 255 120 40 50 10 20 50 10 20 50 10 20 50 10 20 50 10 20 50 10 20 50 10 20 41 117 140 41 117 140 255 132 186 255 132 186 255 132 186 41 117 140 41 117 140 41 117 140 41 117 140 41 117 140 41 117 140 41 117 140 41 117 140 41 117 140 255 128 189 255 128 189 255 128 189 41 117 140 41 117 140 41 117 140 41 117 140 41 117 140 41 117 140 41 117 140 41 117 140 41 117 140 41 117 140 41 117 140 41 117 140 255 124 192 255 124 192 255 124 192 41 117 140 41 117 140 41 117 140 41 117 140 41 117 140 41 117 140 41 117 140 41 117 140 41 117 140 41 117 140 41 117 140 41 117 140 41 117 140 41 117 140 41 117 140 41 117 140 41 117 140 41 117 140 41 117 140 255 120 195 255 120 195 255 120 195 255 120 195 41 117 140 41 117 140 41 117 140 41 117 140 41 117 140 41 117 140 41 117 140 41 117 140 41 117 140 41 117 140 41 117 140 41 117 140 41 117 140 41 117 140 41 117 140 41 117 140 41 117 140 41 117 140 41 117 140 41 117 140 41 117 140 41 117 140 41 117 140 41 117 140 41 117 140 41 117 140 41 117 140 41 117 140 41 117 140 41 117 140 41 117 140 41 117 140 41 117 140 41 117 140 255 116 198 255 116 198 255 116 198 255 116 198 255 116 198 255 116 198 41 117 140 41 117 140 41 117 140 41 117 140 41 117 140 41 117 140 41 117 140 41 117 140 41 117 140 41 117 140 41 117 140 41 117 140 41 117 140 41 117 140 41 117 140 41 117 140 41 117 140 41 117 140 41 117 140 41 117 140 41 117 140 41 117 140 41 117 140 41 117 140 41 117 140 41 117 140 41 117 140 41 117 140 41 117 140 41 117 140 41 117 140 41 117 140 41 117 140 41 117 140 41 117 140 41 117 140 41 117 140 41 117 140 41 117 140 41 117 140 41 117 140 41 117 140 41 117 140 41 117 140 41 117 140 41 117 140 41 117 140 41 117 140 41 117 140 41 117 140 41 117 140 41 117 140 41 117 140 41 117 140 41 117 140 41 117 140 41 117 140 41 117 140 41 117 140 41 117 140 41 117 140 41 117 140 41 117 140 41 117 140 41 117 140 41 117 140 41 117 140 41 117 140 41 117 140 41 117 140 41 117 140 41 117 140 41 117 140 41 117 140 41 117 140 41 117 140 41 117 140 41 117 140 41 117 140 41 117 140 41 117 140 41 117 140 41 117 140 41 117 140 41 117 140 41 117 140 41 117 140 41 117 140 41 117 140 
42 116 140 42 116 140 42 116 140 42 116 140 42 116 140 42 116 140 42 116 140 42 116 140 42 116 140 42 116 140 42 116 140 42 116 140 42 116 140 42 116 140 42 116 140 42 116 140 42 116 140 42 116 140 42 116 140 42 116 140 42 116 140 42 116 140 42 116 140 42 116 140 42 116 140 42 116 140 42 116 140 42 116 140 42 116 140 42 116 140 42 116 140 42 116 140 42 116 140 42 116 140 42 116 140 42 116 140 42 116 140 42 116 140 42 116 140 42 116 140 42 116 140 42 116 140 42 116 140 42 116 140 42 116 140 42 116 140 42 116 140 42 116 140 42 116 140 42 116 140 42 116 140 42 116 140 42 116 140 42 116 140 42 116 140 42 116 140 42 116 140 42 116 140 42 116 140 42 116 140 42 116 140 42 116 140 42 116 140 42 116 140 42 116 140 42 116 140 42 116 140 42 116 140 42 116 140 42 116 140 42 116 140 42 116 140 42 116 140 42 116 140 42 116 140 42 116 140 42 116 140 42 116 140 42 116 140 42 116 140 42 116 140 42 116 140 42 116 140 42 116 140 42 116 140 42 116 140 42 116 140 42 116 140 42 116 140 42 116 140 42 116 140 42 116 140 42 116 140 42 116 140 42 116 140 42 116 140 42 116 140 42 116 140 42 116 140 42 116 140 42 116 140 42 116 140 42 116 140 42 116 140 42 116 140 42 116 140 42 116 140 255 255 255 255 255 255 42 116 140 42 116 140 42 116 140 42 116 140 42 116 140 42 116 140 42 116 140 42 116 140 42 116 140 42 116 140 42 116 140 42 116 140 42 116 140 42 116 140 42 116 140 42 116 140 42 116 140 42 116 140 42 116 140 42 116 140 42 116 140 255 152 171 255 152 171 255 152 171 255 152 171 42 116 140 42 116 140 42 116 140 42 116 140 42 116 140 42 116 140 42 116 140 42 116 140 42 116 140 42 116 140 42 116 140 50 10 20 50 10 20 50 10 20 50 10 20 50 10 20 50 10 20 50 10 20 50 10 20 50 10 20 50 10 20 50 10 20 50 10 20 50 10 20 50 10 20 50 10 20 50 10 20 50 10 20 50 10 20 50 10 20 50 10 20 50 10 20 50 10 20 50 10 20 50 10 20 50 10 20 50 10 20 50 10 20 50 10 20 50 10 20 50 10 20 50 10 20 50 10 20 50 10 20 50 10 20 50 10 20 50 10 20 50 10 20 50 10 20 50 10 20 50 10 20 50 10 20 50 10 20 50 10 20 50 10 20 50 10 20 50 10 20 50 10 20 255 120 40 50 10 20 50 10 20 50 10 20 50 10 20 50 10 20 50 10 20 50 10 20 50 10 20 42 116 140 255 132 186 255 132 186 255 132 186 42 116 140 42 116 140 42 116 140 42 116 140 42 116 140 42 116 140 42 116 140 42 116 140 42 116 140 255 128 189 255 128 189 255 128 189 42 116 140 42 116 140 42 116 140 42 116 140 42 116 140 42 116 140 42 116 140 42 116 140 42 116 140 42 116 140 42 116 140 42 116 140 255 124 192 255 124 192 255 124 192 42 116 140 42 116 140 42 116 140 42 116 140 42 116 140 42 116 140 42 116 140 42 116 140 42 116 140 42 116 140 42 116 140 42 116 140 42 116 140 42 116 140 42 116 140 42 116 140 42 116 140 42 116 140 255 120 195 255 120 195 255 120 195 255 120 195 42 116 140 42 116 140 42 116 140 42 116 140 42 116 140 42 116 140 42 116 140 42 116 140 42 116 140 42 116 140 42 116 140 42 116 140 42 116 140 42 116 140 42 116 140 42 116 140 42 116 140 42 116 140 42 116 140 42 116 140 42 116 140 42 116 140 42 116 140 42 116 140 42 116 140 42 116 140 42 116 140 42 116 140 42 116 140 42 116 140 42 116 140 42 116 140 42 116 140 255 116 198 255 116 198 255 116 198 255 116 198 255 116 198 255 116 198 42 116 140 42 116 140 42 116 140 42 116 140 42 116 140 42 116 140 42 116 140 42 116 140 42 116 140 42 116 140 42 116 140 42 116 140 42 116 140 42 116 140 42 116 140 42 116 140 42 116 140 42 116 140 42 116 140 42 116 140 42 116 140 42 116 140 42 116 140 42 116 140 42 116 140 42 116 140 42 116 140 42 116 140 42 116 140 42 116 140 42 116 140 42 116 140 42 116 140 42 116 140 42 116 140 42 116 140 42 116 140 42 116 140 42 116 140 42 116 140 42 116 140 42 116 140 42 116 140 42 116 140 42 116 140 42 116 140 42 116 140 42 116 140 42 116 140 42 116 140 42 116 140 42 116 140 42 116 140 42 116 140 42 116 140 42 116 140 42 116 140 42 116 140 42 116 140 42 116 140 42 116 140 42 116 140 42 116 140 42 116 140 42 116 140 42 116 140 42 116 140 42 116 140 42 116 140 42 116 140 42 116 140 42 116 140 42 116 140 42 116 140 42 116 140 42 116 140 42 116 140 42 116 140 42 116 140 42 116 140 42 116 140 42 116 140 42 116 140 42 116 140 42 116 140 42 116 140 42 116 140 42 116 140 42 116 140 42 116 140 42 116 140 
42 115 141 42 115 141 42 115 141 42 115 141 42 115 141 42 115 141 42 115 141 42 115 141 42 115 141 42 115 141 42 115 141 42 115 141 42 115 141 42 115 141 42 115 141 42 115 141 42 115 141 42 115 141 42 115 141 42 115 141 42 115 141 42 115 141 42 115 141 42 115 141 42 115 141 42 115 141 42 115 141 42 115 141 42 115 141 42 115 141 42 115 141 42 115 141 42 115 141 42 115 141 42 115 141 42 115 141 42 115 141 42 115 141 42 115 141 42 115 141 42 115 141 42 115 141 42 115 141 42 115 141 42 115 141 42 115 141 42 115 141 42 115 141 42 115 141 42 115 141 42 115 141 42 115 141 42 115 141 42 115 141 42 115 141 42 115 141 42 115 141 42 115 141 42 115 141 42 115 141 42 115 141 42 115 141 42 115 141 42 115 141 42 115 141 42 115 141 42 115 141 42 115 141 42 115 141 42 115 141 42 115 141 42 115 141 42 115 141 42 115 141 42 115 141 42 115 141 42 115 141 42 115 141 42 115 141 42 115 141 42 115 141 42 115 141 42 115 141 42 115 141 42 115 141 42 115 141 42 115 141 42 115 141 42 115 141 42 115 141 42 115 141 42 115 141 42 115 141 42 115 141 42 115 141 42 115 141 42 115 141 42 115 141 42 115 141 42 115 141 42 115 141 42 115 141 42 115 141 42 115 141 42 115 141 42 115 141 42 115 141 42 115 141 42 115 141 255 255 255 255 255 255 42 115 141 42 115 141 42 115 141 42 115 141 42 115 141 42 115 141 42 115 141 42 115 141 42 115 141 42 115 141 42 115 141 42 115 141 42 115 141 42 115 141 42 115 141 42 115 141 42 115 141 42 115 141 42 115 141 42 115 141 42 115 141 255 152 171 255 152 171 255 152 171 42 115 141 42 115 141 42 115 141 42 115 141 42 115 141 42 115 141 42 115 141 42 115 141 50 10 20 50 10 20 50 10 20 50 10 20 50 10 20 50 10 20 50 10 20 50 10 20 50 10 20 50 10 20 50 10 20 50 10 20 50 10 20 50 10 20 50 10 20 50 10 20 50 10 20 50 10 20 50 10 20 50 10 20 50 10 20 50 10 20 50 10 20 50 10 20 50 10 20 50 10 20 50 10 20 50 10 20 50 10 20 50 10 20 50 10 20 50 10 20 50 10 20 50 10 20 50 10 20 50 10 20 50 10 20 50 10 20 50 10 20 50 10 20 50 10 20 50 10 20 50 10 20 50 10 20 50 10 20 50 10 20 50 10 20 50 10 20 50 10 20 255 120 40 50 10 20 50 10 20 50 10 20 50 10 20 50 10 20 50 10 20 50 10 20 50 10 20 255 132 186 255 132 186 255 132 186 42 115 141 42 115 141 42 115 141 42 115 141 42 115 141 42 115 141 42 115 141 42 115 141 42 115 141 255 128 189 255 128 189 255 128 189 42 115 141 42 115 141 42 115 141 42 115 141 42 115 141 42 115 141 42 115 141 42 115 141 42 115 141 42 115 141 42 115 141 42 115 141 255 124 192 255 124 192 255 124 192 42 115 141 42 115 141 42 115 141 42 115 141 42 115 141 42 115 141 42 115 141 42 115 141 42 115 141 42 115 141 42 115 141 42 115 141 42 115 141 42 115 141 42 115 141 42 115 141 42 115 141 42 115 141 255 120 195 255 120 195 255 120 195 255 120 195 42 115 141 42 115 141 42 115 141 42 115 141 42 115 141 42 115 141 42 115 141 42 115 141 42 115 141 42 115 141 42 115 141 42 115 141 42 115 141 42 115 141 42 115 141 42 115 141 42 115 141 42 115 141 42 115 141 42 115 141 42 115 141 42 115 141 42 115 141 42 115 141 42 115 141 42 115 141 42 115 141 42 115 141 42 115 141 42 115 141 42 115 141 42 115 141 255 116 198 255 116 198 255 116 198 255 116 198 255 116 198 255 116 198 42 115 141 42 115 141 42 115 141 42 115 141 42 115 141 42 115 141 42 115 141 42 115 141 42 115 141 42 115 141 42 115 141 42 115 141 42 115 141 42 115 141 42 115 141 42 115 141 42 115 141 42 115 141 42 115 141 42 115 141 42 115 141 42 115 141 42 115 141 42 115 141 42 115 141 42 115 141 42 115 141 42 115 141 42 115 141 42 115 141 42 115 141 42 115 141 42 115 141 42 115 141 42 115 141 42 115 141 42 115 141 42 115 141 42 115 141 42 115 141 42 115 141 42 115 141 42 115 141 42 115 141 42 115 141 42 115 141 42 115 141 42 115 141 42 115 141 42 115 141 42 115 141 42 115 141 42 115 141 42 115 141 42 115 141 42 115 141 42 115 141 42 115 141 42 115 141 42 115 141 42 115 141 42 115 141 42 115 141 42 115 141 42 115 141 42 115 141 42 115 141 42 115 141 42 115 141 42 115 141 42 115 141 42 115 141 42 115 141 42 115 141 42 115 141 42 115 141 42 115 141 42 115 141 42 115 141 42 115 141 42 115 141 42 115 141 42 115 141 42 115 141 42 115 141 42 115 141 42 115 141 42 115 141 42 115 141 42 115 141 42 115 141 42 115 141 42 115 141 
43 115 142 43 115 142 43 115 142 43 115 142 43 115 142 43 115 142 43 115 142 43 115 142 43 115 142 43 115 142 43 115 142 43 115 142 43 115 142 43 115 142 43 115 142 43 115 142 43 115 142 43 115 142 43 115 142 43 115 142 43 115 142 43 115 142 43 115 142 43 115 142 43 115 142 43 115 142 43 115 142 43 115 142 43 115 142 43 115 142 43 115 142 43 115 142 43 115 142 43 115 142 43 115 142 43 115 142 43 115 142 43 115 142 43 115 142 43 115 142 43 115 142 43 115 142 43 115 142 43 115 142 43 115 142 43 115 142 43 115 142 43 115 142 43 115 142 43 115 142 43 115 142 43 115 142 43 115 142 43 115 142 43 115 142 43 115 142 43 115 142 43 115 142 43 115 142 43 115 142 43 115 142 43 115 142 43 115 142 43 115 142 43 115 142 43 115 142 43 115 142 43 115 142 43 115 142 43 115 142 43 115 142 43 115 142 43 115 142 43 115 142 43 115 142 43 115 142 43 115 142 43 115 142 43 115 142 43 115 142 43 115 142 43 115 142 43 115 142 43 115 142 43 115 142 43 115 142 43 115 142 43 115 142 43 115 142 43 115 142 43 115 142 43 115 142 43 115 142 43 115 142 43 115 142 43 115 142 43 115 142 43 115 142 43 115 142 43 115 142 43 115 142 43 115 142 43 115 142 43 115 142 43 115 142 43 115 142 43 115 142 43 115 142 43 115 142 43 115 142 43 115 142 255 255 255 43 115 142 43 115 142 43 115 142 43 115 142 43 115 142 43 115 142 43 115 142 43 115 142 43 115 142 43 115 142 43 115 142 43 115 142 43 115 142 43 115 142 43 115 142 43 115 142 43 115 142 43 115 142 43 115 142 43 115 142 43 115 142 255 152 171 255 152 171 255 152 171 255 152 171 43 115 142 43 115 142 43 115 142 43 115 142 50 10 20 50 10 20 50 10 20 50 10 20 50 10 20 50 10 20 50 10 20 50 10 20 50 10 20 50 10 20 50 10 20 50 10 20 50 10 20 50 10 20 50 10 20 50 10 20 50 10 20 50 10 20 50 10 20 50 10 20 50 10 20 50 10 20 50 10 20 50 10 20 50 10 20 50 10 20 50 10 20 50 10 20 50 10 20 50 10 20 50 10 20 50 10 20 50 10 20 50 10 20 50 10 20 50 10 20 50 10 20 50 10 20 50 10 20 50 10 20 50 10 20 50 10 20 50 10 20 50 10 20 50 10 20 50 10 20 50 10 20 50 10 20 50 10 20 50 10 20 50 10 20 255 120 40 50 10 20 50 10 20 50 10 20 50 10 20 50 10 20 50 10 20 50 10 20 50 10 20 50 10 20 255 132 186 255 132 186 43 115 142 43 115 142 43 115 142 43 115 142 43 115 142 43 115 142 43 115 142 43 115 142 43 115 142 255 128 189 255 128 189 255 128 189 43 115 142 43 115 142 43 115 142 43 115 142 43 115 142 43 115 142 43 115 142 43 115 142 43 115 142 43 115 142 43 115 142 255 124 192 255 124 192 255 124 192 43 115 142 43 115 142 43 115 142 43 115 142 43 115 142 43 115 142 43 115 142 43 115 142 43 115 142 43 115 142 43 115 142 43 115 142 43 115 142 43 115 142 43 115 142 43 115 142 43 115 142 43 115 142 255 120 195 255 120 195 255 120 195 43 115 142 43 115 142 43 115 142 43 115 142 43 115 142 43 115 142 43 115 142 43 115 142 43 115 142 43 115 142 43 115 142 43 115 142 43 115 142 43 115 142 43 115 142 43 115 142 43 115 142 43 115 142 43 115 142 43 115 142 43 115 142 43 115 142 43 115 142 43 115 142 43 115 142 43 115 142 43 115 142 43 115 142 43 115 142 43 115 142 43 115 142 43 115 142 255 116 198 255 116 198 255 116 198 255 116 198 255 116 198 255 116 198 43 115 142 43 115 142 43 115 142 43 115 142 43 115 142 43 115 142 43 115 142 43 115 142 43 115 142 43 115 142 43 115 142 43 115 142 43 115 142 43 115 142 43 115 142 43 115 142 43 115 142 43 115 142 43 115 142 43 115 142 43 115 142 43 115 142 43 115 142 43 115 142 43 115 142 43 115 142 43 115 142 43 115 142 43 115 142 43 115 142 43 115 142 43 115 142 43 115 142 43 115 142 43 115 142 43 115 142 43 115 142 43 115 142 43 115 142 43 115 142 43 115 142 43 115 142 43 115 142 43 115 142 43 115 142 43 115 142 43 115 142 43 115 142 43 115 142 43 115 142 43 115 142 43 115 142 43 115 142 43 115 142 43 115 142 43 115 142 43 115 142 43 115 142 43 115 142 43 115 142 43 115 142 43 115 142 43 115 142 43 115 142 43 115 142 43 115 142 43 115 142 43 115 142 43 115 142 43 115 142 43 115 142 43 115 142 43 115 142 43 115 142 43 115 142 43 115 142 43 115 142 43 115 142 43 115 142 43 115 142 43 115 142 43 115 142 43 115 142 43 115 142 43 115 142 43 115 142 43 115 142 43 115 142 43 115 142 43 115 142 43 115 142 43 115 142 43 115 142 43 115 142 43 115 142 
43 114 143 43 114 143 43 114 143 43 114 143 43 114 143 43 114 143 43 114 143 43 114 143 43 114 143 43 114 143 43 114 143 43 114 143 43 114 143 43 114 143 43 114 143 43 114 143 43 114 143 43 114 143 43 114 143 43 114 143 43 114 143 43 114 143 43 114 143 43 114 143 43 114 143 43 114 143 43 114 143 43 114 143 43 114 143 43 114 143 43 114 143 43 114 143 43 114 143 43 114 143 43 114 143 43 114 143 43 114 143 43 114 143 43 114 143 43 114 143 43 114 143 43 114 143 43 114 143 43 114 143 43 114 143 43 114 143 43 114 143 43 114 143 43 114 143 43 114 143 43 114 143 43 114 143 43 114 143 43 114 143 43 114 143 43 114 143 43 114 143 43 114 143 43 114 143 43 114 143 43 114 143 43 114 143 43 114 143 43 114 143 43 114 143 43 114 143 43 114 143 43 114 143 43 114 143 43 114 143 43 114 143 43 114 143 43 114 143 43 114 143 43 114 143 43 114 143 43 114 143 43 114 143 43 114 143 43 114 143 43 114 143 43 114 143 43 114 143 43 114 143 43 114 143 43 114 143 43 114 143 43 114 143 43 114 143 43 114 143 43 114 143 43 114 143 43 114 143 43 114 143 43 114 143 43 114 143 43 114 143 43 114 143 43 114 143 43 114 143 43 114 143 43 114 143 43 114 143 43 114 143 43 114 143 43 114 143 43 114 143 43 114 143 43 114 143 43 114 143 43 114 143 43 114 143 255 255 255 255 255 255 43 114 143 43 114 143 43 114 143 43 114 143 43 114 143 43 114 143 43 114 143 43 114 143 43 114 143 43 114 143 43 114 143 43 114 143 43 114 143 43 114 143 43 114 143 43 114 143 43 114 143 43 114 143 43 114 143 43 114 143 255 152 171 255 152 171 255 152 171 255 152 171 43 114 143 50 10 20 50 10 20 50 10 20 50 10 20 50 10 20 50 10 20 50 10 20 50 10 20 50 10 20 50 10 20 50 10 20 50 10 20 50 10 20 50 10 20 50 10 20 50 10 20 50 10 20 50 10 20 50 10 20 50 10 20 50 10 20 50 10 20 50 10 20 50 10 20 50 10 20 50 10 20 50 10 20 50 10 20 50 10 20 50 10 20 50 10 20 50 10 20 50 10 20 50 10 20 50 10 20 50 10 20 50 10 20 50 10 20 50 10 20 50 10 20 50 10 20 50 10 20 50 10 20 50 10 20 50 10 20 50 10 20 50 10 20 50 10 20 50 10 20 50 10 20 50 10 20 50 10 20 50 10 20 255 120 40 50 10 20 50 10 20 50 10 20 50 10 20 50 10 20 50 10 20 50 10 20 50 10 20 50 10 20 255 132 186 255 132 186 43 114 143 43 114 143 43 114 143 43 114 143 43 114 143 43 114 143 43 114 143 43 114 143 255 128 189 255 128 189 255 128 189 43 114 143 43 114 143 43 114 143 43 114 143 43 114 143 43 114 143 43 114 143 43 114 143 43 114 143 43 114 143 43 114 143 255 124 192 255 124 192 255 124 192 43 114 143 43 114 143 43 114 143 43 114 143 43 114 143 43 114 143 43 114 143 43 114 143 43 114 143 43 114 143 43 114 143 43 114 143 43 114 143 43 114 143 43 114 143 43 114 143 43 114 143 255 120 195 255 120 195 255 120 195 255 120 195 43 114 143 43 114 143 43 114 143 43 114 143 43 114 143 43 114 143 43 114 143 43 114 143 43 114 143 43 114 143 43 114 143 43 114 143 43 114 143 43 114 143 43 114 143 43 114 143 43 114 143 43 114 143 43 114 143 43 114 143 43 114 143 43 114 143 43 114 143 43 114 143 43 114 143 43 114 143 43 114 143 43 114 143 43 114 143 43 114 143 43 114 143 255 116 198 255 116 198 255 116 198 255 116 198 255 116 198 255 116 198 43 114 143 43 114 143 43 114 143 43 114 143 43 114 143 43 114 143 43 114 143 43 114 143 43 114 143 43 114 143 43 114 143 43 114 143 43 114 143 43 114 143 43 114 143 43 114 143 43 114 143 43 114 143 43 114 143 43 114 143 43 114 143 43 114 143 43 114 143 43 114 143 43 114 143 43 114 143 43 114 143 43 114 143 43 114 143 43 114 143 43 114 143 43 114 143 43 114 143 43 114 143 43 114 143 43 114 143 43 114 143 43 114 143 43 114 143 43 114 143 43 114 143 43 114 143 43 114 143 43 114 143 43 114 143 43 114 143 43 114 143 43 114 143 43 114 143 43 114 143 43 114 143 43 114 143 43 114 143 43 114 143 43 114 143 43 114 143 43 114 143 43 114 143 43 114 143 43 114 143 43 114 143 43 114 143 43 114 143 43 114 143 43 114 143 43 114 143 43 114 143 43 114 143 43 114 143 43 114 143 43 114 143 43 114 143 43 114 143 43 114 143 43 114 143 43 114 143 43 114 143 43 114 143 43 114 143 43 114 143 43 114 143 43 114 143 43 114 143 43 114 143 43 114 143 43 114 143 43 114 143 43 114 143 43 114 143 43 114 143 43 114 143 43 114 143 43 114 143 43 114 143 43 114 143 43 114 143 43 114 143 
43 114 144 43 114 144 43 114 144 43 114 144 43 114 144 43 114 144 43 114 144 43 114 144 43 114 144 43 114 144 43 114 144 43 114 144 43 114 144 43 114 144 43 114 144 43 114 144 43 114 144 43 114 144 43 114 144 43 114 144 43 114 144 43 114 144 43 114 144 43 114 144 43 114 144 43 114 144 43 114 144 43 114 144 43 114 144 43 114 144 43 114 144 43 114 144 43 114 144 43 114 144 43 114 144 43 114 144 43 114 144 43 114 144 43 114 144 43 114 144 43 114 144 43 114 144 43 114 144 43 114 144 43 114 144 43 114 144 43 114 144 43 114 144 43 114 144 43 114 144 43 114 144 43 114 144 43 114 144 43 114 144 43 114 144 43 114 144 43 114 144 43 114 144 43 114 144 43 114 144 43 114 144 43 114 144 43 114 144 43 114 144 43 114 144 43 114 144 43 114 144 43 114 144 43 114 144 43 114 144 43 114 144 43 114 144 43 114 144 43 114 144 43 114 144 43 114 144 43 114 144 43 114 144 43 114 144 43 114 144 43 114 144 43 114 144 43 114 144 43 114 144 43 114 144 43 114 144 43 114 144 43 114 144 43 114 144 43 114 144 43 114 144 43 114 144 43 114 144 43 114 144 43 114 144 43 114 144 43 114 144 43 114 144 43 114 144 43 114 144 43 114 144 43 114 144 43 114 144 43 114 144 43 114 144 43 114 144 43 114 144 43 114 144 43 114 144 43 114 144 43 114 144 43 114 144 43 114 144 43 114 144 255 255 255 255 255 255 43 114 144 43 114 144 43 114 144 43 114 144 43 114 144 43 114 144 43 114 144 43 114 144 43 114 144 43 114 144 43 114 144 43 114 144 43 114 144 43 114 144 43 114 144 43 114 144 43 114 144 43 114 144 43 114 144 255 152 171 255 152 171 50 10 20 50 10 20 50 10 20 50 10 20 50 10 20 50 10 20 50 10 20 50 10 20 50 10 20 50 10 20 50 10 20 50 10 20 50 10 20 50 10 20 50 10 20 50 10 20 50 10 20 50 10 20 50 10 20 50 10 20 50 10 20 50 10 20 50 10 20 50 10 20 50 10 20 50 10 20 50 10 20 50 10 20 50 10 20 50 10 20 50 10 20 50 10 20 50 10 20 50 10 20 50 10 20 50 10 20 50 10 20 50 10 20 50 10 20 50 10 20 50 10 20 50 10 20 50 10 20 50 10 20 50 10 20 50 10 20 50 10 20 50 10 20 50 10 20 50 10 20 50 10 20 50 10 20 50 10 20 50 10 20 50 10 20 255 120 40 50 10 20 50 10 20 50 10 20 50 10 20 50 10 20 50 10 20 50 10 20 50 10 20 50 10 20 255 132 186 255 132 186 43 114 144 43 114 144 43 114 144 43 114 144 43 114 144 43 114 144 43 114 144 43 114 144 255 128 189 255 128 189 255 128 189 43 114 144 43 114 144 43 114 144 43 114 144 43 114 144 43 114 144 43 114 144 43 114 144 43 114 144 43 114 144 255 124 192 255 124 192 255 124 192 43 114 144 43 114 144 43 114 144 43 114 144 43 114 144 43 114 144 43 114 144 43 114 144 43 114 144 43 114 144 43 114 144 43 114 144 43 114 144 43 114 144 43 114 144 43 114 144 43 114 144 255 120 195 255 120 195 255 120 195 255 120 195 43 114 144 43 114 144 43 114 144 43 114 144 43 114 144 43 114 144 43 114 144 43 114 144 43 114 144 43 114 144 43 114 144 43 114 144 43 114 144 43 114 144 43 114 144 43 114 144 43 114 144 43 114 144 43 114 144 43 114 144 43 114 144 43 114 144 43 114 144 43 114 144 43 114 144 43 114 144 43 114 144 43 114 144 43 114 144 43 114 144 255 116 198 255 116 198 255 116 198 255 116 198 255 116 198 255 116 198 43 114 144 43 114 144 43 114 144 43 114 144 43 114 144 43 114 144 43 114 144 43 114 144 43 114 144 43 114 144 43 114 144 43 114 144 43 114 144 43 114 144 43 114 144 43 114 144 43 114 144 43 114 144 43 114 144 43 114 144 43 114 144 43 114 144 43 114 144 43 114 144 43 114 144 43 114 144 43 114 144 43 114 144 43 114 144 43 114 144 43 114 144 43 114 144 43 114 144 43 114 144 43 114 144 43 114 144 43 114 144 43 114 144 43 114 144 43 114 144 43 114 144 43 114 144 43 114 144 43 114 144 43 114 144 43 114 144 43 114 144 43 114 144 43 114 144 43 114 144 43 114 144 43 114 144 43 114 144 43 114 144 43 114 144 43 114 144 43 114 144 43 114 144 43 114 144 43 114 144 43 114 144 43 114 144 43 114 144 43 114 144 43 114 144 43 114 144 43 114 144 43 114 144 43 114 144 43 114 144 43 114 144 43 114 144 43 114 144 43 114 144 43 114 144 43 114 144 43 114 144 43 114 144 43 114 144 43 114 144 43 114 144 43 114 144 43 114 144 43 114 144 43 114 144 43 114 144 43 114 144 43 114 144 43 114 144 43 114 144 43 114 144 43 114 144 43 114 144 43 114 144 43 114 144 43 114 144 43 114 144 43 114 144 43 114 144 
44 113 144 44 113 144 44 113 144 44 113 144 44 113 144 44 113 144 44 113 144 44 113 144 44 113 144 44 113 144 44 113 144 44 113 144 44 113 144 44 113 144 44 113 144 44 113 144 44 113 144 44 113 144 44 113 144 44 113 144 44 113 144 44 113 144 44 113 144 44 113 144 44 113 144 44 113 144 44 113 144 44 113 144 44 113 144 44 113 144 44 113 144 44 113 144 44 113 144 44 113 144 44 113 144 44 113 144 44 113 144 44 113 144 44 113 144 44 113 144 44 113 144 44 113 144 44 113 144 44 113 144 44 113 144 44 113 144 44 113 144 44 113 144 44 113 144 44 113 144 44 113 144 44 113 144 44 113 144 44 113 144 44 113 144 44 113 144 44 113 144 44 113 144 44 113 144 44 113 144 44 113 144 44 113 144 44 113 144 44 113 144 44 113 144 44 113 144 44 113 144 44 113 144 44 113 144 44 113 144 44 113 144 44 113 144 44 113 144 44 113 144 44 113 144 44 113 144 44 113 144 44 113 144 44 113 144 44 113 144 44 113 144 44 113 144 44 113 144 44 113 144 44 113 144 44 113 144 44 113 144 44 113 144 44 113 144 44 113 144 44 113 144 44 113 144 44 113 144 44 113 144 44 113 144 44 113 144 44 113 144 44 113 144 44 113 144 44 113 144 44 113 144 44 113 144 44 113 144 44 113 144 44 113 144 44 113 144 44 113 144 44 113 144 44 113 144 44 113 144 44 113 144 44 113 144 44 113 144 44 113 144 44 113 144 44 113 144 255 255 255 255 255 255 44 113 144 44 113 144 44 113 144 44 113 144 44 113 144 44 113 144 44 113 144 44 113 144 44 113 144 44 113 144 44 113 144 44 113 144 44 113 144 44 113 144 44 113 144 44 113 144 44 113 144 44 113 144 44 113 144 50 10 20 50 10 20 50 10 20 50 10 20 50 10 20 50 10 20 50 10 20 50 10 20 50 10 20 50 10 20 50 10 20 50 10 20 50 10 20 50 10 20 50 10 20 50 10 20 50 10 20 50 10 20 50 10 20 50 10 20 50 10 20 50 10 20 50 10 20 50 10 20 50 10 20 50 10 20 50 10 20 50 10 20 50 10 20 50 10 20 50 10 20 50 10 20 50 10 20 50 10 20 50 10 20 50 10 20 50 10 20 50 10 20 50 10 20 50 10 20 50 10 20 50 10 20 50 10 20 50 10 20 50 10 20 50 10 20 50 10 20 50 10 20 50 10 20 50 10 20 50 10 20 50 10 20 50 10 20 50 10 20 50 10 20 255 120 40 50 10 20 50 10 20 50 10 20 50 10 20 50 10 20 50 10 20 50 10 20 50 10 20 50 10 20 50 10 20 255 132 186 44 113 144 44 113 144 44 113 144 44 113 144 44 113 144 44 113 144 44 113 144 255 128 189 255 128 189 255 128 189 44 113 144 44 113 144 44 113 144 44 113 144 44 113 144 44 113 144 44 113 144 44 113 144 44 113 144 44 113 144 44 113 144 255 124 192 255 124 192 255 124 192 44 113 144 44 113 144 44 113 144 44 113 144 44 113 144 44 113 144 44 113 144 44 113 144 44 113 144 44 113 144 44 113 144 44 113 144 44 113 144 44 113 144 44 113 144 44 113 144 255 120 195 255 120 195 255 120 195 255 120 195 44 113 144 44 113 144 44 113 144 44 113 144 44 113 144 44 113 144 44 113 144 44 113 144 44 113 144 44 113 144 44 113 144 44 113 144 44 113 144 44 113 144 44 113 144 44 113 144 44 113 144 44 113 144 44 113 144 44 113 144 44 113 144 44 113 144 44 113 144 44 113 144 44 113 144 44 113 144 44 113 144 44 113 144 44 113 144 255 116 198 255 116 198 255 116 198 255 116 198 255 116 198 255 116 198 44 113 144 44 113 144 44 113 144 44 113 144 44 113 144 44 113 144 44 113 144 44 113 144 44 113 144 44 113 144 44 113 144 44 113 144 44 113 144 44 113 144 44 113 144 44 113 144 44 113 144 44 113 144 44 113 144 44 113 144 44 113 144 44 113 144 44 113 144 44 113 144 44 113 144 44 113 144 44 113 144 44 113 144 44 113 144 44 113 144 44 113 144 44 113 144 44 113 144 44 113 144 44 113 144 44 113 144 44 113 144 44 113 144 44 113 144 44 113 144 44 113 144 44 113 144 44 113 144 44 113 144 44 113 144 44 113 144 44 113 144 44 113 144 44 113 144 44 113 144 44 113 144 44 113 144 44 113 144 44 113 144 44 113 144 44 113 144 44 113 144 44 113 144 44 113 144 44 113 144 44 113 144 44 113 144 44 113 144 44 113 144 44 113 144 44 113 144 44 113 144 44 113 144 44 113 144 44 113 144 44 113 144 44 113 144 44 113 144 44 113 144 44 113 144 44 113 144 44 113 144 44 113 144 44 113 144 44 113 144 44 113 144 44 113 144 44 113 144 44 113 144 44 113 144 44 113 144 44 113 144 44 113 144 44 113 144 44 113 144 44 113 144 44 113 144 44 113 144 44 113 144 44 113 144 44 113 144 44 113 144 44 113 144 44 113 144 44 113 144 44 113 144 
44 113 145 44 113 145 44 113 145 44 113 145 44 113 145 44 113 145 44 113 145 44 113 145 44 113 145 44 113 145 44 113 145 44 113 145 44 113 145 44 113 145 44 113 145 44 113 145 44 113 145 44 113 145 44 113 145 44 113 145 44 113 145 44 113 145 44 113 145 44 113 145 44 113 145 44 113 145 44 113 145 44 113 145 44 113 145 44 113 145 44 113 145 44 113 145 44 113 145 44 113 145 44 113 145 44 113 145 44 113 145 44 113 145 44 113 145 44 113 145 44 113 145 44 113 145 44 113 145 44 113 145 44 113 145 44 113 145 44 113 145 44 113 145 44 113 145 44 113 145 44 113 145 44 113 145 44 113 145 44 113 145 44 113 145 44 113 145 44 113 145 44 113 145 44 113 145 44 113 145 44 113 145 44 113 145 44 113 145 44 113 145 44 113 145 44 113 145 44 113 145 44 113 145 44 113 145 44 113 145 44 113 145 44 113 145 44 113 145 44 113 145 44 113 145 44 113 145 44 113 145 44 113 145 44 113 145 44 113 145 44 113 145 44 113 145 44 113 145 44 113 145 44 113 145 44 113 145 44 113 145 44 113 145 44 113 145 44 113 145 44 113 145 44 113 145 44 113 145 44 113 145 44 113 145 44 113 145 44 113 145 44 113 145 44 113 145 44 113 145 44 113 145 44 113 145 44 113 145 44 113 145 44 113 145 44 113 145 44 113 145 44 113 145 44 113 145 44 113 145 44 113 145 44 113 145 44 113 145 44 113 145 44 113 145 44 113 145 44 113 145 44 113 145 255 255 255 255 255 255 44 113 145 44 113 145 44 113 145 44 113 145 44 113 145 44 113 145 44 113 145 44 113 145 44 113 145 44 113 145 44 113 145 44 113 145 44 113 145 44 113 145 44 113 145 44 113 145 44 113 145 44 113 145 50 10 20 50 10 20 50 10 20 50 10 20 50 10 20 50 10 20 50 10 20 50 10 20 50 10 20 50 10 20 50 10 20 50 10 20 50 10 20 50 10 20 50 10 20 50 10 20 50 10 20 50 10 20 50 10 20 50 10 20 50 10 20 50 10 20 50 10 20 50 10 20 50 10 20 50 10 20 50 10 20 50 10 20 50 10 20 50 10 20 50 10 20 50 10 20 50 10 20 50 10 20 50 10 20 50 10 20 50 10 20 50 10 20 50 10 20 50 10 20 50 10 20 50 10 20 50 10 20 50 10 20 50 10 20 50 10 20 50 10 20 50 10 20 50 10 20 50 10 20 50 10 20 50 10 20 50 10 20 50 10 20 255 120 40 50 10 20 50 10 20 50 10 20 50 10 20 50 10 20 50 10 20 50 10 20 50 10 20 50 10 20 50 10 20 44 113 145 44 113 145 44 113 145 44 113 145 44 113 145 44 113 145 44 113 145 44 113 145 255 128 189 255 128 189 255 128 189 44 113 145 44 113 145 44 113 145 44 113 145 44 113 145 44 113 145 44 113 145 44 113 145 44 113 145 44 113 145 255 124 192 255 124 192 255 124 192 44 113 145 44 113 145 44 113 145 44 113 145 44 113 145 44 113 145 44 113 145 44 113 145 44 113 145 44 113 145 44 113 145 44 113 145 44 113 145 44 113 145 44 113 145 44 113 145 255 120 195 255 120 195 255 120 195 44 113 145 44 113 145 44 113 145 44 113 145 44 113 145 44 113 145 44 113 145 44 113 145 44 113 145 44 113 145 44 113 145 44 113 145 44 113 145 44 113 145 44 113 145 44 113 145 44 113 145 44 113 145 44 113 145 44 113 145 44 113 145 44 113 145 44 113 145 44 113 145 44 113 145 44 113 145 44 113 145 44 113 145 44 113 145 255 116 198 255 116 198 255 116 198 255 116 198 255 116 198 255 116 198 44 113 145 44 113 145 44 113 145 44 113 145 44 113 145 44 113 145 44 113 145 44 113 145 44 113 145 44 113 145 44 113 145 44 113 145 44 113 145 44 113 145 44 113 145 44 113 145 44 113 145 44 113 145 44 113 145 44 113 145 44 113 145 44 113 145 44 113 145 44 113 145 44 113 145 44 113 145 44 113 145 44 113 145 44 113 145 44 113 145 44 113 145 44 113 145 44 113 145 44 113 145 44 113 145 44 113 145 44 113 145 44 113 145 44 113 145 44 113 145 44 113 145 44 113 145 44 113 145 44 113 145 44 113 145 44 113 145 44 113 145 44 113 145 44 113 145 44 113 145 44 113 145 44 113 145 44 113 145 44 113 145 44 113 145 44 113 145 44 113 145 44 113 145 44 113 145 44 113 145 44 113 145 44 113 145 44 113 145 44 113 145 44 113 145 44 113 145 44 113 145 44 113 145 44 113 145 44 113 145 44 113 145 44 113 145 44 113 145 44 113 145 44 113 145 44 113 145 44 113 145 44 113 145 44 113 145 44 113 145 44 113 145 44 113 145 44 113 145 44 113 145 44 113 145 44 113 145 44 113 145 44 113 145 44 113 145 44 113 145 44 113 145 44 113 145 44 113 145 44 113 145 44 113 145 44 113 145 44 113 145 44 113 145 44 113 145 44 113 145 44 113 145 44 113 145 44 113 145 
44 112 146 44 112 146 44 112 146 44 112 146 44 112 146 44 112 146 44 112 146 44 112 146 44 112 146 44 112 146 44 112 146 44 112 146 44 112 146 44 112 146 44 112 146 44 112 146 44 112 146 44 112 146 44 112 146 44 112 146 44 112 146 44 112 146 44 112 146 44 112 146 44 112 146 44 112 146 44 112 146 44 112 146 44 112 146 44 112 146 44 112 146 44 112 146 44 112 146 44 112 146 44 112 146 44 112 146 44 112 146 44 112 146 44 112 146 44 112 146 44 112 146 44 112 146 44 112 146 44 112 146 44 112 146 44 112 146 44 112 146 44 112 146 44 112 146 44 112 146 44 112 146 44 112 146 44 112 146 44 112 146 44 112 146 44 112 146 44 112 146 44 112 146 44 112 146 44 112 146 44 112 146 44 112 146 44 112 146 44 112 146 44 112 146 44 112 146 44 112 146 44 112 146 44 112 146 44 112 146 44 112 146 44 112 146 44 112 146 44 112 146 44 112 146 44 112 146 44 112 146 44 112 146 44 112 146 44 112 146 44 112 146 44 112 146 44 112 146 44 112 146 44 112 146 44 112 146 44 112 146 44 112 146 44 112 146 44 112 146 44 112 146 44 112 146 44 112 146 44 112 146 44 112 146 44 112 146 44 112 146 44 112 146 44 112 146 44 112 146 44 112 146 44 112 146 44 112 146 44 112 146 44 112 146 44 112 146 44 112 146 44 112 146 44 112 146 44 112 146 255 156 168 255 156 168 44 112 146 44 112 146 44 112 146 44 112 146 44 112 146 44 112 146 44 112 146 44 112 146 255 255 255 44 112 146 44 112 146 44 112 146 44 112 146 44 112 146 44 112 146 44 112 146 44 112 146 44 112 146 44 112 146 44 112 146 44 112 146 44 112 146 44 112 146 44 112 146 44 112 146 44 112 146 50 10 20 50 10 20 50 10 20 50 10 20 50 10 20 50 10 20 50 10 20 50 10 20 50 10 20 50 10 20 50 10 20 50 10 20 50 10 20 50 10 20 50 10 20 50 10 20 50 10 20 50 10 20 50 10 20 50 10 20 50 10 20 50 10 20 50 10 20 50 10 20 50 10 20 50 10 20 50 10 20 50 10 20 50 10 20 50 10 20 50 10 20 50 10 20 50 10 20 50 10 20 50 10 20 50 10 20 50 10 20 50 10 20 50 10 20 50 10 20 50 10 20 50 10 20 50 10 20 50 10 20 50 10 20 50 10 20 50 10 20 50 10 20 50 10 20 50 10 20 50 10 20 50 10 20 50 10 20 50 10 20 255 120 40 50 10 20 50 10 20 50 10 20 50 10 20 50 10 20 50 10 20 50 10 20 50 10 20 50 10 20 50 10 20 44 112 146 44 112 146 44 112 146 44 112 146 44 112 146 44 112 146 44 112 146 44 112 146 255 128 189 255 128 189 255 128 189 44 112 146 44 112 146 44 112 146 44 112 146 44 112 146 44 112 146 44 112 146 44 112 146 44 112 146 255 124 192 255 124 192 255 124 192 44 112 146 44 112 146 44 112 146 44 112 146 44 112 146 44 112 146 44 112 146 44 112 146 44 112 146 44 112 146 44 112 146 44 112 146 44 112 146 44 112 146 44 112 146 255 120 195 255 120 195 255 120 195 255 120 195 44 112 146 44 112 146 44 112 146 44 112 146 44 112 146 44 112 146 44 112 146 44 112 146 44 112 146 44 112 146 44 112 146 44 112 146 44 112 146 44 112 146 44 112 146 44 112 146 44 112 146 44 112 146 44 112 146 44 112 146 44 112 146 44 112 146 44 112 146 44 112 146 44 112 146 44 112 146 44 112 146 44 112 146 255 116 198 255 116 198 255 116 198 255 116 198 255 116 198 255 116 198 44 112 146 44 112 146 44 112 146 44 112 146 44 112 146 44 112 146 44 112 146 44 112 146 44 112 146 44 112 146 44 112 146 44 112 146 44 112 146 44 112 146 44 112 146 44 112 146 44 112 146 44 112 146 44 112 146 44 112 146 44 112 146 44 112 146 44 112 146 44 112 146 44 112 146 44 112 146 44 112 146 44 112 146 44 112 146 44 112 146 44 112 146 44 112 146 44 112 146 44 112 146 44 112 146 44 112 146 44 112 146 44 112 146 44 112 146 44 112 146 44 112 146 44 112 146 44 112 146 44 112 146 44 112 146 44 112 146 44 112 146 44 112 146 44 112 146 44 112 146 44 112 146 44 112 146 44 112 146 44 112 146 44 112 146 44 112 146 44 112 146 44 112 146 44 112 146 44 112 146 44 112 146 44 112 146 44 112 146 44 112 146 44 112 146 44 112 146 44 112 146 44 112 146 44 112 146 44 112 146 44 112 146 44 112 146 44 112 146 44 112 146 44 112 146 44 112 146 44 112 146 44 112 146 44 112 146 44 112 146 44 112 146 44 112 146 44 112 146 44 112 146 44 112 146 44 112 146 44 112 146 44 112 146 44 112 146 44 112 146 44 112 146 44 112 146 44 112 146 44 112 146 44 112 146 44 112 146 44 112 146 44 112 146 44 112 146 44 112 146 44 112 146 44 112 146 44 112 146 44 112 146 44 112 146 
45 112 147 45 112 147 45 112 147 45 112 147 45 112 147 45 112 147 45 112 147 45 112 147 45 112 147 45 112 147 45 112 147 45 112 147 45 112 147 45 112 147 45 112 147 45 112 147 45 112 147 45 112 147 45 112 147 45 112 147 45 112 147 45 112 147 45 112 147 45 112 147 45 112 147 45 112 147 45 112 147 45 112 147 45 112 147 45 112 147 45 112 147 45 112 147 45 112 147 45 112 147 45 112 147 45 112 147 45 112 147 45 112 147 45 112 147 45 112 147 45 112 147 45 112 147 45 112 147 45 112 147 45 112 147 45 112 147 45 112 147 45 112 147 45 112 147 45 112 147 45 112 147 45 112 147 45 112 147 45 112 147 45 112 147 45 112 147 45 112 147 45 112 147 45 112 147 45 112 147 45 112 147 45 112 147 45 112 147 45 112 147 45 112 147 45 112 147 45 112 147 45 112 147 45 112 147 45 112 147 45 112 147 45 112 147 45 112 147 45 112 147 45 112 147 45 112 147 45 112 147 45 112 147 45 112 147 45 112 147 45 112 147 45 112 147 45 112 147 45 112 147 45 112 147 45 112 147 45 112 147 45 112 147 45 112 147 45 112 147 45 112 147 45 112 147 45 112 147 45 112 147 45 112 147 45 112 147 45 112 147 45 112 147 45 112 147 45 112 147 45 112 147 45 112 147 45 112 147 45 112 147 45 112 147 45 112 147 45 112 147 45 112 147 45 112 147 45 112 147 255 156 168 255 156 168 255 156 168 255 156 168 45 112 147 45 112 147 45 112 147 45 112 147 45 112 147 45 112 147 45 112 147 255 255 255 255 255 255 45 112 147 45 112 147 45 112 147 45 112 147 45 112 147 45 112 147 45 112 147 45 112 147 45 112 147 45 112 147 45 112 147 45 112 147 45 112 147 45 112 147 45 112 147 45 112 147 50 10 20 50 10 20 50 10 20 50 10 20 50 10 20 50 10 20 50 10 20 50 10 20 50 10 20 50 10 20 50 10 20 50 10 20 50 10 20 50 10 20 50 10 20 50 10 20 50 10 20 50 10 20 50 10 20 50 10 20 50 10 20 50 10 20 50 10 20 50 10 20 50 10 20 50 10 20 50 10 20 50 10 20 50 10 20 50 10 20 50 10 20 50 10 20 50 10 20 50 10 20 50 10 20 50 10 20 50 10 20 50 10 20 50 10 20 50 10 20 50 10 20 50 10 20 50 10 20 50 10 20 50 10 20 50 10 20 50 10 20 50 10 20 50 10 20 50 10 20 50 10 20 50 10 20 50 10 20 255 120 40 50 10 20 50 10 20 50 10 20 50 10 20 50 10 20 50 10 20 50 10 20 50 10 20 50 10 20 50 10 20 50 10 20 45 112 147 45 112 147 45 112 147 45 112 147 45 112 147 45 112 147 255 128 189 255 128 189 255 128 189 45 112 147 45 112 147 45 112 147 45 112 147 45 112 147 45 112 147 45 112 147 45 112 147 45 112 147 255 124 192 255 124 192 255 124 192 45 112 147 45 112 147 45 112 147 45 112 147 45 112 147 45 112 147 45 112 147 45 112 147 45 112 147 45 112 147 45 112 147 45 112 147 45 112 147 45 112 147 45 112 147 255 120 195 255 120 195 255 120 195 255 120 195 45 112 147 45 112 147 45 112 147 45 112 147 45 112 147 45 112 147 45 112 147 45 112 147 45 112 147 45 112 147 45 112 147 45 112 147 45 112 147 45 112 147 45 112 147 45 112 147 45 112 147 45 112 147 45 112 147 45 112 147 45 112 147 45 112 147 45 112 147 45 112 147 45 112 147 45 112 147 45 112 147 255 116 198 255 116 198 255 116 198 255 116 198 255 116 198 255 116 198 45 112 147 45 112 147 45 112 147 45 112 147 45 112 147 45 112 147 45 112 147 45 112 147 45 112 147 45 112 147 45 112 147 45 112 147 45 112 147 45 112 147 45 112 147 45 112 147 45 112 147 45 112 147 45 112 147 45 112 147 45 112 147 45 112 147 45 112 147 45 112 147 45 112 147 45 112 147 45 112 147 45 112 147 45 112 147 45 112 147 45 112 147 45 112 147 45 112 147 45 112 147 45 112 147 45 112 147 45 112 147 45 112 147 45 112 147 45 112 147 45 112 147 45 112 147 45 112 147 45 112 147 45 112 147 45 112 147 45 112 147 45 112 147 45 112 147 45 112 147 45 112 147 45 112 147 45 112 147 45 112 147 45 112 147 45 112 147 45 112 147 45 112 147 45 112 147 45 112 147 45 112 147 45 112 147 45 112 147 45 112 147 45 112 147 45 112 147 45 112 147 45 112 147 45 112 147 45 112 147 45 112 147 45 112 147 45 112 147 45 112 147 45 112 147 45 112 147 45 112 147 45 112 147 45 112 147 45 112 147 45 112 147 45 112 147 45 112 147 45 112 147 45 112 147 45 112 147 45 112 147 45 112 147 45 112 147 45 112 147 45 112 147 45 112 147 45 112 147 45 112 147 45 112 147 45 112 147 45 112 147 45 112 147 45 112 147 45 112 147 45 112 147 45 112 147 45 112 147 45 112 147 45 112 147 45 112 147 45 112 147 
45 111 147 45 111 147 45 111 147 45 111 147 45 111 147 45 111 147 45 111 147 45 111 147 45 111 147 45 111 147 45 111 147 45 111 147 45 111 147 45 111 147 45 111 147 45 111 147 45 111 147 45 111 147 45 111 147 45 111 147 45 111 147 45 111 147 45 111 147 45 111 147 45 111 147 45 111 147 45 111 147 45 111 147 45 111 147 45 111 147 45 111 147 45 111 147 45 111 147 45 111 147 45 111 147 45 111 147 45 111 147 45 111 147 45 111 147 45 111 147 45 111 147 45 111 147 45 111 147 45 111 147 45 111 147 45 111 147 45 111 147 45 111 147 45 111 147 45 111 147 45 111 147 45 111 147 45 111 147 45 111 147 45 111 147 45 111 147 45 111 147 45 111 147 45 111 147 45 111 147 45 111 147 45 111 147 45 111 147 45 111 147 45 111 147 45 111 147 45 111 147 45 111 147 45 111 147 45 111 147 45 111 147 45 111 147 45 111 147 45 111 147 45 111 147 45 111 147 45 111 147 45 111 147 45 111 147 45 111 147 45 111 147 45 111 147 45 111 147 45 111 147 45 111 147 45 111 147 45 111 147 45 111 147 45 111 147 45 111 147 45 111 147 45 111 147 45 111 147 45 111 147 45 111 147 45 111 147 45 111 147 45 111 147 45 111 147 45 111 147 45 111 147 45 111 147 45 111 147 45 111 147 45 111 147 45 111 147 45 111 147 45 111 147 45 111 147 45 111 147 255 156 168 255 156 168 255 156 168 255 156 168 255 156 168 255 156 168 45 111 147 45 111 147 45 111 147 45 111 147 45 111 147 45 111 147 45 111 147 255 255 255 255 255 255 45 111 147 45 111 147 45 111 147 45 111 147 45 111 147 45 111 147 45 111 147 45 111 147 45 111 147 45 111 147 45 111 147 45 111 147 45 111 147 45 111 147 50 10 20 50 10 20 50 10 20 50 10 20 50 10 20 50 10 20 50 10 20 50 10 20 50 10 20 50 10 20 50 10 20 50 10 20 50 10 20 50 10 20 50 10 20 50 10 20 50 10 20 50 10 20 50 10 20 50 10 20 50 10 20 50 10 20 50 10 20 50 10 20 50 10 20 50 10 20 50 10 20 50 10 20 50 10 20 50 10 20 50 10 20 50 10 20 50 10 20 50 10 20 50 10 20 50 10 20 50 10 20 50 10 20 50 10 20 50 10 20 50 10 20 50 10 20 50 10 20 50 10 20 50 10 20 50 10 20 50 10 20 50 10 20 50 10 20 50 10 20 50 10 20 50 10 20 50 10 20 255 120 40 50 10 20 50 10 20 50 10 20 50 10 20 50 10 20 50 10 20 50 10 20 50 10 20 50 10 20 50 10 20 50 10 20 45 111 147 45 111 147 45 111 147 45 111 147 45 111 147 45 111 147 255 128 189 255 128 189 255 128 189 45 111 147 45 111 147 45 111 147 45 111 147 45 111 147 45 111 147 45 111 147 45 111 147 45 111 147 255 124 192 255 124 192 255 124 192 45 111 147 45 111 147 45 111 147 45 111 147 45 111 147 45 111 147 45 111 147 45 111 147 45 111 147 45 111 147 45 111 147 45 111 147 45 111 147 45 111 147 255 120 195 255 120 195 255 120 195 255 120 195 45 111 147 45 111 147 45 111 147 45 111 147 45 111 147 45 111 147 45 111 147 45 111 147 45 111 147 45 111 147 45 111 147 45 111 147 45 111 147 45 111 147 45 111 147 45 111 147 45 111 147 45 111 147 45 111 147 45 111 147 45 111 147 45 111 147 45 111 147 45 111 147 45 111 147 45 111 147 255 116 198 255 116 198 255 116 198 255 116 198 255 116 198 255 116 198 45 111 147 45 111 147 45 111 147 45 111 147 45 111 147 45 111 147 45 111 147 45 111 147 45 111 147 45 111 147 45 111 147 45 111 147 45 111 147 45 111 147 45 111 147 45 111 147 45 111 147 45 111 147 45 111 147 45 111 147 45 111 147 45 111 147 45 111 147 45 111 147 45 111 147 45 111 147 45 111 147 45 111 147 45 111 147 45 111 147 45 111 147 45 111 147 45 111 147 45 111 147 45 111 147 45 111 147 45 111 147 45 111 147 45 111 147 45 111 147 45 111 147 45 111 147 45 111 147 45 111 147 45 111 147 45 111 147 45 111 147 45 111 147 45 111 147 45 111 147 45 111 147 45 111 147 45 111 147 45 111 147 45 111 147 45 111 147 45 111 147 45 111 147 45 111 147 45 111 147 45 111 147 45 111 147 45 111 147 45 111 147 45 111 147 45 111 147 45 111 147 45 111 147 45 111 147 45 111 147 45 111 147 45 111 147 45 111 147 45 111 147 45 111 147 45 111 147 45 111 147 45 111 147 45 111 147 45 111 147 45 111 147 45 111 147 45 111 147 45 111 147 45 111 147 45 111 147 45 111 147 45 111 147 45 111 147 45 111 147 45 111 147 45 111 147 45 111 147 45 111 147 45 111 147 45 111 147 45 111 147 45 111 147 45 111 147 45 111 147 45 111 147 45 111 147 45 111 147 45 111 147 45 111 147 45 111 147 45 111 147 45 111 147 45 111 147 
46 110 148 46 110 148 46 110 148 46 110 148 46 110 148 46 110 148 46 110 148 46 110 148 46 110 148 46 110 148 46 110 148 46 110 148 46 110 148 46 110 148 46 110 148 46 110 148 46 110 148 46 110 148 46 110 148 46 110 148 46 110 148 46 110 148 46 110 148 46 110 148 46 110 148 46 110 148 46 110 148 46 110 148 46 110 148 46 110 148 46 110 148 46 110 148 46 110 148 46 110 148 46 110 148 46 110 148 46 110 148 46 110 148 46 110 148 46 110 148 46 110 148 46 110 148 46 110 148 46 110 148 46 110 148 46 110 148 46 110 148 46 110 148 46 110 148 46 110 148 46 110 148 46 110 148 46 110 148 46 110 148 46 110 148 46 110 148 46 110 148 46 110 148 46 110 148 46 110 148 46 110 148 46 110 148 46 110 148 46 110 148 46 110 148 46 110 148 46 110 148 46 110 148 46 110 148 46 110 148 46 110 148 46 110 148 46 110 148 46 110 148 46 110 148 46 110 148 46 110 148 46 110 148 46 110 148 46 110 148 46 110 148 46 110 148 46 110 148 46 110 148 46 110 148 46 110 148 46 110 148 46 110 148 46 110 148 46 110 148 46 110 148 46 110 148 46 110 148 46 110 148 46 110 148 46 110 148 46 110 148 46 110 148 46 110 148 46 110 148 46 110 148 46 110 148 46 110 148 46 110 148 46 110 148 46 110 148 46 110 148 46 110 148 46 110 148 46 110 148 46 110 148 46 110 148 255 156 168 255 156 168 255 156 168 255 156 168 255 156 168 255 156 168 46 110 148 46 110 148 46 110 148 46 110 148 46 110 148 46 110 148 46 110 148 255 255 255 255 255 255 46 110 148 46 110 148 46 110 148 46 110 148 46 110 148 46 110 148 46 110 148 46 110 148 46 110 148 46 110 148 46 110 148 46 110 148 46 110 148 50 10 20 50 10 20 50 10 20 50 10 20 50 10 20 50 10 20 50 10 20 50 10 20 50 10 20 50 10 20 50 10 20 50 10 20 50 10 20 50 10 20 50 10 20 50 10 20 50 10 20 50 10 20 50 10 20 50 10 20 50 10 20 50 10 20 50 10 20 50 10 20 50 10 20 50 10 20 50 10 20 50 10 20 50 10 20 50 10 20 50 10 20 50 10 20 50 10 20 50 10 20 50 10 20 50 10 20 50 10 20 50 10 20 50 10 20 50 10 20 50 10 20 50 10 20 50 10 20 50 10 20 50 10 20 50 10 20 50 10 20 50 10 20 50 10 20 50 10 20 50 10 20 50 10 20 255 120 40 50 10 20 50 10 20 50 10 20 50 10 20 50 10 20 50 10 20 50 10 20 50 10 20 50 10 20 50 10 20 50 10 20 50 10 20 46 110 148 46 110 148 46 110 148 46 110 148 255 128 189 255 128 189 255 128 189 46 110 148 46 110 148 46 110 148 46 110 148 46 110 148 46 110 148 46 110 148 46 110 148 46 110 148 255 124 192 255 124 192 255 124 192 46 110 148 46 110 148 46 110 148 46 110 148 46 110 148 46 110 148 46 110 148 46 110 148 46 110 148 46 110 148 46 110 148 46 110 148 46 110 148 46 110 148 255 120 195 255 120 195 255 120 195 46 110 148 46 110 148 46 110 148 46 110 148 46 110 148 46 110 148 46 110 148 46 110 148 46 110 148 46 110 148 46 110 148 46 110 148 46 110 148 46 110 148 46 110 148 46 110 148 46 110 148 46 110 148 46 110 148 46 110 148 46 110 148 46 110 148 46 110 148 46 110 148 46 110 148 46 110 148 255 116 198 255 116 198 255 116 198 255 116 198 255 116 198 255 116 198 46 110 148 46 110 148 46 110 148 46 110 148 46 110 148 46 110 148 46 110 148 46 110 148 46 110 148 46 110 148 46 110 148 46 110 148 46 110 148 46 110 148 46 110 148 46 110 148 46 110 148 46 110 148 46 110 148 46 110 148 46 110 148 46 110 148 46 110 148 46 110 148 46 110 148 46 110 148 46 110 148 46 110 148 46 110 148 46 110 148 46 110 148 46 110 148 46 110 148 46 110 148 46 110 148 46 110 148 46 110 148 46 110 148 46 110 148 46 110 148 46 110 148 46 110 148 46 110 148 46 110 148 46 110 148 46 110 148 46 110 148 46 110 148 46 110 148 46 110 148 46 110 148 46 110 148 46 110 148 46 110 148 46 110 148 46 110 148 46 110 148 46 110 148 46 110 148 46 110 148 46 110 148 46 110 148 46 110 148 46 110 148 46 110 148 46 110 148 46 110 148 46 110 148 46 110 148 46 110 148 46 110 148 46 110 148 46 110 148 46 110 148 46 110 148 46 110 148 46 110 148 46 110 148 46 110 148 46 110 148 46 110 148 46 110 148 46 110 148 46 110 148 46 110 148 46 110 148 46 110 148 46 110 148 46 110 148 46 110 148 46 110 148 46 110 148 46 110 148 46 110 148 46 110 148 46 110 148 46 110 148 46 110 148 46 110 148 46 110 148 46 110 148 46 110 148 46 110 148 46 110 148 46 110 148 46 110 148 46 110 148 46 110 148 46 110 148 46 110 148 46 110 148 
46 110 149 46 110 149 46 110 149 46 110 149 46 110 149 46 110 149 46 110 149 46 110 149 46 110 149 46 110 149 46 110 149 46 110 149 46 110 149 46 110 149 46 110 149 46 110 149 46 110 149 46 110 149 46 110 149 46 110 149 46 110 149 46 110 149 46 110 149 46 110 149 46 110 149 46 110 149 46 110 149 46 110 149 46 110 149 46 110 149 46 110 149 46 110 149 46 110 149 46 110 149 46 110 149 46 110 149 46 110 149 46 110 149 46 110 149 46 110 149 46 110 149 46 110 149 46 110 149 46 110 149 46 110 149 46 110 149 46 110 149 46 110 149 46 110 149 46 110 149 46 110 149 46 110 149 46 110 149 46 110 149 46 110 149 46 110 149 46 110 149 46 110 149 46 110 149 46 110 149 46 110 149 46 110 149 46 110 149 46 110 149 46 110 149 46 110 149 46 110 149 46 110 149 46 110 149 46 110 149 46 110 149 46 110 149 46 110 149 46 110 149 46 110 149 46 110 149 46 110 149 46 110 149 46 110 149 46 110 149 46 110 149 46 110 149 46 110 149 46 110 149 46 110 149 46 110 149 46 110 149 46 110 149 46 110 149 46 110 149 46 110 149 46 110 149 46 110 149 46 110 149 46 110 149 46 110 149 46 110 149 46 110 149 46 110 149 46 110 149 46 110 149 46 110 149 46 110 149 46 110 149 46 110 149 46 110 149 46 110 149 46 110 149 46 110 149 46 110 149 46 110 149 46 110 149 46 110 149 46 110 149 255 156 168 255 156 168 255 156 168 255 156 168 255 156 168 255 156 168 46 110 149 46 110 149 46 110 149 46 110 149 46 110 149 46 110 149 46 110 149 255 255 255 46 110 149 46 110 149 46 110 149 46 110 149 46 110 149 46 110 149 46 110 149 46 110 149 46 110 149 46 110 149 46 110 149 46 110 149 46 110 149 50 10 20 50 10 20 50 10 20 50 10 20 50 10 20 50 10 20 50 10 20 50 10 20 50 10 20 50 10 20 50 10 20 50 10 20 50 10 20 50 10 20 50 10 20 50 10 20 50 10 20 50 10 20 50 10 20 50 10 20 50 10 20 50 10 20 50 10 20 50 10 20 50 10 20 50 10 20 50 10 20 50 10 20 50 10 20 50 10 20 50 10 20 50 10 20 50 10 20 50 10 20 50 10 20 50 10 20 50 10 20 50 10 20 50 10 20 50 10 20 50 10 20 50 10 20 50 10 20 50 10 20 50 10 20 50 10 20 50 10 20 50 10 20 50 10 20 50 10 20 50 10 20 255 120 40 50 10 20 50 10 20 50 10 20 50 10 20 50 10 20 50 10 20 50 10 20 50 10 20 50 10 20 50 10 20 50 10 20 50 10 20 46 110 149 46 110 149 46 110 149 46 110 149 255 128 189 255 128 189 255 128 189 46 110 149 46 110 149 46 110 149 46 110 149 46 110 149 46 110 149 46 110 149 46 110 149 255 124 192 255 124 192 255 124 192 46 110 149 46 110 149 46 110 149 46 110 149 46 110 149 46 110 149 46 110 149 46 110 149 46 110 149 46 110 149 46 110 149 46 110 149 46 110 149 46 110 149 255 120 195 255 120 195 255 120 195 46 110 149 46 110 149 46 110 149 46 110 149 46 110 149 46 110 149 46 110 149 46 110 149 46 110 149 46 110 149 46 110 149 46 110 149 46 110 149 46 110 149 46 110 149 46 110 149 46 110 149 46 110 149 46 110 149 46 110 149 46 110 149 46 110 149 46 110 149 46 110 149 46 110 149 255 116 198 255 116 198 255 116 198 255 116 198 255 116 198 255 116 198 46 110 149 46 110 149 46 110 149 46 110 149 46 110 149 46 110 149 46 110 149 46 110 149 46 110 149 46 110 149 46 110 149 46 110 149 46 110 149 46 110 149 46 110 149 46 110 149 46 110 149 46 110 149 46 110 149 46 110 149 46 110 149 46 110 149 46 110 149 46 110 149 46 110 149 46 110 149 46 110 149 46 110 149 46 110 149 46 110 149 46 110 149 46 110 149 46 110 149 46 110 149 46 110 149 46 110 149 46 110 149 46 110 149 46 110 149 46 110 149 46 110 149 46 110 149 46 110 149 46 110 149 46 110 149 46 110 149 46 110 149 46 110 149 46 110 149 46 110 149 46 110 149 46 110 149 46 110 149 46 110 149 46 110 149 46 110 149 46 110 149 46 110 149 46 110 149 46 110 149 46 110 149 46 110 149 46 110 149 46 110 149 46 110 149 46 110 149 46 110 149 46 110 149 46 110 149 46 110 149 46 110 149 46 110 149 46 110 149 46 110 149 46 110 149 46 110 149 46 110 149 46 110 149 46 110 149 46 110 149 46 110 149 46 110 149 46 110 149 46 110 149 46 110 149 46 110 149 46 110 149 46 110 149 46 110 149 46 110 149 46 110 149 46 110 149 46 110 149 46 110 149 46 110 149 46 110 149 46 110 149 46 110 149 46 110 149 46 110 149 46 110 149 46 110 149 46 110 149 46 110 149 46 110 149 46 110 149 46 110 149 46 110 149 46 110 149 46 110 149 46 110 149 46 110 149 46 110 149 
46 109 150 46 109 150 46 109 150 46 109 150 46 109 150 46 109 150 46 109 150 46 109 150 46 109 150 46 109 150 46 109 150 46 109 150 46 109 150 46 109 150 46 109 150 46 109 150 46 109 150 46 109 150 46 109 150 46 109 150 46 109 150 46 109 150 46 109 150 46 109 150 46 109 150 46 109 150 46 109 150 46 109 150 46 109 150 46 109 150 46 109 150 46 109 150 46 109 150 46 109 150 46 109 150 46 109 150 46 109 150 46 109 150 46 109 150 46 109 150 46 109 150 46 109 150 46 109 150 46 109 150 46 109 150 46 109 150 46 109 150 46 109 150 46 109 150 46 109 150 46 109 150 46 109 150 46 109 150 46 109 150 46 109 150 46 109 150 46 109 150 46 109 150 46 109 150 46 109 150 46 109 150 46 109 150 46 109 150 46 109 150 46 109 150 46 109 150 46 109 150 46 109 150 46 109 150 46 109 150 46 109 150 46 109 150 46 109 150 46 109 150 46 109 150 46 109 150 46 109 150 46 109 150 46 109 150 46 109 150 46 109 150 46 109 150 46 109 150 46 109 150 46 109 150 46 109 150 46 109 150 46 109 150 46 109 150 46 109 150 46 109 150 46 109 150 46 109 150 46 109 150 46 109 150 46 109 150 46 109 150 46 109 150 46 109 150 46 109 150 46 109 150 46 109 150 46 109 150 46 109 150 46 109 150 46 109 150 46 109 150 46 109 150 46 109 150 46 109 150 46 109 150 46 109 150 46 109 150 46 109 150 46 109 150 46 109 150 255 156 168 255 156 168 255 156 168 255 156 168 255 156 168 255 156 168 46 109 150 46 109 150 46 109 150 46 109 150 46 109 150 46 109 150 255 255 255 255 255 255 46 109 150 46 109 150 46 109 150 46 109 150 46 109 150 46 109 150 46 109 150 46 109 150 46 109 150 46 109 150 46 109 150 50 10 20 50 10 20 50 10 20 50 10 20 50 10 20 50 10 20 50 10 20 50 10 20 50 10 20 50 10 20 50 10 20 50 10 20 50 10 20 50 10 20 50 10 20 50 10 20 50 10 20 50 10 20 50 10 20 50 10 20 50 10 20 50 10 20 50 10 20 50 10 20 50 10 20 50 10 20 50 10 20 50 10 20 50 10 20 50 10 20 50 10 20 50 10 20 50 10 20 50 10 20 50 10 20 50 10 20 50 10 20 50 10 20 50 10 20 50 10 20 50 10 20 50 10 20 50 10 20 50 10 20 50 10 20 50 10 20 50 10 20 50 10 20 50 10 20 50 10 20 50 10 20 255 120 40 50 10 20 50 10 20 50 10 20 50 10 20 50 10 20 50 10 20 50 10 20 50 10 20 50 10 20 50 10 20 50 10 20 50 10 20 46 109 150 46 109 150 46 109 150 255 128 189 255 128 189 255 128 189 46 109 150 46 109 150 46 109 150 46 109 150 46 109 150 46 109 150 46 109 150 46 109 150 255 124 192 255 124 192 255 124 192 46 109 150 46 109 150 46 109 150 46 109 150 46 109 150 46 109 150 46 109 150 46 109 150 46 109 150 46 109 150 46 109 150 46 109 150 46 109 150 255 120 195 255 120 195 255 120 195 255 120 195 46 109 150 46 109 150 46 109 150 46 109 150 46 109 150 46 109 150 46 109 150 46 109 150 46 109 150 46 109 150 46 109 150 46 109 150 46 109 150 46 109 150 46 109 150 46 109 150 46 109 150 46 109 150 46 109 150 46 109 150 46 109 150 46 109 150 46 109 150 46 109 150 255 116 198 255 116 198 255 116 198 255 116 198 255 116 198 255 116 198 46 109 150 46 109 150 46 109 150 46 109 150 46 109 150 46 109 150 46 109 150 46 109 150 46 109 150 46 109 150 46 109 150 46 109 150 46 109 150 46 109 150 46 109 150 46 109 150 46 109 150 46 109 150 46 109 150 46 109 150 46 109 150 46 109 150 46 109 150 46 109 150 46 109 150 46 109 150 46 109 150 46 109 150 46 109 150 46 109 150 46 109 150 46 109 150 46 109 150 46 109 150 46 109 150 46 109 150 46 109 150 46 109 150 46 109 150 46 109 150 46 109 150 46 109 150 46 109 150 46 109 150 46 109 150 46 109 150 46 109 150 46 109 150 46 109 150 46 109 150 46 109 150 46 109 150 46 109 150 46 109 150 46 109 150 46 109 150 46 109 150 46 109 150 46 109 150 46 109 150 46 109 150 46 109 150 46 109 150 46 109 150 46 109 150 46 109 150 46 109 150 46 109 150 46 109 150 46 109 150 46 109 150 46 109 150 46 109 150 46 109 150 46 109 150 46 109 150 46 109 150 46 109 150 46 109 150 46 109 150 46 109 150 46 109 150 46 109 150 46 109 150 46 109 150 46 109 150 46 109 150 46 109 150 46 109 150 46 109 150 46 109 150 46 109 150 46 109 150 46 109 150 46 109 150 46 109 150 46 109 150 46 109 150 46 109 150 46 109 150 46 109 150 46 109 150 46 109 150 46 109 150 46 109 150 46 109 150 46 109 150 46 109 150 46 109 150 46 109 150 46 109 150 46 109 150 46 109 150 46 109 150 46 109 150 
47 109 151 47 109 151 47 109 151 47 109 151 47 109 151 47 109 151 47 109 151 47 109 151 47 109 151 47 109 151 47 109 151 47 109 151 47 109 151 47 109 151 47 109 151 47 109 151 47 109 151 47 109 151 47 109 151 47 109 151 47 109 151 47 109 151 47 109 151 47 109 151 47 109 151 47 109 151 47 109 151 47 109 151 47 109 151 47 109 151 47 109 151 47 109 151 47 109 151 47 109 151 47 109 151 47 109 151 47 109 151 47 109 151 47 109 151 47 109 151 47 109 151 47 109 151 47 109 151 47 109 151 47 109 151 47 109 151 47 109 151 47 109 151 47 109 151 47 109 151 47 109 151 47 109 151 47 109 151 47 109 151 47 109 151 47 109 151 47 109 151 47 109 151 47 109 151 47 109 151 47 109 151 47 109 151 47 109 151 47 109 151 47 109 151 47 109 151 47 109 151 47 109 151 47 109 151 47 109 151 47 109 151 47 109 151 47 109 151 47 109 151 47 109 151 47 109 151 47 109 151 47 109 151 47 109 151 47 109 151 47 109 151 47 109 151 47 109 151 47 109 151 47 109 151 47 109 151 47 109 151 47 109 151 47 109 151 47 109 151 47 109 151 47 109 151 47 109 151 47 109 151 47 109 151 47 109 151 47 109 151 47 109 151 47 109 151 47 109 151 47 109 151 47 109 151 47 109 151 47 109 151 47 109 151 47 109 151 47 109 151 47 109 151 47 109 151 47 109 151 47 109 151 47 109 151 47 109 151 47 109 151 47 109 151 47 109 151 47 109 151 47 109 151 255 156 168 255 156 168 255 156 168 255 156 168 255 156 168 255 156 168 47 109 151 47 109 151 47 109 151 47 109 151 47 109 151 47 109 151 255 255 255 255 255 255 47 109 151 47 109 151 47 109 151 47 109 151 47 109 151 47 109 151 47 109 151 47 109 151 47 109 151 47 109 151 50 10 20 50 10 20 50 10 20 50 10 20 50 10 20 50 10 20 50 10 20 50 10 20 50 10 20 50 10 20 50 10 20 50 10 20 50 10 20 50 10 20 50 10 20 50 10 20 50 10 20 50 10 20 50 10 20 50 10 20 50 10 20 50 10 20 50 10 20 50 10 20 50 10 20 50 10 20 50 10 20 50 10 20 50 10 20 50 10 20 50 10 20 50 10 20 50 10 20 50 10 20 50 10 20 50 10 20 50 10 20 50 10 20 50 10 20 50 10 20 50 10 20 50 10 20 50 10 20 50 10 20 50 10 20 50 10 20 50 10 20 50 10 20 50 10 20 50 10 20 255 120 40 50 10 20 50 10 20 50 10 20 50 10 20 50 10 20 50 10 20 50 10 20 50 10 20 50 10 20 50 10 20 50 10 20 50 10 20 50 10 20 47 109 151 47 109 151 255 128 189 255 128 189 255 128 189 47 109 151 47 109 151 47 109 151 47 109 151 47 109 151 47 109 151 47 109 151 255 124 192 255 124 192 255 124 192 47 109 151 47 109 151 47 109 151 47 109 151 47 109 151 47 109 151 47 109 151 47 109 151 47 109 151 47 109 151 47 109 151 47 109 151 47 109 151 255 120 195 255 120 195 255 120 195 255 120 195 47 109 151 47 109 151 47 109 151 47 109 151 47 109 151 47 109 151 47 109 151 47 109 151 47 109 151 47 109 151 47 109 151 47 109 151 47 109 151 47 109 151 47 109 151 47 109 151 47 109 151 47 109 151 47 109 151 47 109 151 47 109 151 47 109 151 47 109 151 255 116 198 255 116 198 255 116 198 255 116 198 255 116 198 255 116 198 47 109 151 47 109 151 47 109 151 47 109 151 47 109 151 47 109 151 47 109 151 47 109 151 47 109 151 47 109 151 47 109 151 47 109 151 47 109 151 47 109 151 47 109 151 47 109 151 47 109 151 47 109 151 47 109 151 47 109 151 47 109 151 47 109 151 47 109 151 47 109 151 47 109 151 47 109 151 47 109 151 47 109 151 47 109 151 47 109 151 47 109 151 47 109 151 47 109 151 47 109 151 47 109 151 47 109 151 47 109 151 47 109 151 47 109 151 47 109 151 47 109 151 47 109 151 47 109 151 47 109 151 47 109 151 47 109 151 47 109 151 47 109 151 47 109 151 47 109 151 47 109 151 47 109 151 47 109 151 47 109 151 47 109 151 47 109 151 47 109 151 47 109 151 47 109 151 47 109 151 47 109 151 47 109 151 47 109 151 47 109 151 47 109 151 47 109 151 47 109 151 47 109 151 47 109 151 47 109 151 47 109 151 47 109 151 47 109 151 47 109 151 47 109 151 47 109 151 47 109 151 47 109 151 47 109 151 47 109 151 47 109 151 47 109 151 47 109 151 47 109 151 47 109 151 47 109 151 47 109 151 47 109 151 47 109 151 47 109 151 47 109 151 47 109 151 47 109 151 47 109 151 47 109 151 47 109 151 47 109 151 47 109 151 47 109 151 47 109 151 47 109 151 47 109 151 47 109 151 47 109 151 47 109 151 47 109 151 47 109 151 47 109 151 47 109 151 47 109 151 47 109 151 47 109 151 47 109 151 47 109 151 47 109 151 47 109 151 47 109 151 
47 108 151 47 108 151 47 108 151 47 108 151 47 108 151 47 108 151 47 108 151 47 108 151 47 108 151 47 108 151 47 108 151 47 108 151 47 108 151 47 108 151 47 108 151 47 108 151 47 108 151 47 108 151 47 108 151 47 108 151 47 108 151 47 108 151 47 108 151 47 108 151 47 108 151 47 108 151 47 108 151 47 108 151 47 108 151 47 108 151 47 108 151 47 108 151 47 108 151 47 108 151 47 108 151 47 108 151 47 108 151 47 108 151 47 108 151 47 108 151 47 108 151 47 108 151 47 108 151 47 108 151 47 108 151 47 108 151 47 108 151 47 108 151 47 108 151 47 108 151 47 108 151 47 108 151 47 108 151 47 108 151 47 108 151 47 108 151 47 108 151 47 108 151 47 108 151 47 108 151 47 108 151 47 108 151 47 108 151 47 108 151 47 108 151 47 108 151 47 108 151 47 108 151 47 108 151 47 108 151 47 108 151 47 108 151 47 108 151 47 108 151 47 108 151 47 108 151 47 108 151 47 108 151 47 108 151 47 108 151 47 108 151 47 108 151 47 108 151 47 108 151 47 108 151 47 108 151 47 108 151 47 108 151 47 108 151 47 108 151 47 108 151 47 108 151 47 108 151 47 108 151 47 108 151 47 108 151 47 108 151 47 108 151 47 108 151 47 108 151 47 108 151 47 108 151 47 108 151 47 108 151 47 108 151 47 108 151 47 108 151 47 108 151 47 108 151 47 108 151 47 108 151 47 108 151 47 108 151 47 108 151 47 108 151 47 108 151 47 108 151 47 108 151 47 108 151 47 108 151 255 156 168 255 156 168 255 156 168 255 156 168 255 156 168 255 156 168 47 108 151 47 108 151 47 108 151 47 108 151 47 108 151 47 108 151 255 255 255 255 255 255 47 108 151 47 108 151 47 108 151 47 108 151 47 108 151 47 108 151 47 108 151 47 108 151 50 10 20 50 10 20 50 10 20 50 10 20 50 10 20 50 10 20 50 10 20 50 10 20 50 10 20 50 10 20 50 10 20 50 10 20 50 10 20 50 10 20 50 10 20 50 10 20 50 10 20 50 10 20 50 10 20 50 10 20 50 10 20 50 10 20 50 10 20 50 10 20 50 10 20 50 10 20 50 10 20 50 10 20 50 10 20 50 10 20 50 10 20 50 10 20 50 10 20 50 10 20 50 10 20 50 10 20 50 10 20 50 10 20 50 10 20 50 10 20 50 10 20 50 10 20 50 10 20 50 10 20 50 10 20 50 10 20 50 10 20 50 10 20 50 10 20 50 10 20 255 120 40 50 10 20 50 10 20 50 10 20 50 10 20 50 10 20 50 10 20 50 10 20 50 10 20 50 10 20 50 10 20 50 10 20 50 10 20 50 10 20 47 108 151 255 128 189 255 128 189 255 128 189 47 108 151 47 108 151 47 108 151 47 108 151 47 108 151 47 108 151 47 108 151 47 108 151 255 124 192 255 124 192 255 124 192 47 108 151 47 108 151 47 108 151 47 108 151 47 108 151 47 108 151 47 108 151 47 108 151 47 108 151 47 108 151 47 108 151 47 108 151 255 120 195 255 120 195 255 120 195 255 120 195 47 108 151 47 108 151 47 108 151 47 108 151 47 108 151 47 108 151 47 108 151 47 108 151 47 108 151 47 108 151 47 108 151 47 108 151 47 108 151 47 108 151 47 108 151 47 108 151 47 108 151 47 108 151 47 108 151 47 108 151 47 108 151 47 108 151 255 116 198 255 116 198 255 116 198 255 116 198 255 116 198 255 116 198 47 108 151 47 108 151 47 108 151 47 108 151 47 108 151 47 108 151 47 108 151 47 108 151 47 108 151 47 108 151 47 108 151 47 108 151 47 108 151 47 108 151 47 108 151 47 108 151 47 108 151 47 108 151 47 108 151 47 108 151 47 108 151 47 108 151 47 108 151 47 108 151 47 108 151 47 108 151 47 108 151 47 108 151 47 108 151 47 108 151 47 108 151 47 108 151 47 108 151 47 108 151 47 108 151 47 108 151 47 108 151 47 108 151 47 108 151 47 108 151 47 108 151 47 108 151 47 108 151 47 108 151 47 108 151 47 108 151 47 108 151 47 108 151 47 108 151 47 108 151 47 108 151 47 108 151 47 108 151 47 108 151 47 108 151 47 108 151 47 108 151 47 108 151 47 108 151 47 108 151 47 108 151 47 108 151 47 108 151 47 108 151 47 108 151 47 108 151 47 108 151 47 108 151 47 108 151 47 108 151 47 108 151 47 108 151 47 108 151 47 108 151 47 108 151 47 108 151 47 108 151 47 108 151 47 108 151 47 108 151 47 108 151 47 108 151 47 108 151 47 108 151 47 108 151 47 108 151 47 108 151 47 108 151 47 108 151 47 108 151 47 108 151 47 108 151 47 108 151 47 108 151 47 108 151 47 108 151 47 108 151 47 108 151 47 108 151 47 108 151 47 108 151 47 108 151 47 108 151 47 108 151 47 108 151 47 108 151 47 108 151 47 108 151 47 108 151 47 108 151 47 108 151 47 108 151 47 108 151 47 108 151 47 108 151 47 108 151 47 108 151 47 108 151 47 108 151 
47 108 152 47 108 152 47 108 152 47 108 152 47 108 152 47 108 152 47 108 152 47 108 152 47 108 152 47 108 152 47 108 152 47 108 152 47 108 152 47 108 152 47 108 152 47 108 152 47 108 152 47 108 152 47 108 152 47 108 152 47 108 152 47 108 152 47 108 152 47 108 152 47 108 152 47 108 152 47 108 152 47 108 152 47 108 152 47 108 152 47 108 152 47 108 152 47 108 152 47 108 152 47 108 152 47 108 152 47 108 152 47 108 152 47 108 152 47 108 152 47 108 152 47 108 152 47 108 152 47 108 152 47 108 152 47 108 152 47 108 152 47 108 152 47 108 152 47 108 152 47 108 152 47 108 152 47 108 152 47 108 152 47 108 152 47 108 152 47 108 152 47 108 152 47 108 152 47 108 152 47 108 152 47 108 152 47 108 152 47 108 152 47 108 152 47 108 152 47 108 152 47 108 152 47 108 152 47 108 152 47 108 152 47 108 152 47 108 152 47 108 152 47 108 152 47 108 152 47 108 152 47 108 152 47 108 152 47 108 152 47 108 152 47 108 152 47 108 152 47 108 152 47 108 152 47 108 152 47 108 152 47 108 152 47 108 152 47 108 152 47 108 152 47 108 152 47 108 152 47 108 152 47 108 152 47 108 152 47 108 152 47 108 152 47 108 152 47 108 152 47 108 152 47 108 152 47 108 152 47 108 152 47 108 152 47 108 152 47 108 152 47 108 152 47 108 152 47 108 152 47 108 152 47 108 152 47 108 152 47 108 152 47 108 152 47 108 152 47 108 152 47 108 152 47 108 152 47 108 152 47 108 152 47 108 152 255 156 168 255 156 168 255 156 168 255 156 168 255 156 168 255 156 168 47 108 152 47 108 152 47 108 152 47 108 152 47 108 152 47 108 152 255 255 255 255 255 255 47 108 152 47 108 152 47 108 152 47 108 152 47 108 152 47 108 152 47 108 152 50 10 20 50 10 20 50 10 20 50 10 20 50 10 20 50 10 20 50 10 20 50 10 20 50 10 20 50 10 20 50 10 20 50 10 20 50 10 20 50 10 20 50 10 20 50 10 20 50 10 20 50 10 20 50 10 20 50 10 20 50 10 20 50 10 20 50 10 20 50 10 20 50 10 20 50 10 20 50 10 20 50 10 20 50 10 20 50 10 20 50 10 20 50 10 20 50 10 20 50 10 20 50 10 20 50 10 20 50 10 20 50 10 20 50 10 20 50 10 20 50 10 20 50 10 20 50 10 20 50 10 20 50 10 20 50 10 20 50 10 20 50 10 20 50 10 20 255 120 40 50 10 20 50 10 20 50 10 20 50 10 20 50 10 20 50 10 20 50 10 20 50 10 20 50 10 20 50 10 20 50 10 20 50 10 20 50 10 20 47 108 152 255 128 189 255 128 189 255 128 189 47 108 152 47 108 152 47 108 152 47 108 152 47 108 152 47 108 152 47 108 152 255 124 192 255 124 192 255 124 192 47 108 152 47 108 152 47 108 152 47 108 152 47 108 152 47 108 152 47 108 152 47 108 152 47 108 152 47 108 152 47 108 152 47 108 152 255 120 195 255 120 195 255 120 195 47 108 152 47 108 152 47 108 152 47 108 152 47 108 152 47 108 152 47 108 152 47 108 152 47 108 152 47 108 152 47 108 152 47 108 152 47 108 152 47 108 152 47 108 152 47 108 152 47 108 152 47 108 152 47 108 152 47 108 152 47 108 152 47 108 152 255 116 198 255 116 198 255 116 198 255 116 198 255 116 198 255 116 198 47 108 152 47 108 152 47 108 152 47 108 152 47 108 152 47 108 152 47 108 152 47 108 152 47 108 152 47 108 152 47 108 152 47 108 152 47 108 152 47 108 152 47 108 152 47 108 152 47 108 152 47 108 152 47 108 152 47 108 152 47 108 152 47 108 152 47 108 152 47 108 152 47 108 152 47 108 152 47 108 152 47 108 152 47 108 152 47 108 152 47 108 152 47 108 152 47 108 152 47 108 152 47 108 152 47 108 152 47 108 152 47 108 152 47 108 152 47 108 152 47 108 152 47 108 152 47 108 152 47 108 152 47 108 152 47 108 152 47 108 152 47 108 152 47 108 152 47 108 152 47 108 152 47 108 152 47 108 152 47 108 152 47 108 152 47 108 152 47 108 152 47 108 152 47 108 152 47 108 152 47 108 152 47 108 152 47 108 152 47 108 152 47 108 152 47 108 152 47 108 152 47 108 152 47 108 152 47 108 152 47 108 152 47 108 152 47 108 152 47 108 152 47 108 152 47 108 152 47 108 152 47 108 152 47 108 152 47 108 152 47 108 152 47 108 152 47 108 152 47 108 152 47 108 152 47 108 152 47 108 152 47 108 152 47 108 152 47 108 152 47 108 152 47 108 152 47 108 152 47 108 152 47 108 152 47 108 152 47 108 152 47 108 152 47 108 152 47 108 152 47 108 152 47 108 152 47 108 152 47 108 152 47 108 152 47 108 152 47 108 152 47 108 152 47 108 152 47 108 152 47 108 152 47 108 152 47 108 152 47 108 152 47 108 152 47 108 152 47 108 152 47 108 152 47 108 152 47 108 152 47 108 152 
48 107 153 48 107 153 48 107 153 48 107 153 48 107 153 48 107 153 48 107 153 48 107 153 48 107 153 48 107 153 48 107 153 48 107 153 48 107 153 48 107 153 48 107 153 48 107 153 48 107 153 48 107 153 48 107 153 48 107 153 48 107 153 48 107 153 48 107 153 48 107 153 48 107 153 48 107 153 48 107 153 48 107 153 48 107 153 48 107 153 48 107 153 48 107 153 48 107 153 48 107 153 48 107 153 48 107 153 48 107 153 48 107 153 48 107 153 48 107 153 48 107 153 48 107 153 48 107 153 48 107 153 48 107 153 48 107 153 48 107 153 48 107 153 48 107 153 48 107 153 48 107 153 48 107 153 48 107 153 48 107 153 48 107 153 48 107 153 48 107 153 48 107 153 48 107 153 48 107 153 48 107 153 48 107 153 48 107 153 48 107 153 48 107 153 48 107 153 48 107 153 48 107 153 48 107 153 48 107 153 48 107 153 48 107 153 48 107 153 48 107 153 48 107 153 48 107 153 48 107 153 48 107 153 48 107 153 48 107 153 48 107 153 48 107 153 48 107 153 48 107 153 48 107 153 48 107 153 48 107 153 48 107 153 48 107 153 48 107 153 48 107 153 48 107 153 48 107 153 48 107 153 48 107 153 48 107 153 48 107 153 48 107 153 48 107 153 48 107 153 48 107 153 48 107 153 48 107 153 48 107 153 48 107 153 48 107 153 48 107 153 48 107 153 48 107 153 48 107 153 48 107 153 48 107 153 48 107 153 48 107 153 48 107 153 48 107 153 48 107 153 48 107 153 48 107 153 48 107 153 48 107 153 48 107 153 48 107 153 48 107 153 255 156 168 255 156 168 255 156 168 255 156 168 255 156 168 255 156 168 48 107 153 48 107 153 48 107 153 48 107 153 48 107 153 48 107 153 255 255 255 48 107 153 48 107 153 48 107 153 48 107 153 48 107 153 48 107 153 48 107 153 50 10 20 50 10 20 50 10 20 50 10 20 50 10 20 50 10 20 50 10 20 50 10 20 50 10 20 50 10 20 50 10 20 50 10 20 50 10 20 50 10 20 50 10 20 50 10 20 50 10 20 50 10 20 50 10 20 50 10 20 50 10 20 50 10 20 50 10 20 50 10 20 50 10 20 50 10 20 50 10 20 50 10 20 50 10 20 50 10 20 50 10 20 50 10 20 50 10 20 50 10 20 50 10 20 50 10 20 50 10 20 50 10 20 50 10 20 50 10 20 50 10 20 50 10 20 50 10 20 50 10 20 50 10 20 50 10 20 50 10 20 50 10 20 255 120 40 50 10 20 50 10 20 50 10 20 50 10 20 50 10 20 50 10 20 50 10 20 50 10 20 50 10 20 50 10 20 50 10 20 50 10 20 50 10 20 50 10 20 255 128 189 255 128 189 48 107 153 48 107 153 48 107 153 48 107 153 48 107 153 48 107 153 48 107 153 255 124 192 255 124 192 255 124 192 48 107 153 48 107 153 48 107 153 48 107 153 48 107 153 48 107 153 48 107 153 48 107 153 48 107 153 48 107 153 48 107 153 255 120 195 255 120 195 255 120 195 255 120 195 48 107 153 48 107 153 48 107 153 48 107 153 48 107 153 48 107 153 48 107 153 48 107 153 48 107 153 48 107 153 48 107 153 48 107 153 48 107 153 48 107 153 48 107 153 48 107 153 48 107 153 48 107 153 48 107 153 48 107 153 48 107 153 255 116 198 255 116 198 255 116 198 255 116 198 255 116 198 255 116 198 48 107 153 48 107 153 48 107 153 48 107 153 48 107 153 48 107 153 48 107 153 48 107 153 48 107 153 48 107 153 48 107 153 48 107 153 48 107 153 48 107 153 48 107 153 48 107 153 48 107 153 48 107 153 48 107 153 48 107 153 48 107 153 48 107 153 48 107 153 48 107 153 48 107 153 48 107 153 48 107 153 48 107 153 48 107 153 48 107 153 48 107 153 48 107 153 48 107 153 48 107 153 48 107 153 48 107 153 48 107 153 48 107 153 48 107 153 48 107 153 48 107 153 48 107 153 48 107 153 48 107 153 48 107 153 48 107 153 48 107 153 48 107 153 48 107 153 48 107 153 48 107 153 48 107 153 48 107 153 48 107 153 48 107 153 48 107 153 48 107 153 48 107 153 48 107 153 48 107 153 48 107 153 48 107 153 48 107 153 48 107 153 48 107 153 48 107 153 48 107 153 48 107 153 48 107 153 48 107 153 48 107 153 48 107 153 48 107 153 48 107 153 48 107 153 48 107 153 48 107 153 48 107 153 48 107 153 48 107 153 48 107 153 48 107 153 48 107 153 48 107 153 48 107 153 48 107 153 48 107 153 48 107 153 48 107 153 48 107 153 48 107 153 48 107 153 48 107 153 48 107 153 48 107 153 48 107 153 48 107 153 48 107 153 48 107 153 48 107 153 48 107 153 48 107 153 48 107 153 48 107 153 48 107 153 48 107 153 48 107 153 48 107 153 48 107 153 48 107 153 48 107 153 48 107 153 48 107 153 48 107 153 48 107 153 48 107 153 48 107 153 48 107 153 48 107 153 48 107 153 48 107 153 48 107 153 48 107 153 
48 107 154 48 107 154 48 107 154 48 107 154 48 107 154 48 107 154 48 107 154 48 107 154 48 107 154 48 107 154 48 107 154 48 107 154 48 107 154 48 107 154 48 107 154 48 107 154 48 107 154 48 107 154 48 107 154 48 107 154 48 107 154 48 107 154 48 107 154 48 107 154 48 107 154 48 107 154 48 107 154 48 107 154 48 107 154 48 107 154 48 107 154 48 107 154 48 107 154 48 107 154 48 107 154 48 107 154 48 107 154 48 107 154 48 107 154 48 107 154 48 107 154 48 107 154 48 107 154 48 107 154 48 107 154 48 107 154 48 107 154 48 107 154 48 107 154 48 107 154 48 107 154 48 107 154 48 107 154 48 107 154 48 107 154 48 107 154 48 107 154 48 107 154 48 107 154 48 107 154 48 107 154 48 107 154 48 107 154 48 107 154 48 107 154 48 107 154 48 107 154 48 107 154 48 107 154 48 107 154 48 107 154 48 107 154 48 107 154 48 107 154 48 107 154 48 107 154 48 107 154 48 107 154 48 107 154 48 107 154 48 107 154 48 107 154 48 107 154 48 107 154 48 107 154 48 107 154 48 107 154 48 107 154 48 107 154 48 107 154 48 107 154 48 107 154 48 107 154 48 107 154 48 107 154 48 107 154 48 107 154 48 107 154 48 107 154 48 107 154 48 107 154 48 107 154 48 107 154 48 107 154 48 107 154 48 107 154 48 107 154 48 107 154 48 107 154 48 107 154 48 107 154 48 107 154 48 107 154 48 107 154 48 107 154 48 107 154 48 107 154 48 107 154 48 107 154 48 107 154 48 107 154 48 107 154 48 107 154 48 107 154 48 107 154 48 107 154 255 156 168 255 156 168 255 156 168 255 156 168 255 156 168 255 156 168 48 107 154 48 107 154 48 107 154 48 107 154 48 107 154 255 255 255 255 255 255 48 107 154 48 107 154 48 107 154 48 107 154 48 107 154 50 10 20 50 10 20 50 10 20 50 10 20 50 10 20 50 10 20 50 10 20 50 10 20 50 10 20 50 10 20 50 10 20 50 10 20 50 10 20 50 10 20 50 10 20 50 10 20 50 10 20 50 10 20 50 10 20 50 10 20 50 10 20 50 10 20 50 10 20 50 10 20 50 10 20 50 10 20 50 10 20 50 10 20 50 10 20 50 10 20 50 10 20 50 10 20 50 10 20 50 10 20 50 10 20 50 10 20 50 10 20 50 10 20 50 10 20 50 10 20 50 10 20 50 10 20 50 10 20 50 10 20 50 10 20 50 10 20 50 10 20 50 10 20 255 120 40 50 10 20 50 10 20 50 10 20 50 10 20 50 10 20 50 10 20 50 10 20 50 10 20 50 10 20 50 10 20 50 10 20 50 10 20 50 10 20 50 10 20 255 128 189 255 128 189 48 107 154 48 107 154 48 107 154 48 107 154 48 107 154 48 107 154 255 124 192 255 124 192 255 124 192 48 107 154 48 107 154 48 107 154 48 107 154 48 107 154 48 107 154 48 107 154 48 107 154 48 107 154 48 107 154 48 107 154 255 120 195 255 120 195 255 120 195 255 120 195 48 107 154 48 107 154 48 107 154 48 107 154 48 107 154 48 107 154 48 107 154 48 107 154 48 107 154 48 107 154 48 107 154 48 107 154 48 107 154 48 107 154 48 107 154 48 107 154 48 107 154 48 107 154 48 107 154 48 107 154 255 116 198 255 116 198 255 116 198 255 116 198 255 116 198 255 116 198 48 107 154 48 107 154 48 107 154 48 107 154 48 107 154 48 107 154 48 107 154 48 107 154 48 107 154 48 107 154 48 107 154 48 107 154 48 107 154 48 107 154 48 107 154 48 107 154 48 107 154 48 107 154 48 107 154 48 107 154 48 107 154 48 107 154 48 107 154 48 107 154 48 107 154 48 107 154 48 107 154 48 107 154 48 107 154 48 107 154 48 107 154 48 107 154 48 107 154 48 107 154 48 107 154 48 107 154 48 107 154 48 107 154 48 107 154 48 107 154 48 107 154 48 107 154 48 107 154 48 107 154 48 107 154 48 107 154 48 107 154 48 107 154 48 107 154 48 107 154 48 107 154 48 107 154 48 107 154 48 107 154 48 107 154 48 107 154 48 107 154 48 107 154 48 107 154 48 107 154 48 107 154 48 107 154 48 107 154 48 107 154 48 107 154 48 107 154 48 107 154 48 107 154 48 107 154 48 107 154 48 107 154 48 107 154 48 107 154 48 107 154 48 107 154 48 107 154 48 107 154 48 107 154 48 107 154 48 107 154 48 107 154 48 107 154 48 107 154 48 107 154 48 107 154 48 107 154 48 107 154 48 107 154 48 107 154 48 107 154 48 107 154 48 107 154 48 107 154 48 107 154 48 107 154 48 107 154 48 107 154 48 107 154 48 107 154 48 107 154 48 107 154 48 107 154 48 107 154 48 107 154 48 107 154 48 107 154 48 107 154 48 107 154 48 107 154 48 107 154 48 107 154 48 107 154 48 107 154 48 107 154 48 107 154 48 107 154 48 107 154 48 107 154 48 107 154 48 107 154 48 107 154 48 107 154 48 107 154 48 107 154 48 107 154 
49 106 154 49 106 154 49 106 154 49 106 154 49 106 154 49 106 154 49 106 154 49 106 154 49 106 154 49 106 154 49 106 154 49 106 154 49 106 154 49 106 154 49 106 154 49 106 154 49 106 154 49 106 154 49 106 154 49 106 154 49 106 154 49 106 154 49 106 154 49 106 154 49 106 154 49 106 154 49 106 154 49 106 154 49 106 154 49 106 154 49 106 154 49 106 154 49 106 154 49 106 154 49 106 154 49 106 154 49 106 154 49 106 154 49 106 154 49 106 154 49 106 154 49 106 154 49 106 154 49 106 154 49 106 154 49 106 154 49 106 154 49 106 154 49 106 154 49 106 154 49 106 154 49 106 154 49 106 154 49 106 154 49 106 154 49 106 154 49 106 154 49 106 154 49 106 154 49 106 154 49 106 154 49 106 154 49 106 154 49 106 154 49 106 154 49 106 154 49 106 154 49 106 154 49 106 154 49 106 154 49 106 154 49 106 154 49 106 154 49 106 154 49 106 154 49 106 154 49 106 154 49 106 154 49 106 154 49 106 154 49 106 154 49 106 154 49 106 154 49 106 154 49 106 154 49 106 154 49 106 154 49 106 154 49 106 154 49 106 154 49 106 154 49 106 154 49 106 154 49 106 154 49 106 154 49 106 154 49 106 154 49 106 154 49 106 154 49 106 154 49 106 154 49 106 154 49 106 154 49 106 154 49 106 154 49 106 154 49 106 154 49 106 154 49 106 154 49 106 154 49 106 154 49 106 154 49 106 154 49 106 154 49 106 154 49 106 154 49 106 154 49 106 154 49 106 154 49 106 154 49 106 154 49 106 154 49 106 154 49 106 154 49 106 154 49 106 154 49 106 154 49 106 154 255 156 168 255 156 168 255 156 168 255 156 168 255 156 168 255 156 168 49 106 154 49 106 154 49 106 154 49 106 154 49 106 154 255 255 255 255 255 255 49 106 154 49 106 154 49 106 154 49 106 154 50 10 20 50 10 20 50 10 20 50 10 20 50 10 20 50 10 20 50 10 20 50 10 20 50 10 20 50 10 20 50 10 20 50 10 20 50 10 20 50 10 20 50 10 20 50 10 20 50 10 20 50 10 20 50 10 20 50 10 20 50 10 20 50 10 20 50 10 20 50 10 20 50 10 20 50 10 20 50 10 20 50 10 20 50 10 20 50 10 20 50 10 20 50 10 20 50 10 20 50 10 20 50 10 20 50 10 20 50 10 20 50 10 20 50 10 20 50 10 20 50 10 20 50 10 20 50 10 20 50 10 20 50 10 20 50 10 20 50 10 20 255 120 40 50 10 20 50 10 20 50 10 20 50 10 20 50 10 20 50 10 20 50 10 20 50 10 20 50 10 20 50 10 20 50 10 20 50 10 20 50 10 20 50 10 20 50 10 20 49 106 154 49 106 154 49 106 154 49 106 154 49 106 154 49 106 154 255 124 192 255 124 192 255 124 192 49 106 154 49 106 154 49 106 154 49 106 154 49 106 154 49 106 154 49 106 154 49 106 154 49 106 154 49 106 154 49 106 154 255 120 195 255 120 195 255 120 195 255 120 195 49 106 154 49 106 154 49 106 154 49 106 154 49 106 154 49 106 154 49 106 154 49 106 154 49 106 154 49 106 154 49 106 154 49 106 154 49 106 154 49 106 154 49 106 154 49 106 154 49 106 154 49 106 154 49 106 154 255 116 198 255 116 198 255 116 198 255 116 198 255 116 198 255 116 198 49 106 154 49 106 154 49 106 154 49 106 154 49 106 154 49 106 154 49 106 154 49 106 154 49 106 154 49 106 154 49 106 154 49 106 154 49 106 154 49 106 154 49 106 154 49 106 154 49 106 154 49 106 154 49 106 154 49 106 154 49 106 154 49 106 154 49 106 154 49 106 154 49 106 154 49 106 154 49 106 154 49 106 154 49 106 154 49 106 154 49 106 154 49 106 154 49 106 154 49 106 154 49 106 154 49 106 154 49 106 154 49 106 154 49 106 154 49 106 154 49 106 154 49 106 154 49 106 154 49 106 154 49 106 154 49 106 154 49 106 154 49 106 154 49 106 154 49 106 154 49 106 154 49 106 154 49 106 154 49 106 154 49 106 154 49 106 154 255 112 201 255 112 201 255 112 201 49 106 154 49 106 154 49 106 154 49 106 154 49 106 154 49 106 154 49 106 154 49 106 154 49 106 154 49 106 154 49 106 154 49 106 154 49 106 154 49 106 154 49 106 154 49 106 154 49 106 154 49 106 154 49 106 154 49 106 154 49 106 154 49 106 154 49 106 154 49 106 154 49 106 154 49 106 154 49 106 154 49 106 154 49 106 154 49 106 154 49 106 154 49 106 154 49 106 154 49 106 154 49 106 154 49 106 154 49 106 154 49 106 154 49 106 154 49 106 154 49 106 154 49 106 154 49 106 154 49 106 154 49 106 154 49 106 154 49 106 154 49 106 154 49 106 154 49 106 154 49 106 154 49 106 154 49 106 154 49 106 154 49 106 154 49 106 154 49 106 154 49 106 154 49 106 154 49 106 154 49 106 154 49 106 154 49 106 154 49 106 154 49 106 154 49 106 154 49 106 154 49 106 154 
49 105 155 49 105 155 49 105 155 49 105 155 49 105 155 49 105 155 49 105 155 49 105 155 49 105 155 49 105 155 49 105 155 49 105 155 49 105 155 49 105 155 49 105 155 49 105 155 49 105 155 49 105 155 49 105 155 49 105 155 49 105 155 49 105 155 49 105 155 49 105 155 49 105 155 49 105 155 49 105 155 49 105 155 49 105 155 49 105 155 49 105 155 49 105 155 49 105 155 49 105 155 49 105 155 49 105 155 49 105 155 49 105 155 49 105 155 49 105 155 49 105 155 49 105 155 49 105 155 49 105 155 49 105 155 49 105 155 49 105 155 49 105 155 49 105 155 49 105 155 49 105 155 49 105 155 49 105 155 49 105 155 49 105 155 49 105 155 49 105 155 49 105 155 49 105 155 49 105 155 49 105 155 49 105 155 49 105 155 49 105 155 49 105 155 49 105 155 49 105 155 49 105 155 49 105 155 49 105 155 49 105 155 49 105 155 49 105 155 49 105 155 49 105 155 49 105 155 49 105 155 49 105 155 49 105 155 49 105 155 49 105 155 49 105 155 49 105 155 49 105 155 49 105 155 49 105 155 49 105 155 49 105 155 49 105 155 49 105 155 49 105 155 49 105 155 49 105 155 49 105 155 49 105 155 49 105 155 49 105 155 49 105 155 49 105 155 49 105 155 49 105 155 49 105 155 49 105 155 49 105 155 49 105 155 49 105 155 49 105 155 49 105 155 49 105 155 49 105 155 49 105 155 49 105 155 49 105 155 49 105 155 49 105 155 49 105 155 49 105 155 49 105 155 49 105 155 49 105 155 49 105 155 49 105 155 49 105 155 49 105 155 49 105 155 49 105 155 49 105 155 49 105 155 49 105 155 49 105 155 255 156 168 255 156 168 255 156 168 255 156 168 255 156 168 255 156 168 49 105 155 49 105 155 49 105 155 49 105 155 49 105 155 255 255 255 255 255 255 49 105 155 49 105 155 50 10 20 50 10 20 50 10 20 50 10 20 50 10 20 50 10 20 50 10 20 50 10 20 50 10 20 50 10 20 50 10 20 50 10 20 50 10 20 50 10 20 50 10 20 50 10 20 50 10 20 50 10 20 50 10 20 50 10 20 50 10 20 50 10 20 50 10 20 50 10 20 50 10 20 50 10 20 50 10 20 50 10 20 50 10 20 50 10 20 50 10 20 50 10 20 50 10 20 50 10 20 50 10 20 50 10 20 50 10 20 50 10 20 50 10 20 50 10 20 50 10 20 50 10 20 50 10 20 50 10 20 50 10 20 50 10 20 50 10 20 255 120 40 50 10 20 50 10 20 50 10 20 50 10 20 50 10 20 50 10 20 50 10 20 50 10 20 50 10 20 50 10 20 50 10 20 50 10 20 50 10 20 50 10 20 50 10 20 255 120 70 255 120 70 49 105 155 49 105 155 49 105 155 49 105 155 255 124 192 255 124 192 255 124 192 49 105 155 49 105 155 49 105 155 49 105 155 49 105 155 49 105 155 49 105 155 49 105 155 49 105 155 49 105 155 255 120 195 255 120 195 255 120 195 49 105 155 49 105 155 49 105 155 49 105 155 49 105 155 49 105 155 49 105 155 49 105 155 49 105 155 49 105 155 49 105 155 49 105 155 49 105 155 49 105 155 49 105 155 49 105 155 49 105 155 49 105 155 49 105 155 255 116 198 255 116 198 255 116 198 255 116 198 255 116 198 255 116 198 49 105 155 49 105 155 49 105 155 49 105 155 49 105 155 49 105 155 49 105 155 49 105 155 49 105 155 49 105 155 49 105 155 49 105 155 49 105 155 49 105 155 49 105 155 49 105 155 49 105 155 49 105 155 49 105 155 49 105 155 49 105 155 49 105 155 49 105 155 49 105 155 49 105 155 49 105 155 49 105 155 49 105 155 49 105 155 49 105 155 49 105 155 49 105 155 49 105 155 49 105 155 49 105 155 49 105 155 49 105 155 49 105 155 49 105 155 49 105 155 49 105 155 49 105 155 49 105 155 49 105 155 49 105 155 49 105 155 49 105 155 49 105 155 49 105 155 49 105 155 49 105 155 49 105 155 49 105 155 49 105 155 255 112 201 255 112 201 255 112 201 255 112 201 255 112 201 255 112 201 255 112 201 49 105 155 49 105 155 49 105 155 49 105 155 49 105 155 49 105 155 49 105 155 49 105 155 49 105 155 49 105 155 49 105 155 49 105 155 49 105 155 49 105 155 49 105 155 49 105 155 49 105 155 49 105 155 49 105 155 49 105 155 49 105 155 49 105 155 49 105 155 49 105 155 49 105 155 49 105 155 49 105 155 49 105 155 49 105 155 49 105 155 49 105 155 49 105 155 49 105 155 49 105 155 49 105 155 49 105 155 49 105 155 49 105 155 49 105 155 49 105 155 49 105 155 49 105 155 49 105 155 49 105 155 49 105 155 49 105 155 49 105 155 49 105 155 49 105 155 49 105 155 49 105 155 49 105 155 49 105 155 49 105 155 49 105 155 49 105 155 49 105 155 49 105 155 49 105 155 49 105 155 49 105 155 49 105 155 49 105 155 49 105 155 49 105 155 49 105 155 49 105 155 49 105 155 
49 105 156 49 105 156 49 105 156 49 105 156 49 105 156 49 105 156 49 105 156 49 105 156 49 105 156 49 105 156 49 105 156 49 105 156 49 105 156 49 105 156 49 105 156 49 105 156 49 105 156 49 105 156 49 105 156 49 105 156 49 105 156 49 105 156 49 105 156 49 105 156 49 105 156 49 105 156 49 105 156 49 105 156 49 105 156 49 105 156 49 105 156 49 105 156 49 105 156 49 105 156 49 105 156 49 105 156 49 105 156 49 105 156 49 105 156 49 105 156 49 105 156 49 105 156 49 105 156 49 105 156 49 105 156 49 105 156 49 105 156 49 105 156 49 105 156 49 105 156 49 105 156 49 105 156 49 105 156 49 105 156 49 105 156 49 105 156 49 105 156 49 105 156 49 105 156 49 105 156 49 105 156 49 105 156 49 105 156 49 105 156 49 105 156 49 105 156 49 105 156 49 105 156 49 105 156 49 105 156 49 105 156 49 105 156 49 105 156 49 105 156 49 105 156 49 105 156 49 105 156 49 105 156 49 105 156 49 105 156 49 105 156 49 105 156 49 105 156 49 105 156 49 105 156 49 105 156 49 105 156 49 105 156 49 105 156 49 105 156 49 105 156 49 105 156 49 105 156 49 105 156 49 105 156 49 105 156 49 105 156 49 105 156 49 105 156 49 105 156 49 105 156 49 105 156 49 105 156 49 105 156 49 105 156 49 105 156 49 105 156 49 105 156 49 105 156 49 105 156 49 105 156 49 105 156 49 105 156 49 105 156 49 105 156 49 105 156 49 105 156 49 105 156 49 105 156 49 105 156 49 105 156 49 105 156 49 105 156 49 105 156 49 105 156 49 105 156 49 105 156 49 105 156 49 105 156 49 105 156 49 105 156 49 105 156 255 156 168 255 156 168 255 156 168 255 156 168 255 156 168 255 156 168 49 105 156 49 105 156 49 105 156 49 105 156 49 105 156 255 255 255 49 105 156 49 105 156 50 10 20 50 10 20 50 10 20 50 10 20 50 10 20 50 10 20 50 10 20 50 10 20 50 10 20 50 10 20 50 10 20 50 10 20 50 10 20 50 10 20 50 10 20 50 10 20 50 10 20 50 10 20 50 10 20 50 10 20 50 10 20 50 10 20 50 10 20 50 10 20 50 10 20 50 10 20 50 10 20 50 10 20 50 10 20 50 10 20 50 10 20 50 10 20 50 10 20 50 10 20 50 10 20 50 10 20 50 10 20 50 10 20 50 10 20 50 10 20 50 10 20 50 10 20 50 10 20 50 10 20 50 10 20 50 10 20 255 120 40 50 10 20 50 10 20 50 10 20 50 10 20 50 10 20 50 10 20 50 10 20 50 10 20 50 10 20 50 10 20 50 10 20 50 10 20 50 10 20 50 10 20 50 10 20 255 120 70 255 120 70 255 120 70 49 105 156 49 105 156 255 124 192 255 124 192 255 124 192 49 105 156 49 105 156 49 105 156 49 105 156 49 105 156 49 105 156 49 105 156 49 105 156 49 105 156 255 120 195 255 120 195 255 120 195 255 120 195 49 105 156 49 105 156 49 105 156 49 105 156 49 105 156 49 105 156 49 105 156 49 105 156 49 105 156 49 105 156 49 105 156 49 105 156 49 105 156 49 105 156 49 105 156 49 105 156 49 105 156 255 116 198 255 116 198 255 116 198 255 116 198 255 116 198 255 116 198 255 116 198 49 105 156 49 105 156 49 105 156 49 105 156 49 105 156 49 105 156 49 105 156 49 105 156 49 105 156 49 105 156 49 105 156 49 105 156 49 105 156 49 105 156 49 105 156 49 105 156 49 105 156 49 105 156 49 105 156 49 105 156 49 105 156 49 105 156 49 105 156 49 105 156 49 105 156 49 105 156 49 105 156 49 105 156 49 105 156 49 105 156 49 105 156 49 105 156 49 105 156 49 105 156 49 105 156 49 105 156 49 105 156 49 105 156 49 105 156 49 105 156 49 105 156 49 105 156 49 105 156 49 105 156 49 105 156 49 105 156 49 105 156 49 105 156 49 105 156 49 105 156 49 105 156 49 105 156 255 112 201 255 112 201 255 112 201 255 112 201 255 112 201 255 112 201 255 112 201 255 112 201 255 112 201 255 112 201 255 112 201 49 105 156 49 105 156 49 105 156 49 105 156 49 105 156 49 105 156 49 105 156 49 105 156 49 105 156 49 105 156 49 105 156 49 105 156 49 105 156 49 105 156 49 105 156 49 105 156 49 105 156 49 105 156 49 105 156 49 105 156 49 105 156 49 105 156 49 105 156 49 105 156 49 105 156 49 105 156 49 105 156 49 105 156 49 105 156 49 105 156 49 105 156 49 105 156 49 105 156 49 105 156 49 105 156 49 105 156 49 105 156 49 105 156 49 105 156 49 105 156 49 105 156 49 105 156 49 105 156 49 105 156 49 105 156 49 105 156 49 105 156 49 105 156 49 105 156 49 105 156 49 105 156 49 105 156 49 105 156 49 105 156 49 105 156 49 105 156 49 105 156 49 105 156 49 105 156 49 105 156 49 105 156 49 105 156 49 105 156 49 105 156 49 105 156 49 105 156 49 105 156 49 105 156 
50 104 156 50 104 156 50 104 156 50 104 156 50 104 156 50 104 156 50 104 156 50 104 156 50 104 156 50 104 156 50 104 156 50 104 156 50 104 156 50 104 156 50 104 156 50 104 156 50 104 156 50 104 156 50 104 156 50 104 156 50 104 156 50 104 156 50 104 156 50 104 156 50 104 156 50 104 156 50 104 156 50 104 156 50 104 156 50 104 156 50 104 156 50 104 156 50 104 156 50 104 156 50 104 156 50 104 156 50 104 156 50 104 156 50 104 156 50 104 156 50 104 156 50 104 156 50 104 156 50 104 156 50 104 156 50 104 156 50 104 156 50 104 156 50 104 156 50 104 156 50 104 156 50 104 156 50 104 156 50 104 156 50 104 156 50 104 156 50 104 156 50 104 156 50 104 156 50 104 156 50 104 156 50 104 156 50 104 156 50 104 156 50 104 156 50 104 156 50 104 156 50 104 156 50 104 156 50 104 156 50 104 156 50 104 156 50 104 156 50 104 156 50 104 156 50 104 156 50 104 156 50 104 156 50 104 156 50 104 156 50 104 156 50 104 156 50 104 156 50 104 156 50 104 156 50 104 156 50 104 156 50 104 156 50 104 156 50 104 156 50 104 156 50 104 156 50 104 156 50 104 156 50 104 156 50 104 156 50 104 156 50 104 156 50 104 156 50 104 156 50 104 156 50 104 156 50 104 156 50 104 156 50 104 156 50 104 156 50 104 156 50 104 156 50 104 156 50 104 156 50 104 156 50 104 156 50 104 156 50 104 156 50 104 156 50 104 156 50 104 156 50 104 156 50 104 156 50 104 156 50 104 156 50 104 156 50 104 156 50 104 156 50 104 156 50 104 156 50 104 156 50 104 156 50 104 156 50 104 156 50 104 156 50 104 156 50 104 156 50 104 156 255 156 168 255 156 168 255 156 168 255 156 168 255 156 168 255 156 168 50 104 156 50 104 156 50 104 156 50 104 156 255 255 255 255 255 255 50 104 156 50 10 20 50 10 20 50 10 20 50 10 20 50 10 20 50 10 20 50 10 20 50 10 20 50 10 20 50 10 20 50 10 20 50 10 20 50 10 20 50 10 20 50 10 20 50 10 20 50 10 20 50 10 20 50 10 20 50 10 20 50 10 20 50 10 20 50 10 20 50 10 20 50 10 20 50 10 20 50 10 20 50 10 20 50 10 20 50 10 20 50 10 20 50 10 20 50 10 20 50 10 20 50 10 20 50 10 20 50 10 20 50 10 20 50 10 20 50 10 20 50 10 20 50 10 20 50 10 20 50 10 20 50 10 20 255 120 40 50 10 20 50 10 20 50 10 20 50 10 20 50 10 20 50 10 20 50 10 20 50 10 20 50 10 20 50 10 20 50 10 20 50 10 20 50 10 20 50 10 20 50 10 20 50 10 20 255 120 70 255 120 70 255 120 70 255 120 70 255 124 192 255 124 192 50 104 156 50 104 156 50 104 156 50 104 156 50 104 156 50 104 156 50 104 156 50 104 156 50 104 156 255 120 195 255 120 195 255 120 195 255 120 195 50 104 156 50 104 156 50 104 156 50 104 156 50 104 156 50 104 156 50 104 156 50 104 156 50 104 156 50 104 156 50 104 156 50 104 156 50 104 156 50 104 156 50 104 156 50 104 156 255 116 198 255 116 198 255 116 198 255 116 198 255 116 198 255 116 198 255 116 198 50 104 156 50 104 156 50 104 156 50 104 156 50 104 156 50 104 156 50 104 156 50 104 156 50 104 156 50 104 156 50 104 156 50 104 156 50 104 156 50 104 156 50 104 156 50 104 156 50 104 156 50 104 156 50 104 156 50 104 156 50 104 156 50 104 156 50 104 156 50 104 156 50 104 156 50 104 156 50 104 156 50 104 156 50 104 156 50 104 156 50 104 156 50 104 156 50 104 156 50 104 156 50 104 156 50 104 156 50 104 156 50 104 156 50 104 156 50 104 156 50 104 156 50 104 156 50 104 156 50 104 156 50 104 156 50 104 156 50 104 156 50 104 156 50 104 156 50 104 156 255 112 201 255 112 201 255 112 201 255 112 201 255 112 201 255 112 201 255 112 201 255 112 201 255 112 201 255 112 201 255 112 201 255 112 201 50 104 156 50 104 156 50 104 156 50 104 156 50 104 156 50 104 156 50 104 156 50 104 156 50 104 156 50 104 156 50 104 156 50 104 156 50 104 156 50 104 156 50 104 156 50 104 156 50 104 156 50 104 156 50 104 156 50 104 156 50 104 156 50 104 156 50 104 156 50 104 156 50 104 156 50 104 156 50 104 156 50 104 156 50 104 156 50 104 156 50 104 156 50 104 156 50 104 156 50 104 156 50 104 156 50 104 156 50 104 156 50 104 156 50 104 156 50 104 156 50 104 156 50 104 156 50 104 156 50 104 156 50 104 156 50 104 156 50 104 156 50 104 156 50 104 156 50 104 156 50 104 156 50 104 156 50 104 156 50 104 156 50 104 156 50 104 156 50 104 156 50 104 156 50 104 156 50 104 156 50 104 156 50 104 156 50 104 156 50 104 156 50 104 156 50 104 156 50 104 156 50 104 156 50 104 156 50 104 156 50 104 156 
50 104 157 50 104 157 50 104 157 50 104 157 50 104 157 50 104 157 50 104 157 50 104 157 50 104 157 50 104 157 50 104 157 50 104 157 50 104 157 50 104 157 50 104 157 50 104 157 50 104 157 50 104 157 50 104 157 50 104 157 50 104 157 50 104 157 50 104 157 50 104 157 50 104 157 50 104 157 50 104 157 50 104 157 50 104 157 50 104 157 50 104 157 50 104 157 50 104 157 50 104 157 50 104 157 50 104 157 50 104 157 50 104 157 50 104 157 50 104 157 50 104 157 50 104 157 50 104 157 50 104 157 50 104 157 50 104 157 50 104 157 50 104 157 50 104 157 50 104 157 50 104 157 50 104 157 50 104 157 50 104 157 50 104 157 50 104 157 50 104 157 50 104 157 50 104 157 50 104 157 50 104 157 50 104 157 50 104 157 50 104 157 50 104 157 50 104 157 50 104 157 50 104 157 50 104 157 50 104 157 50 104 157 50 104 157 50 104 157 50 104 157 50 104 157 50 104 157 50 104 157 50 104 157 50 104 157 50 104 157 50 104 157 50 104 157 50 104 157 50 104 157 50 104 157 50 104 157 50 104 157 50 104 157 50 104 157 50 104 157 50 104 157 50 104 157 50 104 157 50 104 157 50 104 157 50 104 157 50 104 157 50 104 157 50 104 157 50 104 157 50 104 157 50 104 157 50 104 157 50 104 157 50 104 157 50 104 157 50 104 157 50 104 157 50 104 157 50 104 157 50 104 157 50 104 157 50 104 157 50 104 157 50 104 157 50 104 157 50 104 157 50 104 157 50 104 157 50 104 157 50 104 157 50 104 157 50 104 157 50 104 157 50 104 157 50 104 157 50 104 157 50 104 157 50 104 157 50 104 157 50 104 157 50 104 157 50 104 157 50 104 157 50 104 157 50 104 157 255 156 168 255 156 168 255 156 168 255 156 168 255 156 168 255 156 168 50 104 157 50 104 157 50 104 157 50 104 157 255 255 255 255 255 255 50 10 20 50 10 20 50 10 20 50 10 20 50 10 20 50 10 20 50 10 20 50 10 20 50 10 20 50 10 20 50 10 20 50 10 20 50 10 20 50 10 20 50 10 20 50 10 20 50 10 20 50 10 20 50 10 20 50 10 20 50 10 20 50 10 20 50 10 20 50 10 20 50 10 20 50 10 20 50 10 20 50 10 20 50 10 20 50 10 20 50 10 20 50 10 20 50 10 20 50 10 20 50 10 20 50 10 20 50 10 20 50 10 20 50 10 20 50 10 20 50 10 20 50 10 20 50 10 20 50 10 20 255 120 40 50 10 20 50 10 20 50 10 20 50 10 20 50 10 20 50 10 20 50 10 20 50 10 20 50 10 20 50 10 20 50 10 20 50 10 20 50 10 20 50 10 20 50 10 20 50 10 20 255 120 70 255 120 70 255 120 70 255 120 70 255 120 70 50 104 157 50 104 157 50 104 157 50 104 157 50 104 157 50 104 157 50 104 157 50 104 157 50 104 157 255 120 195 255 120 195 255 120 195 255 120 195 50 104 157 50 104 157 50 104 157 50 104 157 50 104 157 50 104 157 50 104 157 50 104 157 50 104 157 50 104 157 50 104 157 50 104 157 50 104 157 50 104 157 50 104 157 255 116 198 255 116 198 255 116 198 255 116 198 255 116 198 255 116 198 255 116 198 50 104 157 50 104 157 50 104 157 50 104 157 50 104 157 50 104 157 50 104 157 50 104 157 50 104 157 50 104 157 50 104 157 50 104 157 50 104 157 50 104 157 50 104 157 50 104 157 50 104 157 50 104 157 50 104 157 50 104 157 50 104 157 50 104 157 50 104 157 50 104 157 50 104 157 50 104 157 50 104 157 50 104 157 50 104 157 50 104 157 50 104 157 50 104 157 50 104 157 50 104 157 50 104 157 50 104 157 50 104 157 50 104 157 50 104 157 50 104 157 50 104 157 50 104 157 50 104 157 50 104 157 50 104 157 50 104 157 50 104 157 255 112 201 255 112 201 255 112 201 255 112 201 255 112 201 255 112 201 255 112 201 255 112 201 255 112 201 255 112 201 255 112 201 255 112 201 255 112 201 50 104 157 50 104 157 50 104 157 50 104 157 50 104 157 50 104 157 50 104 157 50 104 157 50 104 157 50 104 157 50 104 157 50 104 157 50 104 157 50 104 157 50 104 157 50 104 157 50 104 157 50 104 157 50 104 157 50 104 157 50 104 157 50 104 157 50 104 157 50 104 157 50 104 157 50 104 157 50 104 157 50 104 157 50 104 157 50 104 157 50 104 157 50 104 157 50 104 157 50 104 157 50 104 157 50 104 157 50 104 157 50 104 157 50 104 157 50 104 157 50 104 157 50 104 157 50 104 157 50 104 157 50 104 157 50 104 157 50 104 157 50 104 157 50 104 157 50 104 157 50 104 157 50 104 157 50 104 157 50 104 157 50 104 157 50 104 157 50 104 157 50 104 157 50 104 157 50 104 157 50 104 157 50 104 157 50 104 157 50 104 157 50 104 157 50 104 157 50 104 157 50 104 157 50 104 157 50 104 157 50 104 157 50 104 157 50 104 157 50 104 157 50 104 157 
50 103 158 50 103 158 50 103 158 50 103 158 50 103 158 50 103 158 50 103 158 50 103 158 50 103 158 50 103 158 50 103 158 50 103 158 50 103 158 50 103 158 50 103 158 50 103 158 50 103 158 50 103 158 50 103 158 50 103 158 50 103 158 50 103 158 50 103 158 50 103 158 50 103 158 50 103 158 50 103 158 50 103 158 50 103 158 50 103 158 50 103 158 50 103 158 50 103 158 50 103 158 50 103 158 50 103 158 50 103 158 50 103 158 50 103 158 50 103 158 50 103 158 50 103 158 50 103 158 50 103 158 50 103 158 50 103 158 50 103 158 50 103 158 50 103 158 50 103 158 50 103 158 50 103 158 50 103 158 50 103 158 50 103 158 50 103 158 50 103 158 50 103 158 50 103 158 50 103 158 50 103 158 50 103 158 50 103 158 50 103 158 50 103 158 50 103 158 50 103 158 50 103 158 50 103 158 50 103 158 50 103 158 50 103 158 50 103 158 50 103 158 50 103 158 50 103 158 50 103 158 50 103 158 50 103 158 50 103 158 50 103 158 50 103 158 50 103 158 50 103 158 50 103 158 50 103 158 50 103 158 50 103 158 50 103 158 50 103 158 50 103 158 50 103 158 50 103 158 50 103 158 50 103 158 50 103 158 50 103 158 50 103 158 50 103 158 50 103 158 50 103 158 50 103 158 50 103 158 50 103 158 50 103 158 50 103 158 50 103 158 50 103 158 50 103 158 50 103 158 50 103 158 50 103 158 50 103 158 50 103 158 50 103 158 50 103 158 50 103 158 50 103 158 50 103 158 50 103 158 50 103 158 50 103 158 50 103 158 50 103 158 50 103 158 50 103 158 50 103 158 50 103 158 50 103 158 50 103 158 50 103 158 50 103 158 50 103 158 50 103 158 50 103 158 50 103 158 50 103 158 50 103 158 255 156 168 255 156 168 255 156 168 255 156 168 255 156 168 255 156 168 50 103 158 50 103 158 50 103 158 50 103 158 255 255 255 255 255 255 50 10 20 50 10 20 50 10 20 50 10 20 50 10 20 50 10 20 50 10 20 50 10 20 50 10 20 50 10 20 50 10 20 50 10 20 50 10 20 50 10 20 50 10 20 50 10 20 50 10 20 50 10 20 50 10 20 50 10 20 50 10 20 50 10 20 50 10 20 50 10 20 50 10 20 50 10 20 50 10 20 50 10 20 50 10 20 50 10 20 50 10 20 50 10 20 50 10 20 50 10 20 50 10 20 50 10 20 50 10 20 50 10 20 50 10 20 50 10 20 50 10 20 50 10 20 255 120 40 50 10 20 50 10 20 50 10 20 50 10 20 50 10 20 50 10 20 50 10 20 50 10 20 50 10 20 50 10 20 50 10 20 50 10 20 50 10 20 50 10 20 50 10 20 50 10 20 255 120 70 255 120 70 255 120 70 255 120 70 255 120 70 255 120 70 50 103 158 50 103 158 50 103 158 50 103 158 50 103 158 50 103 158 50 103 158 255 120 195 255 120 195 255 120 195 50 103 158 50 103 158 50 103 158 50 103 158 50 103 158 50 103 158 50 103 158 50 103 158 50 103 158 50 103 158 50 103 158 50 103 158 50 103 158 50 103 158 50 103 158 255 116 198 255 116 198 255 116 198 255 116 198 255 116 198 255 116 198 50 103 158 50 103 158 50 103 158 50 103 158 50 103 158 50 103 158 50 103 158 50 103 158 50 103 158 50 103 158 50 103 158 50 103 158 50 103 158 50 103 158 50 103 158 50 103 158 50 103 158 50 103 158 50 103 158 50 103 158 50 103 158 50 103 158 50 103 158 50 103 158 50 103 158 50 103 158 50 103 158 50 103 158 50 103 158 50 103 158 50 103 158 50 103 158 50 103 158 50 103 158 50 103 158 50 103 158 50 103 158 50 103 158 50 103 158 50 103 158 50 103 158 50 103 158 50 103 158 50 103 158 50 103 158 50 103 158 255 112 201 255 112 201 255 112 201 255 112 201 255 112 201 255 112 201 255 112 201 255 112 201 255 112 201 255 112 201 255 112 201 255 112 201 255 112 201 50 103 158 50 103 158 50 103 158 50 103 158 50 103 158 50 103 158 50 103 158 50 103 158 50 103 158 50 103 158 50 103 158 50 103 158 50 103 158 50 103 158 50 103 158 50 103 158 50 103 158 50 103 158 50 103 158 50 103 158 50 103 158 50 103 158 50 103 158 50 103 158 50 103 158 50 103 158 50 103 158 50 103 158 50 103 158 50 103 158 50 103 158 50 103 158 50 103 158 50 103 158 50 103 158 50 103 158 50 103 158 50 103 158 50 103 158 50 103 158 50 103 158 50 103 158 50 103 158 50 103 158 50 103 158 50 103 158 50 103 158 50 103 158 50 103 158 50 103 158 50 103 158 50 103 158 50 103 158 50 103 158 50 103 158 50 103 158 50 103 158 50 103 158 50 103 158 50 103 158 50 103 158 50 103 158 50 103 158 50 103 158 50 103 158 50 103 158 50 103 158 50 103 158 50 103 158 50 103 158 50 103 158 50 103 158 50 103 158 50 103 158 50 103 158 50 103 158 50 103 158 50 103 158 50 103 158 
51 103 159 51 103 159 51 103 159 51 103 159 51 103 159 51 103 159 51 103 159 51 103 159 51 103 159 51 103 159 51 103 159 51 103 159 51 103 159 51 103 159 51 103 159 51 103 159 51 103 159 51 103 159 51 103 159 51 103 159 51 103 159 51 103 159 51 103 159 51 103 159 51 103 159 51 103 159 51 103 159 51 103 159 51 103 159 51 103 159 51 103 159 51 103 159 51 103 159 51 103 159 51 103 159 51 103 159 51 103 159 51 103 159 51 103 159 51 103 159 51 103 159 51 103 159 51 103 159 51 103 159 51 103 159 51 103 159 51 103 159 51 103 159 51 103 159 51 103 159 51 103 159 51 103 159 51 103 159 51 103 159 51 103 159 51 103 159 51 103 159 51 103 159 51 103 159 51 103 159 51 103 159 51 103 159 51 103 159 51 103 159 51 103 159 51 103 159 51 103 159 51 103 159 51 103 159 51 103 159 51 103 159 51 103 159 51 103 159 51 103 159 51 103 159 51 103 159 51 103 159 51 103 159 51 103 159 51 103 159 51 103 159 51 103 159 51 103 159 51 103 159 51 103 159 51 103 159 51 103 159 51 103 159 51 103 159 51 103 159 51 103 159 51 103 159 51 103 159 51 103 159 51 103 159 51 103 159 51 103 159 51 103 159 51 103 159 51 103 159 51 103 159 51 103 159 51 103 159 51 103 159 51 103 159 51 103 159 51 103 159 51 103 159 51 103 159 51 103 159 51 103 159 51 103 159 51 103 159 51 103 159 51 103 159 51 103 159 51 103 159 51 103 159 51 103 159 51 103 159 51 103 159 51 103 159 51 103 159 51 103 159 51 103 159 51 103 159 51 103 159 51 103 159 51 103 159 51 103 159 51 103 159 51 103 159 51 103 159 51 103 159 51 103 159 51 103 159 51 103 159 51 103 159 51 103 159 51 103 159 255 156 168 255 156 168 255 156 168 255 156 168 255 156 168 255 156 168 51 103 159 51 103 159 50 10 20 50 10 20 255 255 255 255 255 255 50 10 20 50 10 20 50 10 20 50 10 20 50 10 20 50 10 20 50 10 20 50 10 20 50 10 20 50 10 20 50 10 20 50 10 20 50 10 20 50 10 20 50 10 20 50 10 20 50 10 20 50 10 20 50 10 20 50 10 20 50 10 20 50 10 20 50 10 20 50 10 20 50 10 20 50 10 20 50 10 20 50 10 20 50 10 20 50 10 20 50 10 20 50 10 20 50 10 20 50 10 20 50 10 20 50 10 20 50 10 20 50 10 20 50 10 20 50 10 20 255 120 40 50 10 20 50 10 20 50 10 20 50 10 20 50 10 20 50 10 20 50 10 20 50 10 20 50 10 20 50 10 20 50 10 20 50 10 20 50 10 20 50 10 20 50 10 20 50 10 20 50 10 20 255 120 70 255 120 70 255 120 70 255 120 70 255 120 70 255 120 70 51 103 159 51 103 159 51 103 159 51 103 159 255 120 195 255 120 195 255 120 195 255 120 195 51 103 159 51 103 159 51 103 159 51 103 159 51 103 159 51 103 159 51 103 159 51 103 159 51 103 159 51 103 159 51 103 159 51 103 159 51 103 159 51 103 159 255 116 198 255 116 198 255 116 198 255 116 198 255 116 198 255 116 198 51 103 159 51 103 159 51 103 159 51 103 159 51 103 159 51 103 159 51 103 159 51 103 159 51 103 159 51 103 159 51 103 159 51 103 159 51 103 159 51 103 159 51 103 159 51 103 159 51 103 159 51 103 159 51 103 159 51 103 159 51 103 159 51 103 159 51 103 159 51 103 159 51 103 159 51 103 159 51 103 159 51 103 159 51 103 159 51 103 159 51 103 159 51 103 159 51 103 159 51 103 159 51 103 159 51 103 159 51 103 159 51 103 159 51 103 159 51 103 159 51 103 159 51 103 159 51 103 159 51 103 159 255 112 201 255 112 201 255 112 201 255 112 201 255 112 201 255 112 201 255 112 201 255 112 201 255 112 201 255 112 201 255 112 201 255 112 201 255 112 201 51 103 159 51 103 159 51 103 159 51 103 159 51 103 159 51 103 159 51 103 159 51 103 159 51 103 159 51 103 159 51 103 159 51 103 159 51 103 159 51 103 159 51 103 159 51 103 159 51 103 159 51 103 159 51 103 159 51 103 159 51 103 159 51 103 159 51 103 159 51 103 159 51 103 159 51 103 159 51 103 159 51 103 159 51 103 159 51 103 159 51 103 159 51 103 159 51 103 159 51 103 159 51 103 159 51 103 159 51 103 159 51 103 159 51 103 159 51 103 159 51 103 159 51 103 159 51 103 159 51 103 159 51 103 159 51 103 159 51 103 159 51 103 159 51 103 159 51 103 159 51 103 159 51 103 159 51 103 159 51 103 159 51 103 159 51 103 159 51 103 159 51 103 159 51 103 159 51 103 159 51 103 159 51 103 159 51 103 159 51 103 159 51 103 159 51 103 159 51 103 159 51 103 159 51 103 159 51 103 159 51 103 159 51 103 159 51 103 159 51 103 159 51 103 159 51 103 159 51 103 159 51 103 159 51 103 159 51 103 159 51 103 159 51 103 159 51 103 159 
51 102 159 51 102 159 51 102 159 51 102 159 51 102 159 51 102 159 51 102 159 51 102 159 51 102 159 51 102 159 51 102 159 51 102 159 51 102 159 51 102 159 51 102 159 51 102 159 51 102 159 51 102 159 51 102 159 51 102 159 51 102 159 51 102 159 51 102 159 51 102 159 51 102 159 51 102 159 51 102 159 51 102 159 51 102 159 51 102 159 51 102 159 51 102 159 51 102 159 51 102 159 51 102 159 51 102 159 51 102 159 51 102 159 51 102 159 51 102 159 51 102 159 51 102 159 51 102 159 51 102 159 51 102 159 51 102 159 51 102 159 51 102 159 51 102 159 51 102 159 51 102 159 51 102 159 51 102 159 51 102 159 51 102 159 51 102 159 51 102 159 51 102 159 51 102 159 51 102 159 51 102 159 51 102 159 51 102 159 51 102 159 51 102 159 51 102 159 51 102 159 51 102 159 51 102 159 51 102 159 51 102 159 51 102 159 51 102 159 51 102 159 51 102 159 51 102 159 51 102 159 51 102 159 51 102 159 51 102 159 51 102 159 51 102 159 51 102 159 51 102 159 51 102 159 51 102 159 51 102 159 51 102 159 51 102 159 51 102 159 51 102 159 51 102 159 51 102 159 51 102 159 51 102 159 51 102 159 51 102 159 51 102 159 51 102 159 51 102 159 51 102 159 51 102 159 51 102 159 51 102 159 51 102 159 51 102 159 51 102 159 51 102 159 51 102 159 51 102 159 51 102 159 51 102 159 51 102 159 51 102 159 51 102 159 51 102 159 51 102 159 51 102 159 51 102 159 51 102 159 51 102 159 51 102 159 51 102 159 51 102 159 51 102 159 51 102 159 51 102 159 51 102 159 51 102 159 51 102 159 51 102 159 51 102 159 51 102 159 51 102 159 51 102 159 51 102 159 51 102 159 51 102 159 51 102 159 51 102 159 51 102 159 51 102 159 255 156 168 255 156 168 255 156 168 255 156 168 255 156 168 255 156 168 51 102 159 50 10 20 50 10 20 50 10 20 255 255 255 50 10 20 50 10 20 50 10 20 50 10 20 50 10 20 50 10 20 50 10 20 50 10 20 50 10 20 50 10 20 50 10 20 50 10 20 50 10 20 50 10 20 50 10 20 50 10 20 50 10 20 50 10 20 50 10 20 50 10 20 50 10 20 50 10 20 50 10 20 50 10 20 50 10 20 50 10 20 50 10 20 50 10 20 50 10 20 50 10 20 50 10 20 50 10 20 50 10 20 50 10 20 50 10 20 50 10 20 50 10 20 50 10 20 50 10 20 255 120 40 50 10 20 50 10 20 50 10 20 50 10 20 50 10 20 50 10 20 50 10 20 50 10 20 50 10 20 50 10 20 50 10 20 50 10 20 50 10 20 50 10 20 50 10 20 50 10 20 50 10 20 255 120 70 255 120 70 255 120 70 255 120 70 255 120 70 255 120 70 255 120 70 51 102 159 51 102 159 255 120 195 255 120 195 255 120 195 255 120 195 51 102 159 51 102 159 51 102 159 51 102 159 51 102 159 51 102 159 51 102 159 51 102 159 51 102 159 51 102 159 51 102 159 51 102 159 51 102 159 255 116 198 255 116 198 255 116 198 255 116 198 255 116 198 255 116 198 51 102 159 51 102 159 51 102 159 51 102 159 51 102 159 51 102 159 51 102 159 51 102 159 51 102 159 51 102 159 51 102 159 51 102 159 51 102 159 51 102 159 51 102 159 51 102 159 51 102 159 51 102 159 51 102 159 51 102 159 51 102 159 51 102 159 51 102 159 51 102 159 51 102 159 51 102 159 51 102 159 51 102 159 51 102 159 51 102 159 51 102 159 51 102 159 51 102 159 51 102 159 51 102 159 51 102 159 51 102 159 51 102 159 51 102 159 51 102 159 51 102 159 51 102 159 255 112 201 255 112 201 255 112 201 255 112 201 255 112 201 255 112 201 255 112 201 255 112 201 255 112 201 255 112 201 255 112 201 255 112 201 51 102 159 51 102 159 51 102 159 51 102 159 51 102 159 51 102 159 51 102 159 51 102 159 51 102 159 51 102 159 51 102 159 51 102 159 51 102 159 51 102 159 51 102 159 51 102 159 51 102 159 51 102 159 51 102 159 51 102 159 51 102 159 51 102 159 51 102 159 51 102 159 51 102 159 51 102 159 51 102 159 51 102 159 51 102 159 51 102 159 51 102 159 51 102 159 51 102 159 51 102 159 51 102 159 51 102 159 51 102 159 51 102 159 51 102 159 51 102 159 51 102 159 51 102 159 51 102 159 51 102 159 51 102 159 51 102 159 51 102 159 51 102 159 51 102 159 51 102 159 51 102 159 51 102 159 51 102 159 51 102 159 51 102 159 51 102 159 51 102 159 51 102 159 51 102 159 51 102 159 51 102 159 51 102 159 51 102 159 51 102 159 51 102 159 51 102 159 51 102 159 51 102 159 51 102 159 51 102 159 51 102 159 51 102 159 51 102 159 51 102 159 51 102 159 51 102 159 51 102 159 51 102 159 51 102 159 51 102 159 51 102 159 51 102 159 51 102 159 51 102 159 51 102 159 51 102 159 51 102 159 51 102 159 
52 102 160 52 102 160 52 102 160 52 102 160 52 102 160 52 102 160 52 102 160 52 102 160 52 102 160 52 102 160 52 102 160 52 102 160 52 102 160 52 102 160 52 102 160 52 102 160 52 102 160 52 102 160 52 102 160 52 102 160 52 102 160 52 102 160 52 102 160 52 102 160 52 102 160 52 102 160 52 102 160 52 102 160 52 102 160 52 102 160 52 102 160 52 102 160 52 102 160 52 102 160 52 102 160 52 102 160 52 102 160 52 102 160 52 102 160 52 102 160 52 102 160 52 102 160 52 102 160 52 102 160 52 102 160 52 102 160 52 102 160 52 102 160 52 102 160 52 102 160 52 102 160 52 102 160 52 102 160 52 102 160 52 102 160 52 102 160 52 102 160 52 102 160 52 102 160 52 102 160 52 102 160 52 102 160 52 102 160 52 102 160 52 102 160 52 102 160 52 102 160 52 102 160 52 102 160 52 102 160 52 102 160 52 102 160 52 102 160 52 102 160 52 102 160 52 102 160 52 102 160 52 102 160 52 102 160 52 102 160 52 102 160 52 102 160 52 102 160 52 102 160 52 102 160 52 102 160 52 102 160 52 102 160 52 102 160 52 102 160 52 102 160 52 102 160 52 102 160 52 102 160 52 102 160 52 102 160 52 102 160 52 102 160 52 102 160 52 102 160 52 102 160 52 102 160 52 102 160 52 102 160 52 102 160 52 102 160 52 102 160 52 102 160 52 102 160 52 102 160 52 102 160 52 102 160 52 102 160 52 102 160 52 102 160 52 102 160 52 102 160 52 102 160 52 102 160 52 102 160 52 102 160 52 102 160 52 102 160 52 102 160 52 102 160 52 102 160 52 102 160 52 102 160 52 102 160 52 102 160 52 102 160 52 102 160 52 102 160 52 102 160 52 102 160 52 102 160 52 102 160 52 102 160 52 102 160 52 102 160 52 102 160 52 102 160 52 102 160 52 102 160 255 156 168 255 156 168 255 156 168 255 156 168 255 156 168 255 156 168 50 10 20 50 10 20 50 10 20 255 255 255 255 255 255 50 10 20 50 10 20 50 10 20 50 10 20 50 10 20 50 10 20 50 10 20 50 10 20 50 10 20 50 10 20 50 10 20 50 10 20 50 10 20 50 10 20 50 10 20 50 10 20 50 10 20 50 10 20 50 10 20 50 10 20 50 10 20 50 10 20 50 10 20 50 10 20 50 10 20 50 10 20 50 10 20 50 10 20 50 10 20 50 10 20 50 10 20 50 10 20 50 10 20 50 10 20 50 10 20 50 10 20 50 10 20 255 120 40 50 10 20 50 10 20 50 10 20 50 10 20 50 10 20 50 10 20 50 10 20 50 10 20 50 10 20 50 10 20 50 10 20 50 10 20 50 10 20 50 10 20 50 10 20 50 10 20 50 10 20 50 10 20 255 120 70 255 120 70 255 120 70 255 120 70 255 120 70 255 120 70 255 120 70 255 120 195 255 120 195 255 120 195 255 120 195 52 102 160 52 102 160 52 102 160 52 102 160 52 102 160 52 102 160 52 102 160 52 102 160 52 102 160 52 102 160 52 102 160 52 102 160 255 116 198 255 116 198 255 116 198 255 116 198 255 116 198 255 116 198 52 102 160 52 102 160 52 102 160 52 102 160 52 102 160 52 102 160 52 102 160 52 102 160 52 102 160 52 102 160 52 102 160 52 102 160 52 102 160 52 102 160 52 102 160 52 102 160 52 102 160 52 102 160 52 102 160 52 102 160 52 102 160 52 102 160 52 102 160 52 102 160 52 102 160 52 102 160 52 102 160 52 102 160 52 102 160 52 102 160 52 102 160 52 102 160 52 102 160 52 102 160 52 102 160 52 102 160 52 102 160 52 102 160 52 102 160 255 112 201 255 112 201 255 112 201 255 112 201 255 112 201 255 112 201 255 112 201 255 112 201 255 112 201 255 112 201 255 112 201 255 112 201 255 112 201 52 102 160 52 102 160 52 102 160 52 102 160 52 102 160 52 102 160 52 102 160 52 102 160 52 102 160 52 102 160 52 102 160 52 102 160 52 102 160 52 102 160 52 102 160 52 102 160 52 102 160 52 102 160 52 102 160 52 102 160 52 102 160 52 102 160 52 102 160 52 102 160 52 102 160 52 102 160 52 102 160 52 102 160 52 102 160 52 102 160 52 102 160 52 102 160 52 102 160 52 102 160 52 102 160 52 102 160 52 102 160 52 102 160 52 102 160 52 102 160 52 102 160 52 102 160 52 102 160 52 102 160 52 102 160 52 102 160 52 102 160 52 102 160 52 102 160 52 102 160 52 102 160 52 102 160 52 102 160 52 102 160 52 102 160 52 102 160 52 102 160 52 102 160 52 102 160 52 102 160 52 102 160 52 102 160 52 102 160 52 102 160 52 102 160 52 102 160 52 102 160 52 102 160 52 102 160 52 102 160 52 102 160 52 102 160 52 102 160 52 102 160 52 102 160 52 102 160 52 102 160 52 102 160 52 102 160 52 102 160 52 102 160 52 102 160 52 102 160 52 102 160 52 102 160 52 102 160 52 102 160 52 102 160 52 102 160 52 102 160 52 102 160 52 102 160 
52 101 161 52 101 161 52 101 161 52 101 161 52 101 161 52 101 161 52 101 161 52 101 161 52 101 161 52 101 161 52 101 161 52 101 161 52 101 161 52 101 161 52 101 161 52 101 161 52 101 161 52 101 161 52 101 161 52 101 161 52 101 161 52 101 161 52 101 161 52 101 161 52 101 161 52 101 161 52 101 161 52 101 161 52 101 161 52 101 161 52 101 161 52 101 161 52 101 161 52 101 161 52 101 161 52 101 161 52 101 161 52 101 161 52 101 161 52 101 161 52 101 161 52 101 161 52 101 161 52 101 161 52 101 161 52 101 161 52 101 161 52 101 161 52 101 161 52 101 161 52 101 161 52 101 161 52 101 161 52 101 161 52 101 161 52 101 161 52 101 161 52 101 161 52 101 161 52 101 161 52 101 161 52 101 161 52 101 161 52 101 161 52 101 161 52 101 161 52 101 161 52 101 161 52 101 161 52 101 161 52 101 161 52 101 161 52 101 161 52 101 161 52 101 161 52 101 161 52 101 161 52 101 161 52 101 161 52 101 161 52 101 161 52 101 161 52 101 161 52 101 161 52 101 161 52 101 161 52 101 161 52 101 161 52 101 161 52 101 161 52 101 161 52 101 161 52 101 161 52 101 161 52 101 161 52 101 161 52 101 161 52 101 161 52 101 161 52 101 161 52 101 161 52 101 161 52 101 161 52 101 161 52 101 161 52 101 161 255 160 165 255 160 165 255 160 165 52 101 161 52 101 161 52 101 161 52 101 161 52 101 161 52 101 161 52 101 161 52 101 161 52 101 161 52 101 161 52 101 161 52 101 161 52 101 161 52 101 161 52 101 161 52 101 161 52 101 161 52 101 161 52 101 161 52 101 161 52 101 161 52 101 161 52 101 161 52 101 161 52 101 161 52 101 161 52 101 161 52 101 161 52 101 161 52 101 161 52 101 161 52 101 161 52 101 161 52 101 161 52 101 161 52 101 161 52 101 161 255 156 168 255 156 168 255 156 168 255 156 168 50 10 20 50 10 20 50 10 20 50 10 20 50 10 20 255 255 255 255 255 255 50 10 20 50 10 20 50 10 20 50 10 20 50 10 20 50 10 20 50 10 20 50 10 20 50 10 20 50 10 20 50 10 20 50 10 20 50 10 20 50 10 20 50 10 20 50 10 20 50 10 20 50 10 20 50 10 20 50 10 20 50 10 20 50 10 20 50 10 20 50 10 20 50 10 20 50 10 20 50 10 20 50 10 20 50 10 20 50 10 20 50 10 20 50 10 20 50 10 20 50 10 20 50 10 20 255 120 40 50 10 20 50 10 20 50 10 20 50 10 20 50 10 20 50 10 20 50 10 20 50 10 20 50 10 20 50 10 20 50 10 20 50 10 20 50 10 20 50 10 20 50 10 20 50 10 20 50 10 20 50 10 20 255 120 70 255 120 70 255 120 70 255 120 70 255 120 70 255 120 70 255 120 70 255 120 70 255 120 195 52 101 161 52 101 161 52 101 161 52 101 161 52 101 161 52 101 161 52 101 161 52 101 161 52 101 161 52 101 161 52 101 161 52 101 161 255 116 198 255 116 198 255 116 198 255 116 198 255 116 198 255 116 198 52 101 161 52 101 161 52 101 161 52 101 161 52 101 161 52 101 161 52 101 161 52 101 161 52 101 161 52 101 161 52 101 161 52 101 161 52 101 161 52 101 161 52 101 161 52 101 161 52 101 161 52 101 161 52 101 161 52 101 161 52 101 161 52 101 161 52 101 161 52 101 161 52 101 161 52 101 161 52 101 161 52 101 161 52 101 161 52 101 161 52 101 161 52 101 161 52 101 161 52 101 161 52 101 161 52 101 161 52 101 161 255 112 201 255 112 201 255 112 201 255 112 201 255 112 201 255 112 201 255 112 201 255 112 201 255 112 201 255 112 201 255 112 201 255 112 201 255 112 201 52 101 161 52 101 161 52 101 161 52 101 161 52 101 161 52 101 161 52 101 161 52 101 161 52 101 161 52 101 161 52 101 161 52 101 161 52 101 161 52 101 161 52 101 161 52 101 161 52 101 161 52 101 161 52 101 161 52 101 161 52 101 161 52 101 161 52 101 161 52 101 161 52 101 161 52 101 161 52 101 161 52 101 161 52 101 161 52 101 161 52 101 161 52 101 161 52 101 161 52 101 161 52 101 161 52 101 161 52 101 161 52 101 161 52 101 161 52 101 161 52 101 161 52 101 161 52 101 161 52 101 161 52 101 161 52 101 161 52 101 161 52 101 161 52 101 161 52 101 161 52 101 161 52 101 161 52 101 161 52 101 161 52 101 161 52 101 161 52 101 161 52 101 161 52 101 161 52 101 161 52 101 161 52 101 161 52 101 161 52 101 161 52 101 161 52 101 161 52 101 161 52 101 161 52 101 161 52 101 161 52 101 161 52 101 161 52 101 161 52 101 161 52 101 161 52 101 161 52 101 161 52 101 161 52 101 161 52 101 161 52 101 161 52 101 161 52 101 161 52 101 161 52 101 161 52 101 161 52 101 161 52 101 161 52 101 161 52 101 161 52 101 161 52 101 161 52 101 161 52 101 161 52 101 161 52 101 161 
52 100 161 52 100 161 52 100 161 52 100 161 52 100 161 52 100 161 52 100 161 52 100 161 52 100 161 52 100 161 52 100 161 52 100 161 52 100 161 52 100 161 52 100 161 52 100 161 52 100 161 52 100 161 52 100 161 52 100 161 52 100 161 52 100 161 52 100 161 52 100 161 52 100 161 52 100 161 52 100 161 52 100 161 52 100 161 52 100 161 52 100 161 52 100 161 52 100 161 52 100 161 52 100 161 52 100 161 52 100 161 52 100 161 52 100 161 52 100 161 52 100 161 52 100 161 52 100 161 52 100 161 52 100 161 52 100 161 52 100 161 52 100 161 52 100 161 52 100 161 52 100 161 52 100 161 52 100 161 52 100 161 52 100 161 52 100 161 52 100 161 52 100 161 52 100 161 52 100 161 52 100 161 52 100 161 52 100 161 52 100 161 52 100 161 52 100 161 52 100 161 52 100 161 52 100 161 52 100 161 52 100 161 52 100 161 52 100 161 52 100 161 52 100 161 52 100 161 52 100 161 52 100 161 52 100 161 52 100 161 52 100 161 52 100 161 52 100 161 52 100 161 52 100 161 52 100 161 52 100 161 52 100 161 52 100 161 52 100 161 52 100 161 52 100 161 52 100 161 52 100 161 52 100 161 52 100 161 52 100 161 52 100 161 52 100 161 52 100 161 52 100 161 52 100 161 52 100 161 52 100 161 52 100 161 52 100 161 255 160 165 255 160 165 255 160 165 255 160 165 255 160 165 255 160 165 255 160 165 52 100 161 52 100 161 52 100 161 52 100 161 52 100 161 52 100 161 52 100 161 52 100 161 52 100 161 52 100 161 52 100 161 52 100 161 52 100 161 52 100 161 52 100 161 52 100 161 52 100 161 52 100 161 52 100 161 52 100 161 52 100 161 52 100 161 52 100 161 52 100 161 52 100 161 52 100 161 52 100 161 52 100 161 52 100 161 52 100 161 52 100 161 52 100 161 52 100 161 52 100 161 52 100 161 255 156 168 255 156 168 255 156 168 50 10 20 50 10 20 50 10 20 50 10 20 50 10 20 50 10 20 255 255 255 255 255 255 50 10 20 50 10 20 50 10 20 50 10 20 50 10 20 50 10 20 50 10 20 50 10 20 50 10 20 50 10 20 50 10 20 50 10 20 50 10 20 50 10 20 50 10 20 50 10 20 50 10 20 50 10 20 50 10 20 50 10 20 50 10 20 50 10 20 50 10 20 50 10 20 50 10 20 50 10 20 50 10 20 50 10 20 50 10 20 50 10 20 50 10 20 50 10 20 50 10 20 255 120 40 50 10 20 50 10 20 50 10 20 50 10 20 50 10 20 50 10 20 50 10 20 50 10 20 50 10 20 50 10 20 50 10 20 50 10 20 50 10 20 50 10 20 50 10 20 50 10 20 50 10 20 50 10 20 255 120 70 255 120 70 255 120 70 255 120 70 255 120 70 255 120 70 255 120 70 255 120 70 52 100 161 52 100 161 52 100 161 52 100 161 52 100 161 52 100 161 52 100 161 52 100 161 52 100 161 52 100 161 52 100 161 255 116 198 255 116 198 255 116 198 255 116 198 255 116 198 255 116 198 52 100 161 52 100 161 52 100 161 52 100 161 52 100 161 52 100 161 52 100 161 52 100 161 52 100 161 52 100 161 52 100 161 52 100 161 52 100 161 52 100 161 52 100 161 52 100 161 52 100 161 52 100 161 52 100 161 52 100 161 52 100 161 52 100 161 52 100 161 52 100 161 52 100 161 52 100 161 52 100 161 52 100 161 52 100 161 52 100 161 52 100 161 52 100 161 52 100 161 52 100 161 52 100 161 255 112 201 255 112 201 255 112 201 255 112 201 255 112 201 255 112 201 255 112 201 255 112 201 255 112 201 255 112 201 255 112 201 255 112 201 255 112 201 52 100 161 52 100 161 52 100 161 52 100 161 52 100 161 52 100 161 52 100 161 52 100 161 52 100 161 52 100 161 52 100 161 52 100 161 52 100 161 52 100 161 52 100 161 52 100 161 52 100 161 52 100 161 52 100 161 52 100 161 52 100 161 52 100 161 52 100 161 52 100 161 52 100 161 52 100 161 52 100 161 52 100 161 52 100 161 52 100 161 52 100 161 52 100 161 52 100 161 52 100 161 52 100 161 52 100 161 52 100 161 52 100 161 52 100 161 52 100 161 52 100 161 52 100 161 52 100 161 52 100 161 52 100 161 52 100 161 52 100 161 52 100 161 52 100 161 52 100 161 52 100 161 52 100 161 52 100 161 52 100 161 52 100 161 52 100 161 52 100 161 52 100 161 52 100 161 52 100 161 52 100 161 52 100 161 52 100 161 52 100 161 52 100 161 52 100 161 52 100 161 52 100 161 52 100 161 52 100 161 52 100 161 52 100 161 52 100 161 52 100 161 52 100 161 52 100 161 52 100 161 52 100 161 52 100 161 52 100 161 52 100 161 52 100 161 52 100 161 52 100 161 52 100 161 52 100 161 52 100 161 52 100 161 52 100 161 52 100 161 52 100 161 52 100 161 52 100 161 52 100 161 52 100 161 52 100 161 52 100 161 52 100 161 52 100 161 52 100 161 
53 100 162 53 100 162 53 100 162 53 100 162 53 100 162 53 100 162 53 100 162 53 100 162 53 100 162 53 100 162 53 100 162 53 100 162 53 100 162 53 100 162 53 100 162 53 100 162 53 100 162 53 100 162 53 100 162 53 100 162 53 100 162 53 100 162 53 100 162 53 100 162 53 100 162 53 100 162 53 100 162 53 100 162 53 100 162 53 100 162 53 100 162 53 100 162 53 100 162 53 100 162 53 100 162 53 100 162 53 100 162 53 100 162 53 100 162 53 100 162 53 100 162 53 100 162 53 100 162 53 100 162 53 100 162 53 100 162 53 100 162 53 100 162 53 100 162 53 100 162 53 100 162 53 100 162 53 100 162 53 100 162 53 100 162 53 100 162 53 100 162 53 100 162 53 100 162 53 100 162 53 100 162 53 100 162 53 100 162 53 100 162 53 100 162 53 100 162 53 100 162 53 100 162 53 100 162 53 100 162 53 100 162 53 100 162 53 100 162 53 100 162 53 100 162 53 100 162 53 100 162 53 100 162 53 100 162 53 100 162 53 100 162 53 100 162 53 100 162 53 100 162 53 100 162 53 100 162 53 100 162 53 100 162 53 100 162 53 100 162 53 100 162 53 100 162 53 100 162 53 100 162 53 100 162 53 100 162 53 100 162 53 100 162 53 100 162 53 100 162 53 100 162 53 100 162 53 100 162 53 100 162 53 100 162 53 100 162 255 160 165 255 160 165 255 160 165 255 160 165 255 160 165 255 160 165 255 160 165 255 160 165 255 160 165 255 160 165 255 160 165 53 100 162 53 100 162 53 100 162 53 100 162 53 100 162 53 100 162 53 100 162 53 100 162 53 100 162 53 100 162 53 100 162 53 100 162 53 100 162 53 100 162 53 100 162 53 100 162 53 100 162 53 100 162 53 100 162 53 100 162 53 100 162 53 100 162 53 100 162 53 100 162 53 100 162 53 100 162 53 100 162 53 100 162 53 100 162 53 100 162 53 100 162 53 100 162 53 100 162 255 156 168 50 10 20 50 10 20 50 10 20 50 10 20 50 10 20 50 10 20 50 10 20 50 10 20 255 255 255 50 10 20 50 10 20 50 10 20 50 10 20 50 10 20 50 10 20 50 10 20 50 10 20 50 10 20 50 10 20 50 10 20 50 10 20 50 10 20 50 10 20 50 10 20 50 10 20 50 10 20 50 10 20 50 10 20 50 10 20 50 10 20 50 10 20 50 10 20 50 10 20 50 10 20 50 10 20 50 10 20 50 10 20 50 10 20 50 10 20 50 10 20 50 10 20 255 120 40 50 10 20 50 10 20 50 10 20 50 10 20 50 10 20 50 10 20 50 10 20 50 10 20 50 10 20 50 10 20 50 10 20 50 10 20 50 10 20 50 10 20 50 10 20 50 10 20 50 10 20 50 10 20 50 10 20 255 120 70 255 120 70 255 120 70 255 120 70 255 120 70 255 120 70 255 120 70 255 120 70 53 100 162 53 100 162 53 100 162 53 100 162 53 100 162 53 100 162 53 100 162 53 100 162 255 116 198 255 116 198 255 116 198 255 116 198 255 116 198 255 116 198 53 100 162 53 100 162 53 100 162 53 100 162 53 100 162 53 100 162 53 100 162 53 100 162 53 100 162 53 100 162 53 100 162 53 100 162 53 100 162 53 100 162 53 100 162 53 100 162 53 100 162 53 100 162 53 100 162 53 100 162 53 100 162 53 100 162 53 100 162 53 100 162 53 100 162 53 100 162 53 100 162 53 100 162 53 100 162 53 100 162 53 100 162 53 100 162 53 100 162 255 112 201 255 112 201 255 112 201 255 112 201 255 112 201 255 112 201 255 112 201 255 112 201 255 112 201 255 112 201 255 112 201 255 112 201 53 100 162 53 100 162 53 100 162 53 100 162 53 100 162 53 100 162 53 100 162 53 100 162 53 100 162 53 100 162 53 100 162 53 100 162 53 100 162 53 100 162 53 100 162 53 100 162 53 100 162 53 100 162 53 100 162 53 100 162 53 100 162 53 100 162 53 100 162 53 100 162 53 100 162 53 100 162 53 100 162 53 100 162 53 100 162 53 100 162 53 100 162 53 100 162 53 100 162 53 100 162 53 100 162 53 100 162 53 100 162 53 100 162 53 100 162 53 100 162 53 100 162 53 100 162 53 100 162 53 100 162 53 100 162 53 100 162 53 100 162 53 100 162 53 100 162 53 100 162 53 100 162 53 100 162 53 100 162 53 100 162 53 100 162 53 100 162 53 100 162 53 100 162 53 100 162 53 100 162 53 100 162 53 100 162 53 100 162 53 100 162 53 100 162 53 100 162 53 100 162 53 100 162 53 100 162 53 100 162 53 100 162 53 100 162 53 100 162 53 100 162 53 100 162 53 100 162 53 100 162 53 100 162 53 100 162 53 100 162 53 100 162 53 100 162 53 100 162 53 100 162 53 100 162 53 100 162 53 100 162 53 100 162 53 100 162 53 100 162 53 100 162 53 100 162 53 100 162 53 100 162 53 100 162 53 100 162 53 100 162 53 100 162 53 100 162 53 100 162 53 100 162 53 100 162 53 100 162 53 100 162 53 100 162 
53 99 163 53 99 163 53 99 163 53 99 163 53 99 163 53 99 163 53 99 163 53 99 163 53 99 163 53 99 163 53 99 163 53 99 163 53 99 163 53 99 163 53 99 163 53 99 163 53 99 163 53 99 163 53 99 163 53 99 163 53 99 163 53 99 163 53 99 163 53 99 163 53 99 163 53 99 163 53 99 163 53 99 163 53 99 163 53 99 163 53 99 163 53 99 163 53 99 163 53 99 163 53 99 163 53 99 163 53 99 163 53 99 163 53 99 163 53 99 163 53 99 163 53 99 163 53 99 163 53 99 163 53 99 163 53 99 163 53 99 163 53 99 163 53 99 163 53 99 163 53 99 163 53 99 163 53 99 163 53 99 163 53 99 163 53 99 163 53 99 163 53 99 163 53 99 163 53 99 163 53 99 163 53 99 163 53 99 163 53 99 163 53 99 163 53 99 163 53 99 163 53 99 163 53 99 163 53 99 163 53 99 163 53 99 163 53 99 163 53 99 163 53 99 163 53 99 163 53 99 163 53 99 163 53 99 163 53 99 163 53 99 163 53 99 163 53 99 163 53 99 163 53 99 163 53 99 163 53 99 163 53 99 163 53 99 163 53 99 163 53 99 163 53 99 163 53 99 163 53 99 163 53 99 163 53 99 163 53 99 163 53 99 163 53 99 163 53 99 163 53 99 163 53 99 163 53 99 163 53 99 163 53 99 163 53 99 163 53 99 163 53 99 163 53 99 163 255 160 165 255 160 165 255 160 165 255 160 165 255 160 165 255 160 165 255 160 165 255 160 165 255 160 165 255 160 165 255 160 165 255 160 165 255 160 165 53 99 163 53 99 163 53 99 163 53 99 163 53 99 163 53 99 163 53 99 163 53 99 163 53 99 163 53 99 163 53 99 163 53 99 163 53 99 163 53 99 163 53 99 163 53 99 163 53 99 163 53 99 163 53 99 163 53 99 163 53 99 163 53 99 163 53 99 163 53 99 163 53 99 163 53 99 163 53 99 163 53 99 163 53 99 163 53 99 163 50 10 20 50 10 20 50 10 20 50 10 20 50 10 20 50 10 20 50 10 20 50 10 20 255 255 255 255 255 255 50 10 20 50 10 20 50 10 20 50 10 20 50 10 20 50 10 20 50 10 20 50 10 20 50 10 20 50 10 20 50 10 20 50 10 20 50 10 20 50 10 20 50 10 20 50 10 20 50 10 20 50 10 20 50 10 20 50 10 20 50 10 20 50 10 20 50 10 20 50 10 20 50 10 20 50 10 20 50 10 20 50 10 20 50 10 20 50 10 20 255 120 40 50 10 20 50 10 20 50 10 20 50 10 20 50 10 20 50 10 20 50 10 20 50 10 20 50 10 20 50 10 20 50 10 20 50 10 20 50 10 20 50 10 20 50 10 20 50 10 20 50 10 20 50 10 20 50 10 20 255 120 70 255 120 70 255 120 70 255 120 70 255 120 70 255 120 70 255 120 70 255 120 70 255 120 70 53 99 163 53 99 163 53 99 163 53 99 163 53 99 163 255 116 198 255 116 198 255 116 198 255 116 198 255 116 198 255 116 198 53 99 163 53 99 163 53 99 163 53 99 163 53 99 163 53 99 163 53 99 163 53 99 163 53 99 163 53 99 163 53 99 163 53 99 163 53 99 163 53 99 163 53 99 163 53 99 163 53 99 163 53 99 163 53 99 163 53 99 163 53 99 163 53 99 163 53 99 163 53 99 163 53 99 163 53 99 163 53 99 163 53 99 163 53 99 163 53 99 163 255 112 201 255 112 201 255 112 201 255 112 201 255 112 201 255 112 201 255 112 201 255 112 201 255 112 201 255 112 201 255 112 201 255 112 201 255 112 201 53 99 163 53 99 163 53 99 163 53 99 163 53 99 163 53 99 163 53 99 163 53 99 163 53 99 163 53 99 163 53 99 163 53 99 163 53 99 163 53 99 163 53 99 163 53 99 163 53 99 163 53 99 163 53 99 163 53 99 163 53 99 163 53 99 163 53 99 163 53 99 163 53 99 163 53 99 163 53 99 163 53 99 163 53 99 163 53 99 163 53 99 163 53 99 163 53 99 163 53 99 163 53 99 163 53 99 163 53 99 163 53 99 163 53 99 163 53 99 163 53 99 163 53 99 163 53 99 163 53 99 163 53 99 163 53 99 163 53 99 163 53 99 163 53 99 163 53 99 163 53 99 163 53 99 163 53 99 163 53 99 163 53 99 163 53 99 163 53 99 163 53 99 163 53 99 163 53 99 163 53 99 163 53 99 163 53 99 163 53 99 163 53 99 163 53 99 163 53 99 163 53 99 163 53 99 163 53 99 163 53 99 163 53 99 163 53 99 163 53 99 163 53 99 163 53 99 163 53 99 163 53 99 163 53 99 163 53 99 163 53 99 163 53 99 163 53 99 163 53 99 163 53 99 163 53 99 163 53 99 163 53 99 163 53 99 163 53 99 163 53 99 163 53 99 163 53 99 163 53 99 163 53 99 163 53 99 163 53 99 163 53 99 163 53 99 163 53 99 163 53 99 163 53 99 163 53 99 163 53 99 163 53 99 163 53 99 163 53 99 163 53 99 163 53 99 163 
53 99 164 53 99 164 53 99 164 53 99 164 53 99 164 53 99 164 53 99 164 53 99 164 53 99 164 53 99 164 53 99 164 53 99 164 53 99 164 53 99 164 53 99 164 53 99 164 53 99 164 53 99 164 53 99 164 53 99 164 53 99 164 53 99 164 53 99 164 53 99 164 53 99 164 53 99 164 53 99 164 53 99 164 53 99 164 53 99 164 53 99 164 53 99 164 53 99 164 53 99 164 53 99 164 53 99 164 53 99 164 53 99 164 53 99 164 53 99 164 53 99 164 53 99 164 53 99 164 53 99 164 53 99 164 53 99 164 53 99 164 53 99 164 53 99 164 53 99 164 53 99 164 53 99 164 53 99 164 53 99 164 53 99 164 53 99 164 53 99 164 53 99 164 53 99 164 53 99 164 53 99 164 53 99 164 53 99 164 53 99 164 53 99 164 53 99 164 53 99 164 53 99 164 53 99 164 53 99 164 53 99 164 53 99 164 53 99 164 53 99 164 53 99 164 53 99 164 53 99 164 53 99 164 53 99 164 53 99 164 53 99 164 53 99 164 53 99 164 53 99 164 53 99 164 53 99 164 53 99 164 53 99 164 53 99 164 53 99 164 53 99 164 53 99 164 53 99 164 53 99 164 53 99 164 53 99 164 53 99 164 53 99 164 53 99 164 53 99 164 53 99 164 53 99 164 53 99 164 53 99 164 53 99 164 53 99 164 53 99 164 53 99 164 53 99 164 53 99 164 53 99 164 53 99 164 53 99 164 255 160 165 255 160 165 255 160 165 255 160 165 255 160 165 255 160 165 255 160 165 255 160 165 255 160 165 255 160 165 255 160 165 255 160 165 255 160 165 53 99 164 53 99 164 53 99 164 53 99 164 53 99 164 53 99 164 53 99 164 53 99 164 53 99 164 53 99 164 53 99 164 53 99 164 53 99 164 53 99 164 53 99 164 53 99 164 53 99 164 53 99 164 53 99 164 53 99 164 53 99 164 53 99 164 53 99 164 53 99 164 53 99 164 53 99 164 50 10 20 50 10 20 50 10 20 50 10 20 50 10 20 50 10 20 50 10 20 50 10 20 50 10 20 50 10 20 255 255 255 255 255 255 50 10 20 50 10 20 50 10 20 50 10 20 50 10 20 50 10 20 50 10 20 50 10 20 50 10 20 50 10 20 50 10 20 50 10 20 50 10 20 50 10 20 50 10 20 50 10 20 50 10 20 50 10 20 50 10 20 50 10 20 50 10 20 50 10 20 50 10 20 50 10 20 50 10 20 50 10 20 50 10 20 50 10 20 255 120 40 50 10 20 50 10 20 50 10 20 50 10 20 50 10 20 50 10 20 50 10 20 50 10 20 50 10 20 50 10 20 50 10 20 50 10 20 50 10 20 50 10 20 50 10 20 50 10 20 50 10 20 50 10 20 50 10 20 50 10 20 255 120 70 255 120 70 255 120 70 255 120 70 255 120 70 255 120 70 255 120 70 255 120 70 53 99 164 53 99 164 53 99 164 255 116 198 255 116 198 255 116 198 255 116 198 255 116 198 255 116 198 53 99 164 53 99 164 53 99 164 53 99 164 53 99 164 53 99 164 53 99 164 53 99 164 53 99 164 53 99 164 53 99 164 53 99 164 53 99 164 53 99 164 53 99 164 53 99 164 53 99 164 53 99 164 53 99 164 53 99 164 53 99 164 53 99 164 53 99 164 53 99 164 53 99 164 53 99 164 53 99 164 53 99 164 255 112 201 255 112 201 255 112 201 255 112 201 255 112 201 255 112 201 255 112 201 255 112 201 255 112 201 255 112 201 255 112 201 255 112 201 255 112 201 53 99 164 53 99 164 53 99 164 53 99 164 53 99 164 53 99 164 53 99 164 53 99 164 53 99 164 53 99 164 53 99 164 53 99 164 53 99 164 53 99 164 53 99 164 53 99 164 53 99 164 53 99 164 53 99 164 53 99 164 53 99 164 53 99 164 53 99 164 53 99 164 53 99 164 53 99 164 53 99 164 53 99 164 53 99 164 53 99 164 53 99 164 53 99 164 53 99 164 53 99 164 53 99 164 53 99 164 53 99 164 53 99 164 53 99 164 53 99 164 53 99 164 53 99 164 53 99 164 53 99 164 53 99 164 53 99 164 53 99 164 53 99 164 53 99 164 53 99 164 53 99 164 53 99 164 53 99 164 53 99 164 53 99 164 53 99 164 53 99 164 53 99 164 53 99 164 53 99 164 53 99 164 53 99 164 53 99 164 53 99 164 53 99 164 53 99 164 53 99 164 53 99 164 53 99 164 53 99 164 53 99 164 53 99 164 53 99 164 53 99 164 53 99 164 53 99 164 53 99 164 53 99 164 53 99 164 53 99 164 53 99 164 53 99 164 53 99 164 53 99 164 53 99 164 53 99 164 53 99 164 53 99 164 53 99 164 53 99 164 53 99 164 53 99 164 53 99 164 53 99 164 53 99 164 53 99 164 53 99 164 53 99 164 53 99 164 53 99 164 53 99 164 53 99 164 53 99 164 53 99 164 53 99 164 53 99 164 53 99 164 53 99 164 53 99 164 53 99 164 53 99 164 53 99 164 53 99 164 
54 98 164 54 98 164 54 98 164 54 98 164 54 98 164 54 98 164 54 98 164 54 98 164 54 98 164 54 98 164 54 98 164 54 98 164 54 98 164 54 98 164 54 98 164 54 98 164 54 98 164 54 98 164 54 98 164 54 98 164 54 98 164 54 98 164 54 98 164 54 98 164 54 98 164 54 98 164 54 98 164 54 98 164 54 98 164 54 98 164 54 98 164 54 98 164 54 98 164 54 98 164 54 98 164 54 98 164 54 98 164 54 98 164 54 98 164 54 98 164 54 98 164 54 98 164 54 98 164 54 98 164 54 98 164 54 98 164 54 98 164 54 98 164 54 98 164 54 98 164 54 98 164 54 98 164 54 98 164 54 98 164 54 98 164 54 98 164 54 98 164 54 98 164 54 98 164 54 98 164 54 98 164 54 98 164 54 98 164 54 98 164 54 98 164 54 98 164 54 98 164 54 98 164 54 98 164 54 98 164 54 98 164 54 98 164 54 98 164 54 98 164 54 98 164 54 98 164 54 98 164 54 98 164 54 98 164 54 98 164 54 98 164 54 98 164 54 98 164 54 98 164 54 98 164 54 98 164 54 98 164 54 98 164 54 98 164 54 98 164 54 98 164 54 98 164 54 98 164 54 98 164 54 98 164 54 98 164 54 98 164 54 98 164 54 98 164 54 98 164 54 98 164 54 98 164 54 98 164 54 98 164 54 98 164 54 98 164 54 98 164 54 98 164 54 98 164 54 98 164 54 98 164 54 98 164 54 98 164 54 98 164 54 98 164 54 98 164 54 98 164 255 160 165 255 160 165 255 160 165 255 160 165 255 160 165 255 160 165 255 160 165 255 160 165 255 160 165 255 160 165 255 160 165 255 160 165 255 160 165 54 98 164 54 98 164 54 98 164 54 98 164 54 98 164 54 98 164 54 98 164 54 98 164 54 98 164 54 98 164 54 98 164 54 98 164 54 98 164 54 98 164 54 98 164 54 98 164 54 98 164 54 98 164 54 98 164 54 98 164 54 98 164 54 98 164 54 98 164 50 10 20 50 10 20 50 10 20 50 10 20 50 10 20 50 10 20 50 10 20 50 10 20 50 10 20 50 10 20 50 10 20 255 255 255 255 255 255 50 10 20 50 10 20 50 10 20 50 10 20 50 10 20 50 10 20 50 10 20 50 10 20 50 10 20 50 10 20 50 10 20 50 10 20 50 10 20 50 10 20 50 10 20 50 10 20 50 10 20 50 10 20 50 10 20 50 10 20 50 10 20 50 10 20 50 10 20 50 10 20 50 10 20 50 10 20 255 120 40 50 10 20 50 10 20 50 10 20 50 10 20 50 10 20 50 10 20 50 10 20 50 10 20 50 10 20 50 10 20 50 10 20 50 10 20 50 10 20 50 10 20 50 10 20 50 10 20 50 10 20 50 10 20 50 10 20 50 10 20 50 10 20 255 120 70 255 120 70 255 120 70 255 120 70 255 120 70 255 120 70 255 120 70 255 120 70 255 116 198 255 116 198 255 116 198 255 116 198 255 116 198 255 116 198 54 98 164 54 98 164 54 98 164 54 98 164 54 98 164 54 98 164 54 98 164 54 98 164 54 98 164 54 98 164 54 98 164 54 98 164 54 98 164 54 98 164 54 98 164 54 98 164 54 98 164 54 98 164 54 98 164 54 98 164 54 98 164 54 98 164 54 98 164 54 98 164 54 98 164 54 98 164 255 112 201 255 112 201 255 112 201 255 112 201 255 112 201 255 112 201 255 112 201 255 112 201 255 112 201 255 112 201 255 112 201 255 112 201 255 112 201 54 98 164 54 98 164 54 98 164 54 98 164 54 98 164 54 98 164 54 98 164 54 98 164 54 98 164 54 98 164 54 98 164 54 98 164 54 98 164 54 98 164 54 98 164 54 98 164 54 98 164 54 98 164 54 98 164 54 98 164 54 98 164 54 98 164 54 98 164 54 98 164 54 98 164 54 98 164 54 98 164 54 98 164 54 98 164 54 98 164 54 98 164 54 98 164 54 98 164 54 98 164 54 98 164 54 98 164 54 98 164 54 98 164 54 98 164 54 98 164 54 98 164 54 98 164 54 98 164 54 98 164 54 98 164 54 98 164 54 98 164 54 98 164 54 98 164 54 98 164 54 98 164 54 98 164 54 98 164 54 98 164 54 98 164 54 98 164 54 98 164 54 98 164 54 98 164 54 98 164 54 98 164 54 98 164 54 98 164 54 98 164 54 98 164 54 98 164 54 98 164 54 98 164 54 98 164 54 98 164 54 98 164 54 98 164 54 98 164 54 98 164 54 98 164 54 98 164 54 98 164 54 98 164 54 98 164 54 98 164 54 98 164 54 98 164 54 98 164 54 98 164 54 98 164 54 98 164 54 98 164 54 98 164 54 98 164 54 98 164 54 98 164 54 98 164 54 98 164 54 98 164 54 98 164 54 98 164 54 98 164 54 98 164 54 98 164 54 98 164 54 98 164 54 98 164 54 98 164 54 98 164 54 98 164 54 98 164 54 98 164 54 98 164 54 98 164 54 98 164 54 98 164 54 98 164 54 98 164 54 98 164 54 98 164 54 98 164 54 98 164 
54 98 165 54 98 165 54 98 165 54 98 165 54 98 165 54 98 165 54 98 165 54 98 165 54 98 165 54 98 165 54 98 165 54 98 165 54 98 165 54 98 165 54 98 165 54 98 165 54 98 165 54 98 165 54 98 165 54 98 165 54 98 165 54 98 165 54 98 165 54 98 165 54 98 165 54 98 165 54 98 165 54 98 165 54 98 165 54 98 165 54 98 165 54 98 165 54 98 165 54 98 165 54 98 165 54 98 165 54 98 165 54 98 165 54 98 165 54 98 165 54 98 165 54 98 165 54 98 165 54 98 165 54 98 165 54 98 165 54 98 165 54 98 165 54 98 165 54 98 165 54 98 165 54 98 165 54 98 165 54 98 165 54 98 165 54 98 165 54 98 165 54 98 165 54 98 165 54 98 165 54 98 165 54 98 165 54 98 165 54 98 165 54 98 165 54 98 165 54 98 165 54 98 165 54 98 165 54 98 165 54 98 165 54 98 165 54 98 165 54 98 165 54 98 165 54 98 165 54 98 165 54 98 165 54 98 165 54 98 165 54 98 165 54 98 165 54 98 165 54 98 165 54 98 165 54 98 165 54 98 165 54 98 165 54 98 165 54 98 165 54 98 165 54 98 165 54 98 165 54 98 165 54 98 165 54 98 165 54 98 165 54 98 165 54 98 165 54 98 165 54 98 165 54 98 165 54 98 165 54 98 165 54 98 165 54 98 165 54 98 165 54 98 165 54 98 165 54 98 165 54 98 165 54 98 165 54 98 165 54 98 165 54 98 165 54 98 165 54 98 165 54 98 165 54 98 165 54 98 165 54 98 165 54 98 165 255 160 165 255 160 165 255 160 165 255 160 165 255 160 165 255 160 165 255 160 165 255 160 165 255 160 165 255 160 165 255 160 165 255 160 165 54 98 165 54 98 165 54 98 165 54 98 165 54 98 165 54 98 165 54 98 165 54 98 165 54 98 165 54 98 165 54 98 165 54 98 165 54 98 165 54 98 165 54 98 165 54 98 165 54 98 165 54 98 165 54 98 165 54 98 165 50 10 20 50 10 20 50 10 20 50 10 20 50 10 20 50 10 20 50 10 20 50 10 20 50 10 20 50 10 20 50 10 20 50 10 20 255 255 255 255 255 255 50 10 20 50 10 20 50 10 20 50 10 20 50 10 20 50 10 20 50 10 20 50 10 20 50 10 20 50 10 20 50 10 20 50 10 20 50 10 20 50 10 20 50 10 20 50 10 20 50 10 20 50 10 20 50 10 20 50 10 20 50 10 20 50 10 20 50 10 20 50 10 20 255 120 40 50 10 20 50 10 20 50 10 20 50 10 20 50 10 20 50 10 20 50 10 20 50 10 20 50 10 20 50 10 20 50 10 20 50 10 20 50 10 20 50 10 20 50 10 20 50 10 20 50 10 20 50 10 20 50 10 20 50 10 20 50 10 20 50 10 20 255 120 70 255 120 70 255 120 70 255 120 70 255 120 70 255 120 70 255 120 70 255 120 70 255 116 198 255 116 198 255 116 198 54 98 165 54 98 165 54 98 165 54 98 165 54 98 165 54 98 165 54 98 165 54 98 165 54 98 165 54 98 165 54 98 165 54 98 165 54 98 165 54 98 165 54 98 165 54 98 165 54 98 165 54 98 165 54 98 165 54 98 165 54 98 165 54 98 165 54 98 165 54 98 165 255 112 201 255 112 201 255 112 201 255 112 201 255 112 201 255 112 201 255 112 201 255 112 201 255 112 201 255 112 201 255 112 201 255 112 201 54 98 165 54 98 165 54 98 165 54 98 165 54 98 165 54 98 165 54 98 165 54 98 165 54 98 165 54 98 165 54 98 165 54 98 165 54 98 165 54 98 165 54 98 165 54 98 165 54 98 165 54 98 165 54 98 165 54 98 165 54 98 165 54 98 165 54 98 165 54 98 165 54 98 165 54 98 165 54 98 165 54 98 165 54 98 165 54 98 165 54 98 165 54 98 165 54 98 165 54 98 165 54 98 165 54 98 165 54 98 165 54 98 165 54 98 165 54 98 165 54 98 165 54 98 165 54 98 165 54 98 165 54 98 165 54 98 165 54 98 165 54 98 165 54 98 165 54 98 165 54 98 165 54 98 165 54 98 165 54 98 165 54 98 165 54 98 165 54 98 165 54 98 165 54 98 165 54 98 165 54 98 165 54 98 165 54 98 165 54 98 165 54 98 165 54 98 165 54 98 165 54 98 165 54 98 165 54 98 165 54 98 165 54 98 165 54 98 165 54 98 165 54 98 165 54 98 165 54 98 165 54 98 165 54 98 165 54 98 165 54 98 165 54 98 165 54 98 165 54 98 165 54 98 165 54 98 165 54 98 165 54 98 165 54 98 165 54 98 165 54 98 165 54 98 165 54 98 165 54 98 165 54 98 165 54 98 165 54 98 165 54 98 165 54 98 165 54 98 165 54 98 165 54 98 165 54 98 165 54 98 165 54 98 165 54 98 165 54 98 165 54 98 165 54 98 165 54 98 165 54 98 165 54 98 165 54 98 165 54 98 165 54 98 165 54 98 165 54 98 165 54 98 165 54 98 165 54 98 165 54 98 165 54 98 165 
54 97 166 54 97 166 54 97 166 54 97 166 54 97 166 54 97 166 54 97 166 54 97 166 54 97 166 54 97 166 54 97 166 54 97 166 54 97 166 54 97 166 54 97 166 54 97 166 54 97 166 54 97 166 54 97 166 54 97 166 54 97 166 54 97 166 54 97 166 54 97 166 54 97 166 54 97 166 54 97 166 54 97 166 54 97 166 54 97 166 54 97 166 54 97 166 54 97 166 54 97 166 54 97 166 54 97 166 54 97 166 54 97 166 54 97 166 54 97 166 54 97 166 54 97 166 54 97 166 54 97 166 54 97 166 54 97 166 54 97 166 54 97 166 54 97 166 54 97 166 54 97 166 54 97 166 54 97 166 54 97 166 54 97 166 54 97 166 54 97 166 54 97 166 54 97 166 54 97 166 54 97 166 54 97 166 54 97 166 54 97 166 54 97 166 54 97 166 54 97 166 54 97 166 54 97 166 54 97 166 54 97 166 54 97 166 54 97 166 54 97 166 54 97 166 54 97 166 54 97 166 54 97 166 54 97 166 54 97 166 54 97 166 54 97 166 54 97 166 54 97 166 54 97 166 54 97 166 54 97 166 54 97 166 54 97 166 54 97 166 54 97 166 54 97 166 54 97 166 54 97 166 54 97 166 54 97 166 54 97 166 54 97 166 54 97 166 54 97 166 54 97 166 54 97 166 54 97 166 54 97 166 54 97 166 54 97 166 54 97 166 54 97 166 54 97 166 54 97 166 54 97 166 54 97 166 54 97 166 54 97 166 54 97 166 54 97 166 54 97 166 54 97 166 54 97 166 54 97 166 54 97 166 54 97 166 54 97 166 54 97 166 54 97 166 54 97 166 255 160 165 255 160 165 255 160 165 255 160 165 255 160 165 255 160 165 255 160 165 255 160 165 255 160 165 255 160 165 255 160 165 255 160 165 255 160 165 54 97 166 54 97 166 54 97 166 54 97 166 54 97 166 54 97 166 54 97 166 54 97 166 54 97 166 54 97 166 54 97 166 54 97 166 54 97 166 54 97 166 54 97 166 50 10 20 50 10 20 50 10 20 50 10 20 50 10 20 50 10 20 50 10 20 50 10 20 50 10 20 50 10 20 50 10 20 50 10 20 50 10 20 50 10 20 255 255 255 50 10 20 50 10 20 50 10 20 50 10 20 50 10 20 50 10 20 50 10 20 50 10 20 50 10 20 50 10 20 50 10 20 50 10 20 50 10 20 50 10 20 50 10 20 50 10 20 50 10 20 50 10 20 50 10 20 50 10 20 50 10 20 50 10 20 50 10 20 255 120 40 50 10 20 50 10 20 50 10 20 50 10 20 50 10 20 50 10 20 50 10 20 50 10 20 50 10 20 50 10 20 50 10 20 50 10 20 50 10 20 50 10 20 50 10 20 50 10 20 50 10 20 50 10 20 50 10 20 50 10 20 50 10 20 50 10 20 50 10 20 50 10 20 255 120 70 255 120 70 255 120 70 255 120 70 255 120 70 255 120 70 255 116 198 54 97 166 54 97 166 54 97 166 54 97 166 54 97 166 54 97 166 54 97 166 54 97 166 54 97 166 54 97 166 54 97 166 54 97 166 54 97 166 54 97 166 54 97 166 54 97 166 54 97 166 54 97 166 54 97 166 54 97 166 54 97 166 54 97 166 255 112 201 255 112 201 255 112 201 255 112 201 255 112 201 255 112 201 255 112 201 255 112 201 255 112 201 255 112 201 255 112 201 255 112 201 54 97 166 54 97 166 54 97 166 54 97 166 54 97 166 54 97 166 54 97 166 54 97 166 54 97 166 54 97 166 54 97 166 54 97 166 54 97 166 54 97 166 54 97 166 54 97 166 54 97 166 54 97 166 54 97 166 54 97 166 54 97 166 54 97 166 54 97 166 54 97 166 54 97 166 54 97 166 54 97 166 54 97 166 54 97 166 54 97 166 54 97 166 54 97 166 54 97 166 54 97 166 54 97 166 54 97 166 54 97 166 54 97 166 54 97 166 54 97 166 54 97 166 54 97 166 54 97 166 54 97 166 54 97 166 54 97 166 54 97 166 54 97 166 54 97 166 54 97 166 54 97 166 54 97 166 54 97 166 54 97 166 54 97 166 54 97 166 54 97 166 54 97 166 54 97 166 54 97 166 54 97 166 54 97 166 54 97 166 54 97 166 54 97 166 54 97 166 54 97 166 54 97 166 54 97 166 54 97 166 54 97 166 54 97 166 54 97 166 54 97 166 54 97 166 54 97 166 54 97 166 54 97 166 54 97 166 54 97 166 54 97 166 54 97 166 54 97 166 54 97 166 54 97 166 54 97 166 54 97 166 54 97 166 54 97 166 54 97 166 54 97 166 54 97 166 54 97 166 54 97 166 54 97 166 54 97 166 54 97 166 54 97 166 54 97 166 54 97 166 54 97 166 54 97 166 54 97 166 54 97 166 54 97 166 54 97 166 54 97 166 54 97 166 54 97 166 54 97 166 54 97 166 54 97 166 54 97 166 54 97 166 54 97 166 54 97 166 54 97 166 54 97 166 54 97 166 54 97 166 54 97 166 54 97 166 54 97 166 54 97 166 54 97 166 54 97 166 
55 96 166 55 96 166 55 96 166 55 96 166 55 96 166 55 96 166 55 96 166 55 96 166 55 96 166 55 96 166 55 96 166 55 96 166 55 96 166 55 96 166 55 96 166 55 96 166 55 96 166 55 96 166 55 96 166 55 96 166 55 96 166 55 96 166 55 96 166 55 96 166 55 96 166 55 96 166 55 96 166 55 96 166 55 96 166 55 96 166 55 96 166 55 96 166 55 96 166 55 96 166 55 96 166 55 96 166 55 96 166 55 96 166 55 96 166 55 96 166 55 96 166 55 96 166 55 96 166 55 96 166 55 96 166 55 96 166 55 96 166 55 96 166 55 96 166 55 96 166 55 96 166 55 96 166 55 96 166 55 96 166 55 96 166 55 96 166 55 96 166 55 96 166 55 96 166 55 96 166 55 96 166 55 96 166 55 96 166 55 96 166 55 96 166 55 96 166 55 96 166 55 96 166 55 96 166 55 96 166 55 96 166 55 96 166 55 96 166 55 96 166 55 96 166 55 96 166 55 96 166 55 96 166 55 96 166 55 96 166 55 96 166 55 96 166 55 96 166 55 96 166 55 96 166 55 96 166 55 96 166 55 96 166 55 96 166 55 96 166 55 96 166 55 96 166 55 96 166 55 96 166 55 96 166 55 96 166 55 96 166 55 96 166 55 96 166 55 96 166 55 96 166 55 96 166 55 96 166 55 96 166 55 96 166 55 96 166 55 96 166 55 96 166 55 96 166 55 96 166 55 96 166 55 96 166 55 96 166 55 96 166 55 96 166 55 96 166 55 96 166 55 96 166 55 96 166 55 96 166 55 96 166 55 96 166 55 96 166 55 96 166 55 96 166 55 96 166 55 96 166 55 96 166 55 96 166 55 96 166 255 160 165 255 160 165 255 160 165 255 160 165 255 160 165 255 160 165 255 160 165 255 160 165 255 160 165 255 160 165 255 160 165 255 160 165 255 160 165 55 96 166 55 96 166 55 96 166 55 96 166 55 96 166 55 96 166 55 96 166 55 96 166 55 96 166 55 96 166 55 96 166 55 96 166 50 10 20 50 10 20 50 10 20 50 10 20 50 10 20 50 10 20 50 10 20 50 10 20 50 10 20 50 10 20 50 10 20 50 10 20 50 10 20 50 10 20 255 255 255 255 255 255 50 10 20 50 10 20 50 10 20 50 10 20 50 10 20 50 10 20 50 10 20 50 10 20 50 10 20 50 10 20 50 10 20 50 10 20 50 10 20 50 10 20 50 10 20 50 10 20 50 10 20 50 10 20 50 10 20 50 10 20 50 10 20 255 120 40 50 10 20 50 10 20 50 10 20 50 10 20 50 10 20 50 10 20 50 10 20 50 10 20 50 10 20 50 10 20 50 10 20 50 10 20 50 10 20 50 10 20 50 10 20 50 10 20 50 10 20 50 10 20 50 10 20 50 10 20 50 10 20 50 10 20 50 10 20 50 10 20 50 10 20 255 120 70 255 120 70 255 120 70 255 120 70 255 120 70 55 96 166 55 96 166 55 96 166 55 96 166 55 96 166 55 96 166 55 96 166 55 96 166 55 96 166 55 96 166 55 96 166 55 96 166 55 96 166 55 96 166 55 96 166 55 96 166 55 96 166 55 96 166 255 112 201 255 112 201 255 112 201 255 112 201 255 112 201 255 112 201 255 112 201 255 112 201 255 112 201 255 112 201 255 112 201 255 112 201 255 112 201 55 96 166 55 96 166 55 96 166 55 96 166 55 96 166 55 96 166 55 96 166 55 96 166 55 96 166 55 96 166 55 96 166 55 96 166 55 96 166 55 96 166 55 96 166 55 96 166 55 96 166 55 96 166 55 96 166 55 96 166 55 96 166 55 96 166 55 96 166 55 96 166 55 96 166 55 96 166 55 96 166 55 96 166 55 96 166 55 96 166 55 96 166 55 96 166 55 96 166 55 96 166 55 96 166 55 96 166 55 96 166 55 96 166 55 96 166 55 96 166 55 96 166 55 96 166 55 96 166 55 96 166 55 96 166 55 96 166 55 96 166 55 96 166 55 96 166 55 96 166 55 96 166 55 96 166 55 96 166 55 96 166 55 96 166 55 96 166 55 96 166 55 96 166 55 96 166 55 96 166 55 96 166 55 96 166 55 96 166 55 96 166 55 96 166 55 96 166 55 96 166 55 96 166 55 96 166 55 96 166 55 96 166 55 96 166 55 96 166 55 96 166 55 96 166 55 96 166 55 96 166 55 96 166 55 96 166 55 96 166 55 96 166 55 96 166 55 96 166 55 96 166 55 96 166 55 96 166 55 96 166 55 96 166 55 96 166 55 96 166 55 96 166 55 96 166 55 96 166 55 96 166 55 96 166 55 96 166 55 96 166 55 96 166 55 96 166 55 96 166 55 96 166 55 96 166 55 96 166 55 96 166 55 96 166 55 96 166 55 96 166 55 96 166 55 96 166 55 96 166 55 96 166 55 96 166 55 96 166 55 96 166 55 96 166 55 96 166 55 96 166 55 96 166 55 96 166 55 96 166 55 96 166 55 96 166 55 96 166 55 96 166 55 96 166 55 96 166 55 96 166 55 96 166 55 96 166 55 96 166 
55 96 167 55 96 167 55 96 167 55 96 167 55 96 167 55 96 167 55 96 167 55 96 167 55 96 167 55 96 167 55 96 167 55 96 167 55 96 167 55 96 167 55 96 167 55 96 167 55 96 167 55 96 167 55 96 167 55 96 167 55 96 167 55 96 167 55 96 167 55 96 167 55 96 167 55 96 167 55 96 167 55 96 167 55 96 167 55 96 167 55 96 167 55 96 167 55 96 167 55 96 167 55 96 167 55 96 167 55 96 167 55 96 167 55 96 167 55 96 167 55 96 167 55 96 167 55 96 167 55 96 167 55 96 167 55 96 167 55 96 167 55 96 167 55 96 167 55 96 167 55 96 167 55 96 167 55 96 167 55 96 167 55 96 167 55 96 167 55 96 167 55 96 167 55 96 167 55 96 167 55 96 167 55 96 167 55 96 167 55 96 167 55 96 167 55 96 167 55 96 167 55 96 167 55 96 167 55 96 167 55 96 167 55 96 167 55 96 167 55 96 167 55 96 167 55 96 167 55 96 167 55 96 167 55 96 167 55 96 167 55 96 167 55 96 167 55 96 167 55 96 167 55 96 167 55 96 167 55 96 167 55 96 167 55 96 167 55 96 167 55 96 167 55 96 167 55 96 167 55 96 167 55 96 167 55 96 167 55 96 167 55 96 167 55 96 167 55 96 167 55 96 167 55 96 167 55 96 167 55 96 167 55 96 167 55 96 167 55 96 167 55 96 167 55 96 167 55 96 167 55 96 167 55 96 167 55 96 167 55 96 167 55 96 167 55 96 167 55 96 167 55 96 167 55 96 167 55 96 167 55 96 167 55 96 167 55 96 167 55 96 167 55 96 167 55 96 167 55 96 167 55 96 167 55 96 167 55 96 167 55 96 167 55 96 167 55 96 167 55 96 167 255 160 165 255 160 165 255 160 165 255 160 165 255 160 165 255 160 165 255 160 165 255 160 165 255 160 165 255 160 165 255 160 165 255 160 165 255 160 165 55 96 167 55 96 167 55 96 167 55 96 167 55 96 167 55 96 167 55 96 167 55 96 167 50 10 20 50 10 20 50 10 20 50 10 20 50 10 20 50 10 20 50 10 20 50 10 20 50 10 20 50 10 20 50 10 20 50 10 20 50 10 20 50 10 20 50 10 20 50 10 20 255 255 255 255 255 255 50 10 20 50 10 20 50 10 20 50 10 20 50 10 20 50 10 20 50 10 20 50 10 20 50 10 20 50 10 20 50 10 20 50 10 20 50 10 20 50 10 20 50 10 20 50 10 20 50 10 20 50 10 20 50 10 20 255 120 40 50 10 20 50 10 20 50 10 20 50 10 20 50 10 20 50 10 20 50 10 20 50 10 20 50 10 20 50 10 20 50 10 20 50 10 20 50 10 20 50 10 20 50 10 20 50 10 20 50 10 20 50 10 20 50 10 20 50 10 20 50 10 20 50 10 20 50 10 20 50 10 20 50 10 20 50 10 20 50 10 20 255 120 70 255 120 70 255 120 70 255 120 70 55 96 167 55 96 167 55 96 167 55 96 167 55 96 167 55 96 167 55 96 167 55 96 167 55 96 167 55 96 167 55 96 167 55 96 167 55 96 167 255 112 201 255 112 201 255 112 201 255 112 201 255 112 201 255 112 201 255 112 201 255 112 201 255 112 201 255 112 201 255 112 201 255 112 201 255 112 201 55 96 167 55 96 167 55 96 167 55 96 167 55 96 167 55 96 167 55 96 167 55 96 167 55 96 167 55 96 167 55 96 167 55 96 167 55 96 167 55 96 167 55 96 167 55 96 167 55 96 167 55 96 167 55 96 167 55 96 167 55 96 167 55 96 167 55 96 167 55 96 167 55 96 167 55 96 167 55 96 167 55 96 167 55 96 167 55 96 167 55 96 167 55 96 167 55 96 167 55 96 167 55 96 167 55 96 167 55 96 167 55 96 167 55 96 167 55 96 167 55 96 167 55 96 167 55 96 167 55 96 167 55 96 167 55 96 167 55 96 167 55 96 167 55 96 167 55 96 167 55 96 167 55 96 167 55 96 167 55 96 167 55 96 167 55 96 167 55 96 167 55 96 167 55 96 167 55 96 167 55 96 167 55 96 167 55 96 167 55 96 167 55 96 167 55 96 167 55 96 167 55 96 167 55 96 167 55 96 167 55 96 167 55 96 167 55 96 167 55 96 167 55 96 167 55 96 167 55 96 167 55 96 167 55 96 167 55 96 167 55 96 167 55 96 167 55 96 167 55 96 167 55 96 167 55 96 167 55 96 167 55 96 167 55 96 167 55 96 167 55 96 167 55 96 167 55 96 167 55 96 167 55 96 167 55 96 167 55 96 167 55 96 167 55 96 167 55 96 167 55 96 167 55 96 167 55 96 167 55 96 167 55 96 167 55 96 167 55 96 167 55 96 167 55 96 167 55 96 167 55 96 167 55 96 167 55 96 167 55 96 167 55 96 167 55 96 167 55 96 167 55 96 167 55 96 167 55 96 167 55 96 167 55 96 167 55 96 167 55 96 167 55 96 167 55 96 167 55 96 167 55 96 167 55 96 167 55 96 167 55 96 167 55 96 167 55 96 167 55 96 167 
56 95 168 56 95 168 56 95 168 56 95 168 56 95 168 56 95 168 56 95 168 56 95 168 56 95 168 56 95 168 56 95 168 56 95 168 56 95 168 56 95 168 56 95 168 56 95 168 56 95 168 56 95 168 56 95 168 56 95 168 56 95 168 56 95 168 56 95 168 56 95 168 56 95 168 56 95 168 56 95 168 56 95 168 56 95 168 56 95 168 56 95 168 56 95 168 56 95 168 56 95 168 56 95 168 56 95 168 56 95 168 56 95 168 56 95 168 56 95 168 56 95 168 56 95 168 56 95 168 56 95 168 56 95 168 56 95 168 56 95 168 56 95 168 56 95 168 56 95 168 56 95 168 56 95 168 56 95 168 56 95 168 56 95 168 56 95 168 56 95 168 56 95 168 56 95 168 56 95 168 56 95 168 56 95 168 56 95 168 56 95 168 56 95 168 56 95 168 56 95 168 56 95 168 56 95 168 56 95 168 56 95 168 56 95 168 56 95 168 56 95 168 56 95 168 56 95 168 56 95 168 56 95 168 56 95 168 56 95 168 56 95 168 56 95 168 56 95 168 56 95 168 56 95 168 56 95 168 56 95 168 56 95 168 56 95 168 56 95 168 56 95 168 56 95 168 56 95 168 56 95 168 56 95 168 56 95 168 56 95 168 56 95 168 56 95 168 56 95 168 56 95 168 56 95 168 56 95 168 56 95 168 56 95 168 56 95 168 56 95 168 56 95 168 56 95 168 56 95 168 56 95 168 56 95 168 56 95 168 56 95 168 56 95 168 56 95 168 56 95 168 56 95 168 56 95 168 56 95 168 56 95 168 56 95 168 56 95 168 56 95 168 56 95 168 56 95 168 56 95 168 56 95 168 56 95 168 56 95 168 56 95 168 56 95 168 56 95 168 56 95 168 56 95 168 56 95 168 56 95 168 56 95 168 56 95 168 255 160 165 255 160 165 255 160 165 255 160 165 255 160 165 255 160 165 255 160 165 255 160 165 255 160 165 255 160 165 255 160 165 255 160 165 255 160 165 56 95 168 56 95 168 56 95 168 56 95 168 50 10 20 50 10 20 50 10 20 50 10 20 50 10 20 50 10 20 50 10 20 50 10 20 50 10 20 50 10 20 50 10 20 50 10 20 50 10 20 50 10 20 50 10 20 50 10 20 50 10 20 255 255 255 255 255 255 50 10 20 50 10 20 50 10 20 50 10 20 50 10 20 50 10 20 50 10 20 50 10 20 50 10 20 50 10 20 50 10 20 50 10 20 50 10 20 50 10 20 50 10 20 50 10 20 50 10 20 255 120 40 50 10 20 50 10 20 50 10 20 50 10 20 50 10 20 50 10 20 50 10 20 50 10 20 50 10 20 50 10 20 50 10 20 50 10 20 50 10 20 50 10 20 50 10 20 50 10 20 50 10 20 50 10 20 50 10 20 50 10 20 50 10 20 50 10 20 50 10 20 50 10 20 50 10 20 50 10 20 50 10 20 50 10 20 255 120 70 255 120 70 255 120 70 56 95 168 56 95 168 56 95 168 56 95 168 56 95 168 56 95 168 56 95 168 56 95 168 56 95 168 255 112 201 255 112 201 255 112 201 255 112 201 255 112 201 255 112 201 255 112 201 255 112 201 255 112 201 255 112 201 255 112 201 255 112 201 255 112 201 56 95 168 56 95 168 56 95 168 56 95 168 56 95 168 56 95 168 56 95 168 56 95 168 56 95 168 56 95 168 56 95 168 56 95 168 56 95 168 56 95 168 56 95 168 56 95 168 56 95 168 56 95 168 56 95 168 56 95 168 56 95 168 56 95 168 56 95 168 56 95 168 56 95 168 56 95 168 56 95 168 56 95 168 56 95 168 56 95 168 56 95 168 56 95 168 56 95 168 56 95 168 56 95 168 56 95 168 56 95 168 56 95 168 56 95 168 56 95 168 56 95 168 56 95 168 56 95 168 56 95 168 56 95 168 56 95 168 56 95 168 56 95 168 56 95 168 56 95 168 56 95 168 56 95 168 56 95 168 56 95 168 56 95 168 56 95 168 56 95 168 56 95 168 56 95 168 56 95 168 56 95 168 56 95 168 56 95 168 56 95 168 56 95 168 56 95 168 56 95 168 56 95 168 56 95 168 56 95 168 56 95 168 56 95 168 56 95 168 56 95 168 56 95 168 56 95 168 56 95 168 56 95 168 56 95 168 56 95 168 56 95 168 56 95 168 56 95 168 56 95 168 56 95 168 56 95 168 56 95 168 56 95 168 56 95 168 56 95 168 56 95 168 56 95 168 56 95 168 56 95 168 56 95 168 56 95 168 56 95 168 56 95 168 56 95 168 56 95 168 56 95 168 56 95 168 56 95 168 56 95 168 56 95 168 56 95 168 56 95 168 56 95 168 56 95 168 56 95 168 56 95 168 56 95 168 56 95 168 56 95 168 56 95 168 56 95 168 56 95 168 56 95 168 56 95 168 56 95 168 56 95 168 56 95 168 56 95 168 56 95 168 56 95 168 56 95 168 56 95 168 56 95 168 56 95 168 56 95 168 56 95 168 56 95 168 56 95 168 56 95 168 56 95 168 56 95 168 56 95 168 56 95 168 
56 95 168 56 95 168 56 95 168 56 95 168 56 95 168 56 95 168 56 95 168 56 95 168 56 95 168 56 95 168 56 95 168 56 95 168 56 95 168 56 95 168 56 95 168 56 95 168 56 95 168 56 95 168 56 95 168 56 95 168 56 95 168 56 95 168 56 95 168 56 95 168 56 95 168 56 95 168 56 95 168 56 95 168 56 95 168 56 95 168 56 95 168 56 95 168 56 95 168 56 95 168 56 95 168 56 95 168 56 95 168 56 95 168 56 95 168 56 95 168 56 95 168 56 95 168 56 95 168 56 95 168 56 95 168 56 95 168 56 95 168 56 95 168 56 95 168 56 95 168 56 95 168 56 95 168 56 95 168 56 95 168 56 95 168 56 95 168 56 95 168 56 95 168 56 95 168 56 95 168 56 95 168 56 95 168 56 95 168 56 95 168 56 95 168 56 95 168 56 95 168 56 95 168 56 95 168 56 95 168 56 95 168 56 95 168 56 95 168 56 95 168 56 95 168 56 95 168 56 95 168 56 95 168 56 95 168 56 95 168 56 95 168 56 95 168 56 95 168 56 95 168 56 95 168 56 95 168 56 95 168 56 95 168 56 95 168 56 95 168 56 95 168 56 95 168 56 95 168 56 95 168 56 95 168 56 95 168 56 95 168 56 95 168 56 95 168 56 95 168 56 95 168 56 95 168 56 95 168 56 95 168 56 95 168 56 95 168 56 95 168 56 95 168 56 95 168 56 95 168 56 95 168 56 95 168 56 95 168 56 95 168 56 95 168 56 95 168 56 95 168 56 95 168 56 95 168 56 95 168 56 95 168 56 95 168 56 95 168 56 95 168 56 95 168 56 95 168 56 95 168 56 95 168 56 95 168 56 95 168 56 95 168 56 95 168 56 95 168 56 95 168 56 95 168 56 95 168 56 95 168 56 95 168 56 95 168 56 95 168 56 95 168 56 95 168 56 95 168 255 160 165 255 160 165 255 160 165 255 160 165 255 160 165 255 160 165 255 160 165 255 160 165 255 160 165 255 160 165 255 160 165 255 160 165 255 160 165 56 95 168 50 10 20 50 10 20 50 10 20 50 10 20 50 10 20 50 10 20 50 10 20 50 10 20 50 10 20 50 10 20 50 10 20 50 10 20 50 10 20 50 10 20 50 10 20 50 10 20 50 10 20 50 10 20 255 255 255 50 10 20 50 10 20 50 10 20 50 10 20 50 10 20 50 10 20 50 10 20 50 10 20 50 10 20 50 10 20 50 10 20 50 10 20 50 10 20 50 10 20 50 10 20 50 10 20 255 120 40 50 10 20 50 10 20 50 10 20 50 10 20 50 10 20 50 10 20 50 10 20 50 10 20 50 10 20 50 10 20 50 10 20 50 10 20 50 10 20 50 10 20 50 10 20 50 10 20 50 10 20 50 10 20 50 10 20 50 10 20 50 10 20 50 10 20 50 10 20 50 10 20 50 10 20 50 10 20 50 10 20 50 10 20 50 10 20 50 10 20 255 120 70 56 95 168 56 95 168 56 95 168 56 95 168 56 95 168 255 112 201 255 112 201 255 112 201 255 112 201 255 112 201 255 112 201 255 112 201 255 112 201 255 112 201 255 112 201 255 112 201 255 112 201 56 95 168 56 95 168 56 95 168 56 95 168 56 95 168 56 95 168 56 95 168 56 95 168 56 95 168 56 95 168 56 95 168 56 95 168 56 95 168 56 95 168 56 95 168 56 95 168 56 95 168 56 95 168 56 95 168 56 95 168 56 95 168 56 95 168 56 95 168 56 95 168 56 95 168 56 95 168 56 95 168 56 95 168 56 95 168 56 95 168 56 95 168 56 95 168 56 95 168 56 95 168 56 95 168 56 95 168 56 95 168 56 95 168 56 95 168 56 95 168 56 95 168 56 95 168 56 95 168 56 95 168 56 95 168 56 95 168 56 95 168 56 95 168 56 95 168 56 95 168 56 95 168 56 95 168 56 95 168 56 95 168 56 95 168 56 95 168 56 95 168 56 95 168 56 95 168 56 95 168 56 95 168 56 95 168 56 95 168 56 95 168 56 95 168 56 95 168 56 95 168 56 95 168 56 95 168 56 95 168 56 95 168 56 95 168 56 95 168 56 95 168 56 95 168 56 95 168 56 95 168 56 95 168 56 95 168 56 95 168 56 95 168 56 95 168 56 95 168 56 95 168 56 95 168 56 95 168 56 95 168 56 95 168 56 95 168 56 95 168 56 95 168 56 95 168 56 95 168 56 95 168 56 95 168 56 95 168 56 95 168 56 95 168 56 95 168 56 95 168 56 95 168 56 95 168 56 95 168 56 95 168 56 95 168 56 95 168 56 95 168 56 95 168 56 95 168 56 95 168 56 95 168 56 95 168 56 95 168 56 95 168 56 95 168 56 95 168 56 95 168 56 95 168 56 95 168 56 95 168 56 95 168 56 95 168 56 95 168 56 95 168 56 95 168 56 95 168 56 95 168 56 95 168 56 95 168 56 95 168 56 95 168 56 95 168 56 95 168 56 95 168 56 95 168 56 95 168 56 95 168 56 95 168 56 95 168 56 95 168 56 95 168 56 95 168 56 95 168 
56 94 169 56 94 169 56 94 169 56 94 169 56 94 169 56 94 169 56 94 169 56 94 169 56 94 169 56 94 169 56 94 169 56 94 169 56 94 169 56 94 169 56 94 169 56 94 169 56 94 169 56 94 169 56 94 169 56 94 169 56 94 169 56 94 169 56 94 169 56 94 169 56 94 169 56 94 169 56 94 169 56 94 169 56 94 169 56 94 169 56 94 169 56 94 169 56 94 169 56 94 169 56 94 169 56 94 169 56 94 169 56 94 169 56 94 169 56 94 169 56 94 169 56 94 169 56 94 169 56 94 169 56 94 169 56 94 169 56 94 169 56 94 169 56 94 169 56 94 169 56 94 169 56 94 169 56 94 169 56 94 169 56 94 169 56 94 169 56 94 169 56 94 169 56 94 169 56 94 169 56 94 169 56 94 169 56 94 169 56 94 169 56 94 169 56 94 169 56 94 169 56 94 169 56 94 169 56 94 169 56 94 169 56 94 169 56 94 169 56 94 169 56 94 169 56 94 169 56 94 169 56 94 169 56 94 169 56 94 169 56 94 169 56 94 169 56 94 169 56 94 169 56 94 169 56 94 169 56 94 169 56 94 169 56 94 169 56 94 169 56 94 169 56 94 169 56 94 169 56 94 169 56 94 169 56 94 169 56 94 169 56 94 169 56 94 169 56 94 169 56 94 169 56 94 169 56 94 169 56 94 169 56 94 169 56 94 169 56 94 169 56 94 169 56 94 169 56 94 169 56 94 169 56 94 169 56 94 169 56 94 169 56 94 169 56 94 169 56 94 169 56 94 169 56 94 169 56 94 169 56 94 169 56 94 169 56 94 169 56 94 169 56 94 169 56 94 169 56 94 169 56 94 169 56 94 169 56 94 169 56 94 169 56 94 169 56 94 169 56 94 169 56 94 169 56 94 169 56 94 169 56 94 169 56 94 169 56 94 169 56 94 169 56 94 169 56 94 169 56 94 169 56 94 169 56 94 169 56 94 169 255 160 165 255 160 165 255 160 165 255 160 165 255 160 165 255 160 165 255 160 165 255 160 165 255 160 165 255 160 165 50 10 20 50 10 20 50 10 20 50 10 20 50 10 20 50 10 20 50 10 20 50 10 20 50 10 20 50 10 20 50 10 20 50 10 20 50 10 20 50 10 20 50 10 20 50 10 20 50 10 20 50 10 20 50 10 20 255 255 255 255 255 255 50 10 20 50 10 20 50 10 20 50 10 20 50 10 20 50 10 20 50 10 20 50 10 20 50 10 20 50 10 20 50 10 20 50 10 20 50 10 20 50 10 20 255 120 40 50 10 20 50 10 20 50 10 20 50 10 20 50 10 20 50 10 20 50 10 20 50 10 20 50 10 20 50 10 20 50 10 20 50 10 20 50 10 20 50 10 20 50 10 20 50 10 20 50 10 20 50 10 20 50 10 20 50 10 20 50 10 20 50 10 20 50 10 20 50 10 20 50 10 20 50 10 20 50 10 20 50 10 20 50 10 20 50 10 20 50 10 20 255 120 70 255 112 201 255 112 201 255 112 201 255 112 201 255 112 201 255 112 201 255 112 201 255 112 201 255 112 201 255 112 201 255 112 201 255 112 201 56 94 169 56 94 169 56 94 169 56 94 169 56 94 169 56 94 169 56 94 169 56 94 169 56 94 169 56 94 169 56 94 169 56 94 169 56 94 169 56 94 169 56 94 169 56 94 169 56 94 169 56 94 169 56 94 169 56 94 169 56 94 169 56 94 169 56 94 169 56 94 169 56 94 169 56 94 169 56 94 169 56 94 169 56 94 169 56 94 169 56 94 169 56 94 169 56 94 169 56 94 169 56 94 169 56 94 169 56 94 169 56 94 169 56 94 169 56 94 169 56 94 169 56 94 169 56 94 169 56 94 169 56 94 169 56 94 169 56 94 169 56 94 169 56 94 169 56 94 169 56 94 169 56 94 169 56 94 169 56 94 169 56 94 169 56 94 169 56 94 169 56 94 169 56 94 169 56 94 169 56 94 169 56 94 169 56 94 169 56 94 169 56 94 169 56 94 169 56 94 169 56 94 169 56 94 169 56 94 169 56 94 169 56 94 169 56 94 169 56 94 169 56 94 169 56 94 169 56 94 169 56 94 169 56 94 169 56 94 169 56 94 169 56 94 169 56 94 169 56 94 169 56 94 169 56 94 169 56 94 169 56 94 169 56 94 169 56 94 169 56 94 169 56 94 169 56 94 169 56 94 169 56 94 169 56 94 169 56 94 169 56 94 169 56 94 169 56 94 169 56 94 169 56 94 169 56 94 169 56 94 169 56 94 169 56 94 169 56 94 169 56 94 169 56 94 169 56 94 169 56 94 169 56 94 169 56 94 169 56 94 169 56 94 169 56 94 169 56 94 169 56 94 169 56 94 169 56 94 169 56 94 169 56 94 169 56 94 169 56 94 169 56 94 169 56 94 169 56 94 169 56 94 169 56 94 169 56 94 169 56 94 169 56 94 169 56 94 169 56 94 169 56 94 169 56 94 169 56 94 169 56 94 169 56 94 169 56 94 169 56 94 169 56 94 169 56 94 169 56 94 169 56 94 169 56 94 169 56 94 169 
57 94 170 57 94 170 57 94 170 57 94 170 57 94 170 57 94 170 57 94 170 57 94 170 57 94 170 57 94 170 57 94 170 57 94 170 57 94 170 57 94 170 57 94 170 57 94 170 57 94 170 57 94 170 57 94 170 57 94 170 57 94 170 57 94 170 57 94 170 57 94 170 57 94 170 57 94 170 57 94 170 57 94 170 57 94 170 57 94 170 57 94 170 57 94 170 57 94 170 57 94 170 57 94 170 57 94 170 57 94 170 57 94 170 57 94 170 57 94 170 57 94 170 57 94 170 57 94 170 57 94 170 57 94 170 57 94 170 57 94 170 57 94 170 57 94 170 57 94 170 57 94 170 57 94 170 57 94 170 57 94 170 57 94 170 57 94 170 57 94 170 57 94 170 57 94 170 57 94 170 57 94 170 57 94 170 57 94 170 57 94 170 57 94 170 57 94 170 57 94 170 57 94 170 57 94 170 57 94 170 57 94 170 57 94 170 57 94 170 57 94 170 57 94 170 57 94 170 57 94 170 57 94 170 57 94 170 57 94 170 57 94 170 57 94 170 57 94 170 57 94 170 57 94 170 57 94 170 57 94 170 57 94 170 57 94 170 57 94 170 57 94 170 57 94 170 57 94 170 57 94 170 57 94 170 57 94 170 57 94 170 57 94 170 57 94 170 57 94 170 57 94 170 57 94 170 57 94 170 57 94 170 57 94 170 57 94 170 57 94 170 57 94 170 57 94 170 57 94 170 57 94 170 57 94 170 57 94 170 57 94 170 57 94 170 57 94 170 57 94 170 57 94 170 57 94 170 57 94 170 57 94 170 57 94 170 57 94 170 57 94 170 57 94 170 57 94 170 57 94 170 57 94 170 57 94 170 57 94 170 57 94 170 57 94 170 57 94 170 57 94 170 57 94 170 57 94 170 57 94 170 57 94 170 57 94 170 57 94 170 57 94 170 57 94 170 57 94 170 57 94 170 57 94 170 57 94 170 57 94 170 57 94 170 57 94 170 57 94 170 57 94 170 57 94 170 255 160 165 255 160 165 255 160 165 255 160 165 255 160 165 255 160 165 50 10 20 50 10 20 50 10 20 50 10 20 50 10 20 50 10 20 50 10 20 50 10 20 50 10 20 50 10 20 50 10 20 50 10 20 50 10 20 50 10 20 50 10 20 50 10 20 50 10 20 50 10 20 50 10 20 50 10 20 255 255 255 255 255 255 50 10 20 50 10 20 50 10 20 50 10 20 50 10 20 50 10 20 50 10 20 50 10 20 50 10 20 50 10 20 50 10 20 50 10 20 255 120 40 50 10 20 50 10 20 50 10 20 50 10 20 50 10 20 50 10 20 50 10 20 50 10 20 50 10 20 50 10 20 50 10 20 50 10 20 50 10 20 50 10 20 50 10 20 50 10 20 50 10 20 50 10 20 50 10 20 50 10 20 50 10 20 50 10 20 50 10 20 50 10 20 50 10 20 50 10 20 50 10 20 50 10 20 50 10 20 50 10 20 50 10 20 50 10 20 50 10 20 255 112 201 255 112 201 255 112 201 255 112 201 255 112 201 255 112 201 255 112 201 57 94 170 57 94 170 57 94 170 57 94 170 57 94 170 57 94 170 57 94 170 57 94 170 57 94 170 57 94 170 57 94 170 57 94 170 57 94 170 57 94 170 57 94 170 57 94 170 57 94 170 57 94 170 57 94 170 57 94 170 57 94 170 57 94 170 57 94 170 57 94 170 57 94 170 57 94 170 57 94 170 57 94 170 57 94 170 57 94 170 57 94 170 57 94 170 57 94 170 57 94 170 57 94 170 57 94 170 57 94 170 57 94 170 57 94 170 57 94 170 57 94 170 57 94 170 57 94 170 57 94 170 57 94 170 57 94 170 57 94 170 57 94 170 57 94 170 57 94 170 57 94 170 57 94 170 57 94 170 57 94 170 57 94 170 57 94 170 57 94 170 57 94 170 57 94 170 57 94 170 57 94 170 57 94 170 57 94 170 57 94 170 57 94 170 57 94 170 57 94 170 57 94 170 57 94 170 57 94 170 57 94 170 57 94 170 57 94 170 57 94 170 57 94 170 57 94 170 57 94 170 57 94 170 57 94 170 57 94 170 57 94 170 57 94 170 57 94 170 57 94 170 57 94 170 57 94 170 57 94 170 57 94 170 57 94 170 57 94 170 57 94 170 57 94 170 57 94 170 57 94 170 57 94 170 57 94 170 57 94 170 57 94 170 57 94 170 57 94 170 57 94 170 57 94 170 57 94 170 57 94 170 57 94 170 57 94 170 57 94 170 57 94 170 57 94 170 57 94 170 57 94 170 57 94 170 57 94 170 57 94 170 57 94 170 57 94 170 57 94 170 57 94 170 57 94 170 57 94 170 57 94 170 57 94 170 57 94 170 57 94 170 57 94 170 57 94 170 57 94 170 57 94 170 57 94 170 57 94 170 57 94 170 57 94 170 57 94 170 57 94 170 57 94 170 57 94 170 57 94 170 57 94 170 57 94 170 57 94 170 57 94 170 57 94 170 57 94 170 57 94 170 57 94 170 57 94 170 57 94 170 57 94 170 57 94 170 57 94 170 57 94 170 
57 93 170 57 93 170 57 93 170 57 93 170 57 93 170 57 93 170 57 93 170 57 93 170 57 93 170 57 93 170 57 93 170 57 93 170 57 93 170 57 93 170 57 93 170 57 93 170 57 93 170 57 93 170 57 93 170 57 93 170 57 93 170 57 93 170 57 93 170 57 93 170 57 93 170 57 93 170 57 93 170 57 93 170 57 93 170 57 93 170 57 93 170 57 93 170 57 93 170 57 93 170 57 93 170 57 93 170 57 93 170 57 93 170 57 93 170 57 93 170 57 93 170 57 93 170 57 93 170 57 93 170 57 93 170 57 93 170 57 93 170 57 93 170 57 93 170 57 93 170 57 93 170 57 93 170 57 93 170 57 93 170 57 93 170 57 93 170 57 93 170 57 93 170 57 93 170 57 93 170 57 93 170 57 93 170 57 93 170 57 93 170 57 93 170 57 93 170 57 93 170 57 93 170 57 93 170 57 93 170 57 93 170 57 93 170 57 93 170 57 93 170 57 93 170 57 93 170 57 93 170 57 93 170 57 93 170 57 93 170 57 93 170 57 93 170 57 93 170 57 93 170 57 93 170 57 93 170 57 93 170 57 93 170 57 93 170 57 93 170 57 93 170 57 93 170 57 93 170 57 93 170 57 93 170 57 93 170 57 93 170 57 93 170 57 93 170 57 93 170 57 93 170 57 93 170 57 93 170 57 93 170 57 93 170 57 93 170 57 93 170 57 93 170 57 93 170 57 93 170 57 93 170 57 93 170 57 93 170 57 93 170 57 93 170 57 93 170 57 93 170 57 93 170 57 93 170 57 93 170 57 93 170 57 93 170 57 93 170 57 93 170 57 93 170 57 93 170 57 93 170 57 93 170 57 93 170 57 93 170 57 93 170 57 93 170 57 93 170 57 93 170 57 93 170 57 93 170 57 93 170 57 93 170 57 93 170 57 93 170 57 93 170 57 93 170 57 93 170 57 93 170 57 93 170 57 93 170 57 93 170 57 93 170 57 93 170 57 93 170 57 93 170 57 93 170 57 93 170 57 93 170 57 93 170 57 93 170 255 160 165 255 160 165 50 10 20 50 10 20 50 10 20 50 10 20 50 10 20 50 10 20 50 10 20 50 10 20 50 10 20 50 10 20 50 10 20 50 10 20 50 10 20 50 10 20 50 10 20 50 10 20 50 10 20 50 10 20 50 10 20 50 10 20 50 10 20 50 10 20 255 255 255 255 255 255 50 10 20 50 10 20 50 10 20 50 10 20 50 10 20 50 10 20 50 10 20 50 10 20 50 10 20 50 10 20 255 120 40 50 10 20 50 10 20 50 10 20 50 10 20 50 10 20 50 10 20 50 10 20 50 10 20 50 10 20 50 10 20 50 10 20 50 10 20 50 10 20 50 10 20 50 10 20 50 10 20 50 10 20 50 10 20 50 10 20 50 10 20 50 10 20 50 10 20 50 10 20 50 10 20 50 10 20 50 10 20 50 10 20 50 10 20 50 10 20 50 10 20 50 10 20 50 10 20 50 10 20 50 10 20 255 112 201 255 112 201 57 93 170 57 93 170 57 93 170 57 93 170 57 93 170 57 93 170 57 93 170 57 93 170 57 93 170 57 93 170 57 93 170 57 93 170 57 93 170 57 93 170 57 93 170 57 93 170 57 93 170 57 93 170 57 93 170 57 93 170 57 93 170 57 93 170 57 93 170 57 93 170 57 93 170 57 93 170 57 93 170 57 93 170 57 93 170 57 93 170 57 93 170 57 93 170 57 93 170 57 93 170 57 93 170 57 93 170 57 93 170 57 93 170 57 93 170 57 93 170 57 93 170 57 93 170 57 93 170 57 93 170 57 93 170 57 93 170 57 93 170 57 93 170 57 93 170 57 93 170 57 93 170 57 93 170 57 93 170 57 93 170 57 93 170 57 93 170 57 93 170 57 93 170 57 93 170 57 93 170 57 93 170 57 93 170 57 93 170 57 93 170 57 93 170 57 93 170 57 93 170 57 93 170 57 93 170 57 93 170 57 93 170 57 93 170 57 93 170 57 93 170 57 93 170 57 93 170 57 93 170 57 93 170 57 93 170 57 93 170 57 93 170 57 93 170 57 93 170 57 93 170 57 93 170 57 93 170 57 93 170 57 93 170 57 93 170 57 93 170 57 93 170 57 93 170 57 93 170 57 93 170 57 93 170 57 93 170 57 93 170 57 93 170 57 93 170 57 93 170 57 93 170 57 93 170 57 93 170 57 93 170 57 93 170 57 93 170 57 93 170 57 93 170 57 93 170 57 93 170 57 93 170 57 93 170 57 93 170 57 93 170 57 93 170 57 93 170 57 93 170 57 93 170 57 93 170 57 93 170 57 93 170 57 93 170 57 93 170 57 93 170 57 93 170 57 93 170 57 93 170 57 93 170 57 93 170 57 93 170 57 93 170 57 93 170 57 93 170 57 93 170 57 93 170 57 93 170 57 93 170 57 93 170 57 93 170 57 93 170 57 93 170 57 93 170 57 93 170 57 93 170 57 93 170 57 93 170 57 93 170 57 93 170 57 93 170 57 93 170 57 93 170 57 93 170 57 93 170 57 93 170 57 93 170 
57 93 171 57 93 171 57 93 171 57 93 171 57 93 171 57 93 171 57 93 171 57 93 171 57 93 171 57 93 171 57 93 171 57 93 171 57 93 171 57 93 171 57 93 171 57 93 171 57 93 171 57 93 171 57 93 171 57 93 171 57 93 171 57 93 171 57 93 171 57 93 171 57 93 171 57 93 171 57 93 171 57 93 171 57 93 171 57 93 171 57 93 171 57 93 171 57 93 171 57 93 171 57 93 171 57 93 171 57 93 171 57 93 171 57 93 171 57 93 171 57 93 171 57 93 171 57 93 171 57 93 171 57 93 171 57 93 171 57 93 171 57 93 171 57 93 171 57 93 171 57 93 171 57 93 171 57 93 171 57 93 171 57 93 171 57 93 171 57 93 171 57 93 171 57 93 171 57 93 171 57 93 171 57 93 171 57 93 171 57 93 171 57 93 171 57 93 171 57 93 171 57 93 171 57 93 171 57 93 171 57 93 171 57 93 171 57 93 171 57 93 171 57 93 171 57 93 171 57 93 171 57 93 171 57 93 171 57 93 171 57 93 171 57 93 171 57 93 171 57 93 171 57 93 171 57 93 171 57 93 171 57 93 171 57 93 171 57 93 171 57 93 171 57 93 171 57 93 171 57 93 171 57 93 171 57 93 171 57 93 171 57 93 171 57 93 171 57 93 171 57 93 171 57 93 171 57 93 171 57 93 171 57 93 171 57 93 171 57 93 171 57 93 171 57 93 171 57 93 171 57 93 171 57 93 171 57 93 171 57 93 171 57 93 171 57 93 171 57 93 171 57 93 171 57 93 171 57 93 171 57 93 171 57 93 171 57 93 171 57 93 171 57 93 171 57 93 171 57 93 171 57 93 171 57 93 171 57 93 171 57 93 171 57 93 171 57 93 171 57 93 171 57 93 171 57 93 171 57 93 171 57 93 171 57 93 171 57 93 171 57 93 171 57 93 171 57 93 171 57 93 171 57 93 171 57 93 171 57 93 171 57 93 171 57 93 171 57 93 171 57 93 171 57 93 171 57 93 171 57 93 171 57 93 171 57 93 171 57 93 171 57 93 171 57 93 171 50 10 20 50 10 20 50 10 20 50 10 20 50 10 20 50 10 20 50 10 20 50 10 20 50 10 20 50 10 20 50 10 20 50 10 20 50 10 20 50 10 20 50 10 20 50 10 20 50 10 20 50 10 20 50 10 20 50 10 20 50 10 20 50 10 20 50 10 20 255 255 255 255 255 255 50 10 20 50 10 20 50 10 20 50 10 20 50 10 20 50 10 20 50 10 20 50 10 20 255 120 40 50 10 20 50 10 20 50 10 20 50 10 20 50 10 20 50 10 20 50 10 20 50 10 20 50 10 20 50 10 20 50 10 20 50 10 20 50 10 20 50 10 20 50 10 20 50 10 20 50 10 20 50 10 20 50 10 20 50 10 20 50 10 20 50 10 20 50 10 20 50 10 20 50 10 20 50 10 20 50 10 20 50 10 20 50 10 20 50 10 20 50 10 20 50 10 20 50 10 20 50 10 20 50 10 20 50 10 20 57 93 171 57 93 171 57 93 171 57 93 171 57 93 171 57 93 171 57 93 171 57 93 171 57 93 171 57 93 171 57 93 171 57 93 171 57 93 171 57 93 171 57 93 171 57 93 171 57 93 171 57 93 171 57 93 171 57 93 171 57 93 171 57 93 171 57 93 171 57 93 171 57 93 171 57 93 171 57 93 171 57 93 171 57 93 171 57 93 171 57 93 171 57 93 171 57 93 171 57 93 171 57 93 171 57 93 171 57 93 171 57 93 171 57 93 171 57 93 171 57 93 171 57 93 171 57 93 171 57 93 171 57 93 171 57 93 171 57 93 171 57 93 171 57 93 171 57 93 171 57 93 171 57 93 171 57 93 171 57 93 171 57 93 171 57 93 171 57 93 171 57 93 171 57 93 171 57 93 171 57 93 171 57 93 171 57 93 171 57 93 171 57 93 171 57 93 171 57 93 171 57 93 171 57 93 171 57 93 171 57 93 171 57 93 171 57 93 171 57 93 171 57 93 171 57 93 171 57 93 171 57 93 171 57 93 171 57 93 171 57 93 171 57 93 171 57 93 171 57 93 171 57 93 171 57 93 171 57 93 171 57 93 171 57 93 171 57 93 171 57 93 171 57 93 171 57 93 171 57 93 171 57 93 171 57 93 171 57 93 171 57 93 171 57 93 171 57 93 171 57 93 171 57 93 171 57 93 171 57 93 171 57 93 171 57 93 171 57 93 171 57 93 171 57 93 171 57 93 171 57 93 171 57 93 171 57 93 171 57 93 171 57 93 171 57 93 171 57 93 171 57 93 171 57 93 171 57 93 171 57 93 171 57 93 171 57 93 171 57 93 171 57 93 171 57 93 171 57 93 171 57 93 171 57 93 171 57 93 171 57 93 171 57 93 171 57 93 171 57 93 171 57 93 171 57 93 171 57 93 171 57 93 171 57 93 171 57 93 171 57 93 171 57 93 171 57 93 171 57 93 171 57 93 171 57 93 171 57 93 171 57 93 171 57 93 171 57 93 171 57 93 171 57 93 171 57 93 171 57 93 171 57 93 171 
58 92 172 58 92 172 58 92 172 58 92 172 58 92 172 58 92 172 58 92 172 58 92 172 58 92 172 58 92 172 58 92 172 58 92 172 58 92 172 58 92 172 58 92 172 58 92 172 58 92 172 58 92 172 58 92 172 58 92 172 58 92 172 58 92 172 58 92 172 58 92 172 58 92 172 58 92 172 58 92 172 58 92 172 58 92 172 58 92 172 58 92 172 58 92 172 58 92 172 58 92 172 58 92 172 58 92 172 58 92 172 58 92 172 58 92 172 58 92 172 58 92 172 58 92 172 58 92 172 58 92 172 58 92 172 58 92 172 58 92 172 58 92 172 58 92 172 58 92 172 58 92 172 58 92 172 58 92 172 58 92 172 58 92 172 58 92 172 58 92 172 58 92 172 58 92 172 58 92 172 58 92 172 58 92 172 58 92 172 58 92 172 58 92 172 58 92 172 58 92 172 58 92 172 58 92 172 58 92 172 58 92 172 58 92 172 58 92 172 58 92 172 58 92 172 58 92 172 58 92 172 58 92 172 58 92 172 58 92 172 58 92 172 58 92 172 58 92 172 58 92 172 58 92 172 58 92 172 58 92 172 58 92 172 58 92 172 58 92 172 58 92 172 58 92 172 58 92 172 58 92 172 58 92 172 58 92 172 58 92 172 58 92 172 58 92 172 58 92 172 58 92 172 58 92 172 58 92 172 58 92 172 58 92 172 58 92 172 58 92 172 58 92 172 58 92 172 58 92 172 58 92 172 58 92 172 58 92 172 58 92 172 58 92 172 58 92 172 58 92 172 58 92 172 58 92 172 58 92 172 58 92 172 58 92 172 58 92 172 58 92 172 58 92 172 58 92 172 58 92 172 58 92 172 58 92 172 58 92 172 58 92 172 58 92 172 58 92 172 58 92 172 58 92 172 58 92 172 58 92 172 58 92 172 58 92 172 58 92 172 58 92 172 58 92 172 58 92 172 58 92 172 58 92 172 58 92 172 58 92 172 58 92 172 58 92 172 58 92 172 58 92 172 58 92 172 58 92 172 58 92 172 58 92 172 58 92 172 58 92 172 58 92 172 255 120 70 255 120 70 50 10 20 50 10 20 50 10 20 50 10 20 50 10 20 50 10 20 50 10 20 50 10 20 50 10 20 50 10 20 50 10 20 50 10 20 50 10 20 50 10 20 50 10 20 50 10 20 50 10 20 50 10 20 50 10 20 50 10 20 50 10 20 50 10 20 50 10 20 50 10 20 255 255 255 50 10 20 50 10 20 50 10 20 50 10 20 50 10 20 50 10 20 50 10 20 255 120 40 50 10 20 50 10 20 50 10 20 50 10 20 50 10 20 50 10 20 50 10 20 50 10 20 50 10 20 50 10 20 50 10 20 50 10 20 50 10 20 50 10 20 50 10 20 50 10 20 50 10 20 50 10 20 50 10 20 50 10 20 50 10 20 50 10 20 50 10 20 50 10 20 50 10 20 50 10 20 50 10 20 50 10 20 50 10 20 50 10 20 50 10 20 50 10 20 50 10 20 50 10 20 50 10 20 50 10 20 50 10 20 58 92 172 58 92 172 58 92 172 58 92 172 58 92 172 58 92 172 58 92 172 58 92 172 58 92 172 58 92 172 58 92 172 58 92 172 58 92 172 58 92 172 58 92 172 58 92 172 58 92 172 58 92 172 58 92 172 58 92 172 58 92 172 58 92 172 58 92 172 58 92 172 58 92 172 58 92 172 58 92 172 58 92 172 58 92 172 58 92 172 58 92 172 58 92 172 58 92 172 58 92 172 58 92 172 58 92 172 58 92 172 58 92 172 58 92 172 58 92 172 58 92 172 58 92 172 58 92 172 58 92 172 58 92 172 58 92 172 58 92 172 58 92 172 58 92 172 58 92 172 58 92 172 58 92 172 58 92 172 58 92 172 58 92 172 58 92 172 58 92 172 58 92 172 58 92 172 58 92 172 58 92 172 58 92 172 58 92 172 58 92 172 58 92 172 58 92 172 58 92 172 58 92 172 58 92 172 58 92 172 58 92 172 58 92 172 58 92 172 58 92 172 58 92 172 58 92 172 58 92 172 58 92 172 58 92 172 58 92 172 58 92 172 58 92 172 58 92 172 58 92 172 58 92 172 58 92 172 58 92 172 58 92 172 58 92 172 58 92 172 58 92 172 58 92 172 58 92 172 58 92 172 58 92 172 58 92 172 58 92 172 58 92 172 58 92 172 58 92 172 58 92 172 58 92 172 58 92 172 58 92 172 58 92 172 58 92 172 58 92 172 58 92 172 58 92 172 58 92 172 58 92 172 58 92 172 58 92 172 58 92 172 58 92 172 58 92 172 58 92 172 58 92 172 58 92 172 58 92 172 58 92 172 58 92 172 58 92 172 58 92 172 58 92 172 58 92 172 58 92 172 58 92 172 58 92 172 58 92 172 58 92 172 58 92 172 58 92 172 58 92 172 58 92 172 58 92 172 58 92 172 58 92 172 58 92 172 58 92 172 58 92 172 58 92 172 58 92 172 58 92 172 58 92 172 58 92 172 58 92 172 58 92 172 58 92 172 58 92 172 58 92 172 58 92 172 58 92 172 58 92 172 
58 91 172 58 91 172 58 91 172 58 91 172 58 91 172 58 91 172 58 91 172 58 91 172 58 91 172 58 91 172 58 91 172 58 91 172 58 91 172 58 91 172 58 91 172 58 91 172 58 91 172 58 91 172 58 91 172 58 91 172 58 91 172 58 91 172 58 91 172 58 91 172 58 91 172 58 91 172 58 91 172 58 91 172 58 91 172 58 91 172 58 91 172 58 91 172 58 91 172 58 91 172 58 91 172 58 91 172 58 91 172 58 91 172 58 91 172 58 91 172 58 91 172 58 91 172 58 91 172 58 91 172 58 91 172 58 91 172 58 91 172 58 91 172 58 91 172 58 91 172 58 91 172 58 91 172 58 91 172 58 91 172 58 91 172 58 91 172 58 91 172 58 91 172 58 91 172 58 91 172 58 91 172 58 91 172 58 91 172 58 91 172 58 91 172 58 91 172 58 91 172 58 91 172 58 91 172 58 91 172 58 91 172 58 91 172 58 91 172 58 91 172 58 91 172 58 91 172 58 91 172 58 91 172 58 91 172 58 91 172 58 91 172 58 91 172 58 91 172 58 91 172 58 91 172 58 91 172 58 91 172 58 91 172 58 91 172 58 91 172 58 91 172 58 91 172 58 91 172 58 91 172 58 91 172 58 91 172 58 91 172 58 91 172 58 91 172 58 91 172 58 91 172 58 91 172 58 91 172 58 91 172 58 91 172 58 91 172 58 91 172 58 91 172 58 91 172 58 91 172 58 91 172 58 91 172 58 91 172 58 91 172 58 91 172 58 91 172 58 91 172 58 91 172 58 91 172 58 91 172 58 91 172 58 91 172 58 91 172 58 91 172 58 91 172 58 91 172 58 91 172 58 91 172 58 91 172 58 91 172 58 91 172 58 91 172 58 91 172 58 91 172 58 91 172 58 91 172 58 91 172 58 91 172 58 91 172 58 91 172 58 91 172 58 91 172 58 91 172 58 91 172 58 91 172 58 91 172 58 91 172 58 91 172 58 91 172 58 91 172 58 91 172 58 91 172 58 91 172 58 91 172 58 91 172 58 91 172 58 91 172 58 91 172 255 120 70 255 120 70 50 10 20 50 10 20 50 10 20 50 10 20 50 10 20 50 10 20 50 10 20 50 10 20 50 10 20 50 10 20 50 10 20 50 10 20 50 10 20 50 10 20 50 10 20 50 10 20 50 10 20 50 10 20 50 10 20 50 10 20 50 10 20 50 10 20 50 10 20 50 10 20 50 10 20 255 255 255 255 255 255 50 10 20 50 10 20 50 10 20 50 10 20 50 10 20 255 120 40 50 10 20 50 10 20 50 10 20 50 10 20 50 10 20 50 10 20 50 10 20 50 10 20 50 10 20 50 10 20 50 10 20 50 10 20 50 10 20 50 10 20 50 10 20 50 10 20 50 10 20 50 10 20 50 10 20 50 10 20 50 10 20 50 10 20 50 10 20 50 10 20 50 10 20 50 10 20 50 10 20 50 10 20 50 10 20 50 10 20 50 10 20 50 10 20 50 10 20 50 10 20 50 10 20 50 10 20 50 10 20 50 10 20 50 10 20 58 91 172 58 91 172 58 91 172 58 91 172 58 91 172 58 91 172 58 91 172 58 91 172 58 91 172 58 91 172 58 91 172 58 91 172 58 91 172 58 91 172 58 91 172 58 91 172 58 91 172 58 91 172 58 91 172 58 91 172 58 91 172 58 91 172 58 91 172 58 91 172 58 91 172 58 91 172 58 91 172 58 91 172 58 91 172 58 91 172 58 91 172 58 91 172 58 91 172 58 91 172 58 91 172 58 91 172 58 91 172 58 91 172 58 91 172 58 91 172 58 91 172 58 91 172 58 91 172 58 91 172 58 91 172 58 91 172 58 91 172 58 91 172 58 91 172 58 91 172 58 91 172 58 91 172 58 91 172 58 91 172 58 91 172 58 91 172 58 91 172 58 91 172 58 91 172 58 91 172 58 91 172 58 91 172 58 91 172 58 91 172 58 91 172 58 91 172 58 91 172 58 91 172 58 91 172 58 91 172 58 91 172 58 91 172 58 91 172 58 91 172 58 91 172 58 91 172 58 91 172 58 91 172 58 91 172 58 91 172 58 91 172 58 91 172 58 91 172 58 91 172 58 91 172 58 91 172 58 91 172 58 91 172 58 91 172 58 91 172 58 91 172 58 91 172 58 91 172 58 91 172 58 91 172 58 91 172 58 91 172 58 91 172 58 91 172 58 91 172 58 91 172 58 91 172 58 91 172 58 91 172 58 91 172 58 91 172 58 91 172 58 91 172 58 91 172 58 91 172 58 91 172 58 91 172 58 91 172 58 91 172 58 91 172 58 91 172 58 91 172 58 91 172 58 91 172 58 91 172 58 91 172 58 91 172 58 91 172 58 91 172 58 91 172 58 91 172 58 91 172 58 91 172 58 91 172 58 91 172 58 91 172 58 91 172 58 91 172 58 91 172 58 91 172 58 91 172 58 91 172 58 91 172 58 91 172 58 91 172 58 91 172 58 91 172 58 91 172 58 91 172 58 91 172 58 91 172 58 91 172 58 91 172 58 91 172 58 91 172 58 91 172 58 91 172 
59 91 173 59 91 173 59 91 173 59 91 173 59 91 173 59 91 173 59 91 173 59 91 173 59 91 173 59 91 173 59 91 173 59 91 173 59 91 173 59 91 173 59 91 173 59 91 173 59 91 173 59 91 173 59 91 173 59 91 173 59 91 173 59 91 173 59 91 173 59 91 173 59 91 173 59 91 173 59 91 173 59 91 173 59 91 173 59 91 173 59 91 173 59 91 173 59 91 173 59 91 173 59 91 173 59 91 173 59 91 173 59 91 173 59 91 173 59 91 173 59 91 173 59 91 173 59 91 173 59 91 173 59 91 173 59 91 173 59 91 173 59 91 173 59 91 173 59 91 173 59 91 173 59 91 173 59 91 173 59 91 173 59 91 173 59 91 173 59 91 173 59 91 173 59 91 173 59 91 173 59 91 173 59 91 173 59 91 173 59 91 173 59 91 173 59 91 173 59 91 173 59 91 173 59 91 173 59 91 173 59 91 173 59 91 173 59 91 173 59 91 173 59 91 173 59 91 173 59 91 173 59 91 173 59 91 173 59 91 173 59 91 173 59 91 173 59 91 173 59 91 173 59 91 173 59 91 173 59 91 173 59 91 173 59 91 173 59 91 173 59 91 173 59 91 173 59 91 173 59 91 173 59 91 173 59 91 173 59 91 173 59 91 173 59 91 173 59 91 173 59 91 173 59 91 173 59 91 173 59 91 173 59 91 173 59 91 173 59 91 173 59 91 173 59 91 173 59 91 173 59 91 173 59 91 173 59 91 173 59 91 173 59 91 173 59 91 173 59 91 173 59 91 173 59 91 173 59 91 173 59 91 173 59 91 173 59 91 173 59 91 173 59 91 173 59 91 173 59 91 173 59 91 173 59 91 173 59 91 173 59 91 173 59 91 173 59 91 173 59 91 173 59 91 173 59 91 173 59 91 173 59 91 173 59 91 173 59 91 173 59 91 173 59 91 173 59 91 173 59 91 173 59 91 173 59 91 173 59 91 173 59 91 173 59 91 173 59 91 173 59 91 173 59 91 173 59 91 173 59 91 173 59 91 173 59 91 173 59 91 173 59 91 173 255 120 70 255 120 70 255 120 70 50 10 20 50 10 20 50 10 20 50 10 20 50 10 20 50 10 20 50 10 20 50 10 20 50 10 20 50 10 20 50 10 20 50 10 20 50 10 20 50 10 20 50 10 20 50 10 20 50 10 20 50 10 20 50 10 20 50 10 20 50 10 20 50 10 20 50 10 20 50 10 20 50 10 20 50 10 20 255 255 255 255 255 255 50 10 20 50 10 20 50 10 20 255 120 40 50 10 20 50 10 20 50 10 20 50 10 20 50 10 20 50 10 20 50 10 20 50 10 20 50 10 20 50 10 20 50 10 20 50 10 20 50 10 20 50 10 20 50 10 20 50 10 20 50 10 20 50 10 20 50 10 20 50 10 20 50 10 20 50 10 20 50 10 20 50 10 20 50 10 20 50 10 20 50 10 20 50 10 20 50 10 20 50 10 20 50 10 20 50 10 20 50 10 20 50 10 20 50 10 20 50 10 20 50 10 20 50 10 20 50 10 20 50 10 20 59 91 173 59 91 173 59 91 173 59 91 173 59 91 173 59 91 173 59 91 173 59 91 173 59 91 173 59 91 173 59 91 173 59 91 173 59 91 173 59 91 173 59 91 173 59 91 173 59 91 173 59 91 173 59 91 173 59 91 173 59 91 173 59 91 173 59 91 173 59 91 173 59 91 173 59 91 173 59 91 173 59 91 173 59 91 173 59 91 173 59 91 173 59 91 173 59 91 173 59 91 173 59 91 173 59 91 173 59 91 173 59 91 173 59 91 173 59 91 173 59 91 173 59 91 173 59 91 173 59 91 173 59 91 173 59 91 173 59 91 173 59 91 173 59 91 173 59 91 173 59 91 173 59 91 173 59 91 173 59 91 173 59 91 173 59 91 173 59 91 173 59 91 173 59 91 173 59 91 173 59 91 173 59 91 173 59 91 173 59 91 173 59 91 173 59 91 173 59 91 173 59 91 173 59 91 173 59 91 173 59 91 173 59 91 173 59 91 173 59 91 173 59 91 173 59 91 173 59 91 173 59 91 173 59 91 173 59 91 173 59 91 173 59 91 173 59 91 173 59 91 173 59 91 173 59 91 173 59 91 173 59 91 173 59 91 173 59 91 173 59 91 173 59 91 173 59 91 173 59 91 173 59 91 173 59 91 173 59 91 173 59 91 173 59 91 173 59 91 173 59 91 173 59 91 173 59 91 173 59 91 173 59 91 173 59 91 173 59 91 173 59 91 173 59 91 173 59 91 173 59 91 173 59 91 173 59 91 173 59 91 173 59 91 173 59 91 173 59 91 173 59 91 173 59 91 173 59 91 173 59 91 173 59 91 173 59 91 173 59 91 173 59 91 173 59 91 173 59 91 173 59 91 173 59 91 173 59 91 173 59 91 173 59 91 173 59 91 173 59 91 173 59 91 173 59 91 173 59 91 173 59 91 173 59 91 173 59 91 173 59 91 173 59 91 173 59 91 173 59 91 173 59 91 173 59 91 173 59 91 173 59 91 173 59 91 173 59 91 173 59 91 173 
59 90 173 59 90 173 59 90 173 59 90 173 59 90 173 59 90 173 59 90 173 59 90 173 59 90 173 59 90 173 59 90 173 59 90 173 59 90 173 59 90 173 59 90 173 59 90 173 59 90 173 59 90 173 59 90 173 59 90 173 59 90 173 59 90 173 59 90 173 59 90 173 59 90 173 59 90 173 59 90 173 59 90 173 59 90 173 59 90 173 59 90 173 59 90 173 59 90 173 59 90 173 59 90 173 59 90 173 59 90 173 59 90 173 59 90 173 59 90 173 59 90 173 59 90 173 59 90 173 59 90 173 59 90 173 59 90 173 59 90 173 59 90 173 59 90 173 59 90 173 59 90 173 59 90 173 59 90 173 59 90 173 59 90 173 59 90 173 59 90 173 59 90 173 59 90 173 59 90 173 59 90 173 59 90 173 59 90 173 59 90 173 59 90 173 59 90 173 59 90 173 59 90 173 59 90 173 59 90 173 59 90 173 59 90 173 59 90 173 59 90 173 59 90 173 59 90 173 59 90 173 59 90 173 59 90 173 59 90 173 59 90 173 59 90 173 59 90 173 59 90 173 59 90 173 59 90 173 59 90 173 59 90 173 59 90 173 59 90 173 59 90 173 59 90 173 59 90 173 59 90 173 59 90 173 59 90 173 59 90 173 59 90 173 59 90 173 59 90 173 59 90 173 59 90 173 59 90 173 59 90 173 59 90 173 59 90 173 59 90 173 59 90 173 59 90 173 59 90 173 59 90 173 59 90 173 59 90 173 59 90 173 59 90 173 59 90 173 59 90 173 59 90 173 59 90 173 59 90 173 59 90 173 59 90 173 59 90 173 59 90 173 59 90 173 59 90 173 59 90 173 59 90 173 59 90 173 59 90 173 59 90 173 59 90 173 59 90 173 59 90 173 59 90 173 59 90 173 59 90 173 59 90 173 59 90 173 59 90 173 59 90 173 59 90 173 59 90 173 59 90 173 59 90 173 59 90 173 59 90 173 59 90 173 59 90 173 59 90 173 59 90 173 59 90 173 59 90 173 59 90 173 59 90 173 59 90 173 59 90 173 59 90 173 255 120 70 255 120 70 255 120 70 50 10 20 50 10 20 50 10 20 50 10 20 50 10 20 50 10 20 50 10 20 50 10 20 50 10 20 50 10 20 50 10 20 50 10 20 50 10 20 50 10 20 50 10 20 50 10 20 50 10 20 50 10 20 50 10 20 50 10 20 50 10 20 50 10 20 50 10 20 50 10 20 50 10 20 50 10 20 50 10 20 50 10 20 255 255 255 255 255 255 50 10 20 255 120 40 50 10 20 50 10 20 50 10 20 50 10 20 50 10 20 50 10 20 50 10 20 50 10 20 50 10 20 50 10 20 50 10 20 50 10 20 50 10 20 50 10 20 50 10 20 50 10 20 50 10 20 50 10 20 50 10 20 50 10 20 50 10 20 50 10 20 50 10 20 50 10 20 50 10 20 50 10 20 50 10 20 50 10 20 50 10 20 50 10 20 50 10 20 50 10 20 50 10 20 50 10 20 50 10 20 50 10 20 50 10 20 50 10 20 50 10 20 50 10 20 50 10 20 50 10 20 59 90 173 59 90 173 59 90 173 59 90 173 59 90 173 59 90 173 59 90 173 59 90 173 59 90 173 59 90 173 59 90 173 59 90 173 59 90 173 59 90 173 59 90 173 59 90 173 59 90 173 59 90 173 59 90 173 59 90 173 59 90 173 59 90 173 59 90 173 59 90 173 59 90 173 59 90 173 59 90 173 59 90 173 59 90 173 59 90 173 59 90 173 59 90 173 59 90 173 59 90 173 59 90 173 59 90 173 59 90 173 59 90 173 59 90 173 59 90 173 59 90 173 59 90 173 59 90 173 59 90 173 59 90 173 59 90 173 59 90 173 59 90 173 59 90 173 59 90 173 59 90 173 59 90 173 59 90 173 59 90 173 59 90 173 59 90 173 59 90 173 59 90 173 59 90 173 59 90 173 59 90 173 59 90 173 59 90 173 59 90 173 59 90 173 59 90 173 59 90 173 59 90 173 59 90 173 59 90 173 59 90 173 59 90 173 59 90 173 59 90 173 59 90 173 59 90 173 59 90 173 59 90 173 59 90 173 59 90 173 59 90 173 59 90 173 59 90 173 59 90 173 59 90 173 59 90 173 59 90 173 59 90 173 59 90 173 59 90 173 59 90 173 59 90 173 59 90 173 59 90 173 59 90 173 59 90 173 59 90 173 59 90 173 59 90 173 59 90 173 59 90 173 59 90 173 59 90 173 59 90 173 59 90 173 59 90 173 59 90 173 59 90 173 59 90 173 59 90 173 59 90 173 59 90 173 59 90 173 59 90 173 59 90 173 59 90 173 59 90 173 59 90 173 59 90 173 59 90 173 59 90 173 59 90 173 59 90 173 59 90 173 59 90 173 59 90 173 59 90 173 59 90 173 59 90 173 59 90 173 59 90 173 59 90 173 59 90 173 59 90 173 59 90 173 59 90 173 59 90 173 59 90 173 59 90 173 59 90 173 59 90 173 59 90 173 59 90 173 59 90 173 59 90 173 59 90 173 59 90 173 59 90 173 59 90 173 
59 90 174 59 90 174 59 90 174 59 90 174 59 90 174 59 90 174 59 90 174 59 90 174 59 90 174 59 90 174 59 90 174 59 90 174 59 90 174 59 90 174 59 90 174 59 90 174 59 90 174 59 90 174 59 90 174 59 90 174 59 90 174 59 90 174 59 90 174 59 90 174 59 90 174 59 90 174 59 90 174 59 90 174 59 90 174 59 90 174 59 90 174 59 90 174 59 90 174 59 90 174 59 90 174 59 90 174 59 90 174 59 90 174 59 90 174 59 90 174 59 90 174 59 90 174 59 90 174 59 90 174 59 90 174 59 90 174 59 90 174 59 90 174 59 90 174 59 90 174 59 90 174 59 90 174 59 90 174 59 90 174 59 90 174 59 90 174 59 90 174 59 90 174 59 90 174 59 90 174 59 90 174 59 90 174 59 90 174 59 90 174 59 90 174 59 90 174 59 90 174 59 90 174 59 90 174 59 90 174 59 90 174 59 90 174 59 90 174 59 90 174 59 90 174 59 90 174 59 90 174 59 90 174 59 90 174 59 90 174 59 90 174 59 90 174 59 90 174 59 90 174 59 90 174 59 90 174 59 90 174 59 90 174 59 90 174 59 90 174 59 90 174 59 90 174 59 90 174 59 90 174 59 90 174 59 90 174 59 90 174 59 90 174 59 90 174 59 90 174 59 90 174 59 90 174 59 90 174 59 90 174 59 90 174 59 90 174 59 90 174 255 164 162 255 164 162 255 164 162 255 164 162 255 164 162 255 164 162 255 164 162 255 164 162 255 164 162 255 164 162 255 164 162 255 164 162 255 164 162 255 164 162 255 164 162 255 164 162 255 164 162 255 164 162 255 164 162 255 164 162 255 164 162 255 164 162 255 164 162 255 164 162 255 164 162 255 164 162 255 164 162 255 164 162 255 164 162 255 164 162 255 164 162 255 164 162 255 164 162 255 164 162 255 164 162 255 164 162 255 164 162 255 164 162 255 164 162 255 164 162 255 164 162 255 164 162 255 164 162 255 164 162 255 164 162 255 164 162 255 164 162 255 164 162 255 164 162 255 164 162 255 164 162 255 120 70 255 120 70 255 120 70 255 120 70 50 10 20 50 10 20 50 10 20 50 10 20 50 10 20 50 10 20 50 10 20 50 10 20 50 10 20 50 10 20 50 10 20 50 10 20 50 10 20 50 10 20 50 10 20 50 10 20 50 10 20 50 10 20 50 10 20 50 10 20 50 10 20 50 10 20 50 10 20 50 10 20 50 10 20 50 10 20 50 10 20 50 10 20 50 10 20 255 255 255 255 120 40 50 10 20 50 10 20 50 10 20 50 10 20 50 10 20 50 10 20 50 10 20 50 10 20 50 10 20 50 10 20 50 10 20 50 10 20 50 10 20 50 10 20 50 10 20 50 10 20 50 10 20 50 10 20 50 10 20 50 10 20 50 10 20 50 10 20 50 10 20 50 10 20 50 10 20 50 10 20 50 10 20 50 10 20 50 10 20 50 10 20 50 10 20 50 10 20 50 10 20 50 10 20 50 10 20 50 10 20 50 10 20 50 10 20 50 10 20 50 10 20 50 10 20 50 10 20 50 10 20 59 90 174 59 90 174 59 90 174 59 90 174 59 90 174 59 90 174 59 90 174 59 90 174 59 90 174 59 90 174 59 90 174 59 90 174 59 90 174 59 90 174 59 90 174 59 90 174 59 90 174 59 90 174 59 90 174 59 90 174 59 90 174 59 90 174 59 90 174 59 90 174 59 90 174 59 90 174 59 90 174 59 90 174 59 90 174 59 90 174 59 90 174 59 90 174 59 90 174 59 90 174 59 90 174 59 90 174 59 90 174 59 90 174 59 90 174 59 90 174 59 90 174 59 90 174 59 90 174 59 90 174 59 90 174 59 90 174 59 90 174 59 90 174 59 90 174 59 90 174 59 90 174 59 90 174 59 90 174 59 90 174 59 90 174 59 90 174 59 90 174 59 90 174 59 90 174 59 90 174 59 90 174 59 90 174 59 90 174 59 90 174 59 90 174 59 90 174 59 90 174 59 90 174 59 90 174 59 90 174 59 90 174 59 90 174 59 90 174 59 90 174 59 90 174 59 90 174 59 90 174 59 90 174 59 90 174 59 90 174 59 90 174 59 90 174 59 90 174 59 90 174 59 90 174 59 90 174 59 90 174 59 90 174 59 90 174 59 90 174 59 90 174 59 90 174 59 90 174 59 90 174 59 90 174 59 90 174 59 90 174 59 90 174 59 90 174 59 90 174 59 90 174 59 90 174 59 90 174 59 90 174 59 90 174 59 90 174 59 90 174 59 90 174 59 90 174 59 90 174 59 90 174 59 90 174 59 90 174 59 90 174 59 90 174 59 90 174 59 90 174 59 90 174 59 90 174 59 90 174 59 90 174 59 90 174 59 90 174 59 90 174 59 90 174 59 90 174 59 90 174 59 90 174 59 90 174 59 90 174 59 90 174 59 90 174 59 90 174 59 90 174 59 90 174 59 90 174 59 90 174 59 90 174 59 90 174 59 90 174 59 90 174 59 90 174 59 90 174 59 90 174 59 90 174 59 90 174 59 90 174 59 90 174 
60 89 175 60 89 175 60 89 175 60 89 175 60 89 175 60 89 175 60 89 175 60 89 175 60 89 175 60 89 175 60 89 175 60 89 175 60 89 175 60 89 175 60 89 175 60 89 175 60 89 175 60 89 175 60 89 175 60 89 175 60 89 175 60 89 175 60 89 175 60 89 175 60 89 175 60 89 175 60 89 175 60 89 175 60 89 175 60 89 175 60 89 175 60 89 175 60 89 175 60 89 175 60 89 175 60 89 175 60 89 175 60 89 175 60 89 175 60 89 175 60 89 175 60 89 175 60 89 175 60 89 175 60 89 175 60 89 175 60 89 175 60 89 175 60 89 175 60 89 175 60 89 175 60 89 175 60 89 175 60 89 175 60 89 175 60 89 175 60 89 175 60 89 175 60 89 175 60 89 175 60 89 175 60 89 175 60 89 175 60 89 175 60 89 175 60 89 175 60 89 175 60 89 175 60 89 175 60 89 175 60 89 175 60 89 175 60 89 175 60 89 175 60 89 175 60 89 175 60 89 175 60 89 175 60 89 175 60 89 175 60 89 175 60 89 175 60 89 175 60 89 175 60 89 175 60 89 175 60 89 175 60 89 175 60 89 175 60 89 175 60 89 175 60 89 175 60 89 175 60 89 175 60 89 175 60 89 175 60 89 175 60 89 175 60 89 175 60 89 175 60 89 175 60 89 175 60 89 175 60 89 175 60 89 175 60 89 175 60 89 175 255 164 162 255 164 162 255 164 162 255 164 162 255 164 162 255 164 162 255 164 162 255 164 162 255 164 162 255 164 162 255 164 162 255 164 162 255 164 162 255 164 162 255 164 162 255 164 162 255 164 162 255 164 162 255 164 162 255 164 162 255 164 162 255 164 162 255 164 162 255 164 162 255 164 162 255 164 162 255 164 162 255 164 162 255 164 162 255 164 162 255 164 162 255 164 162 255 164 162 255 164 162 255 164 162 255 164 162 255 164 162 255 164 162 255 164 162 255 164 162 255 164 162 255 164 162 255 164 162 255 164 162 255 164 162 255 164 162 255 164 162 255 164 162 255 164 162 255 164 162 255 164 162 255 120 70 255 120 70 255 120 70 255 120 70 255 120 70 50 10 20 50 10 20 50 10 20 50 10 20 50 10 20 50 10 20 50 10 20 50 10 20 50 10 20 50 10 20 50 10 20 50 10 20 50 10 20 50 10 20 50 10 20 50 10 20 50 10 20 50 10 20 50 10 20 50 10 20 50 10 20 50 10 20 50 10 20 50 10 20 50 10 20 50 10 20 50 10 20 50 10 20 50 10 20 255 120 40 255 255 255 50 10 20 50 10 20 50 10 20 50 10 20 50 10 20 50 10 20 50 10 20 50 10 20 50 10 20 50 10 20 50 10 20 50 10 20 50 10 20 50 10 20 50 10 20 50 10 20 50 10 20 50 10 20 50 10 20 50 10 20 50 10 20 50 10 20 50 10 20 50 10 20 50 10 20 50 10 20 50 10 20 50 10 20 50 10 20 50 10 20 50 10 20 50 10 20 50 10 20 50 10 20 50 10 20 50 10 20 50 10 20 50 10 20 50 10 20 50 10 20 50 10 20 50 10 20 50 10 20 60 89 175 60 89 175 60 89 175 60 89 175 60 89 175 60 89 175 60 89 175 60 89 175 60 89 175 60 89 175 60 89 175 60 89 175 60 89 175 60 89 175 60 89 175 60 89 175 60 89 175 60 89 175 60 89 175 60 89 175 60 89 175 60 89 175 60 89 175 60 89 175 60 89 175 60 89 175 60 89 175 60 89 175 60 89 175 60 89 175 60 89 175 60 89 175 60 89 175 60 89 175 60 89 175 60 89 175 60 89 175 60 89 175 60 89 175 60 89 175 60 89 175 60 89 175 60 89 175 60 89 175 60 89 175 60 89 175 60 89 175 60 89 175 60 89 175 60 89 175 60 89 175 60 89 175 60 89 175 60 89 175 60 89 175 60 89 175 60 89 175 60 89 175 60 89 175 60 89 175 60 89 175 60 89 175 60 89 175 60 89 175 60 89 175 60 89 175 60 89 175 60 89 175 60 89 175 60 89 175 60 89 175 60 89 175 60 89 175 60 89 175 60 89 175 60 89 175 60 89 175 60 89 175 60 89 175 60 89 175 60 89 175 60 89 175 60 89 175 60 89 175 60 89 175 60 89 175 60 89 175 60 89 175 60 89 175 60 89 175 60 89 175 60 89 175 60 89 175 60 89 175 60 89 175 60 89 175 60 89 175 60 89 175 60 89 175 60 89 175 60 89 175 60 89 175 60 89 175 60 89 175 60 89 175 60 89 175 60 89 175 60 89 175 60 89 175 60 89 175 60 89 175 60 89 175 60 89 175 60 89 175 60 89 175 60 89 175 60 89 175 60 89 175 60 89 175 60 89 175 60 89 175 60 89 175 60 89 175 60 89 175 60 89 175 60 89 175 60 89 175 60 89 175 60 89 175 60 89 175 60 89 175 60 89 175 60 89 175 60 89 175 60 89 175 60 89 175 60 89 175 60 89 175 60 89 175 60 89 175 60 89 175 60 89 175 60 89 175 60 89 175 60 89 175 60 89 175 60 89 175 
60 89 175 60 89 175 60 89 175 60 89 175 60 89 175 60 89 175 60 89 175 60 89 175 60 89 175 60 89 175 60 89 175 60 89 175 60 89 175 60 89 175 60 89 175 60 89 175 60 89 175 60 89 175 60 89 175 60 89 175 60 89 175 60 89 175 60 89 175 60 89 175 60 89 175 60 89 175 60 89 175 60 89 175 60 89 175 60 89 175 60 89 175 60 89 175 60 89 175 60 89 175 60 89 175 60 89 175 60 89 175 60 89 175 60 89 175 60 89 175 60 89 175 60 89 175 60 89 175 60 89 175 60 89 175 60 89 175 60 89 175 60 89 175 60 89 175 60 89 175 60 89 175 60 89 175 60 89 175 60 89 175 60 89 175 60 89 175 60 89 175 60 89 175 60 89 175 60 89 175 60 89 175 60 89 175 60 89 175 60 89 175 60 89 175 60 89 175 60 89 175 60 89 175 60 89 175 60 89 175 60 89 175 60 89 175 60 89 175 60 89 175 60 89 175 60 89 175 60 89 175 60 89 175 60 89 175 60 89 175 60 89 175 60 89 175 60 89 175 60 89 175 60 89 175 60 89 175 60 89 175 60 89 175 60 89 175 60 89 175 60 89 175 60 89 175 60 89 175 60 89 175 60 89 175 60 89 175 60 89 175 60 89 175 60 89 175 60 89 175 60 89 175 60 89 175 60 89 175 60 89 175 60 89 175 60 89 175 60 89 175 255 164 162 255 164 162 255 164 162 255 164 162 255 164 162 255 164 162 255 164 162 255 164 162 255 164 162 255 164 162 255 164 162 255 164 162 255 164 162 255 164 162 255 164 162 255 164 162 255 164 162 255 164 162 255 164 162 255 164 162 255 164 162 255 164 162 255 164 162 255 164 162 255 164 162 255 164 162 255 164 162 255 164 162 255 164 162 255 164 162 255 164 162 255 164 162 255 164 162 255 164 162 255 164 162 255 164 162 255 164 162 255 164 162 255 164 162 255 164 162 255 164 162 255 164 162 255 164 162 255 164 162 255 164 162 255 164 162 255 164 162 255 164 162 255 164 162 255 164 162 255 164 162 255 120 70 255 120 70 255 120 70 255 120 70 255 120 70 50 10 20 50 10 20 50 10 20 50 10 20 50 10 20 50 10 20 50 10 20 50 10 20 50 10 20 50 10 20 50 10 20 50 10 20 50 10 20 50 10 20 50 10 20 50 10 20 50 10 20 50 10 20 50 10 20 50 10 20 50 10 20 50 10 20 50 10 20 50 10 20 50 10 20 50 10 20 50 10 20 50 10 20 50 10 20 255 120 40 50 10 20 255 255 255 255 255 255 50 10 20 50 10 20 50 10 20 50 10 20 50 10 20 50 10 20 50 10 20 50 10 20 50 10 20 50 10 20 50 10 20 50 10 20 50 10 20 50 10 20 50 10 20 50 10 20 50 10 20 50 10 20 50 10 20 50 10 20 50 10 20 50 10 20 50 10 20 50 10 20 50 10 20 50 10 20 50 10 20 50 10 20 50 10 20 50 10 20 50 10 20 50 10 20 50 10 20 50 10 20 50 10 20 50 10 20 50 10 20 50 10 20 50 10 20 50 10 20 50 10 20 50 10 20 50 10 20 60 89 175 60 89 175 60 89 175 60 89 175 60 89 175 60 89 175 60 89 175 60 89 175 60 89 175 60 89 175 60 89 175 60 89 175 60 89 175 60 89 175 60 89 175 60 89 175 60 89 175 60 89 175 60 89 175 60 89 175 60 89 175 60 89 175 60 89 175 60 89 175 60 89 175 60 89 175 60 89 175 60 89 175 60 89 175 60 89 175 60 89 175 60 89 175 60 89 175 60 89 175 60 89 175 60 89 175 60 89 175 60 89 175 60 89 175 60 89 175 60 89 175 60 89 175 60 89 175 60 89 175 60 89 175 60 89 175 60 89 175 60 89 175 60 89 175 60 89 175 60 89 175 60 89 175 60 89 175 60 89 175 60 89 175 60 89 175 60 89 175 60 89 175 60 89 175 60 89 175 60 89 175 60 89 175 60 89 175 60 89 175 60 89 175 60 89 175 60 89 175 60 89 175 60 89 175 60 89 175 60 89 175 60 89 175 60 89 175 60 89 175 60 89 175 60 89 175 60 89 175 60 89 175 60 89 175 60 89 175 60 89 175 60 89 175 60 89 175 60 89 175 60 89 175 60 89 175 60 89 175 60 89 175 60 89 175 60 89 175 60 89 175 60 89 175 60 89 175 60 89 175 60 89 175 60 89 175 60 89 175 60 89 175 60 89 175 60 89 175 60 89 175 60 89 175 60 89 175 60 89 175 60 89 175 60 89 175 60 89 175 60 89 175 60 89 175 60 89 175 60 89 175 60 89 175 60 89 175 60 89 175 60 89 175 60 89 175 60 89 175 60 89 175 60 89 175 60 89 175 60 89 175 60 89 175 60 89 175 60 89 175 60 89 175 60 89 175 60 89 175 60 89 175 60 89 175 60 89 175 60 89 175 60 89 175 60 89 175 60 89 175 60 89 175 60 89 175 60 89 175 60 89 175 60 89 175 60 89 175 60 89 175 60 89 175 60 89 175 60 89 175 60 89 175 
60 88 176 60 88 176 60 88 176 60 88 176 60 88 176 60 88 176 60 88 176 60 88 176 60 88 176 60 88 176 60 88 176 60 88 176 60 88 176 60 88 176 60 88 176 60 88 176 60 88 176 60 88 176 60 88 176 60 88 176 60 88 176 60 88 176 60 88 176 60 88 176 60 88 176 60 88 176 60 88 176 60 88 176 60 88 176 60 88 176 60 88 176 60 88 176 60 88 176 60 88 176 60 88 176 60 88 176 60 88 176 60 88 176 60 88 176 60 88 176 60 88 176 60 88 176 60 88 176 60 88 176 60 88 176 60 88 176 60 88 176 60 88 176 60 88 176 60 88 176 60 88 176 60 88 176 60 88 176 60 88 176 60 88 176 60 88 176 60 88 176 60 88 176 60 88 176 60 88 176 60 88 176 60 88 176 60 88 176 60 88 176 60 88 176 60 88 176 60 88 176 60 88 176 60 88 176 60 88 176 60 88 176 60 88 176 60 88 176 60 88 176 60 88 176 60 88 176 60 88 176 60 88 176 60 88 176 60 88 176 60 88 176 60 88 176 60 88 176 60 88 176 60 88 176 60 88 176 60 88 176 60 88 176 60 88 176 60 88 176 60 88 176 60 88 176 60 88 176 60 88 176 60 88 176 60 88 176 60 88 176 60 88 176 60 88 176 60 88 176 60 88 176 60 88 176 60 88 176 60 88 176 60 88 176 60 88 176 60 88 176 60 88 176 60 88 176 60 88 176 60 88 176 60 88 176 60 88 176 60 88 176 60 88 176 60 88 176 60 88 176 60 88 176 60 88 176 60 88 176 60 88 176 60 88 176 60 88 176 60 88 176 60 88 176 60 88 176 60 88 176 60 88 176 60 88 176 60 88 176 60 88 176 60 88 176 60 88 176 60 88 176 60 88 176 60 88 176 60 88 176 60 88 176 60 88 176 60 88 176 60 88 176 60 88 176 60 88 176 60 88 176 60 88 176 60 88 176 60 88 176 60 88 176 60 88 176 60 88 176 60 88 176 60 88 176 60 88 176 60 88 176 60 88 176 60 88 176 60 88 176 60 88 176 255 120 70 255 120 70 255 120 70 255 120 70 255 120 70 255 120 70 50 10 20 50 10 20 50 10 20 50 10 20 50 10 20 50 10 20 50 10 20 50 10 20 50 10 20 50 10 20 50 10 20 50 10 20 50 10 20 50 10 20 50 10 20 50 10 20 50 10 20 50 10 20 50 10 20 50 10 20 50 10 20 50 10 20 50 10 20 50 10 20 50 10 20 50 10 20 50 10 20 50 10 20 255 120 40 50 10 20 50 10 20 50 10 20 255 255 255 255 255 255 50 10 20 50 10 20 50 10 20 50 10 20 50 10 20 50 10 20 50 10 20 50 10 20 50 10 20 50 10 20 50 10 20 50 10 20 50 10 20 50 10 20 50 10 20 50 10 20 50 10 20 50 10 20 50 10 20 50 10 20 50 10 20 50 10 20 50 10 20 50 10 20 50 10 20 50 10 20 50 10 20 50 10 20 50 10 20 50 10 20 50 10 20 50 10 20 50 10 20 50 10 20 50 10 20 50 10 20 50 10 20 50 10 20 50 10 20 50 10 20 50 10 20 50 10 20 60 88 176 60 88 176 60 88 176 60 88 176 60 88 176 60 88 176 60 88 176 60 88 176 60 88 176 60 88 176 60 88 176 60 88 176 60 88 176 60 88 176 60 88 176 60 88 176 60 88 176 60 88 176 60 88 176 60 88 176 60 88 176 60 88 176 60 88 176 60 88 176 60 88 176 60 88 176 60 88 176 60 88 176 60 88 176 60 88 176 60 88 176 60 88 176 60 88 176 60 88 176 60 88 176 60 88 176 60 88 176 60 88 176 60 88 176 60 88 176 60 88 176 60 88 176 60 88 176 60 88 176 60 88 176 60 88 176 60 88 176 60 88 176 60 88 176 60 88 176 60 88 176 60 88 176 60 88 176 60 88 176 60 88 176 60 88 176 60 88 176 60 88 176 60 88 176 60 88 176 60 88 176 60 88 176 60 88 176 60 88 176 60 88 176 60 88 176 60 88 176 60 88 176 60 88 176 60 88 176 60 88 176 60 88 176 60 88 176 60 88 176 60 88 176 60 88 176 60 88 176 60 88 176 60 88 176 60 88 176 60 88 176 60 88 176 60 88 176 60 88 176 60 88 176 60 88 176 60 88 176 60 88 176 60 88 176 60 88 176 60 88 176 60 88 176 60 88 176 60 88 176 60 88 176 60 88 176 60 88 176 60 88 176 60 88 176 60 88 176 60 88 176 60 88 176 60 88 176 60 88 176 60 88 176 60 88 176 60 88 176 60 88 176 60 88 176 60 88 176 60 88 176 60 88 176 60 88 176 60 88 176 60 88 176 60 88 176 60 88 176 60 88 176 60 88 176 60 88 176 60 88 176 60 88 176 60 88 176 60 88 176 60 88 176 60 88 176 60 88 176 60 88 176 60 88 176 60 88 176 60 88 176 60 88 176 60 88 176 60 88 176 60 88 176 60 88 176 60 88 176 60 88 176 60 88 176 60 88 176 60 88 176 60 88 176 60 88 176 60 88 176 
61 88 176 61 88 176 61 88 176 61 88 176 61 88 176 61 88 176 61 88 176 61 88 176 61 88 176 61 88 176 61 88 176 61 88 176 61 88 176 61 88 176 61 88 176 61 88 176 61 88 176 61 88 176 61 88 176 61 88 176 61 88 176 61 88 176 61 88 176 61 88 176 61 88 176 61 88 176 61 88 176 61 88 176 61 88 176 61 88 176 61 88 176 61 88 176 61 88 176 61 88 176 61 88 176 61 88 176 61 88 176 61 88 176 61 88 176 61 88 176 61 88 176 61 88 176 61 88 176 61 88 176 61 88 176 61 88 176 61 88 176 61 88 176 61 88 176 61 88 176 61 88 176 61 88 176 61 88 176 61 88 176 61 88 176 61 88 176 61 88 176 61 88 176 61 88 176 61 88 176 61 88 176 61 88 176 61 88 176 61 88 176 61 88 176 61 88 176 61 88 176 61 88 176 61 88 176 61 88 176 61 88 176 61 88 176 61 88 176 61 88 176 61 88 176 61 88 176 61 88 176 61 88 176 61 88 176 61 88 176 61 88 176 61 88 176 61 88 176 61 88 176 61 88 176 61 88 176 61 88 176 61 88 176 61 88 176 61 88 176 61 88 176 61 88 176 61 88 176 61 88 176 61 88 176 61 88 176 61 88 176 61 88 176 61 88 176 61 88 176 61 88 176 61 88 176 61 88 176 61 88 176 61 88 176 61 88 176 61 88 176 61 88 176 61 88 176 61 88 176 61 88 176 61 88 176 61 88 176 61 88 176 61 88 176 61 88 176 61 88 176 61 88 176 61 88 176 61 88 176 61 88 176 61 88 176 61 88 176 61 88 176 61 88 176 61 88 176 61 88 176 61 88 176 61 88 176 61 88 176 61 88 176 61 88 176 61 88 176 61 88 176 61 88 176 61 88 176 61 88 176 61 88 176 61 88 176 61 88 176 61 88 176 61 88 176 61 88 176 61 88 176 61 88 176 61 88 176 61 88 176 61 88 176 61 88 176 61 88 176 61 88 176 61 88 176 61 88 176 61 88 176 61 88 176 61 88 176 61 88 176 61 88 176 255 120 70 255 120 70 255 120 70 255 120 70 255 120 70 255 120 70 50 10 20 50 10 20 50 10 20 50 10 20 50 10 20 50 10 20 50 10 20 50 10 20 50 10 20 50 10 20 50 10 20 50 10 20 50 10 20 50 10 20 50 10 20 50 10 20 50 10 20 50 10 20 50 10 20 50 10 20 50 10 20 50 10 20 50 10 20 50 10 20 50 10 20 50 10 20 50 10 20 50 10 20 255 120 40 50 10 20 50 10 20 50 10 20 50 10 20 50 10 20 255 255 255 255 255 255 50 10 20 50 10 20 50 10 20 50 10 20 50 10 20 50 10 20 50 10 20 50 10 20 50 10 20 50 10 20 50 10 20 50 10 20 50 10 20 50 10 20 50 10 20 50 10 20 50 10 20 50 10 20 50 10 20 50 10 20 50 10 20 50 10 20 50 10 20 50 10 20 50 10 20 50 10 20 50 10 20 50 10 20 50 10 20 50 10 20 50 10 20 50 10 20 50 10 20 50 10 20 50 10 20 50 10 20 50 10 20 50 10 20 50 10 20 50 10 20 50 10 20 50 10 20 61 88 176 61 88 176 61 88 176 61 88 176 61 88 176 61 88 176 61 88 176 61 88 176 61 88 176 61 88 176 61 88 176 61 88 176 61 88 176 61 88 176 61 88 176 61 88 176 61 88 176 61 88 176 61 88 176 61 88 176 61 88 176 61 88 176 61 88 176 61 88 176 61 88 176 61 88 176 61 88 176 61 88 176 61 88 176 61 88 176 61 88 176 61 88 176 61 88 176 61 88 176 61 88 176 61 88 176 61 88 176 61 88 176 61 88 176 61 88 176 61 88 176 61 88 176 61 88 176 61 88 176 61 88 176 61 88 176 61 88 176 61 88 176 61 88 176 61 88 176 61 88 176 61 88 176 61 88 176 61 88 176 61 88 176 61 88 176 61 88 176 61 88 176 61 88 176 61 88 176 61 88 176 61 88 176 61 88 176 61 88 176 61 88 176 61 88 176 61 88 176 61 88 176 61 88 176 61 88 176 61 88 176 61 88 176 61 88 176 61 88 176 61 88 176 61 88 176 61 88 176 61 88 176 61 88 176 61 88 176 61 88 176 61 88 176 61 88 176 61 88 176 61 88 176 61 88 176 61 88 176 61 88 176 61 88 176 61 88 176 61 88 176 61 88 176 61 88 176 61 88 176 61 88 176 61 88 176 61 88 176 61 88 176 61 88 176 61 88 176 61 88 176 61 88 176 61 88 176 61 88 176 61 88 176 61 88 176 61 88 176 61 88 176 61 88 176 61 88 176 61 88 176 61 88 176 61 88 176 61 88 176 61 88 176 61 88 176 61 88 176 61 88 176 61 88 176 61 88 176 61 88 176 61 88 176 61 88 176 61 88 176 61 88 176 61 88 176 61 88 176 61 88 176 61 88 176 61 88 176 61 88 176 61 88 176 61 88 176 61 88 176 61 88 176 61 88 176 61 88 176 61 88 176 61 88 176 61 88 176 61 88 176 61 88 176 
61 87 177 61 87 177 61 87 177 61 87 177 61 87 177 61 87 177 61 87 177 61 87 177 61 87 177 61 87 177 61 87 177 61 87 177 61 87 177 61 87 177 61 87 177 61 87 177 61 87 177 61 87 177 61 87 177 61 87 177 61 87 177 61 87 177 61 87 177 61 87 177 61 87 177 61 87 177 61 87 177 61 87 177 61 87 177 61 87 177 61 87 177 61 87 177 61 87 177 61 87 177 61 87 177 61 87 177 61 87 177 61 87 177 61 87 177 61 87 177 61 87 177 61 87 177 61 87 177 61 87 177 61 87 177 61 87 177 61 87 177 61 87 177 61 87 177 61 87 177 61 87 177 61 87 177 61 87 177 61 87 177 61 87 177 61 87 177 61 87 177 61 87 177 61 87 177 61 87 177 61 87 177 61 87 177 61 87 177 61 87 177 61 87 177 61 87 177 61 87 177 61 87 177 61 87 177 61 87 177 61 87 177 61 87 177 61 87 177 61 87 177 61 87 177 61 87 177 61 87 177 61 87 177 61 87 177 61 87 177 61 87 177 61 87 177 61 87 177 61 87 177 61 87 177 61 87 177 61 87 177 61 87 177 61 87 177 61 87 177 61 87 177 61 87 177 61 87 177 61 87 177 61 87 177 61 87 177 61 87 177 61 87 177 61 87 177 61 87 177 61 87 177 61 87 177 61 87 177 61 87 177 61 87 177 61 87 177 61 87 177 61 87 177 61 87 177 61 87 177 61 87 177 61 87 177 61 87 177 61 87 177 61 87 177 61 87 177 61 87 177 61 87 177 61 87 177 61 87 177 61 87 177 61 87 177 61 87 177 61 87 177 61 87 177 61 87 177 61 87 177 61 87 177 61 87 177 61 87 177 61 87 177 61 87 177 61 87 177 61 87 177 61 87 177 61 87 177 61 87 177 61 87 177 61 87 177 61 87 177 61 87 177 61 87 177 61 87 177 61 87 177 61 87 177 61 87 177 61 87 177 61 87 177 61 87 177 61 87 177 61 87 177 61 87 177 61 87 177 61 87 177 61 87 177 61 87 177 61 87 177 61 87 177 255 120 70 255 120 70 255 120 70 255 120 70 255 120 70 255 120 70 255 120 70 50 10 20 50 10 20 50 10 20 50 10 20 50 10 20 50 10 20 50 10 20 50 10 20 50 10 20 50 10 20 50 10 20 50 10 20 50 10 20 50 10 20 50 10 20 50 10 20 50 10 20 50 10 20 50 10 20 50 10 20 50 10 20 50 10 20 50 10 20 50 10 20 50 10 20 50 10 20 50 10 20 255 120 40 50 10 20 50 10 20 50 10 20 50 10 20 50 10 20 50 10 20 50 10 20 255 255 255 50 10 20 50 10 20 50 10 20 50 10 20 50 10 20 50 10 20 50 10 20 50 10 20 50 10 20 50 10 20 50 10 20 50 10 20 50 10 20 50 10 20 50 10 20 50 10 20 50 10 20 50 10 20 50 10 20 50 10 20 50 10 20 50 10 20 50 10 20 50 10 20 50 10 20 50 10 20 50 10 20 50 10 20 50 10 20 50 10 20 50 10 20 50 10 20 50 10 20 50 10 20 50 10 20 50 10 20 50 10 20 50 10 20 50 10 20 50 10 20 50 10 20 50 10 20 61 87 177 61 87 177 61 87 177 61 87 177 61 87 177 61 87 177 61 87 177 61 87 177 61 87 177 61 87 177 61 87 177 61 87 177 61 87 177 61 87 177 61 87 177 61 87 177 61 87 177 61 87 177 61 87 177 61 87 177 61 87 177 61 87 177 61 87 177 61 87 177 61 87 177 61 87 177 61 87 177 61 87 177 61 87 177 61 87 177 61 87 177 61 87 177 61 87 177 61 87 177 61 87 177 61 87 177 61 87 177 61 87 177 61 87 177 61 87 177 61 87 177 61 87 177 61 87 177 61 87 177 61 87 177 61 87 177 61 87 177 61 87 177 61 87 177 61 87 177 61 87 177 61 87 177 61 87 177 61 87 177 61 87 177 61 87 177 61 87 177 61 87 177 61 87 177 61 87 177 61 87 177 61 87 177 61 87 177 61 87 177 61 87 177 61 87 177 61 87 177 61 87 177 61 87 177 61 87 177 61 87 177 61 87 177 61 87 177 61 87 177 61 87 177 61 87 177 61 87 177 61 87 177 61 87 177 61 87 177 61 87 177 61 87 177 61 87 177 61 87 177 61 87 177 61 87 177 61 87 177 61 87 177 61 87 177 61 87 177 61 87 177 61 87 177 61 87 177 61 87 177 61 87 177 61 87 177 61 87 177 61 87 177 61 87 177 61 87 177 61 87 177 61 87 177 61 87 177 61 87 177 61 87 177 61 87 177 61 87 177 61 87 177 61 87 177 61 87 177 61 87 177 61 87 177 61 87 177 61 87 177 61 87 177 61 87 177 61 87 177 61 87 177 61 87 177 61 87 177 61 87 177 61 87 177 61 87 177 61 87 177 61 87 177 61 87 177 61 87 177 61 87 177 61 87 177 61 87 177 61 87 177 61 87 177 61 87 177 61 87 177 61 87 177 61 87 177 61 87 177 61 87 177 61 87 177 61 87 177 61 87 177 
62 86 178 62 86 178 62 86 178 62 86 178 62 86 178 62 86 178 62 86 178 62 86 178 62 86 178 62 86 178 62 86 178 62 86 178 62 86 178 62 86 178 62 86 178 62 86 178 62 86 178 62 86 178 62 86 178 62 86 178 62 86 178 62 86 178 62 86 178 62 86 178 62 86 178 62 86 178 62 86 178 62 86 178 62 86 178 62 86 178 62 86 178 62 86 178 62 86 178 62 86 178 62 86 178 62 86 178 62 86 178 62 86 178 62 86 178 62 86 178 62 86 178 62 86 178 62 86 178 62 86 178 62 86 178 62 86 178 62 86 178 62 86 178 62 86 178 62 86 178 62 86 178 62 86 178 62 86 178 62 86 178 62 86 178 62 86 178 62 86 178 62 86 178 62 86 178 62 86 178 62 86 178 62 86 178 62 86 178 62 86 178 62 86 178 62 86 178 62 86 178 62 86 178 62 86 178 62 86 178 62 86 178 62 86 178 62 86 178 62 86 178 62 86 178 62 86 178 62 86 178 62 86 178 62 86 178 62 86 178 62 86 178 62 86 178 62 86 178 62 86 178 62 86 178 62 86 178 62 86 178 62 86 178 62 86 178 62 86 178 62 86 178 62 86 178 62 86 178 62 86 178 62 86 178 62 86 178 62 86 178 62 86 178 62 86 178 62 86 178 62 86 178 62 86 178 62 86 178 62 86 178 62 86 178 62 86 178 62 86 178 62 86 178 62 86 178 62 86 178 62 86 178 62 86 178 62 86 178 62 86 178 62 86 178 62 86 178 62 86 178 62 86 178 62 86 178 62 86 178 62 86 178 62 86 178 62 86 178 62 86 178 62 86 178 62 86 178 62 86 178 62 86 178 62 86 178 62 86 178 62 86 178 62 86 178 62 86 178 62 86 178 62 86 178 62 86 178 62 86 178 62 86 178 62 86 178 62 86 178 62 86 178 62 86 178 62 86 178 62 86 178 62 86 178 62 86 178 62 86 178 62 86 178 62 86 178 62 86 178 62 86 178 62 86 178 62 86 178 62 86 178 62 86 178 62 86 178 62 86 178 62 86 178 62 86 178 255 120 70 255 120 70 255 120 70 255 120 70 255 120 70 255 120 70 255 120 70 50 10 20 50 10 20 50 10 20 50 10 20 50 10 20 50 10 20 50 10 20 50 10 20 50 10 20 50 10 20 50 10 20 50 10 20 50 10 20 50 10 20 50 10 20 50 10 20 50 10 20 50 10 20 50 10 20 50 10 20 50 10 20 50 10 20 50 10 20 50 10 20 50 10 20 50 10 20 255 120 40 50 10 20 50 10 20 50 10 20 50 10 20 50 10 20 50 10 20 50 10 20 50 10 20 255 255 255 255 255 255 50 10 20 50 10 20 50 10 20 50 10 20 50 10 20 50 10 20 50 10 20 50 10 20 50 10 20 50 10 20 50 10 20 50 10 20 50 10 20 50 10 20 50 10 20 50 10 20 50 10 20 50 10 20 50 10 20 50 10 20 50 10 20 50 10 20 50 10 20 50 10 20 50 10 20 50 10 20 50 10 20 50 10 20 50 10 20 50 10 20 50 10 20 50 10 20 50 10 20 50 10 20 50 10 20 50 10 20 50 10 20 50 10 20 50 10 20 50 10 20 50 10 20 50 10 20 62 86 178 62 86 178 62 86 178 62 86 178 62 86 178 62 86 178 62 86 178 62 86 178 62 86 178 62 86 178 62 86 178 62 86 178 62 86 178 62 86 178 62 86 178 62 86 178 62 86 178 62 86 178 62 86 178 62 86 178 62 86 178 62 86 178 62 86 178 62 86 178 62 86 178 62 86 178 62 86 178 62 86 178 62 86 178 62 86 178 62 86 178 62 86 178 62 86 178 62 86 178 62 86 178 62 86 178 62 86 178 62 86 178 62 86 178 62 86 178 62 86 178 62 86 178 62 86 178 62 86 178 62 86 178 62 86 178 62 86 178 62 86 178 62 86 178 62 86 178 62 86 178 62 86 178 62 86 178 62 86 178 62 86 178 62 86 178 62 86 178 62 86 178 62 86 178 62 86 178 62 86 178 62 86 178 62 86 178 62 86 178 62 86 178 62 86 178 62 86 178 62 86 178 62 86 178 62 86 178 62 86 178 62 86 178 62 86 178 62 86 178 62 86 178 62 86 178 62 86 178 62 86 178 62 86 178 62 86 178 62 86 178 62 86 178 62 86 178 62 86 178 62 86 178 62 86 178 62 86 178 62 86 178 62 86 178 62 86 178 62 86 178 62 86 178 62 86 178 62 86 178 62 86 178 62 86 178 62 86 178 62 86 178 62 86 178 62 86 178 62 86 178 62 86 178 62 86 178 62 86 178 62 86 178 62 86 178 62 86 178 62 86 178 62 86 178 62 86 178 62 86 178 62 86 178 62 86 178 62 86 178 62 86 178 62 86 178 62 86 178 62 86 178 62 86 178 62 86 178 62 86 178 62 86 178 62 86 178 62 86 178 62 86 178 62 86 178 62 86 178 62 86 178 62 86 178 62 86 178 62 86 178 62 86 178 62 86 178 62 86 178 62 86 178 62 86 178 62 86 178 62 86 178 62 86 178 
62 86 178 62 86 178 62 86 178 62 86 178 62 86 178 62 86 178 62 86 178 62 86 178 62 86 178 62 86 178 62 86 178 62 86 178 62 86 178 62 86 178 62 86 178 62 86 178 62 86 178 62 86 178 62 86 178 62 86 178 62 86 178 62 86 178 62 86 178 62 86 178 62 86 178 62 86 178 62 86 178 62 86 178 62 86 178 62 86 178 62 86 178 62 86 178 62 86 178 62 86 178 62 86 178 62 86 178 62 86 178 62 86 178 62 86 178 62 86 178 62 86 178 62 86 178 62 86 178 62 86 178 62 86 178 62 86 178 62 86 178 62 86 178 62 86 178 62 86 178 62 86 178 62 86 178 62 86 178 62 86 178 62 86 178 62 86 178 62 86 178 62 86 178 62 86 178 62 86 178 62 86 178 62 86 178 62 86 178 62 86 178 62 86 178 62 86 178 62 86 178 62 86 178 62 86 178 62 86 178 62 86 178 62 86 178 62 86 178 62 86 178 62 86 178 62 86 178 62 86 178 62 86 178 62 86 178 62 86 178 62 86 178 62 86 178 62 86 178 62 86 178 62 86 178 62 86 178 62 86 178 62 86 178 62 86 178 62 86 178 62 86 178 62 86 178 62 86 178 62 86 178 62 86 178 62 86 178 62 86 178 62 86 178 62 86 178 62 86 178 62 86 178 62 86 178 62 86 178 62 86 178 62 86 178 62 86 178 62 86 178 62 86 178 62 86 178 62 86 178 62 86 178 62 86 178 62 86 178 62 86 178 62 86 178 62 86 178 62 86 178 62 86 178 62 86 178 62 86 178 62 86 178 62 86 178 62 86 178 62 86 178 62 86 178 62 86 178 62 86 178 62 86 178 62 86 178 62 86 178 62 86 178 62 86 178 62 86 178 62 86 178 62 86 178 62 86 178 62 86 178 62 86 178 62 86 178 62 86 178 62 86 178 62 86 178 62 86 178 62 86 178 62 86 178 62 86 178 62 86 178 62 86 178 62 86 178 62 86 178 62 86 178 62 86 178 62 86 178 62 86 178 62 86 178 62 86 178 62 86 178 62 86 178 62 86 178 255 120 70 255 120 70 255 120 70 255 120 70 255 120 70 255 120 70 50 10 20 50 10 20 50 10 20 50 10 20 50 10 20 50 10 20 50 10 20 50 10 20 50 10 20 50 10 20 50 10 20 50 10 20 50 10 20 50 10 20 50 10 20 50 10 20 50 10 20 50 10 20 50 10 20 50 10 20 50 10 20 50 10 20 50 10 20 50 10 20 50 10 20 50 10 20 50 10 20 255 120 40 50 10 20 50 10 20 50 10 20 50 10 20 50 10 20 50 10 20 50 10 20 50 10 20 50 10 20 50 10 20 255 255 255 255 255 255 50 10 20 50 10 20 50 10 20 50 10 20 50 10 20 50 10 20 50 10 20 50 10 20 50 10 20 50 10 20 50 10 20 50 10 20 50 10 20 50 10 20 50 10 20 50 10 20 50 10 20 50 10 20 50 10 20 50 10 20 50 10 20 50 10 20 50 10 20 50 10 20 50 10 20 50 10 20 50 10 20 50 10 20 50 10 20 50 10 20 50 10 20 50 10 20 50 10 20 50 10 20 50 10 20 50 10 20 50 10 20 50 10 20 50 10 20 50 10 20 50 10 20 62 86 178 62 86 178 62 86 178 62 86 178 62 86 178 62 86 178 62 86 178 62 86 178 62 86 178 62 86 178 62 86 178 62 86 178 62 86 178 62 86 178 62 86 178 62 86 178 62 86 178 62 86 178 62 86 178 62 86 178 62 86 178 62 86 178 62 86 178 62 86 178 62 86 178 62 86 178 62 86 178 62 86 178 62 86 178 62 86 178 62 86 178 62 86 178 62 86 178 62 86 178 62 86 178 62 86 178 62 86 178 62 86 178 62 86 178 62 86 178 62 86 178 62 86 178 62 86 178 62 86 178 62 86 178 62 86 178 62 86 178 62 86 178 62 86 178 62 86 178 62 86 178 62 86 178 62 86 178 62 86 178 62 86 178 62 86 178 62 86 178 62 86 178 62 86 178 62 86 178 62 86 178 62 86 178 62 86 178 62 86 178 62 86 178 62 86 178 62 86 178 62 86 178 62 86 178 62 86 178 62 86 178 62 86 178 62 86 178 62 86 178 62 86 178 62 86 178 62 86 178 62 86 178 62 86 178 62 86 178 62 86 178 62 86 178 62 86 178 62 86 178 62 86 178 62 86 178 62 86 178 62 86 178 62 86 178 62 86 178 62 86 178 62 86 178 62 86 178 62 86 178 62 86 178 62 86 178 62 86 178 62 86 178 62 86 178 62 86 178 62 86 178 62 86 178 62 86 178 62 86 178 62 86 178 62 86 178 62 86 178 62 86 178 62 86 178 62 86 178 62 86 178 62 86 178 62 86 178 62 86 178 62 86 178 62 86 178 62 86 178 62 86 178 62 86 178 62 86 178 62 86 178 62 86 178 62 86 178 62 86 178 62 86 178 62 86 178 62 86 178 62 86 178 62 86 178 62 86 178 62 86 178 62 86 178 62 86 178 62 86 178 62 86 178 62 86 178 62 86 178 62 86 178 
62 85 179 62 85 179 62 85 179 62 85 179 62 85 179 62 85 179 62 85 179 62 85 179 62 85 179 62 85 179 62 85 179 62 85 179 62 85 179 62 85 179 62 85 179 62 85 179 62 85 179 62 85 179 62 85 179 62 85 179 62 85 179 62 85 179 62 85 179 62 85 179 62 85 179 62 85 179 62 85 179 62 85 179 62 85 179 62 85 179 62 85 179 62 85 179 62 85 179 62 85 179 62 85 179 62 85 179 62 85 179 62 85 179 62 85 179 62 85 179 62 85 179 62 85 179 62 85 179 62 85 179 62 85 179 62 85 179 62 85 179 62 85 179 62 85 179 62 85 179 62 85 179 62 85 179 62 85 179 62 85 179 62 85 179 62 85 179 62 85 179 62 85 179 62 85 179 62 85 179 62 85 179 62 85 179 62 85 179 62 85 179 62 85 179 62 85 179 62 85 179 62 85 179 62 85 179 62 85 179 62 85 179 62 85 179 62 85 179 62 85 179 62 85 179 62 85 179 62 85 179 62 85 179 62 85 179 62 85 179 62 85 179 62 85 179 62 85 179 62 85 179 62 85 179 62 85 179 62 85 179 62 85 179 62 85 179 62 85 179 62 85 179 62 85 179 62 85 179 62 85 179 62 85 179 62 85 179 62 85 179 62 85 179 62 85 179 62 85 179 62 85 179 62 85 179 62 85 179 62 85 179 62 85 179 62 85 179 62 85 179 62 85 179 62 85 179 62 85 179 62 85 179 62 85 179 62 85 179 62 85 179 62 85 179 62 85 179 62 85 179 62 85 179 62 85 179 62 85 179 62 85 179 62 85 179 62 85 179 62 85 179 62 85 179 62 85 179 62 85 179 62 85 179 62 85 179 62 85 179 62 85 179 62 85 179 62 85 179 62 85 179 62 85 179 62 85 179 62 85 179 62 85 179 62 85 179 62 85 179 62 85 179 62 85 179 62 85 179 62 85 179 62 85 179 62 85 179 62 85 179 62 85 179 62 85 179 62 85 179 62 85 179 62 85 179 62 85 179 62 85 179 62 85 179 255 168 159 255 168 159 255 168 159 255 168 159 255 120 70 255 120 70 255 120 70 255 120 70 255 120 70 255 120 70 50 10 20 50 10 20 50 10 20 50 10 20 50 10 20 50 10 20 50 10 20 50 10 20 50 10 20 50 10 20 50 10 20 50 10 20 50 10 20 50 10 20 50 10 20 50 10 20 50 10 20 50 10 20 50 10 20 50 10 20 50 10 20 50 10 20 50 10 20 50 10 20 50 10 20 50 10 20 50 10 20 255 120 40 50 10 20 50 10 20 50 10 20 50 10 20 50 10 20 50 10 20 50 10 20 50 10 20 50 10 20 50 10 20 50 10 20 50 10 20 255 255 255 255 255 255 50 10 20 50 10 20 50 10 20 50 10 20 50 10 20 50 10 20 50 10 20 50 10 20 50 10 20 50 10 20 50 10 20 50 10 20 50 10 20 50 10 20 50 10 20 50 10 20 50 10 20 50 10 20 50 10 20 50 10 20 50 10 20 50 10 20 50 10 20 50 10 20 50 10 20 50 10 20 50 10 20 50 10 20 50 10 20 50 10 20 50 10 20 50 10 20 50 10 20 50 10 20 50 10 20 50 10 20 50 10 20 50 10 20 50 10 20 50 10 20 50 10 20 62 85 179 62 85 179 62 85 179 62 85 179 62 85 179 62 85 179 62 85 179 62 85 179 62 85 179 62 85 179 62 85 179 62 85 179 62 85 179 62 85 179 62 85 179 62 85 179 62 85 179 62 85 179 62 85 179 62 85 179 62 85 179 62 85 179 62 85 179 62 85 179 62 85 179 62 85 179 62 85 179 62 85 179 62 85 179 62 85 179 62 85 179 62 85 179 62 85 179 62 85 179 62 85 179 62 85 179 62 85 179 62 85 179 62 85 179 62 85 179 62 85 179 62 85 179 62 85 179 62 85 179 62 85 179 62 85 179 62 85 179 62 85 179 62 85 179 62 85 179 62 85 179 62 85 179 62 85 179 62 85 179 62 85 179 62 85 179 62 85 179 62 85 179 62 85 179 62 85 179 62 85 179 62 85 179 62 85 179 62 85 179 62 85 179 62 85 179 62 85 179 62 85 179 62 85 179 62 85 179 62 85 179 62 85 179 62 85 179 62 85 179 62 85 179 62 85 179 62 85 179 62 85 179 62 85 179 62 85 179 62 85 179 62 85 179 62 85 179 62 85 179 62 85 179 62 85 179 62 85 179 62 85 179 62 85 179 62 85 179 62 85 179 62 85 179 62 85 179 62 85 179 62 85 179 62 85 179 62 85 179 62 85 179 62 85 179 62 85 179 62 85 179 62 85 179 62 85 179 62 85 179 62 85 179 62 85 179 62 85 179 62 85 179 62 85 179 62 85 179 62 85 179 62 85 179 62 85 179 62 85 179 62 85 179 62 85 179 62 85 179 62 85 179 62 85 179 62 85 179 62 85 179 62 85 179 62 85 179 62 85 179 62 85 179 62 85 179 62 85 179 62 85 179 62 85 179 62 85 179 62 85 179 62 85 179 62 85 179 62 85 179 62 85 179 62 85 179 
63 85 179 63 85 179 63 85 179 63 85 179 63 85 179 63 85 179 63 85 179 63 85 179 63 85 179 63 85 179 63 85 179 63 85 179 63 85 179 63 85 179 63 85 179 63 85 179 63 85 179 63 85 179 63 85 179 63 85 179 63 85 179 63 85 179 63 85 179 63 85 179 63 85 179 63 85 179 63 85 179 63 85 179 63 85 179 63 85 179 63 85 179 63 85 179 63 85 179 63 85 179 63 85 179 63 85 179 63 85 179 63 85 179 63 85 179 63 85 179 63 85 179 63 85 179 63 85 179 63 85 179 63 85 179 63 85 179 63 85 179 63 85 179 63 85 179 63 85 179 63 85 179 63 85 179 63 85 179 63 85 179 63 85 179 63 85 179 63 85 179 63 85 179 63 85 179 63 85 179 63 85 179 63 85 179 63 85 179 63 85 179 63 85 179 63 85 179 63 85 179 63 85 179 63 85 179 63 85 179 63 85 179 63 85 179 63 85 179 63 85 179 63 85 179 63 85 179 63 85 179 63 85 179 63 85 179 63 85 179 63 85 179 63 85 179 63 85 179 63 85 179 63 85 179 63 85 179 63 85 179 63 85 179 63 85 179 63 85 179 63 85 179 63 85 179 63 85 179 63 85 179 63 85 179 63 85 179 63 85 179 63 85 179 63 85 179 63 85 179 63 85 179 63 85 179 63 85 179 63 85 179 63 85 179 63 85 179 63 85 179 63 85 179 63 85 179 63 85 179 63 85 179 63 85 179 63 85 179 63 85 179 63 85 179 63 85 179 63 85 179 63 85 179 63 85 179 63 85 179 63 85 179 63 85 179 63 85 179 63 85 179 63 85 179 63 85 179 63 85 179 63 85 179 63 85 179 63 85 179 63 85 179 63 85 179 63 85 179 63 85 179 63 85 179 63 85 179 63 85 179 63 85 179 63 85 179 63 85 179 63 85 179 63 85 179 63 85 179 63 85 179 63 85 179 63 85 179 63 85 179 63 85 179 63 85 179 63 85 179 63 85 179 255 168 159 255 168 159 255 168 159 255 168 159 255 168 159 255 168 159 255 168 159 255 168 159 255 120 70 255 120 70 255 120 70 255 120 70 255 120 70 255 120 70 50 10 20 50 10 20 50 10 20 50 10 20 50 10 20 50 10 20 50 10 20 50 10 20 50 10 20 50 10 20 50 10 20 50 10 20 50 10 20 50 10 20 50 10 20 50 10 20 50 10 20 50 10 20 50 10 20 50 10 20 50 10 20 50 10 20 50 10 20 50 10 20 50 10 20 50 10 20 50 10 20 255 120 40 50 10 20 50 10 20 50 10 20 50 10 20 50 10 20 50 10 20 50 10 20 50 10 20 50 10 20 50 10 20 50 10 20 50 10 20 50 10 20 50 10 20 255 255 255 50 10 20 50 10 20 50 10 20 50 10 20 50 10 20 50 10 20 50 10 20 50 10 20 50 10 20 50 10 20 50 10 20 50 10 20 50 10 20 50 10 20 50 10 20 50 10 20 50 10 20 50 10 20 50 10 20 50 10 20 50 10 20 50 10 20 50 10 20 50 10 20 50 10 20 50 10 20 50 10 20 50 10 20 50 10 20 50 10 20 50 10 20 50 10 20 50 10 20 50 10 20 50 10 20 50 10 20 50 10 20 50 10 20 50 10 20 50 10 20 50 10 20 63 85 179 63 85 179 63 85 179 63 85 179 63 85 179 63 85 179 63 85 179 63 85 179 63 85 179 63 85 179 63 85 179 63 85 179 63 85 179 63 85 179 63 85 179 63 85 179 63 85 179 63 85 179 63 85 179 63 85 179 63 85 179 63 85 179 63 85 179 63 85 179 63 85 179 63 85 179 63 85 179 63 85 179 63 85 179 63 85 179 63 85 179 63 85 179 63 85 179 63 85 179 63 85 179 63 85 179 63 85 179 63 85 179 63 85 179 63 85 179 63 85 179 63 85 179 63 85 179 63 85 179 63 85 179 63 85 179 63 85 179 63 85 179 63 85 179 63 85 179 63 85 179 63 85 179 63 85 179 63 85 179 63 85 179 63 85 179 63 85 179 63 85 179 63 85 179 63 85 179 63 85 179 63 85 179 63 85 179 63 85 179 63 85 179 63 85 179 63 85 179 63 85 179 63 85 179 63 85 179 63 85 179 63 85 179 63 85 179 63 85 179 63 85 179 63 85 179 63 85 179 63 85 179 63 85 179 63 85 179 63 85 179 63 85 179 63 85 179 63 85 179 63 85 179 63 85 179 63 85 179 63 85 179 63 85 179 63 85 179 63 85 179 63 85 179 63 85 179 63 85 179 63 85 179 63 85 179 63 85 179 63 85 179 63 85 179 63 85 179 63 85 179 63 85 179 63 85 179 63 85 179 63 85 179 63 85 179 63 85 179 63 85 179 63 85 179 63 85 179 63 85 179 63 85 179 63 85 179 63 85 179 63 85 179 63 85 179 63 85 179 63 85 179 63 85 179 63 85 179 63 85 179 63 85 179 63 85 179 63 85 179 63 85 179 63 85 179 63 85 179 63 85 179 63 85 179 63 85 179 63 85 179 63 85 179 63 85 179 63 85 179 63 85 179 
63 84 180 63 84 180 63 84 180 63 84 180 63 84 180 63 84 180 63 84 180 63 84 180 63 84 180 63 84 180 63 84 180 63 84 180 63 84 180 63 84 180 63 84 180 63 84 180 63 84 180 63 84 180 63 84 180 63 84 180 63 84 180 63 84 180 63 84 180 63 84 180 63 84 180 63 84 180 63 84 180 63 84 180 63 84 180 63 84 180 63 84 180 63 84 180 63 84 180 63 84 180 63 84 180 63 84 180 63 84 180 63 84 180 63 84 180 63 84 180 63 84 180 63 84 180 63 84 180 63 84 180 63 84 180 63 84 180 63 84 180 63 84 180 63 84 180 63 84 180 63 84 180 63 84 180 63 84 180 63 84 180 63 84 180 63 84 180 63 84 180 63 84 180 63 84 180 63 84 180 63 84 180 63 84 180 63 84 180 63 84 180 63 84 180 63 84 180 63 84 180 63 84 180 63 84 180 63 84 180 63 84 180 63 84 180 63 84 180 63 84 180 63 84 180 63 84 180 63 84 180 63 84 180 63 84 180 63 84 180 63 84 180 63 84 180 63 84 180 63 84 180 63 84 180 63 84 180 63 84 180 63 84 180 63 84 180 63 84 180 63 84 180 63 84 180 63 84 180 63 84 180 63 84 180 63 84 180 63 84 180 63 84 180 63 84 180 63 84 180 63 84 180 63 84 180 63 84 180 63 84 180 63 84 180 63 84 180 63 84 180 63 84 180 63 84 180 63 84 180 63 84 180 63 84 180 63 84 180 63 84 180 63 84 180 63 84 180 63 84 180 63 84 180 63 84 180 63 84 180 63 84 180 63 84 180 63 84 180 63 84 180 63 84 180 63 84 180 63 84 180 63 84 180 63 84 180 63 84 180 63 84 180 63 84 180 63 84 180 63 84 180 63 84 180 63 84 180 63 84 180 63 84 180 63 84 180 63 84 180 63 84 180 63 84 180 63 84 180 63 84 180 63 84 180 63 84 180 255 168 159 255 168 159 255 168 159 255 168 159 255 168 159 255 168 159 255 168 159 255 168 159 255 168 159 255 168 159 255 168 159 255 168 159 255 168 159 255 168 159 255 120 70 255 120 70 255 120 70 255 120 70 255 120 70 50 10 20 50 10 20 50 10 20 50 10 20 50 10 20 50 10 20 50 10 20 50 10 20 50 10 20 50 10 20 50 10 20 50 10 20 50 10 20 50 10 20 50 10 20 50 10 20 50 10 20 50 10 20 50 10 20 50 10 20 50 10 20 50 10 20 50 10 20 50 10 20 50 10 20 50 10 20 50 10 20 255 120 40 50 10 20 50 10 20 50 10 20 50 10 20 50 10 20 50 10 20 50 10 20 50 10 20 50 10 20 50 10 20 50 10 20 50 10 20 50 10 20 50 10 20 50 10 20 255 255 255 255 255 255 50 10 20 50 10 20 50 10 20 50 10 20 50 10 20 50 10 20 50 10 20 50 10 20 50 10 20 50 10 20 50 10 20 50 10 20 50 10 20 50 10 20 50 10 20 50 10 20 50 10 20 50 10 20 50 10 20 50 10 20 50 10 20 50 10 20 50 10 20 50 10 20 50 10 20 50 10 20 50 10 20 50 10 20 50 10 20 50 10 20 50 10 20 50 10 20 50 10 20 50 10 20 50 10 20 50 10 20 50 10 20 50 10 20 50 10 20 50 10 20 50 10 20 63 84 180 63 84 180 63 84 180 63 84 180 63 84 180 63 84 180 63 84 180 63 84 180 63 84 180 63 84 180 63 84 180 63 84 180 63 84 180 63 84 180 63 84 180 63 84 180 63 84 180 63 84 180 63 84 180 63 84 180 63 84 180 63 84 180 63 84 180 63 84 180 63 84 180 63 84 180 63 84 180 63 84 180 63 84 180 63 84 180 63 84 180 63 84 180 63 84 180 63 84 180 63 84 180 63 84 180 63 84 180 63 84 180 63 84 180 63 84 180 63 84 180 63 84 180 63 84 180 63 84 180 63 84 180 63 84 180 63 84 180 63 84 180 63 84 180 63 84 180 63 84 180 63 84 180 63 84 180 63 84 180 63 84 180 63 84 180 63 84 180 63 84 180 63 84 180 63 84 180 63 84 180 63 84 180 63 84 180 63 84 180 63 84 180 63 84 180 63 84 180 63 84 180 63 84 180 63 84 180 63 84 180 63 84 180 63 84 180 63 84 180 63 84 180 63 84 180 63 84 180 63 84 180 63 84 180 63 84 180 63 84 180 63 84 180 63 84 180 63 84 180 63 84 180 63 84 180 63 84 180 63 84 180 63 84 180 63 84 180 63 84 180 63 84 180 63 84 180 63 84 180 63 84 180 63 84 180 63 84 180 63 84 180 63 84 180 63 84 180 63 84 180 63 84 180 63 84 180 63 84 180 63 84 180 63 84 180 63 84 180 63 84 180 63 84 180 63 84 180 63 84 180 63 84 180 63 84 180 63 84 180 63 84 180 63 84 180 63 84 180 63 84 180 63 84 180 63 84 180 63 84 180 63 84 180 63 84 180 63 84 180 63 84 180 63 84 180 63 84 180 63 84 180 63 84 180 63 84 180 63 84 180 63 84 180 63 84 180 
63 84 181 63 84 181 63 84 181 63 84 181 63 84 181 63 84 181 63 84 181 63 84 181 63 84 181 63 84 181 63 84 181 63 84 181 63 84 181 63 84 181 63 84 181 63 84 181 63 84 181 63 84 181 63 84 181 63 84 181 63 84 181 63 84 181 63 84 181 63 84 181 63 84 181 63 84 181 63 84 181 63 84 181 63 84 181 63 84 181 63 84 181 63 84 181 63 84 181 63 84 181 63 84 181 63 84 181 63 84 181 63 84 181 63 84 181 63 84 181 63 84 181 63 84 181 63 84 181 63 84 181 63 84 181 63 84 181 63 84 181 63 84 181 63 84 181 63 84 181 63 84 181 63 84 181 63 84 181 63 84 181 63 84 181 63 84 181 63 84 181 63 84 181 63 84 181 63 84 181 63 84 181 63 84 181 63 84 181 63 84 181 63 84 181 63 84 181 63 84 181 63 84 181 63 84 181 63 84 181 63 84 181 63 84 181 63 84 181 63 84 181 63 84 181 63 84 181 63 84 181 63 84 181 63 84 181 63 84 181 63 84 181 63 84 181 63 84 181 63 84 181 63 84 181 63 84 181 63 84 181 63 84 181 63 84 181 63 84 181 63 84 181 63 84 181 63 84 181 63 84 181 63 84 181 63 84 181 63 84 181 63 84 181 63 84 181 63 84 181 63 84 181 63 84 181 63 84 181 63 84 181 63 84 181 63 84 181 63 84 181 63 84 181 63 84 181 63 84 181 63 84 181 63 84 181 63 84 181 63 84 181 63 84 181 63 84 181 63 84 181 63 84 181 63 84 181 63 84 181 63 84 181 63 84 181 63 84 181 63 84 181 63 84 181 63 84 181 63 84 181 63 84 181 63 84 181 63 84 181 63 84 181 63 84 181 63 84 181 63 84 181 63 84 181 63 84 181 63 84 181 63 84 181 63 84 181 63 84 181 63 84 181 63 84 181 255 168 159 255 168 159 255 168 159 255 168 159 255 168 159 255 168 159 255 168 159 255 168 159 255 168 159 255 168 159 255 168 159 255 168 159 255 168 159 63 84 181 63 84 181 63 84 181 63 84 181 63 84 181 255 120 70 255 120 70 255 120 70 255 120 70 255 120 70 50 10 20 50 10 20 50 10 20 50 10 20 50 10 20 50 10 20 50 10 20 50 10 20 50 10 20 50 10 20 50 10 20 50 10 20 50 10 20 50 10 20 50 10 20 50 10 20 50 10 20 50 10 20 50 10 20 50 10 20 50 10 20 50 10 20 50 10 20 50 10 20 50 10 20 50 10 20 50 10 20 255 120 40 50 10 20 50 10 20 50 10 20 50 10 20 50 10 20 50 10 20 50 10 20 50 10 20 50 10 20 50 10 20 50 10 20 50 10 20 50 10 20 50 10 20 50 10 20 50 10 20 50 10 20 255 255 255 255 255 255 50 10 20 50 10 20 50 10 20 50 10 20 50 10 20 50 10 20 50 10 20 50 10 20 50 10 20 50 10 20 50 10 20 50 10 20 50 10 20 50 10 20 50 10 20 50 10 20 50 10 20 50 10 20 50 10 20 50 10 20 50 10 20 50 10 20 50 10 20 50 10 20 50 10 20 50 10 20 50 10 20 50 10 20 50 10 20 50 10 20 50 10 20 50 10 20 50 10 20 50 10 20 50 10 20 50 10 20 50 10 20 50 10 20 50 10 20 50 10 20 63 84 181 63 84 181 63 84 181 63 84 181 63 84 181 63 84 181 63 84 181 63 84 181 63 84 181 63 84 181 63 84 181 63 84 181 63 84 181 63 84 181 63 84 181 63 84 181 63 84 181 63 84 181 63 84 181 63 84 181 63 84 181 63 84 181 63 84 181 63 84 181 63 84 181 63 84 181 63 84 181 63 84 181 63 84 181 63 84 181 63 84 181 63 84 181 63 84 181 63 84 181 63 84 181 63 84 181 63 84 181 63 84 181 63 84 181 63 84 181 63 84 181 63 84 181 63 84 181 63 84 181 63 84 181 63 84 181 63 84 181 63 84 181 63 84 181 63 84 181 63 84 181 63 84 181 63 84 181 63 84 181 63 84 181 63 84 181 63 84 181 63 84 181 63 84 181 63 84 181 63 84 181 63 84 181 63 84 181 63 84 181 63 84 181 63 84 181 63 84 181 63 84 181 63 84 181 63 84 181 63 84 181 63 84 181 63 84 181 63 84 181 63 84 181 63 84 181 63 84 181 63 84 181 63 84 181 63 84 181 63 84 181 63 84 181 63 84 181 63 84 181 63 84 181 63 84 181 63 84 181 63 84 181 63 84 181 63 84 181 63 84 181 63 84 181 63 84 181 63 84 181 63 84 181 63 84 181 63 84 181 63 84 181 63 84 181 63 84 181 63 84 181 63 84 181 63 84 181 63 84 181 63 84 181 63 84 181 63 84 181 63 84 181 63 84 181 63 84 181 63 84 181 63 84 181 63 84 181 63 84 181 63 84 181 63 84 181 63 84 181 63 84 181 63 84 181 63 84 181 63 84 181 63 84 181 63 84 181 63 84 181 63 84 181 63 84 181 63 84 181 63 84 181 63 84 181 63 84 181 63 84 181 63 84 181 
64 83 181 64 83 181 64 83 181 64 83 181 64 83 181 64 83 181 64 83 181 64 83 181 64 83 181 64 83 181 64 83 181 64 83 181 64 83 181 64 83 181 64 83 181 64 83 181 64 83 181 64 83 181 64 83 181 64 83 181 64 83 181 64 83 181 64 83 181 64 83 181 64 83 181 64 83 181 64 83 181 64 83 181 64 83 181 64 83 181 64 83 181 64 83 181 64 83 181 64 83 181 64 83 181 64 83 181 64 83 181 64 83 181 64 83 181 64 83 181 64 83 181 64 83 181 64 83 181 64 83 181 64 83 181 64 83 181 64 83 181 64 83 181 64 83 181 64 83 181 64 83 181 64 83 181 64 83 181 64 83 181 64 83 181 64 83 181 64 83 181 64 83 181 64 83 181 64 83 181 64 83 181 64 83 181 64 83 181 64 83 181 64 83 181 64 83 181 64 83 181 64 83 181 64 83 181 64 83 181 64 83 181 64 83 181 64 83 181 64 83 181 64 83 181 64 83 181 64 83 181 64 83 181 64 83 181 64 83 181 64 83 181 64 83 181 64 83 181 64 83 181 64 83 181 64 83 181 64 83 181 64 83 181 64 83 181 64 83 181 64 83 181 64 83 181 64 83 181 64 83 181 64 83 181 64 83 181 64 83 181 64 83 181 64 83 181 64 83 181 64 83 181 64 83 181 64 83 181 64 83 181 64 83 181 64 83 181 64 83 181 64 83 181 64 83 181 64 83 181 64 83 181 64 83 181 64 83 181 64 83 181 64 83 181 64 83 181 64 83 181 64 83 181 64 83 181 64 83 181 64 83 181 64 83 181 64 83 181 64 83 181 64 83 181 64 83 181 64 83 181 64 83 181 64 83 181 64 83 181 64 83 181 64 83 181 64 83 181 64 83 181 64 83 181 64 83 181 64 83 181 64 83 181 255 168 159 255 168 159 255 168 159 255 168 159 255 168 159 255 168 159 255 168 159 255 168 159 255 168 159 255 168 159 255 168 159 255 168 159 255 168 159 64 83 181 64 83 181 64 83 181 64 83 181 64 83 181 64 83 181 64 83 181 64 83 181 64 83 181 255 120 70 255 120 70 255 120 70 255 120 70 255 120 70 50 10 20 50 10 20 50 10 20 50 10 20 50 10 20 50 10 20 50 10 20 50 10 20 50 10 20 50 10 20 50 10 20 50 10 20 50 10 20 50 10 20 50 10 20 50 10 20 50 10 20 50 10 20 50 10 20 50 10 20 50 10 20 50 10 20 50 10 20 50 10 20 50 10 20 50 10 20 50 10 20 255 120 40 50 10 20 50 10 20 50 10 20 50 10 20 50 10 20 50 10 20 50 10 20 50 10 20 50 10 20 50 10 20 50 10 20 50 10 20 50 10 20 50 10 20 50 10 20 50 10 20 50 10 20 50 10 20 50 10 20 255 255 255 255 255 255 50 10 20 50 10 20 50 10 20 50 10 20 50 10 20 50 10 20 50 10 20 50 10 20 50 10 20 50 10 20 50 10 20 50 10 20 50 10 20 50 10 20 50 10 20 50 10 20 50 10 20 50 10 20 50 10 20 50 10 20 50 10 20 50 10 20 50 10 20 50 10 20 50 10 20 50 10 20 50 10 20 50 10 20 50 10 20 50 10 20 50 10 20 50 10 20 50 10 20 50 10 20 50 10 20 50 10 20 50 10 20 50 10 20 50 10 20 50 10 20 64 83 181 64 83 181 64 83 181 64 83 181 64 83 181 64 83 181 64 83 181 64 83 181 64 83 181 64 83 181 64 83 181 64 83 181 64 83 181 64 83 181 64 83 181 64 83 181 64 83 181 64 83 181 64 83 181 64 83 181 64 83 181 64 83 181 64 83 181 64 83 181 64 83 181 64 83 181 64 83 181 64 83 181 64 83 181 64 83 181 64 83 181 64 83 181 64 83 181 64 83 181 64 83 181 64 83 181 64 83 181 64 83 181 64 83 181 64 83 181 64 83 181 64 83 181 64 83 181 64 83 181 64 83 181 64 83 181 64 83 181 64 83 181 64 83 181 64 83 181 64 83 181 64 83 181 64 83 181 64 83 181 64 83 181 64 83 181 64 83 181 64 83 181 64 83 181 64 83 181 64 83 181 64 83 181 64 83 181 64 83 181 64 83 181 64 83 181 64 83 181 64 83 181 64 83 181 64 83 181 64 83 181 64 83 181 64 83 181 64 83 181 64 83 181 64 83 181 64 83 181 64 83 181 64 83 181 64 83 181 64 83 181 64 83 181 64 83 181 64 83 181 64 83 181 64 83 181 64 83 181 64 83 181 64 83 181 64 83 181 64 83 181 64 83 181 64 83 181 64 83 181 64 83 181 64 83 181 64 83 181 64 83 181 64 83 181 64 83 181 64 83 181 64 83 181 64 83 181 64 83 181 64 83 181 64 83 181 64 83 181 64 83 181 64 83 181 64 83 181 64 83 181 64 83 181 64 83 181 64 83 181 64 83 181 64 83 181 64 83 181 64 83 181 64 83 181 64 83 181 64 83 181 64 83 181 64 83 181 64 83 181 64 83 181 64 83 181 64 83 181 64 83 181 64 83 181 64 83 181 
64 83 182 64 83 182 64 83 182 64 83 182 64 83 182 64 83 182 64 83 182 64 83 182 64 83 182 64 83 182 64 83 182 64 83 182 64 83 182 64 83 182 64 83 182 64 83 182 64 83 182 64 83 182 64 83 182 64 83 182 64 83 182 64 83 182 64 83 182 64 83 182 64 83 182 64 83 182 64 83 182 64 83 182 64 83 182 64 83 182 64 83 182 64 83 182 64 83 182 64 83 182 64 83 182 64 83 182 64 83 182 64 83 182 64 83 182 64 83 182 64 83 182 64 83 182 64 83 182 64 83 182 64 83 182 64 83 182 64 83 182 64 83 182 64 83 182 64 83 182 64 83 182 64 83 182 64 83 182 64 83 182 64 83 182 64 83 182 64 83 182 64 83 182 64 83 182 64 83 182 64 83 182 64 83 182 64 83 182 64 83 182 64 83 182 64 83 182 64 83 182 64 83 182 64 83 182 64 83 182 64 83 182 64 83 182 64 83 182 64 83 182 64 83 182 64 83 182 64 83 182 64 83 182 64 83 182 64 83 182 64 83 182 64 83 182 64 83 182 64 83 182 64 83 182 64 83 182 64 83 182 64 83 182 64 83 182 64 83 182 64 83 182 64 83 182 64 83 182 64 83 182 64 83 182 64 83 182 64 83 182 64 83 182 64 83 182 64 83 182 64 83 182 64 83 182 64 83 182 64 83 182 64 83 182 64 83 182 64 83 182 64 83 182 64 83 182 64 83 182 64 83 182 64 83 182 64 83 182 64 83 182 64 83 182 64 83 182 64 83 182 64 83 182 64 83 182 64 83 182 64 83 182 64 83 182 64 83 182 64 83 182 64 83 182 64 83 182 64 83 182 64 83 182 64 83 182 64 83 182 64 83 182 64 83 182 64 83 182 255 168 159 255 168 159 255 168 159 255 168 159 255 168 159 255 168 159 255 168 159 255 168 159 255 168 159 255 168 159 255 168 159 255 168 159 255 168 159 64 83 182 64 83 182 64 83 182 64 83 182 64 83 182 64 83 182 64 83 182 64 83 182 64 83 182 64 83 182 64 83 182 64 83 182 64 83 182 64 83 182 64 83 182 255 120 70 255 120 70 255 120 70 255 120 70 50 10 20 50 10 20 50 10 20 50 10 20 50 10 20 50 10 20 50 10 20 50 10 20 50 10 20 50 10 20 50 10 20 50 10 20 50 10 20 50 10 20 50 10 20 50 10 20 50 10 20 50 10 20 50 10 20 50 10 20 50 10 20 50 10 20 50 10 20 50 10 20 50 10 20 50 10 20 50 10 20 255 120 40 50 10 20 50 10 20 50 10 20 50 10 20 50 10 20 50 10 20 50 10 20 50 10 20 50 10 20 50 10 20 50 10 20 50 10 20 50 10 20 50 10 20 50 10 20 50 10 20 50 10 20 50 10 20 50 10 20 50 10 20 50 10 20 255 255 255 255 255 255 50 10 20 50 10 20 50 10 20 50 10 20 50 10 20 50 10 20 50 10 20 50 10 20 50 10 20 50 10 20 50 10 20 50 10 20 50 10 20 50 10 20 50 10 20 50 10 20 50 10 20 50 10 20 50 10 20 50 10 20 50 10 20 50 10 20 50 10 20 50 10 20 50 10 20 50 10 20 50 10 20 50 10 20 50 10 20 50 10 20 50 10 20 50 10 20 50 10 20 50 10 20 50 10 20 50 10 20 50 10 20 50 10 20 50 10 20 64 83 182 64 83 182 64 83 182 64 83 182 64 83 182 64 83 182 64 83 182 64 83 182 64 83 182 64 83 182 64 83 182 64 83 182 64 83 182 64 83 182 64 83 182 64 83 182 64 83 182 64 83 182 64 83 182 64 83 182 64 83 182 64 83 182 64 83 182 64 83 182 64 83 182 64 83 182 64 83 182 64 83 182 64 83 182 64 83 182 64 83 182 64 83 182 64 83 182 64 83 182 64 83 182 64 83 182 64 83 182 64 83 182 64 83 182 64 83 182 64 83 182 64 83 182 64 83 182 64 83 182 64 83 182 64 83 182 64 83 182 64 83 182 64 83 182 64 83 182 64 83 182 64 83 182 64 83 182 64 83 182 64 83 182 64 83 182 64 83 182 64 83 182 64 83 182 64 83 182 64 83 182 64 83 182 64 83 182 64 83 182 64 83 182 64 83 182 64 83 182 64 83 182 64 83 182 64 83 182 64 83 182 64 83 182 64 83 182 64 83 182 64 83 182 64 83 182 64 83 182 64 83 182 64 83 182 64 83 182 64 83 182 64 83 182 64 83 182 64 83 182 64 83 182 64 83 182 64 83 182 64 83 182 64 83 182 64 83 182 64 83 182 64 83 182 64 83 182 64 83 182 64 83 182 64 83 182 64 83 182 64 83 182 64 83 182 64 83 182 64 83 182 64 83 182 64 83 182 64 83 182 64 83 182 64 83 182 64 83 182 64 83 182 64 83 182 64 83 182 64 83 182 64 83 182 64 83 182 64 83 182 64 83 182 64 83 182 64 83 182 64 83 182 64 83 182 64 83 182 64 83 182 64 83 182 64 83 182 64 83 182 64 83 182 64 83 182 64 83 182 64 83 182 64 83 182 
65 82 182 65 82 182 65 82 182 65 82 182 65 82 182 65 82 182 65 82 182 65 82 182 65 82 182 65 82 182 65 82 182 65 82 182 65 82 182 65 82 182 65 82 182 65 82 182 65 82 182 65 82 182 65 82 182 65 82 182 65 82 182 65 82 182 65 82 182 65 82 182 65 82 182 65 82 182 65 82 182 65 82 182 65 82 182 65 82 182 65 82 182 65 82 182 65 82 182 65 82 182 65 82 182 65 82 182 65 82 182 65 82 182 65 82 182 65 82 182 65 82 182 65 82 182 65 82 182 65 82 182 65 82 182 65 82 182 65 82 182 65 82 182 65 82 182 65 82 182 65 82 182 65 82 182 65 82 182 65 82 182 65 82 182 65 82 182 65 82 182 65 82 182 65 82 182 65 82 182 65 82 182 65 82 182 65 82 182 65 82 182 65 82 182 65 82 182 65 82 182 65 82 182 65 82 182 65 82 182 65 82 182 65 82 182 65 82 182 65 82 182 65 82 182 65 82 182 65 82 182 65 82 182 65 82 182 65 82 182 65 82 182 65 82 182 65 82 182 65 82 182 65 82 182 65 82 182 65 82 182 65 82 182 65 82 182 65 82 182 65 82 182 65 82 182 65 82 182 65 82 182 65 82 182 65 82 182 65 82 182 65 82 182 65 82 182 65 82 182 65 82 182 65 82 182 65 82 182 65 82 182 65 82 182 65 82 182 65 82 182 65 82 182 65 82 182 65 82 182 65 82 182 65 82 182 65 82 182 65 82 182 65 82 182 65 82 182 65 82 182 65 82 182 65 82 182 65 82 182 65 82 182 65 82 182 65 82 182 65 82 182 65 82 182 65 82 182 65 82 182 65 82 182 65 82 182 255 168 159 255 168 159 255 168 159 255 168 159 255 168 159 255 168 159 255 168 159 255 168 159 255 168 159 255 168 159 255 168 159 255 168 159 255 168 159 65 82 182 65 82 182 65 82 182 65 82 182 65 82 182 65 82 182 65 82 182 65 82 182 65 82 182 65 82 182 65 82 182 65 82 182 65 82 182 65 82 182 65 82 182 65 82 182 65 82 182 65 82 182 65 82 182 255 120 70 255 120 70 255 120 70 255 120 70 50 10 20 50 10 20 50 10 20 50 10 20 50 10 20 50 10 20 50 10 20 50 10 20 50 10 20 50 10 20 50 10 20 50 10 20 50 10 20 50 10 20 50 10 20 50 10 20 50 10 20 50 10 20 50 10 20 50 10 20 50 10 20 50 10 20 50 10 20 50 10 20 50 10 20 50 10 20 50 10 20 255 120 40 50 10 20 50 10 20 50 10 20 50 10 20 50 10 20 50 10 20 50 10 20 50 10 20 50 10 20 50 10 20 50 10 20 50 10 20 50 10 20 50 10 20 50 10 20 50 10 20 50 10 20 50 10 20 50 10 20 50 10 20 50 10 20 50 10 20 50 10 20 255 255 255 50 10 20 50 10 20 50 10 20 50 10 20 50 10 20 50 10 20 50 10 20 50 10 20 50 10 20 50 10 20 50 10 20 50 10 20 50 10 20 50 10 20 50 10 20 50 10 20 50 10 20 50 10 20 50 10 20 50 10 20 50 10 20 50 10 20 50 10 20 50 10 20 50 10 20 50 10 20 50 10 20 50 10 20 50 10 20 50 10 20 50 10 20 50 10 20 50 10 20 50 10 20 50 10 20 50 10 20 50 10 20 50 10 20 50 10 20 50 10 20 65 82 182 65 82 182 65 82 182 65 82 182 65 82 182 65 82 182 65 82 182 65 82 182 65 82 182 65 82 182 65 82 182 65 82 182 65 82 182 65 82 182 65 82 182 65 82 182 65 82 182 65 82 182 65 82 182 65 82 182 65 82 182 65 82 182 65 82 182 65 82 182 65 82 182 65 82 182 65 82 182 65 82 182 65 82 182 65 82 182 65 82 182 65 82 182 65 82 182 65 82 182 65 82 182 65 82 182 65 82 182 65 82 182 65 82 182 65 82 182 65 82 182 65 82 182 65 82 182 65 82 182 65 82 182 65 82 182 65 82 182 65 82 182 65 82 182 65 82 182 65 82 182 65 82 182 65 82 182 65 82 182 65 82 182 65 82 182 65 82 182 65 82 182 65 82 182 65 82 182 65 82 182 65 82 182 65 82 182 65 82 182 65 82 182 65 82 182 65 82 182 65 82 182 65 82 182 65 82 182 65 82 182 65 82 182 65 82 182 65 82 182 65 82 182 65 82 182 65 82 182 65 82 182 65 82 182 65 82 182 65 82 182 65 82 182 65 82 182 65 82 182 65 82 182 65 82 182 65 82 182 65 82 182 65 82 182 65 82 182 65 82 182 65 82 182 65 82 182 65 82 182 65 82 182 65 82 182 65 82 182 65 82 182 65 82 182 65 82 182 65 82 182 65 82 182 65 82 182 65 82 182 65 82 182 65 82 182 65 82 182 65 82 182 65 82 182 65 82 182 65 82 182 65 82 182 65 82 182 65 82 182 65 82 182 65 82 182 65 82 182 65 82 182 65 82 182 65 82 182 65 82 182 65 82 182 65 82 182 65 82 182 65 82 182 65 82 182 65 82 182 
65 81 183 65 81 183 65 81 183 65 81 183 65 81 183 65 81 183 65 81 183 65 81 183 65 81 183 65 81 183 65 81 183 65 81 183 65 81 183 65 81 183 65 81 183 65 81 183 65 81 183 65 81 183 65 81 183 65 81 183 65 81 183 65 81 183 65 81 183 65 81 183 65 81 183 65 81 183 65 81 183 65 81 183 65 81 183 65 81 183 65 81 183 65 81 183 65 81 183 65 81 183 65 81 183 65 81 183 65 81 183 65 81 183 65 81 183 65 81 183 65 81 183 65 81 183 65 81 183 65 81 183 65 81 183 65 81 183 65 81 183 65 81 183 65 81 183 65 81 183 65 81 183 65 81 183 65 81 183 65 81 183 65 81 183 65 81 183 65 81 183 65 81 183 65 81 183 65 81 183 65 81 183 65 81 183 65 81 183 65 81 183 65 81 183 65 81 183 65 81 183 65 81 183 65 81 183 65 81 183 65 81 183 65 81 183 65 81 183 65 81 183 65 81 183 65 81 183 65 81 183 65 81 183 65 81 183 65 81 183 65 81 183 65 81 183 65 81 183 65 81 183 65 81 183 65 81 183 65 81 183 65 81 183 65 81 183 65 81 183 65 81 183 65 81 183 65 81 183 65 81 183 65 81 183 65 81 183 65 81 183 65 81 183 65 81 183 65 81 183 65 81 183 65 81 183 65 81 183 65 81 183 65 81 183 65 81 183 65 81 183 65 81 183 65 81 183 65 81 183 65 81 183 65 81 183 65 81 183 65 81 183 65 81 183 65 81 183 65 81 183 65 81 183 65 81 183 65 81 183 65 81 183 65 81 183 65 81 183 65 81 183 255 168 159 255 168 159 255 168 159 255 168 159 255 168 159 255 168 159 255 168 159 255 168 159 255 168 159 255 168 159 255 168 159 255 168 159 255 168 159 255 168 159 65 81 183 65 81 183 65 81 183 65 81 183 65 81 183 65 81 183 65 81 183 65 81 183 65 81 183 65 81 183 65 81 183 65 81 183 65 81 183 65 81 183 65 81 183 65 81 183 65 81 183 65 81 183 65 81 183 65 81 183 65 81 183 255 172 156 255 172 156 255 120 70 255 120 70 255 120 70 255 120 70 50 10 20 50 10 20 50 10 20 50 10 20 50 10 20 50 10 20 50 10 20 50 10 20 50 10 20 50 10 20 50 10 20 50 10 20 50 10 20 50 10 20 50 10 20 50 10 20 50 10 20 50 10 20 50 10 20 50 10 20 50 10 20 50 10 20 50 10 20 50 10 20 50 10 20 50 10 20 50 10 20 255 120 40 50 10 20 50 10 20 50 10 20 50 10 20 50 10 20 50 10 20 50 10 20 50 10 20 50 10 20 50 10 20 50 10 20 50 10 20 50 10 20 50 10 20 50 10 20 50 10 20 50 10 20 50 10 20 50 10 20 50 10 20 50 10 20 50 10 20 50 10 20 50 10 20 255 255 255 255 255 255 50 10 20 50 10 20 50 10 20 50 10 20 50 10 20 50 10 20 50 10 20 50 10 20 50 10 20 50 10 20 50 10 20 50 10 20 50 10 20 50 10 20 50 10 20 50 10 20 50 10 20 50 10 20 50 10 20 50 10 20 50 10 20 50 10 20 50 10 20 50 10 20 50 10 20 50 10 20 50 10 20 50 10 20 50 10 20 50 10 20 50 10 20 50 10 20 50 10 20 50 10 20 50 10 20 50 10 20 50 10 20 50 10 20 50 10 20 65 81 183 65 81 183 65 81 183 65 81 183 65 81 183 65 81 183 65 81 183 65 81 183 65 81 183 65 81 183 65 81 183 65 81 183 65 81 183 65 81 183 65 81 183 65 81 183 65 81 183 65 81 183 65 81 183 65 81 183 65 81 183 65 81 183 65 81 183 65 81 183 65 81 183 65 81 183 65 81 183 65 81 183 65 81 183 65 81 183 65 81 183 65 81 183 65 81 183 65 81 183 65 81 183 65 81 183 65 81 183 65 81 183 65 81 183 65 81 183 65 81 183 65 81 183 65 81 183 65 81 183 65 81 183 65 81 183 65 81 183 65 81 183 65 81 183 65 81 183 65 81 183 65 81 183 65 81 183 65 81 183 65 81 183 65 81 183 65 81 183 65 81 183 65 81 183 65 81 183 65 81 183 65 81 183 65 81 183 65 81 183 65 81 183 65 81 183 65 81 183 65 81 183 65 81 183 65 81 183 65 81 183 65 81 183 65 81 183 65 81 183 65 81 183 65 81 183 65 81 183 65 81 183 65 81 183 65 81 183 65 81 183 65 81 183 65 81 183 65 81 183 65 81 183 65 81 183 65 81 183 65 81 183 65 81 183 65 81 183 65 81 183 65 81 183 65 81 183 65 81 183 65 81 183 65 81 183 65 81 183 65 81 183 65 81 183 65 81 183 65 81 183 65 81 183 65 81 183 65 81 183 65 81 183 65 81 183 65 81 183 65 81 183 65 81 183 65 81 183 65 81 183 65 81 183 65 81 183 65 81 183 65 81 183 65 81 183 65 81 183 65 81 183 65 81 183 65 81 183 65 81 183 65 81 183 65 81 183 65 81 183 65 81 183 65 81 183 
65 81 183 65 81 183 65 81 183 65 81 183 65 81 183 65 81 183 65 81 183 65 81 183 65 81 183 65 81 183 65 81 183 65 81 183 65 81 183 65 81 183 65 81 183 65 81 183 65 81 183 65 81 183 65 81 183 65 81 183 65 81 183 65 81 183 65 81 183 65 81 183 65 81 183 65 81 183 65 81 183 65 81 183 65 81 183 65 81 183 65 81 183 65 81 183 65 81 183 65 81 183 65 81 183 65 81 183 65 81 183 65 81 183 65 81 183 65 81 183 65 81 183 65 81 183 65 81 183 65 81 183 65 81 183 65 81 183 65 81 183 65 81 183 65 81 183 65 81 183 65 81 183 65 81 183 65 81 183 65 81 183 65 81 183 65 81 183 65 81 183 65 81 183 65 81 183 65 81 183 65 81 183 65 81 183 65 81 183 65 81 183 65 81 183 65 81 183 65 81 183 65 81 183 65 81 183 65 81 183 65 81 183 65 81 183 65 81 183 65 81 183 65 81 183 65 81 183 65 81 183 65 81 183 65 81 183 65 81 183 65 81 183 65 81 183 65 81 183 65 81 183 65 81 183 65 81 183 65 81 183 65 81 183 65 81 183 65 81 183 65 81 183 65 81 183 65 81 183 65 81 183 65 81 183 65 81 183 65 81 183 65 81 183 65 81 183 65 81 183 65 81 183 65 81 183 65 81 183 65 81 183 65 81 183 65 81 183 65 81 183 65 81 183 65 81 183 65 81 183 65 81 183 65 81 183 65 81 183 65 81 183 65 81 183 65 81 183 65 81 183 65 81 183 65 81 183 65 81 183 255 168 159 255 168 159 255 168 159 255 168 159 255 168 159 255 168 159 255 168 159 255 168 159 255 168 159 255 168 159 255 168 159 255 168 159 255 168 159 65 81 183 65 81 183 65 81 183 65 81 183 65 81 183 65 81 183 65 81 183 65 81 183 65 81 183 65 81 183 65 81 183 65 81 183 65 81 183 65 81 183 65 81 183 65 81 183 65 81 183 65 81 183 65 81 183 65 81 183 65 81 183 65 81 183 65 81 183 65 81 183 255 172 156 255 172 156 255 172 156 255 172 156 255 172 156 255 120 70 255 120 70 255 120 70 50 10 20 50 10 20 50 10 20 50 10 20 50 10 20 50 10 20 50 10 20 50 10 20 50 10 20 50 10 20 50 10 20 50 10 20 50 10 20 50 10 20 50 10 20 50 10 20 50 10 20 50 10 20 50 10 20 50 10 20 50 10 20 50 10 20 50 10 20 50 10 20 50 10 20 50 10 20 50 10 20 255 120 40 50 10 20 50 10 20 50 10 20 50 10 20 50 10 20 50 10 20 50 10 20 50 10 20 50 10 20 50 10 20 50 10 20 50 10 20 50 10 20 50 10 20 50 10 20 50 10 20 50 10 20 50 10 20 50 10 20 50 10 20 50 10 20 50 10 20 50 10 20 50 10 20 50 10 20 50 10 20 255 255 255 255 255 255 50 10 20 50 10 20 50 10 20 50 10 20 50 10 20 50 10 20 50 10 20 50 10 20 50 10 20 50 10 20 50 10 20 50 10 20 50 10 20 50 10 20 50 10 20 50 10 20 50 10 20 50 10 20 50 10 20 50 10 20 50 10 20 50 10 20 50 10 20 50 10 20 50 10 20 50 10 20 50 10 20 50 10 20 50 10 20 50 10 20 50 10 20 50 10 20 50 10 20 50 10 20 50 10 20 50 10 20 50 10 20 50 10 20 50 10 20 65 81 183 65 81 183 65 81 183 65 81 183 65 81 183 65 81 183 65 81 183 65 81 183 65 81 183 65 81 183 65 81 183 65 81 183 65 81 183 65 81 183 65 81 183 65 81 183 65 81 183 65 81 183 65 81 183 65 81 183 65 81 183 65 81 183 65 81 183 65 81 183 65 81 183 65 81 183 65 81 183 65 81 183 65 81 183 65 81 183 65 81 183 65 81 183 65 81 183 65 81 183 65 81 183 65 81 183 65 81 183 65 81 183 65 81 183 65 81 183 65 81 183 65 81 183 65 81 183 65 81 183 65 81 183 65 81 183 65 81 183 65 81 183 65 81 183 65 81 183 65 81 183 65 81 183 65 81 183 65 81 183 65 81 183 65 81 183 65 81 183 65 81 183 65 81 183 65 81 183 65 81 183 65 81 183 65 81 183 65 81 183 65 81 183 65 81 183 65 81 183 65 81 183 65 81 183 65 81 183 65 81 183 65 81 183 65 81 183 65 81 183 65 81 183 65 81 183 65 81 183 65 81 183 65 81 183 65 81 183 65 81 183 65 81 183 65 81 183 65 81 183 65 81 183 65 81 183 65 81 183 65 81 183 65 81 183 65 81 183 65 81 183 65 81 183 65 81 183 65 81 183 65 81 183 65 81 183 65 81 183 65 81 183 65 81 183 65 81 183 65 81 183 65 81 183 65 81 183 65 81 183 65 81 183 65 81 183 65 81 183 65 81 183 65 81 183 65 81 183 65 81 183 65 81 183 65 81 183 65 81 183 65 81 183 65 81 183 65 81 183 65 81 183 65 81 183 65 81 183 65 81 183 65 81 183 65 81 183 65 81 183 
66 80 184 66 80 184 66 80 184 66 80 184 66 80 184 66 80 184 66 80 184 66 80 184 66 80 184 66 80 184 66 80 184 66 80 184 66 80 184 66 80 184 66 80 184 66 80 184 66 80 184 66 80 184 66 80 184 66 80 184 66 80 184 66 80 184 66 80 184 66 80 184 66 80 184 66 80 184 66 80 184 66 80 184 66 80 184 66 80 184 66 80 184 66 80 184 66 80 184 66 80 184 66 80 184 66 80 184 66 80 184 66 80 184 66 80 184 66 80 184 66 80 184 66 80 184 66 80 184 66 80 184 66 80 184 66 80 184 66 80 184 66 80 184 66 80 184 66 80 184 66 80 184 66 80 184 66 80 184 66 80 184 66 80 184 66 80 184 66 80 184 66 80 184 66 80 184 66 80 184 66 80 184 66 80 184 66 80 184 66 80 184 66 80 184 66 80 184 66 80 184 66 80 184 66 80 184 66 80 184 66 80 184 66 80 184 66 80 184 66 80 184 66 80 184 66 80 184 66 80 184 66 80 184 66 80 184 66 80 184 66 80 184 66 80 184 66 80 184 66 80 184 66 80 184 66 80 184 66 80 184 66 80 184 66 80 184 66 80 184 66 80 184 66 80 184 66 80 184 66 80 184 66 80 184 66 80 184 66 80 184 66 80 184 66 80 184 66 80 184 66 80 184 66 80 184 66 80 184 66 80 184 66 80 184 66 80 184 66 80 184 66 80 184 66 80 184 66 80 184 66 80 184 66 80 184 66 80 184 66 80 184 66 80 184 66 80 184 255 168 159 255 168 159 255 168 159 255 168 159 255 168 159 255 168 159 255 168 159 255 168 159 255 168 159 255 168 159 255 168 159 255 168 159 255 168 159 66 80 184 66 80 184 66 80 184 66 80 184 66 80 184 66 80 184 66 80 184 66 80 184 66 80 184 66 80 184 66 80 184 66 80 184 66 80 184 66 80 184 66 80 184 66 80 184 66 80 184 66 80 184 66 80 184 66 80 184 66 80 184 66 80 184 66 80 184 66 80 184 66 80 184 66 80 184 255 172 156 255 172 156 255 172 156 255 172 156 255 172 156 255 172 156 66 80 184 66 80 184 255 120 70 255 120 70 50 10 20 50 10 20 50 10 20 50 10 20 50 10 20 50 10 20 50 10 20 50 10 20 50 10 20 50 10 20 50 10 20 50 10 20 50 10 20 50 10 20 50 10 20 50 10 20 50 10 20 50 10 20 50 10 20 50 10 20 50 10 20 50 10 20 50 10 20 50 10 20 50 10 20 50 10 20 50 10 20 255 120 40 50 10 20 50 10 20 50 10 20 50 10 20 50 10 20 50 10 20 50 10 20 50 10 20 50 10 20 50 10 20 50 10 20 50 10 20 50 10 20 50 10 20 50 10 20 50 10 20 50 10 20 50 10 20 50 10 20 50 10 20 50 10 20 50 10 20 50 10 20 50 10 20 50 10 20 50 10 20 50 10 20 50 10 20 255 255 255 255 255 255 50 10 20 50 10 20 50 10 20 50 10 20 50 10 20 50 10 20 50 10 20 50 10 20 50 10 20 50 10 20 50 10 20 50 10 20 50 10 20 50 10 20 50 10 20 50 10 20 50 10 20 50 10 20 50 10 20 50 10 20 50 10 20 50 10 20 50 10 20 50 10 20 50 10 20 50 10 20 50 10 20 50 10 20 50 10 20 50 10 20 66 80 184 66 80 184 66 80 184 66 80 184 66 80 184 66 80 184 66 80 184 66 80 184 66 80 184 66 80 184 66 80 184 66 80 184 66 80 184 66 80 184 66 80 184 66 80 184 66 80 184 66 80 184 66 80 184 66 80 184 66 80 184 66 80 184 66 80 184 66 80 184 66 80 184 66 80 184 66 80 184 66 80 184 66 80 184 66 80 184 66 80 184 66 80 184 66 80 184 66 80 184 66 80 184 66 80 184 66 80 184 66 80 184 66 80 184 66 80 184 66 80 184 66 80 184 66 80 184 66 80 184 66 80 184 66 80 184 66 80 184 66 80 184 66 80 184 66 80 184 66 80 184 66 80 184 66 80 184 66 80 184 66 80 184 66 80 184 66 80 184 66 80 184 66 80 184 66 80 184 66 80 184 66 80 184 66 80 184 66 80 184 66 80 184 66 80 184 66 80 184 66 80 184 66 80 184 66 80 184 66 80 184 66 80 184 66 80 184 66 80 184 66 80 184 66 80 184 66 80 184 66 80 184 66 80 184 66 80 184 66 80 184 66 80 184 66 80 184 66 80 184 66 80 184 66 80 184 66 80 184 66 80 184 66 80 184 66 80 184 66 80 184 66 80 184 66 80 184 66 80 184 66 80 184 66 80 184 66 80 184 66 80 184 66 80 184 66 80 184 66 80 184 66 80 184 66 80 184 66 80 184 66 80 184 66 80 184 66 80 184 66 80 184 66 80 184 66 80 184 66 80 184 66 80 184 66 80 184 66 80 184 66 80 184 66 80 184 66 80 184 66 80 184 66 80 184 66 80 184 66 80 184 66 80 184 66 80 184 66 80 184 66 80 184 66 80 184 66 80 184 66 80 184 66 80 184 66 80 184 66 80 184 
66 80 184 66 80 184 66 80 184 66 80 184 66 80 184 66 80 184 66 80 184 66 80 184 66 80 184 66 80 184 66 80 184 66 80 184 66 80 184 66 80 184 66 80 184 66 80 184 66 80 184 66 80 184 66 80 184 66 80 184 66 80 184 66 80 184 66 80 184 66 80 184 66 80 184 66 80 184 66 80 184 66 80 184 66 80 184 66 80 184 66 80 184 66 80 184 66 80 184 66 80 184 66 80 184 66 80 184 66 80 184 66 80 184 66 80 184 66 80 184 66 80 184 66 80 184 66 80 184 66 80 184 66 80 184 66 80 184 66 80 184 66 80 184 66 80 184 66 80 184 66 80 184 66 80 184 66 80 184 66 80 184 66 80 184 66 80 184 66 80 184 66 80 184 66 80 184 66 80 184 66 80 184 66 80 184 66 80 184 66 80 184 66 80 184 66 80 184 66 80 184 66 80 184 66 80 184 66 80 184 66 80 184 66 80 184 66 80 184 66 80 184 66 80 184 66 80 184 66 80 184 66 80 184 66 80 184 66 80 184 66 80 184 66 80 184 66 80 184 66 80 184 66 80 184 66 80 184 66 80 184 66 80 184 66 80 184 66 80 184 66 80 184 66 80 184 66 80 184 66 80 184 66 80 184 66 80 184 66 80 184 66 80 184 66 80 184 66 80 184 66 80 184 66 80 184 66 80 184 66 80 184 66 80 184 66 80 184 66 80 184 66 80 184 66 80 184 66 80 184 66 80 184 66 80 184 66 80 184 255 168 159 255 168 159 255 168 159 255 168 159 255 168 159 255 168 159 255 168 159 255 168 159 255 168 159 255 168 159 255 168 159 66 80 184 66 80 184 66 80 184 66 80 184 66 80 184 66 80 184 66 80 184 66 80 184 66 80 184 66 80 184 66 80 184 66 80 184 66 80 184 66 80 184 66 80 184 66 80 184 66 80 184 66 80 184 66 80 184 66 80 184 66 80 184 66 80 184 66 80 184 66 80 184 66 80 184 66 80 184 66 80 184 66 80 184 66 80 184 255 172 156 255 172 156 255 172 156 255 172 156 255 172 156 255 172 156 66 80 184 66 80 184 66 80 184 66 80 184 255 120 70 255 120 70 50 10 20 50 10 20 50 10 20 50 10 20 50 10 20 50 10 20 50 10 20 50 10 20 50 10 20 50 10 20 50 10 20 50 10 20 50 10 20 50 10 20 50 10 20 50 10 20 50 10 20 50 10 20 50 10 20 50 10 20 50 10 20 50 10 20 50 10 20 50 10 20 50 10 20 50 10 20 50 10 20 255 120 40 50 10 20 50 10 20 50 10 20 50 10 20 50 10 20 50 10 20 50 10 20 50 10 20 50 10 20 50 10 20 50 10 20 50 10 20 50 10 20 50 10 20 50 10 20 50 10 20 50 10 20 50 10 20 50 10 20 50 10 20 50 10 20 50 10 20 50 10 20 50 10 20 50 10 20 50 10 20 50 10 20 50 10 20 50 10 20 50 10 20 255 255 255 50 10 20 50 10 20 50 10 20 50 10 20 50 10 20 50 10 20 50 10 20 50 10 20 50 10 20 50 10 20 50 10 20 50 10 20 50 10 20 50 10 20 50 10 20 50 10 20 50 10 20 50 10 20 50 10 20 50 10 20 50 10 20 50 10 20 66 80 184 66 80 184 66 80 184 66 80 184 66 80 184 66 80 184 66 80 184 66 80 184 66 80 184 66 80 184 66 80 184 66 80 184 66 80 184 66 80 184 66 80 184 66 80 184 66 80 184 66 80 184 66 80 184 66 80 184 66 80 184 66 80 184 66 80 184 66 80 184 66 80 184 66 80 184 66 80 184 66 80 184 66 80 184 66 80 184 66 80 184 66 80 184 66 80 184 66 80 184 66 80 184 66 80 184 66 80 184 66 80 184 66 80 184 66 80 184 66 80 184 66 80 184 66 80 184 66 80 184 66 80 184 66 80 184 66 80 184 66 80 184 66 80 184 66 80 184 66 80 184 66 80 184 66 80 184 66 80 184 66 80 184 66 80 184 66 80 184 66 80 184 66 80 184 66 80 184 66 80 184 66 80 184 66 80 184 66 80 184 66 80 184 66 80 184 66 80 184 66 80 184 66 80 184 66 80 184 66 80 184 66 80 184 66 80 184 66 80 184 66 80 184 66 80 184 66 80 184 66 80 184 66 80 184 66 80 184 66 80 184 66 80 184 66 80 184 66 80 184 66 80 184 66 80 184 66 80 184 66 80 184 66 80 184 66 80 184 66 80 184 66 80 184 66 80 184 66 80 184 66 80 184 66 80 184 66 80 184 66 80 184 66 80 184 66 80 184 66 80 184 66 80 184 66 80 184 66 80 184 66 80 184 66 80 184 66 80 184 66 80 184 66 80 184 66 80 184 66 80 184 66 80 184 66 80 184 66 80 184 66 80 184 66 80 184 66 80 184 66 80 184 66 80 184 66 80 184 66 80 184 66 80 184 66 80 184 66 80 184 66 80 184 66 80 184 66 80 184 66 80 184 66 80 184 66 80 184 66 80 184 66 80 184 66 80 184 66 80 184 66 80 184 66 80 184 66 80 184 66 80 184 
66 79 185 66 79 185 66 79 185 66 79 185 66 79 185 66 79 185 66 79 185 66 79 185 66 79 185 66 79 185 66 79 185 66 79 185 66 79 185 66 79 185 66 79 185 66 79 185 66 79 185 66 79 185 66 79 185 66 79 185 66 79 185 66 79 185 66 79 185 66 79 185 66 79 185 66 79 185 66 79 185 66 79 185 66 79 185 66 79 185 66 79 185 66 79 185 66 79 185 66 79 185 66 79 185 66 79 185 66 79 185 66 79 185 66 79 185 66 79 185 66 79 185 66 79 185 66 79 185 66 79 185 66 79 185 66 79 185 66 79 185 66 79 185 66 79 185 66 79 185 66 79 185 66 79 185 66 79 185 66 79 185 66 79 185 66 79 185 66 79 185 66 79 185 66 79 185 66 79 185 66 79 185 66 79 185 66 79 185 66 79 185 66 79 185 66 79 185 66 79 185 66 79 185 66 79 185 66 79 185 66 79 185 66 79 185 66 79 185 66 79 185 66 79 185 66 79 185 66 79 185 66 79 185 66 79 185 66 79 185 66 79 185 66 79 185 66 79 185 66 79 185 66 79 185 66 79 185 66 79 185 66 79 185 66 79 185 66 79 185 66 79 185 66 79 185 66 79 185 66 79 185 66 79 185 66 79 185 66 79 185 66 79 185 66 79 185 66 79 185 66 79 185 66 79 185 66 79 185 66 79 185 66 79 185 66 79 185 66 79 185 66 79 185 66 79 185 66 79 185 66 79 185 66 79 185 66 79 185 255 168 159 255 168 159 255 168 159 255 168 159 255 168 159 255 168 159 255 168 159 66 79 185 66 79 185 66 79 185 66 79 185 66 79 185 66 79 185 66 79 185 66 79 185 66 79 185 66 79 185 66 79 185 66 79 185 66 79 185 66 79 185 66 79 185 66 79 185 66 79 185 66 79 185 66 79 185 66 79 185 66 79 185 66 79 185 66 79 185 66 79 185 66 79 185 66 79 185 66 79 185 66 79 185 66 79 185 66 79 185 66 79 185 255 172 156 255 172 156 255 172 156 255 172 156 255 172 156 255 172 156 66 79 185 66 79 185 66 79 185 66 79 185 66 79 185 66 79 185 66 79 185 255 120 70 50 10 20 50 10 20 50 10 20 50 10 20 50 10 20 50 10 20 50 10 20 50 10 20 50 10 20 50 10 20 50 10 20 50 10 20 50 10 20 50 10 20 50 10 20 50 10 20 50 10 20 50 10 20 50 10 20 50 10 20 50 10 20 50 10 20 50 10 20 50 10 20 50 10 20 50 10 20 50 10 20 255 120 40 50 10 20 50 10 20 50 10 20 50 10 20 50 10 20 50 10 20 50 10 20 50 10 20 50 10 20 50 10 20 50 10 20 50 10 20 50 10 20 50 10 20 50 10 20 50 10 20 50 10 20 50 10 20 50 10 20 50 10 20 50 10 20 50 10 20 50 10 20 50 10 20 50 10 20 50 10 20 50 10 20 50 10 20 50 10 20 50 10 20 50 10 20 255 255 255 255 255 255 50 10 20 50 10 20 50 10 20 50 10 20 50 10 20 50 10 20 50 10 20 50 10 20 50 10 20 50 10 20 50 10 20 50 10 20 50 10 20 66 79 185 66 79 185 66 79 185 66 79 185 66 79 185 66 79 185 66 79 185 66 79 185 66 79 185 66 79 185 66 79 185 66 79 185 66 79 185 66 79 185 66 79 185 66 79 185 66 79 185 66 79 185 66 79 185 66 79 185 66 79 185 66 79 185 66 79 185 66 79 185 66 79 185 66 79 185 66 79 185 66 79 185 66 79 185 66 79 185 66 79 185 66 79 185 66 79 185 66 79 185 66 79 185 66 79 185 66 79 185 66 79 185 66 79 185 66 79 185 66 79 185 66 79 185 66 79 185 66 79 185 66 79 185 66 79 185 66 79 185 66 79 185 66 79 185 66 79 185 66 79 185 66 79 185 66 79 185 66 79 185 66 79 185 66 79 185 66 79 185 66 79 185 66 79 185 66 79 185 66 79 185 66 79 185 66 79 185 66 79 185 66 79 185 66 79 185 66 79 185 66 79 185 66 79 185 66 79 185 66 79 185 66 79 185 66 79 185 66 79 185 66 79 185 66 79 185 66 79 185 66 79 185 66 79 185 66 79 185 66 79 185 66 79 185 66 79 185 66 79 185 66 79 185 66 79 185 66 79 185 66 79 185 66 79 185 66 79 185 66 79 185 66 79 185 66 79 185 66 79 185 66 79 185 66 79 185 66 79 185 66 79 185 66 79 185 66 79 185 66 79 185 66 79 185 66 79 185 66 79 185 66 79 185 66 79 185 66 79 185 66 79 185 66 79 185 66 79 185 66 79 185 66 79 185 66 79 185 66 79 185 66 79 185 66 79 185 66 79 185 66 79 185 66 79 185 66 79 185 66 79 185 66 79 185 66 79 185 66 79 185 66 79 185 66 79 185 66 79 185 66 79 185 66 79 185 66 79 185 66 79 185 66 79 185 66 79 185 66 79 185 66 79 185 66 79 185 66 79 185 66 79 185 66 79 185 66 79 185 66 79 185 66 79 185 66 79 185 66 79 185 66 79 185 
67 79 186 67 79 186 67 79 186 67 79 186 67 79 186 67 79 186 67 79 186 67 79 186 67 79 186 67 79 186 67 79 186 67 79 186 67 79 186 67 79 186 67 79 186 67 79 186 67 79 186 67 79 186 67 79 186 67 79 186 67 79 186 67 79 186 67 79 186 67 79 186 67 79 186 67 79 186 67 79 186 67 79 186 67 79 186 67 79 186 67 79 186 67 79 186 67 79 186 67 79 186 67 79 186 67 79 186 67 79 186 67 79 186 67 79 186 67 79 186 67 79 186 67 79 186 67 79 186 67 79 186 67 79 186 67 79 186 67 79 186 67 79 186 67 79 186 67 79 186 67 79 186 67 79 186 67 79 186 67 79 186 67 79 186 67 79 186 67 79 186 67 79 186 67 79 186 67 79 186 67 79 186 67 79 186 67 79 186 67 79 186 67 79 186 67 79 186 67 79 186 67 79 186 67 79 186 67 79 186 67 79 186 67 79 186 67 79 186 67 79 186 67 79 186 67 79 186 67 79 186 67 79 186 67 79 186 67 79 186 67 79 186 67 79 186 67 79 186 67 79 186 67 79 186 67 79 186 67 79 186 67 79 186 67 79 186 67 79 186 67 79 186 67 79 186 67 79 186 67 79 186 67 79 186 67 79 186 67 79 186 67 79 186 67 79 186 67 79 186 67 79 186 67 79 186 67 79 186 67 79 186 67 79 186 67 79 186 67 79 186 67 79 186 67 79 186 67 79 186 67 79 186 67 79 186 67 79 186 255 168 159 255 168 159 255 168 159 67 79 186 67 79 186 67 79 186 67 79 186 67 79 186 67 79 186 67 79 186 67 79 186 67 79 186 67 79 186 67 79 186 67 79 186 67 79 186 67 79 186 67 79 186 67 79 186 67 79 186 67 79 186 67 79 186 67 79 186 67 79 186 67 79 186 67 79 186 67 79 186 67 79 186 67 79 186 67 79 186 67 79 186 67 79 186 67 79 186 67 79 186 67 79 186 255 172 156 255 172 156 255 172 156 255 172 156 255 172 156 255 172 156 255 172 156 67 79 186 67 79 186 67 79 186 67 79 186 67 79 186 67 79 186 67 79 186 67 79 186 67 79 186 67 79 186 50 10 20 50 10 20 50 10 20 50 10 20 50 10 20 50 10 20 50 10 20 50 10 20 50 10 20 50 10 20 50 10 20 50 10 20 50 10 20 50 10 20 50 10 20 50 10 20 50 10 20 50 10 20 50 10 20 50 10 20 50 10 20 50 10 20 50 10 20 50 10 20 50 10 20 50 10 20 50 10 20 255 120 40 50 10 20 50 10 20 50 10 20 50 10 20 50 10 20 50 10 20 50 10 20 50 10 20 50 10 20 50 10 20 50 10 20 50 10 20 50 10 20 50 10 20 50 10 20 50 10 20 50 10 20 50 10 20 50 10 20 50 10 20 50 10 20 50 10 20 50 10 20 50 10 20 50 10 20 50 10 20 50 10 20 50 10 20 50 10 20 50 10 20 50 10 20 50 10 20 50 10 20 255 255 255 255 255 255 50 10 20 50 10 20 50 10 20 50 10 20 255 212 126 67 79 186 67 79 186 67 79 186 67 79 186 67 79 186 67 79 186 67 79 186 67 79 186 67 79 186 67 79 186 67 79 186 67 79 186 67 79 186 67 79 186 67 79 186 67 79 186 67 79 186 67 79 186 67 79 186 67 79 186 67 79 186 67 79 186 67 79 186 67 79 186 67 79 186 67 79 186 67 79 186 67 79 186 67 79 186 67 79 186 67 79 186 67 79 186 67 79 186 67 79 186 67 79 186 67 79 186 67 79 186 67 79 186 67 79 186 67 79 186 67 79 186 67 79 186 67 79 186 67 79 186 67 79 186 67 79 186 67 79 186 67 79 186 67 79 186 67 79 186 67 79 186 67 79 186 67 79 186 67 79 186 67 79 186 67 79 186 67 79 186 67 79 186 67 79 186 67 79 186 67 79 186 67 79 186 67 79 186 67 79 186 67 79 186 67 79 186 67 79 186 67 79 186 67 79 186 67 79 186 67 79 186 67 79 186 67 79 186 67 79 186 67 79 186 67 79 186 67 79 186 67 79 186 67 79 186 67 79 186 67 79 186 67 79 186 67 79 186 67 79 186 67 79 186 67 79 186 67 79 186 67 79 186 67 79 186 67 79 186 67 79 186 67 79 186 67 79 186 67 79 186 67 79 186 67 79 186 67 79 186 67 79 186 67 79 186 67 79 186 67 79 186 67 79 186 67 79 186 67 79 186 67 79 186 67 79 186 67 79 186 67 79 186 67 79 186 67 79 186 67 79 186 67 79 186 67 79 186 67 79 186 67 79 186 67 79 186 67 79 186 67 79 186 67 79 186 67 79 186 67 79 186 67 79 186 67 79 186 67 79 186 67 79 186 67 79 186 67 79 186 67 79 186 67 79 186 67 79 186 67 79 186 67 79 186 67 79 186 67 79 186 67 79 186 67 79 186 67 79 186 67 79 186 67 79 186 67 79 186 67 79 186 67 79 186 67 79 186 67 79 186 67 79 186 67 79 186 67 79 186 67 79 186 67 79 186 67 79 186 67 79 186 
67 78 186 67 78 186 67 78 186 67 78 186 67 78 186 67 78 186 67 78 186 67 78 186 67 78 186 67 78 186 67 78 186 67 78 186 67 78 186 67 78 186 67 78 186 67 78 186 67 78 186 67 78 186 67 78 186 67 78 186 67 78 186 67 78 186 67 78 186 67 78 186 67 78 186 67 78 186 67 78 186 67 78 186 67 78 186 67 78 186 67 78 186 67 78 186 67 78 186 67 78 186 67 78 186 67 78 186 67 78 186 67 78 186 67 78 186 67 78 186 67 78 186 67 78 186 67 78 186 67 78 186 67 78 186 67 78 186 67 78 186 67 78 186 67 78 186 67 78 186 67 78 186 67 78 186 67 78 186 67 78 186 67 78 186 67 78 186 67 78 186 67 78 186 67 78 186 67 78 186 67 78 186 67 78 186 67 78 186 67 78 186 67 78 186 67 78 186 67 78 186 67 78 186 67 78 186 67 78 186 67 78 186 67 78 186 67 78 186 67 78 186 67 78 186 67 78 186 67 78 186 67 78 186 67 78 186 67 78 186 67 78 186 67 78 186 67 78 186 67 78 186 67 78 186 67 78 186 67 78 186 67 78 186 67 78 186 67 78 186 67 78 186 67 78 186 67 78 186 67 78 186 67 78 186 67 78 186 67 78 186 67 78 186 67 78 186 67 78 186 67 78 186 67 78 186 67 78 186 67 78 186 67 78 186 67 78 186 67 78 186 67 78 186 67 78 186 67 78 186 67 78 186 67 78 186 67 78 186 67 78 186 67 78 186 67 78 186 67 78 186 67 78 186 67 78 186 67 78 186 67 78 186 67 78 186 67 78 186 67 78 186 67 78 186 67 78 186 67 78 186 67 78 186 67 78 186 67 78 186 67 78 186 67 78 186 67 78 186 67 78 186 67 78 186 67 78 186 67 78 186 67 78 186 67 78 186 67 78 186 67 78 186 67 78 186 67 78 186 67 78 186 67 78 186 67 78 186 255 172 156 255 172 156 255 172 156 255 172 156 255 172 156 255 172 156 255 172 156 67 78 186 67 78 186 67 78 186 67 78 186 67 78 186 67 78 186 67 78 186 67 78 186 67 78 186 67 78 186 67 78 186 50 10 20 50 10 20 50 10 20 50 10 20 50 10 20 50 10 20 50 10 20 50 10 20 50 10 20 50 10 20 50 10 20 50 10 20 50 10 20 50 10 20 50 10 20 50 10 20 50 10 20 50 10 20 50 10 20 50 10 20 50 10 20 50 10 20 50 10 20 50 10 20 50 10 20 50 10 20 50 10 20 50 10 20 255 120 40 50 10 20 50 10 20 50 10 20 50 10 20 50 10 20 50 10 20 50 10 20 50 10 20 50 10 20 50 10 20 50 10 20 50 10 20 50 10 20 50 10 20 50 10 20 50 10 20 50 10 20 50 10 20 50 10 20 50 10 20 50 10 20 50 10 20 50 10 20 50 10 20 50 10 20 50 10 20 50 10 20 50 10 20 50 10 20 50 10 20 50 10 20 50 10 20 67 78 186 67 78 186 67 78 186 255 255 255 255 255 255 67 78 186 255 212 126 255 212 126 67 78 186 67 78 186 67 78 186 67 78 186 67 78 186 67 78 186 67 78 186 67 78 186 67 78 186 67 78 186 67 78 186 67 78 186 67 78 186 67 78 186 67 78 186 67 78 186 67 78 186 67 78 186 67 78 186 67 78 186 67 78 186 67 78 186 67 78 186 67 78 186 67 78 186 67 78 186 67 78 186 67 78 186 67 78 186 67 78 186 67 78 186 67 78 186 67 78 186 67 78 186 67 78 186 67 78 186 67 78 186 67 78 186 67 78 186 67 78 186 67 78 186 67 78 186 67 78 186 67 78 186 67 78 186 67 78 186 67 78 186 67 78 186 67 78 186 67 78 186 67 78 186 67 78 186 67 78 186 67 78 186 67 78 186 67 78 186 67 78 186 67 78 186 67 78 186 67 78 186 67 78 186 67 78 186 67 78 186 67 78 186 67 78 186 67 78 186 67 78 186 67 78 186 67 78 186 67 78 186 67 78 186 67 78 186 67 78 186 67 78 186 67 78 186 67 78 186 67 78 186 67 78 186 67 78 186 67 78 186 67 78 186 67 78 186 67 78 186 67 78 186 67 78 186 67 78 186 67 78 186 67 78 186 67 78 186 67 78 186 67 78 186 67 78 186 67 78 186 67 78 186 67 78 186 67 78 186 67 78 186 67 78 186 67 78 186 67 78 186 67 78 186 67 78 186 67 78 186 67 78 186 67 78 186 67 78 186 67 78 186 67 78 186 67 78 186 67 78 186 67 78 186 67 78 186 67 78 186 67 78 186 67 78 186 67 78 186 67 78 186 67 78 186 67 78 186 67 78 186 67 78 186 67 78 186 67 78 186 67 78 186 67 78 186 67 78 186 67 78 186 67 78 186 67 78 186 67 78 186 67 78 186 67 78 186 67 78 186 67 78 186 67 78 186 67 78 186 67 78 186 67 78 186 67 78 186 67 78 186 67 78 186 67 78 186 67 78 186 67 78 186 67 78 186 67 78 186 67 78 186 67 78 186 67 78 186 67 78 186 67 78 186 
68 78 187 68 78 187 68 78 187 68 78 187 68 78 187 68 78 187 68 78 187 68 78 187 68 78 187 68 78 187 68 78 187 68 78 187 68 78 187 68 78 187 68 78 187 68 78 187 68 78 187 68 78 187 68 78 187 68 78 187 68 78 187 68 78 187 68 78 187 68 78 187 68 78 187 68 78 187 68 78 187 68 78 187 68 78 187 68 78 187 68 78 187 68 78 187 68 78 187 68 78 187 68 78 187 68 78 187 68 78 187 68 78 187 68 78 187 68 78 187 68 78 187 68 78 187 68 78 187 68 78 187 68 78 187 68 78 187 68 78 187 68 78 187 68 78 187 68 78 187 68 78 187 68 78 187 68 78 187 68 78 187 68 78 187 68 78 187 68 78 187 68 78 187 68 78 187 68 78 187 68 78 187 68 78 187 68 78 187 68 78 187 68 78 187 68 78 187 68 78 187 68 78 187 68 78 187 68 78 187 68 78 187 68 78 187 68 78 187 68 78 187 68 78 187 68 78 187 68 78 187 68 78 187 68 78 187 68 78 187 68 78 187 68 78 187 68 78 187 68 78 187 68 78 187 68 78 187 68 78 187 68 78 187 68 78 187 68 78 187 68 78 187 68 78 187 68 78 187 68 78 187 68 78 187 68 78 187 68 78 187 68 78 187 68 78 187 68 78 187 68 78 187 68 78 187 68 78 187 68 78 187 68 78 187 68 78 187 68 78 187 68 78 187 68 78 187 68 78 187 68 78 187 68 78 187 68 78 187 68 78 187 68 78 187 68 78 187 68 78 187 68 78 187 68 78 187 68 78 187 68 78 187 68 78 187 68 78 187 68 78 187 68 78 187 68 78 187 68 78 187 68 78 187 68 78 187 68 78 187 68 78 187 68 78 187 68 78 187 68 78 187 68 78 187 68 78 187 68 78 187 68 78 187 68 78 187 68 78 187 68 78 187 68 78 187 68 78 187 68 78 187 255 172 156 255 172 156 255 172 156 255 172 156 255 172 156 255 172 156 255 172 156 68 78 187 68 78 187 68 78 187 68 78 187 68 78 187 68 78 187 68 78 187 68 78 187 68 78 187 68 78 187 68 78 187 68 78 187 68 78 187 50 10 20 50 10 20 50 10 20 50 10 20 50 10 20 50 10 20 50 10 20 50 10 20 50 10 20 50 10 20 50 10 20 50 10 20 50 10 20 50 10 20 50 10 20 50 10 20 50 10 20 50 10 20 50 10 20 50 10 20 50 10 20 50 10 20 50 10 20 50 10 20 50 10 20 50 10 20 50 10 20 50 10 20 255 120 40 50 10 20 50 10 20 50 10 20 50 10 20 50 10 20 50 10 20 50 10 20 50 10 20 50 10 20 50 10 20 50 10 20 50 10 20 50 10 20 50 10 20 50 10 20 50 10 20 50 10 20 50 10 20 50 10 20 50 10 20 50 10 20 50 10 20 50 10 20 50 10 20 50 10 20 255 208 129 255 208 129 68 78 187 68 78 187 68 78 187 68 78 187 68 78 187 68 78 187 68 78 187 68 78 187 68 78 187 68 78 187 255 255 255 255 255 255 68 78 187 68 78 187 68 78 187 68 78 187 68 78 187 68 78 187 68 78 187 68 78 187 68 78 187 68 78 187 68 78 187 68 78 187 68 78 187 68 78 187 68 78 187 68 78 187 68 78 187 68 78 187 68 78 187 68 78 187 68 78 187 68 78 187 68 78 187 68 78 187 68 78 187 68 78 187 68 78 187 68 78 187 68 78 187 68 78 187 68 78 187 68 78 187 68 78 187 68 78 187 68 78 187 68 78 187 68 78 187 68 78 187 68 78 187 68 78 187 68 78 187 68 78 187 68 78 187 68 78 187 68 78 187 68 78 187 68 78 187 68 78 187 68 78 187 68 78 187 68 78 187 68 78 187 68 78 187 68 78 187 68 78 187 68 78 187 68 78 187 68 78 187 68 78 187 68 78 187 68 78 187 68 78 187 68 78 187 68 78 187 68 78 187 68 78 187 68 78 187 68 78 187 68 78 187 68 78 187 68 78 187 68 78 187 68 78 187 68 78 187 68 78 187 68 78 187 68 78 187 68 78 187 68 78 187 68 78 187 68 78 187 68 78 187 68 78 187 68 78 187 68 78 187 68 78 187 68 78 187 68 78 187 68 78 187 68 78 187 68 78 187 68 78 187 68 78 187 68 78 187 68 78 187 68 78 187 68 78 187 68 78 187 68 78 187 68 78 187 68 78 187 68 78 187 68 78 187 68 78 187 68 78 187 68 78 187 68 78 187 68 78 187 68 78 187 68 78 187 68 78 187 68 78 187 68 78 187 68 78 187 68 78 187 68 78 187 68 78 187 68 78 187 68 78 187 68 78 187 68 78 187 68 78 187 68 78 187 68 78 187 68 78 187 68 78 187 68 78 187 68 78 187 68 78 187 68 78 187 68 78 187 68 78 187 68 78 187 68 78 187 68 78 187 68 78 187 68 78 187 68 78 187 68 78 187 68 78 187 68 78 187 68 78 187 68 78 187 68 78 187 68 78 187 68 78 187 68 78 187 68 78 187 68 78 187 68 78 187 68 78 187 68 78 187 
68 77 187 68 77 187 68 77 187 68 77 187 68 77 187 68 77 187 68 77 187 68 77 187 68 77 187 68 77 187 68 77 187 68 77 187 68 77 187 68 77 187 68 77 187 68 77 187 68 77 187 68 77 187 68 77 187 68 77 187 68 77 187 68 77 187 68 77 187 68 77 187 68 77 187 68 77 187 68 77 187 68 77 187 68 77 187 68 77 187 68 77 187 68 77 187 68 77 187 68 77 187 68 77 187 68 77 187 68 77 187 68 77 187 68 77 187 68 77 187 68 77 187 68 77 187 68 77 187 68 77 187 68 77 187 68 77 187 68 77 187 68 77 187 68 77 187 68 77 187 68 77 187 68 77 187 68 77 187 68 77 187 68 77 187 68 77 187 68 77 187 68 77 187 68 77 187 68 77 187 68 77 187 68 77 187 68 77 187 68 77 187 68 77 187 68 77 187 68 77 187 68 77 187 68 77 187 68 77 187 68 77 187 68 77 187 68 77 187 68 77 187 68 77 187 68 77 187 68 77 187 68 77 187 68 77 187 68 77 187 68 77 187 68 77 187 68 77 187 68 77 187 68 77 187 68 77 187 68 77 187 68 77 187 68 77 187 68 77 187 68 77 187 68 77 187 68 77 187 68 77 187 68 77 187 68 77 187 68 77 187 68 77 187 68 77 187 68 77 187 68 77 187 68 77 187 68 77 187 68 77 187 68 77 187 68 77 187 68 77 187 68 77 187 68 77 187 68 77 187 68 77 187 68 77 187 68 77 187 68 77 187 68 77 187 68 77 187 68 77 187 68 77 187 68 77 187 68 77 187 68 77 187 68 77 187 68 77 187 68 77 187 68 77 187 68 77 187 68 77 187 68 77 187 68 77 187 68 77 187 68 77 187 68 77 187 68 77 187 68 77 187 68 77 187 68 77 187 68 77 187 68 77 187 68 77 187 68 77 187 68 77 187 68 77 187 255 172 156 255 172 156 255 172 156 255 172 156 255 172 156 255 172 156 68 77 187 68 77 187 68 77 187 68 77 187 68 77 187 68 77 187 68 77 187 68 77 187 68 77 187 68 77 187 68 77 187 68 77 187 68 77 187 68 77 187 255 176 153 255 176 153 50 10 20 50 10 20 50 10 20 50 10 20 50 10 20 50 10 20 50 10 20 50 10 20 50 10 20 50 10 20 50 10 20 50 10 20 50 10 20 50 10 20 50 10 20 50 10 20 50 10 20 50 10 20 50 10 20 50 10 20 50 10 20 50 10 20 50 10 20 50 10 20 50 10 20 50 10 20 50 10 20 50 10 20 255 120 40 50 10 20 50 10 20 50 10 20 50 10 20 50 10 20 50 10 20 50 10 20 50 10 20 50 10 20 50 10 20 50 10 20 50 10 20 50 10 20 50 10 20 50 10 20 50 10 20 50 10 20 50 10 20 255 120 70 255 120 70 255 120 70 255 120 70 255 120 70 255 120 70 68 77 187 255 208 129 255 208 129 255 208 129 68 77 187 68 77 187 68 77 187 68 77 187 68 77 187 68 77 187 68 77 187 68 77 187 68 77 187 68 77 187 68 77 187 255 255 255 68 77 187 68 77 187 68 77 187 68 77 187 68 77 187 68 77 187 68 77 187 68 77 187 68 77 187 68 77 187 68 77 187 68 77 187 68 77 187 68 77 187 68 77 187 68 77 187 68 77 187 68 77 187 68 77 187 68 77 187 68 77 187 68 77 187 68 77 187 68 77 187 68 77 187 68 77 187 68 77 187 68 77 187 68 77 187 68 77 187 68 77 187 68 77 187 68 77 187 68 77 187 68 77 187 68 77 187 68 77 187 68 77 187 68 77 187 68 77 187 68 77 187 68 77 187 68 77 187 68 77 187 68 77 187 68 77 187 68 77 187 68 77 187 68 77 187 68 77 187 68 77 187 68 77 187 68 77 187 68 77 187 68 77 187 68 77 187 68 77 187 68 77 187 68 77 187 68 77 187 68 77 187 68 77 187 68 77 187 68 77 187 68 77 187 68 77 187 68 77 187 68 77 187 68 77 187 68 77 187 68 77 187 68 77 187 68 77 187 68 77 187 68 77 187 68 77 187 68 77 187 68 77 187 68 77 187 68 77 187 68 77 187 68 77 187 68 77 187 68 77 187 68 77 187 68 77 187 68 77 187 68 77 187 68 77 187 68 77 187 68 77 187 68 77 187 68 77 187 68 77 187 68 77 187 68 77 187 68 77 187 68 77 187 68 77 187 68 77 187 68 77 187 68 77 187 68 77 187 68 77 187 68 77 187 68 77 187 68 77 187 68 77 187 68 77 187 68 77 187 68 77 187 68 77 187 68 77 187 68 77 187 68 77 187 68 77 187 68 77 187 68 77 187 68 77 187 68 77 187 68 77 187 68 77 187 68 77 187 68 77 187 68 77 187 68 77 187 68 77 187 68 77 187 68 77 187 68 77 187 68 77 187 68 77 187 68 77 187 68 77 187 68 77 187 68 77 187 68 77 187 68 77 187 68 77 187 68 77 187 68 77 187 68 77 187 68 77 187 68 77 187 68 77 187 68 77 187 68 77 187 68 77 187 68 77 187 68 77 187 68 77 187 
68 76 188 68 76 188 68 76 188 68 76 188 68 76 188 68 76 188 68 76 188 68 76 188 68 76 188 68 76 188 68 76 188 68 76 188 68 76 188 68 76 188 68 76 188 68 76 188 68 76 188 68 76 188 68 76 188 68 76 188 68 76 188 68 76 188 68 76 188 68 76 188 68 76 188 68 76 188 68 76 188 68 76 188 68 76 188 68 76 188 68 76 188 68 76 188 68 76 188 68 76 188 68 76 188 68 76 188 68 76 188 68 76 188 68 76 188 68 76 188 68 76 188 68 76 188 68 76 188 68 76 188 68 76 188 68 76 188 68 76 188 68 76 188 68 76 188 68 76 188 68 76 188 68 76 188 68 76 188 68 76 188 68 76 188 68 76 188 68 76 188 68 76 188 68 76 188 68 76 188 68 76 188 68 76 188 68 76 188 68 76 188 68 76 188 68 76 188 68 76 188 68 76 188 68 76 188 68 76 188 68 76 188 68 76 188 68 76 188 68 76 188 68 76 188 68 76 188 68 76 188 68 76 188 68 76 188 68 76 188 68 76 188 68 76 188 68 76 188 68 76 188 68 76 188 68 76 188 68 76 188 68 76 188 68 76 188 68 76 188 68 76 188 68 76 188 68 76 188 68 76 188 68 76 188 68 76 188 68 76 188 68 76 188 68 76 188 68 76 188 68 76 188 68 76 188 68 76 188 68 76 188 68 76 188 68 76 188 68 76 188 68 76 188 68 76 188 68 76 188 68 76 188 68 76 188 68 76 188 68 76 188 68 76 188 68 76 188 68 76 188 68 76 188 68 76 188 68 76 188 68 76 188 68 76 188 68 76 188 68 76 188 68 76 188 68 76 188 68 76 188 68 76 188 68 76 188 68 76 188 68 76 188 68 76 188 68 76 188 68 76 188 68 76 188 68 76 188 68 76 188 68 76 188 68 76 188 68 76 188 255 172 156 255 172 156 255 172 156 255 172 156 255 172 156 255 172 156 68 76 188 68 76 188 68 76 188 68 76 188 68 76 188 68 76 188 68 76 188 68 76 188 68 76 188 68 76 188 68 76 188 68 76 188 68 76 188 68 76 188 68 76 188 255 176 153 255 176 153 255 176 153 50 10 20 50 10 20 50 10 20 50 10 20 50 10 20 50 10 20 50 10 20 50 10 20 50 10 20 50 10 20 50 10 20 50 10 20 50 10 20 50 10 20 50 10 20 50 10 20 50 10 20 50 10 20 50 10 20 50 10 20 50 10 20 50 10 20 50 10 20 50 10 20 50 10 20 50 10 20 50 10 20 50 10 20 255 120 40 50 10 20 50 10 20 50 10 20 50 10 20 50 10 20 50 10 20 50 10 20 50 10 20 50 10 20 50 10 20 50 10 20 255 120 70 255 120 70 255 120 70 255 120 70 255 120 70 255 120 70 255 120 70 255 120 70 255 120 70 255 120 70 255 120 70 255 120 70 68 76 188 68 76 188 68 76 188 255 208 129 255 208 129 255 208 129 255 208 129 68 76 188 68 76 188 68 76 188 68 76 188 68 76 188 68 76 188 68 76 188 68 76 188 68 76 188 68 76 188 255 255 255 255 255 255 68 76 188 68 76 188 68 76 188 68 76 188 68 76 188 68 76 188 68 76 188 68 76 188 68 76 188 68 76 188 68 76 188 68 76 188 68 76 188 68 76 188 68 76 188 68 76 188 68 76 188 68 76 188 68 76 188 68 76 188 68 76 188 68 76 188 68 76 188 68 76 188 68 76 188 68 76 188 68 76 188 68 76 188 68 76 188 68 76 188 68 76 188 68 76 188 68 76 188 68 76 188 68 76 188 68 76 188 68 76 188 68 76 188 68 76 188 68 76 188 68 76 188 68 76 188 68 76 188 68 76 188 68 76 188 68 76 188 68 76 188 68 76 188 68 76 188 68 76 188 68 76 188 68 76 188 68 76 188 68 76 188 68 76 188 68 76 188 68 76 188 68 76 188 68 76 188 68 76 188 68 76 188 68 76 188 68 76 188 68 76 188 68 76 188 68 76 188 68 76 188 68 76 188 68 76 188 68 76 188 68 76 188 68 76 188 68 76 188 68 76 188 68 76 188 68 76 188 68 76 188 68 76 188 68 76 188 68 76 188 68 76 188 68 76 188 68 76 188 68 76 188 68 76 188 68 76 188 68 76 188 68 76 188 68 76 188 68 76 188 68 76 188 68 76 188 68 76 188 68 76 188 68 76 188 68 76 188 68 76 188 68 76 188 68 76 188 68 76 188 68 76 188 68 76 188 68 76 188 68 76 188 68 76 188 68 76 188 68 76 188 68 76 188 68 76 188 68 76 188 68 76 188 68 76 188 68 76 188 68 76 188 68 76 188 68 76 188 68 76 188 68 76 188 68 76 188 68 76 188 68 76 188 68 76 188 68 76 188 68 76 188 68 76 188 68 76 188 68 76 188 68 76 188 68 76 188 68 76 188 68 76 188 68 76 188 68 76 188 68 76 188 68 76 188 68 76 188 68 76 188 68 76 188 68 76 188 68 76 188 68 76 188 68 76 188 68 76 188 68 76 188 68 76 188 68 76 188 68 76 188 68 76 188 68 76 188 
69 76 188 69 76 188 69 76 188 69 76 188 69 76 188 69 76 188 69 76 188 69 76 188 69 76 188 69 76 188 69 76 188 69 76 188 69 76 188 69 76 188 69 76 188 69 76 188 69 76 188 69 76 188 69 76 188 69 76 188 69 76 188 69 76 188 69 76 188 69 76 188 69 76 188 69 76 188 69 76 188 69 76 188 69 76 188 69 76 188 69 76 188 69 76 188 69 76 188 69 76 188 69 76 188 69 76 188 69 76 188 69 76 188 69 76 188 69 76 188 69 76 188 69 76 188 69 76 188 69 76 188 69 76 188 69 76 188 69 76 188 69 76 188 69 76 188 69 76 188 69 76 188 69 76 188 69 76 188 69 76 188 69 76 188 69 76 188 69 76 188 69 76 188 69 76 188 69 76 188 69 76 188 69 76 188 69 76 188 69 76 188 69 76 188 69 76 188 69 76 188 69 76 188 69 76 188 69 76 188 69 76 188 69 76 188 69 76 188 69 76 188 69 76 188 69 76 188 69 76 188 69 76 188 69 76 188 69 76 188 69 76 188 69 76 188 69 76 188 69 76 188 69 76 188 69 76 188 69 76 188 69 76 188 69 76 188 69 76 188 69 76 188 69 76 188 69 76 188 69 76 188 69 76 188 69 76 188 69 76 188 69 76 188 69 76 188 69 76 188 69 76 188 69 76 188 69 76 188 69 76 188 69 76 188 69 76 188 69 76 188 69 76 188 69 76 188 69 76 188 69 76 188 69 76 188 69 76 188 69 76 188 69 76 188 69 76 188 69 76 188 69 76 188 69 76 188 69 76 188 69 76 188 69 76 188 69 76 188 69 76 188 69 76 188 69 76 188 69 76 188 69 76 188 69 76 188 69 76 188 69 76 188 69 76 188 69 76 188 69 76 188 69 76 188 69 76 188 69 76 188 69 76 188 255 172 156 255 172 156 255 172 156 255 172 156 255 172 156 255 172 156 69 76 188 69 76 188 69 76 188 69 76 188 69 76 188 69 76 188 69 76 188 69 76 188 69 76 188 69 76 188 69 76 188 69 76 188 69 76 188 69 76 188 69 76 188 69 76 188 255 176 153 255 176 153 255 176 153 255 176 153 50 10 20 50 10 20 50 10 20 50 10 20 50 10 20 50 10 20 50 10 20 50 10 20 50 10 20 50 10 20 50 10 20 50 10 20 50 10 20 50 10 20 50 10 20 50 10 20 50 10 20 50 10 20 50 10 20 50 10 20 50 10 20 50 10 20 50 10 20 50 10 20 50 10 20 50 10 20 50 10 20 50 10 20 255 120 40 50 10 20 50 10 20 50 10 20 50 10 20 50 10 20 50 10 20 50 10 20 50 10 20 50 10 20 255 120 70 255 120 70 255 120 70 255 120 70 255 120 70 255 120 70 255 120 70 255 120 70 255 120 70 255 120 70 255 120 70 255 120 70 255 120 70 69 76 188 69 76 188 69 76 188 69 76 188 69 76 188 255 208 129 255 208 129 255 208 129 255 208 129 69 76 188 69 76 188 69 76 188 69 76 188 69 76 188 69 76 188 69 76 188 69 76 188 69 76 188 69 76 188 69 76 188 255 255 255 255 255 255 69 76 188 69 76 188 69 76 188 69 76 188 69 76 188 69 76 188 69 76 188 69 76 188 69 76 188 69 76 188 69 76 188 69 76 188 69 76 188 69 76 188 69 76 188 69 76 188 69 76 188 69 76 188 69 76 188 69 76 188 69 76 188 69 76 188 69 76 188 69 76 188 69 76 188 69 76 188 69 76 188 69 76 188 69 76 188 69 76 188 69 76 188 69 76 188 69 76 188 69 76 188 69 76 188 69 76 188 69 76 188 69 76 188 69 76 188 69 76 188 69 76 188 69 76 188 69 76 188 69 76 188 69 76 188 69 76 188 69 76 188 69 76 188 69 76 188 69 76 188 69 76 188 69 76 188 69 76 188 69 76 188 69 76 188 69 76 188 69 76 188 69 76 188 69 76 188 69 76 188 69 76 188 69 76 188 69 76 188 69 76 188 69 76 188 69 76 188 69 76 188 69 76 188 69 76 188 69 76 188 69 76 188 69 76 188 69 76 188 69 76 188 69 76 188 69 76 188 69 76 188 69 76 188 69 76 188 69 76 188 69 76 188 69 76 188 69 76 188 69 76 188 69 76 188 69 76 188 69 76 188 69 76 188 69 76 188 69 76 188 69 76 188 69 76 188 69 76 188 69 76 188 69 76 188 69 76 188 69 76 188 69 76 188 69 76 188 69 76 188 69 76 188 69 76 188 69 76 188 69 76 188 69 76 188 69 76 188 69 76 188 69 76 188 69 76 188 69 76 188 69 76 188 69 76 188 69 76 188 69 76 188 69 76 188 69 76 188 69 76 188 69 76 188 69 76 188 69 76 188 69 76 188 69 76 188 69 76 188 69 76 188 69 76 188 69 76 188 69 76 188 69 76 188 69 76 188 69 76 188 69 76 188 69 76 188 69 76 188 69 76 188 69 76 188 69 76 188 69 76 188 69 76 188 69 76 188 69 76 188 69 76 188 69 76 188 69 76 188 69 76 188 69 76 188 69 76 188 69 76 188 
69 75 189 69 75 189 69 75 189 69 75 189 69 75 189 69 75 189 69 75 189 69 75 189 69 75 189 69 75 189 69 75 189 69 75 189 69 75 189 69 75 189 69 75 189 69 75 189 69 75 189 69 75 189 69 75 189 69 75 189 69 75 189 69 75 189 69 75 189 69 75 189 69 75 189 69 75 189 69 75 189 69 75 189 69 75 189 69 75 189 69 75 189 69 75 189 69 75 189 69 75 189 69 75 189 69 75 189 69 75 189 69 75 189 69 75 189 69 75 189 69 75 189 69 75 189 69 75 189 69 75 189 69 75 189 69 75 189 69 75 189 69 75 189 69 75 189 69 75 189 69 75 189 69 75 189 69 75 189 69 75 189 69 75 189 69 75 189 69 75 189 69 75 189 69 75 189 69 75 189 69 75 189 69 75 189 69 75 189 69 75 189 69 75 189 69 75 189 69 75 189 69 75 189 69 75 189 69 75 189 69 75 189 69 75 189 69 75 189 69 75 189 69 75 189 69 75 189 69 75 189 69 75 189 69 75 189 69 75 189 69 75 189 69 75 189 69 75 189 69 75 189 69 75 189 69 75 189 69 75 189 69 75 189 69 75 189 69 75 189 69 75 189 69 75 189 69 75 189 69 75 189 69 75 189 69 75 189 69 75 189 69 75 189 69 75 189 69 75 189 69 75 189 69 75 189 69 75 189 69 75 189 69 75 189 69 75 189 69 75 189 69 75 189 69 75 189 69 75 189 69 75 189 69 75 189 69 75 189 69 75 189 69 75 189 69 75 189 69 75 189 69 75 189 69 75 189 69 75 189 69 75 189 69 75 189 69 75 189 69 75 189 69 75 189 69 75 189 69 75 189 69 75 189 69 75 189 69 75 189 69 75 189 69 75 189 69 75 189 69 75 189 69 75 189 255 172 156 255 172 156 255 172 156 255 172 156 255 172 156 255 172 156 255 172 156 69 75 189 69 75 189 69 75 189 69 75 189 69 75 189 69 75 189 69 75 189 69 75 189 69 75 189 69 75 189 69 75 189 69 75 189 69 75 189 69 75 189 69 75 189 69 75 189 69 75 189 255 176 153 255 176 153 255 176 153 69 75 189 69 75 189 50 10 20 50 10 20 50 10 20 50 10 20 50 10 20 50 10 20 50 10 20 50 10 20 50 10 20 50 10 20 50 10 20 50 10 20 50 10 20 50 10 20 50 10 20 50 10 20 50 10 20 50 10 20 50 10 20 50 10 20 50 10 20 50 10 20 50 10 20 50 10 20 50 10 20 50 10 20 50 10 20 50 10 20 255 120 40 50 10 20 50 10 20 50 10 20 50 10 20 50 10 20 50 10 20 50 10 20 50 10 20 255 120 70 255 120 70 255 120 70 255 120 70 255 120 70 255 120 70 255 120 70 255 120 70 255 120 70 255 120 70 255 120 70 255 120 70 255 120 70 69 75 189 69 75 189 69 75 189 69 75 189 69 75 189 69 75 189 69 75 189 255 208 129 255 208 129 255 208 129 255 208 129 69 75 189 69 75 189 69 75 189 69 75 189 69 75 189 69 75 189 69 75 189 69 75 189 69 75 189 69 75 189 69 75 189 69 75 189 255 255 255 255 255 255 69 75 189 69 75 189 69 75 189 69 75 189 69 75 189 69 75 189 69 75 189 69 75 189 69 75 189 69 75 189 69 75 189 69 75 189 69 75 189 69 75 189 69 75 189 69 75 189 69 75 189 69 75 189 69 75 189 69 75 189 69 75 189 69 75 189 69 75 189 69 75 189 69 75 189 69 75 189 69 75 189 69 75 189 69 75 189 69 75 189 69 75 189 69 75 189 69 75 189 69 75 189 69 75 189 69 75 189 69 75 189 69 75 189 69 75 189 69 75 189 69 75 189 69 75 189 69 75 189 69 75 189 69 75 189 69 75 189 69 75 189 69 75 189 69 75 189 69 75 189 69 75 189 69 75 189 69 75 189 69 75 189 69 75 189 69 75 189 69 75 189 69 75 189 69 75 189 69 75 189 69 75 189 69 75 189 69 75 189 69 75 189 69 75 189 69 75 189 69 75 189 69 75 189 69 75 189 69 75 189 69 75 189 69 75 189 69 75 189 69 75 189 69 75 189 69 75 189 69 75 189 69 75 189 69 75 189 69 75 189 69 75 189 69 75 189 69 75 189 69 75 189 69 75 189 69 75 189 69 75 189 69 75 189 69 75 189 69 75 189 69 75 189 69 75 189 69 75 189 69 75 189 69 75 189 69 75 189 69 75 189 69 75 189 69 75 189 69 75 189 69 75 189 69 75 189 69 75 189 69 75 189 69 75 189 69 75 189 69 75 189 69 75 189 69 75 189 69 75 189 69 75 189 69 75 189 69 75 189 69 75 189 69 75 189 69 75 189 69 75 189 69 75 189 69 75 189 69 75 189 69 75 189 69 75 189 69 75 189 69 75 189 69 75 189 69 75 189 69 75 189 69 75 189 69 75 189 69 75 189 69 75 189 69 75 189 69 75 189 69 75 189 69 75 189 69 75 189 69 75 189 69 75 189 69 75 189 69 75 189 69 75 189 69 75 189 69 75 189 69 75 189 69 75 189 
69 75 189 69 75 189 69 75 189 69 75 189 69 75 189 69 75 189 69 75 189 69 75 189 69 75 189 69 75 189 69 75 189 69 75 189 69 75 189 69 75 189 69 75 189 69 75 189 69 75 189 69 75 189 69 75 189 69 75 189 69 75 189 69 75 189 69 75 189 69 75 189 69 75 189 69 75 189 69 75 189 69 75 189 69 75 189 69 75 189 69 75 189 69 75 189 69 75 189 69 75 189 69 75 189 69 75 189 69 75 189 69 75 189 69 75 189 69 75 189 69 75 189 69 75 189 69 75 189 69 75 189 69 75 189 69 75 189 69 75 189 69 75 189 69 75 189 69 75 189 69 75 189 69 75 189 69 75 189 69 75 189 69 75 189 69 75 189 69 75 189 69 75 189 69 75 189 69 75 189 69 75 189 69 75 189 69 75 189 69 75 189 69 75 189 69 75 189 69 75 189 69 75 189 69 75 189 69 75 189 69 75 189 69 75 189 69 75 189 69 75 189 69 75 189 69 75 189 69 75 189 69 75 189 69 75 189 69 75 189 69 75 189 69 75 189 69 75 189 69 75 189 69 75 189 69 75 189 69 75 189 69 75 189 69 75 189 69 75 189 69 75 189 69 75 189 69 75 189 69 75 189 69 75 189 69 75 189 69 75 189 69 75 189 69 75 189 69 75 189 69 75 189 69 75 189 69 75 189 69 75 189 69 75 189 69 75 189 69 75 189 69 75 189 69 75 189 69 75 189 69 75 189 69 75 189 69 75 189 69 75 189 69 75 189 69 75 189 69 75 189 69 75 189 69 75 189 69 75 189 69 75 189 69 75 189 69 75 189 69 75 189 69 75 189 69 75 189 69 75 189 69 75 189 69 75 189 69 75 189 69 75 189 69 75 189 69 75 189 255 172 156 255 172 156 255 172 156 255 172 156 255 172 156 255 172 156 255 172 156 69 75 189 69 75 189 69 75 189 69 75 189 69 75 189 69 75 189 69 75 189 69 75 189 69 75 189 69 75 189 69 75 189 69 75 189 69 75 189 69 75 189 69 75 189 69 75 189 69 75 189 255 176 153 255 176 153 255 176 153 255 176 153 69 75 189 69 75 189 69 75 189 50 10 20 50 10 20 50 10 20 50 10 20 50 10 20 50 10 20 50 10 20 50 10 20 50 10 20 50 10 20 50 10 20 50 10 20 50 10 20 50 10 20 50 10 20 50 10 20 50 10 20 50 10 20 50 10 20 50 10 20 50 10 20 50 10 20 50 10 20 50 10 20 50 10 20 50 10 20 50 10 20 50 10 20 255 120 40 50 10 20 50 10 20 50 10 20 50 10 20 50 10 20 50 10 20 50 10 20 255 120 70 255 120 70 255 120 70 255 120 70 255 120 70 255 120 70 255 120 70 255 120 70 255 120 70 255 120 70 255 120 70 255 120 70 255 120 70 255 204 132 255 204 132 69 75 189 69 75 189 69 75 189 69 75 189 69 75 189 69 75 189 69 75 189 69 75 189 255 208 129 255 208 129 255 208 129 69 75 189 69 75 189 69 75 189 69 75 189 69 75 189 69 75 189 69 75 189 69 75 189 69 75 189 69 75 189 69 75 189 69 75 189 69 75 189 255 255 255 69 75 189 69 75 189 69 75 189 69 75 189 69 75 189 69 75 189 69 75 189 69 75 189 69 75 189 69 75 189 69 75 189 69 75 189 69 75 189 69 75 189 69 75 189 69 75 189 69 75 189 69 75 189 69 75 189 69 75 189 69 75 189 69 75 189 69 75 189 69 75 189 69 75 189 69 75 189 69 75 189 69 75 189 69 75 189 69 75 189 69 75 189 69 75 189 69 75 189 69 75 189 69 75 189 69 75 189 69 75 189 69 75 189 69 75 189 69 75 189 69 75 189 69 75 189 69 75 189 69 75 189 69 75 189 69 75 189 69 75 189 69 75 189 69 75 189 69 75 189 69 75 189 69 75 189 69 75 189 69 75 189 69 75 189 69 75 189 69 75 189 69 75 189 69 75 189 69 75 189 69 75 189 69 75 189 69 75 189 69 75 189 69 75 189 69 75 189 69 75 189 69 75 189 69 75 189 69 75 189 69 75 189 69 75 189 69 75 189 69 75 189 69 75 189 69 75 189 69 75 189 69 75 189 69 75 189 69 75 189 69 75 189 69 75 189 69 75 189 69 75 189 69 75 189 69 75 189 69 75 189 69 75 189 69 75 189 69 75 189 69 75 189 69 75 189 69 75 189 69 75 189 69 75 189 69 75 189 69 75 189 69 75 189 69 75 189 69 75 189 69 75 189 69 75 189 69 75 189 69 75 189 69 75 189 69 75 189 69 75 189 69 75 189 69 75 189 69 75 189 69 75 189 69 75 189 69 75 189 69 75 189 69 75 189 69 75 189 69 75 189 69 75 189 69 75 189 69 75 189 69 75 189 69 75 189 69 75 189 69 75 189 69 75 189 69 75 189 69 75 189 69 75 189 69 75 189 69 75 189 69 75 189 69 75 189 69 75 189 69 75 189 69 75 189 69 75 189 69 75 189 69 75 189 69 75 189 69 75 189 69 75 189 69 75 189 69 75 189 69 75 189 
70 74 190 70 74 190 70 74 190 70 74 190 70 74 190 70 74 190 70 74 190 70 74 190 70 74 190 70 74 190 70 74 190 70 74 190 70 74 190 70 74 190 70 74 190 70 74 190 70 74 190 70 74 190 70 74 190 70 74 190 70 74 190 70 74 190 70 74 190 70 74 190 70 74 190 70 74 190 70 74 190 70 74 190 70 74 190 70 74 190 70 74 190 70 74 190 70 74 190 70 74 190 70 74 190 70 74 190 70 74 190 70 74 190 70 74 190 70 74 190 70 74 190 70 74 190 70 74 190 70 74 190 70 74 190 70 74 190 70 74 190 70 74 190 70 74 190 70 74 190 70 74 190 70 74 190 70 74 190 70 74 190 70 74 190 70 74 190 70 74 190 70 74 190 70 74 190 70 74 190 70 74 190 70 74 190 70 74 190 70 74 190 70 74 190 70 74 190 70 74 190 70 74 190 70 74 190 70 74 190 70 74 190 70 74 190 70 74 190 70 74 190 70 74 190 70 74 190 70 74 190 70 74 190 70 74 190 70 74 190 70 74 190 70 74 190 70 74 190 70 74 190 70 74 190 70 74 190 70 74 190 70 74 190 70 74 190 70 74 190 70 74 190 70 74 190 70 74 190 70 74 190 70 74 190 70 74 190 70 74 190 70 74 190 70 74 190 70 74 190 70 74 190 70 74 190 70 74 190 70 74 190 70 74 190 70 74 190 70 74 190 70 74 190 70 74 190 70 74 190 70 74 190 70 74 190 70 74 190 70 74 190 70 74 190 70 74 190 70 74 190 70 74 190 70 74 190 70 74 190 70 74 190 70 74 190 70 74 190 70 74 190 70 74 190 70 74 190 70 74 190 70 74 190 70 74 190 70 74 190 70 74 190 255 172 156 255 172 156 255 172 156 255 172 156 255 172 156 255 172 156 255 172 156 70 74 190 70 74 190 70 74 190 70 74 190 70 74 190 70 74 190 70 74 190 70 74 190 70 74 190 70 74 190 70 74 190 70 74 190 70 74 190 70 74 190 70 74 190 70 74 190 70 74 190 70 74 190 255 176 153 255 176 153 255 176 153 255 176 153 70 74 190 70 74 190 70 74 190 70 74 190 50 10 20 50 10 20 50 10 20 50 10 20 50 10 20 50 10 20 50 10 20 50 10 20 50 10 20 50 10 20 50 10 20 50 10 20 50 10 20 50 10 20 50 10 20 50 10 20 50 10 20 50 10 20 50 10 20 50 10 20 50 10 20 50 10 20 50 10 20 50 10 20 50 10 20 50 10 20 50 10 20 50 10 20 255 120 40 50 10 20 50 10 20 50 10 20 50 10 20 50 10 20 50 10 20 255 120 70 255 120 70 255 120 70 255 120 70 255 120 70 255 120 70 255 120 70 255 120 70 255 120 70 255 120 70 255 120 70 255 120 70 70 74 190 70 74 190 255 204 132 255 204 132 255 204 132 70 74 190 70 74 190 70 74 190 70 74 190 70 74 190 70 74 190 70 74 190 70 74 190 255 208 129 255 208 129 255 208 129 255 208 129 70 74 190 70 74 190 70 74 190 70 74 190 70 74 190 70 74 190 70 74 190 70 74 190 70 74 190 70 74 190 70 74 190 70 74 190 255 255 255 255 255 255 70 74 190 70 74 190 70 74 190 70 74 190 70 74 190 70 74 190 70 74 190 70 74 190 70 74 190 70 74 190 70 74 190 70 74 190 70 74 190 70 74 190 70 74 190 70 74 190 70 74 190 70 74 190 70 74 190 70 74 190 70 74 190 70 74 190 70 74 190 70 74 190 70 74 190 70 74 190 70 74 190 70 74 190 70 74 190 70 74 190 70 74 190 70 74 190 70 74 190 70 74 190 70 74 190 70 74 190 70 74 190 70 74 190 70 74 190 70 74 190 70 74 190 70 74 190 70 74 190 70 74 190 70 74 190 70 74 190 70 74 190 70 74 190 70 74 190 70 74 190 70 74 190 70 74 190 70 74 190 70 74 190 70 74 190 70 74 190 70 74 190 70 74 190 70 74 190 70 74 190 70 74 190 70 74 190 70 74 190 70 74 190 70 74 190 70 74 190 70 74 190 70 74 190 70 74 190 70 74 190 70 74 190 70 74 190 70 74 190 70 74 190 70 74 190 70 74 190 70 74 190 70 74 190 70 74 190 70 74 190 70 74 190 70 74 190 70 74 190 70 74 190 70 74 190 70 74 190 70 74 190 70 74 190 70 74 190 70 74 190 70 74 190 70 74 190 70 74 190 70 74 190 70 74 190 70 74 190 70 74 190 70 74 190 70 74 190 70 74 190 70 74 190 70 74 190 70 74 190 70 74 190 70 74 190 70 74 190 70 74 190 70 74 190 70 74 190 70 74 190 70 74 190 70 74 190 70 74 190 70 74 190 70 74 190 70 74 190 70 74 190 70 74 190 70 74 190 70 74 190 70 74 190 70 74 190 70 74 190 70 74 190 70 74 190 70 74 190 70 74 190 70 74 190 70 74 190 70 74 190 70 74 190 70 74 190 70 74 190 70 74 190 70 74 190 70 74 190 70 74 190 70 74 190 70 74 190 70 74 190 70 74 190 70 74 190 
70 74 190 70 74 190 70 74 190 70 74 190 70 74 190 70 74 190 70 74 190 70 74 190 70 74 190 70 74 190 70 74 190 70 74 190 70 74 190 70 74 190 70 74 190 70 74 190 70 74 190 70 74 190 70 74 190 70 74 190 70 74 190 70 74 190 70 74 190 70 74 190 70 74 190 70 74 190 70 74 190 70 74 190 70 74 190 70 74 190 70 74 190 70 74 190 70 74 190 70 74 190 70 74 190 70 74 190 70 74 190 70 74 190 70 74 190 70 74 190 70 74 190 70 74 190 70 74 190 70 74 190 70 74 190 70 74 190 70 74 190 70 74 190 70 74 190 70 74 190 70 74 190 70 74 190 70 74 190 70 74 190 70 74 190 70 74 190 70 74 190 70 74 190 70 74 190 70 74 190 70 74 190 70 74 190 70 74 190 70 74 190 70 74 190 70 74 190 70 74 190 70 74 190 70 74 190 70 74 190 70 74 190 70 74 190 70 74 190 70 74 190 70 74 190 70 74 190 70 74 190 70 74 190 70 74 190 70 74 190 70 74 190 70 74 190 70 74 190 70 74 190 70 74 190 70 74 190 70 74 190 70 74 190 70 74 190 70 74 190 70 74 190 70 74 190 70 74 190 70 74 190 70 74 190 70 74 190 70 74 190 70 74 190 70 74 190 70 74 190 70 74 190 70 74 190 70 74 190 70 74 190 70 74 190 70 74 190 70 74 190 70 74 190 70 74 190 70 74 190 70 74 190 70 74 190 70 74 190 70 74 190 70 74 190 70 74 190 70 74 190 70 74 190 70 74 190 70 74 190 70 74 190 70 74 190 70 74 190 70 74 190 70 74 190 70 74 190 70 74 190 70 74 190 70 74 190 255 172 156 255 172 156 255 172 156 255 172 156 255 172 156 255 172 156 70 74 190 70 74 190 70 74 190 70 74 190 70 74 190 70 74 190 70 74 190 70 74 190 70 74 190 70 74 190 70 74 190 70 74 190 70 74 190 70 74 190 70 74 190 70 74 190 70 74 190 70 74 190 70 74 190 70 74 190 255 176 153 255 176 153 255 176 153 255 176 153 70 74 190 70 74 190 70 74 190 70 74 190 70 74 190 50 10 20 50 10 20 50 10 20 50 10 20 50 10 20 50 10 20 50 10 20 50 10 20 50 10 20 50 10 20 50 10 20 50 10 20 50 10 20 50 10 20 50 10 20 50 10 20 50 10 20 50 10 20 50 10 20 50 10 20 50 10 20 50 10 20 50 10 20 50 10 20 50 10 20 50 10 20 50 10 20 50 10 20 255 120 40 50 10 20 50 10 20 50 10 20 50 10 20 50 10 20 255 120 70 255 120 70 255 120 70 255 120 70 255 120 70 255 120 70 255 120 70 255 120 70 255 120 70 255 120 70 255 120 70 255 120 70 70 74 190 70 74 190 70 74 190 255 204 132 255 204 132 255 204 132 70 74 190 70 74 190 70 74 190 70 74 190 70 74 190 70 74 190 70 74 190 70 74 190 70 74 190 255 208 129 255 208 129 255 208 129 255 208 129 70 74 190 70 74 190 70 74 190 70 74 190 70 74 190 70 74 190 70 74 190 70 74 190 70 74 190 70 74 190 70 74 190 70 74 190 70 74 190 255 255 255 255 255 255 70 74 190 70 74 190 70 74 190 70 74 190 70 74 190 70 74 190 70 74 190 70 74 190 70 74 190 70 74 190 70 74 190 70 74 190 70 74 190 70 74 190 70 74 190 70 74 190 70 74 190 70 74 190 70 74 190 70 74 190 70 74 190 70 74 190 70 74 190 70 74 190 70 74 190 70 74 190 70 74 190 70 74 190 70 74 190 70 74 190 70 74 190 70 74 190 70 74 190 70 74 190 70 74 190 70 74 190 70 74 190 70 74 190 70 74 190 70 74 190 70 74 190 70 74 190 70 74 190 70 74 190 70 74 190 70 74 190 70 74 190 70 74 190 70 74 190 70 74 190 70 74 190 70 74 190 70 74 190 70 74 190 70 74 190 70 74 190 70 74 190 70 74 190 70 74 190 70 74 190 70 74 190 70 74 190 70 74 190 70 74 190 70 74 190 70 74 190 70 74 190 70 74 190 70 74 190 70 74 190 70 74 190 70 74 190 70 74 190 70 74 190 70 74 190 70 74 190 70 74 190 70 74 190 70 74 190 70 74 190 70 74 190 70 74 190 70 74 190 70 74 190 70 74 190 70 74 190 70 74 190 70 74 190 70 74 190 70 74 190 70 74 190 70 74 190 70 74 190 70 74 190 70 74 190 70 74 190 70 74 190 70 74 190 70 74 190 70 74 190 70 74 190 70 74 190 70 74 190 70 74 190 70 74 190 70 74 190 70 74 190 70 74 190 70 74 190 70 74 190 70 74 190 70 74 190 70 74 190 70 74 190 70 74 190 70 74 190 70 74 190 70 74 190 70 74 190 70 74 190 70 74 190 70 74 190 70 74 190 70 74 190 70 74 190 70 74 190 70 74 190 70 74 190 70 74 190 70 74 190 70 74 190 70 74 190 70 74 190 70 74 190 70 74 190 70 74 190 70 74 190 70 74 190 70 74 190 70 74 190 
70 73 191 70 73 191 70 73 191 70 73 191 70 73 191 70 73 191 70 73 191 70 73 191 70 73 191 70 73 191 70 73 191 70 73 191 70 73 191 70 73 191 70 73 191 70 73 191 70 73 191 70 73 191 70 73 191 70 73 191 70 73 191 70 73 191 70 73 191 70 73 191 70 73 191 70 73 191 70 73 191 70 73 191 70 73 191 70 73 191 70 73 191 70 73 191 70 73 191 70 73 191 70 73 191 70 73 191 70 73 191 70 73 191 70 73 191 70 73 191 70 73 191 70 73 191 70 73 191 70 73 191 70 73 191 70 73 191 70 73 191 70 73 191 70 73 191 70 73 191 70 73 191 70 73 191 70 73 191 70 73 191 70 73 191 70 73 191 70 73 191 70 73 191 70 73 191 70 73 191 70 73 191 70 73 191 70 73 191 70 73 191 70 73 191 70 73 191 70 73 191 70 73 191 70 73 191 70 73 191 70 73 191 70 73 191 70 73 191 70 73 191 70 73 191 70 73 191 70 73 191 70 73 191 70 73 191 70 73 191 70 73 191 70 73 191 70 73 191 70 73 191 70 73 191 70 73 191 70 73 191 70 73 191 70 73 191 70 73 191 70 73 191 70 73 191 70 73 191 70 73 191 70 73 191 70 73 191 70 73 191 70 73 191 70 73 191 70 73 191 70 73 191 70 73 191 70 73 191 70 73 191 70 73 191 70 73 191 70 73 191 70 73 191 70 73 191 70 73 191 70 73 191 70 73 191 70 73 191 70 73 191 70 73 191 70 73 191 70 73 191 70 73 191 70 73 191 70 73 191 70 73 191 70 73 191 70 73 191 70 73 191 70 73 191 70 73 191 70 73 191 255 172 156 255 172 156 255 172 156 255 172 156 255 172 156 255 172 156 70 73 191 70 73 191 70 73 191 70 73 191 70 73 191 70 73 191 70 73 191 70 73 191 70 73 191 70 73 191 70 73 191 70 73 191 70 73 191 70 73 191 70 73 191 70 73 191 70 73 191 70 73 191 70 73 191 70 73 191 255 176 153 255 176 153 255 176 153 255 176 153 70 73 191 70 73 191 70 73 191 70 73 191 70 73 191 70 73 191 70 73 191 50 10 20 50 10 20 50 10 20 50 10 20 50 10 20 50 10 20 50 10 20 50 10 20 50 10 20 50 10 20 50 10 20 50 10 20 50 10 20 50 10 20 50 10 20 50 10 20 50 10 20 50 10 20 50 10 20 50 10 20 50 10 20 50 10 20 50 10 20 50 10 20 50 10 20 50 10 20 50 10 20 50 10 20 255 120 40 50 10 20 50 10 20 50 10 20 50 10 20 255 120 70 255 120 70 255 120 70 255 120 70 255 120 70 255 120 70 255 120 70 255 120 70 255 120 70 255 120 70 255 120 70 70 73 191 70 73 191 70 73 191 70 73 191 70 73 191 70 73 191 255 204 132 255 204 132 255 204 132 70 73 191 70 73 191 70 73 191 70 73 191 70 73 191 70 73 191 70 73 191 70 73 191 70 73 191 255 208 129 255 208 129 255 208 129 255 208 129 70 73 191 70 73 191 70 73 191 70 73 191 70 73 191 70 73 191 70 73 191 70 73 191 70 73 191 70 73 191 70 73 191 70 73 191 70 73 191 70 73 191 255 255 255 255 255 255 70 73 191 70 73 191 70 73 191 70 73 191 70 73 191 70 73 191 70 73 191 70 73 191 70 73 191 70 73 191 70 73 191 70 73 191 70 73 191 70 73 191 70 73 191 70 73 191 70 73 191 70 73 191 70 73 191 70 73 191 70 73 191 70 73 191 70 73 191 70 73 191 70 73 191 70 73 191 70 73 191 70 73 191 70 73 191 70 73 191 70 73 191 70 73 191 70 73 191 70 73 191 70 73 191 70 73 191 70 73 191 70 73 191 70 73 191 70 73 191 70 73 191 70 73 191 70 73 191 70 73 191 70 73 191 70 73 191 70 73 191 70 73 191 70 73 191 70 73 191 70 73 191 70 73 191 70 73 191 70 73 191 70 73 191 70 73 191 70 73 191 70 73 191 70 73 191 70 73 191 70 73 191 70 73 191 70 73 191 70 73 191 70 73 191 70 73 191 70 73 191 70 73 191 70 73 191 70 73 191 70 73 191 70 73 191 70 73 191 70 73 191 70 73 191 70 73 191 70 73 191 70 73 191 70 73 191 70 73 191 70 73 191 70 73 191 70 73 191 70 73 191 70 73 191 70 73 191 70 73 191 70 73 191 70 73 191 70 73 191 70 73 191 70 73 191 70 73 191 70 73 191 70 73 191 70 73 191 70 73 191 70 73 191 70 73 191 70 73 191 70 73 191 70 73 191 70 73 191 70 73 191 70 73 191 70 73 191 70 73 191 70 73 191 70 73 191 70 73 191 70 73 191 70 73 191 70 73 191 70 73 191 70 73 191 70 73 191 70 73 191 70 73 191 70 73 191 70 73 191 70 73 191 70 73 191 70 73 191 70 73 191 70 73 191 70 73 191 70 73 191 70 73 191 70 73 191 70 73 191 70 73 191 70 73 191 70 73 191 70 73 191 70 73 191 70 73 191 70 73 191 70 73 191 
71 72 191 71 72 191 71 72 191 71 72 191 71 72 191 71 72 191 71 72 191 71 72 191 71 72 191 71 72 191 71 72 191 71 72 191 71 72 191 71 72 191 71 72 191 71 72 191 71 72 191 71 72 191 71 72 191 71 72 191 71 72 191 71 72 191 71 72 191 71 72 191 71 72 191 71 72 191 71 72 191 71 72 191 71 72 191 71 72 191 71 72 191 71 72 191 71 72 191 71 72 191 71 72 191 71 72 191 71 72 191 71 72 191 71 72 191 71 72 191 71 72 191 71 72 191 71 72 191 71 72 191 71 72 191 71 72 191 71 72 191 71 72 191 71 72 191 71 72 191 71 72 191 71 72 191 71 72 191 71 72 191 71 72 191 71 72 191 71 72 191 71 72 191 71 72 191 71 72 191 71 72 191 71 72 191 71 72 191 71 72 191 71 72 191 71 72 191 71 72 191 71 72 191 71 72 191 71 72 191 71 72 191 71 72 191 71 72 191 71 72 191 71 72 191 71 72 191 71 72 191 71 72 191 71 72 191 71 72 191 71 72 191 71 72 191 71 72 191 71 72 191 71 72 191 71 72 191 71 72 191 71 72 191 71 72 191 71 72 191 71 72 191 71 72 191 71 72 191 71 72 191 71 72 191 71 72 191 71 72 191 71 72 191 71 72 191 71 72 191 71 72 191 71 72 191 71 72 191 71 72 191 71 72 191 71 72 191 71 72 191 71 72 191 71 72 191 71 72 191 71 72 191 71 72 191 71 72 191 71 72 191 71 72 191 71 72 191 71 72 191 71 72 191 71 72 191 71 72 191 71 72 191 71 72 191 71 72 191 71 72 191 71 72 191 255 172 156 255 172 156 255 172 156 255 172 156 255 172 156 255 172 156 71 72 191 71 72 191 71 72 191 71 72 191 71 72 191 71 72 191 71 72 191 71 72 191 71 72 191 71 72 191 71 72 191 71 72 191 71 72 191 71 72 191 71 72 191 71 72 191 71 72 191 71 72 191 71 72 191 71 72 191 71 72 191 255 176 153 255 176 153 255 176 153 255 176 153 71 72 191 71 72 191 71 72 191 71 72 191 71 72 191 71 72 191 71 72 191 71 72 191 50 10 20 50 10 20 50 10 20 50 10 20 50 10 20 50 10 20 50 10 20 50 10 20 50 10 20 50 10 20 50 10 20 50 10 20 50 10 20 50 10 20 50 10 20 50 10 20 50 10 20 50 10 20 50 10 20 50 10 20 50 10 20 50 10 20 50 10 20 50 10 20 50 10 20 50 10 20 50 10 20 50 10 20 255 120 40 50 10 20 50 10 20 50 10 20 255 120 70 255 120 70 255 120 70 255 120 70 255 120 70 255 120 70 255 120 70 255 120 70 255 120 70 255 120 70 255 120 70 255 200 135 71 72 191 71 72 191 71 72 191 71 72 191 71 72 191 71 72 191 71 72 191 255 204 132 255 204 132 255 204 132 71 72 191 71 72 191 71 72 191 71 72 191 71 72 191 71 72 191 71 72 191 71 72 191 71 72 191 71 72 191 255 208 129 255 208 129 71 72 191 71 72 191 71 72 191 71 72 191 71 72 191 71 72 191 71 72 191 71 72 191 71 72 191 71 72 191 71 72 191 71 72 191 71 72 191 71 72 191 71 72 191 71 72 191 255 255 255 255 255 255 71 72 191 71 72 191 71 72 191 71 72 191 71 72 191 71 72 191 71 72 191 71 72 191 71 72 191 71 72 191 71 72 191 71 72 191 71 72 191 71 72 191 71 72 191 71 72 191 71 72 191 71 72 191 71 72 191 71 72 191 71 72 191 71 72 191 71 72 191 71 72 191 71 72 191 71 72 191 71 72 191 71 72 191 71 72 191 71 72 191 71 72 191 71 72 191 71 72 191 71 72 191 71 72 191 71 72 191 71 72 191 71 72 191 71 72 191 71 72 191 71 72 191 71 72 191 71 72 191 71 72 191 71 72 191 71 72 191 71 72 191 71 72 191 71 72 191 71 72 191 71 72 191 71 72 191 71 72 191 71 72 191 71 72 191 71 72 191 71 72 191 71 72 191 71 72 191 71 72 191 71 72 191 71 72 191 71 72 191 71 72 191 71 72 191 71 72 191 71 72 191 71 72 191 71 72 191 71 72 191 71 72 191 71 72 191 71 72 191 71 72 191 71 72 191 71 72 191 71 72 191 71 72 191 71 72 191 71 72 191 71 72 191 71 72 191 71 72 191 71 72 191 71 72 191 71 72 191 71 72 191 71 72 191 71 72 191 71 72 191 71 72 191 71 72 191 71 72 191 71 72 191 71 72 191 71 72 191 71 72 191 71 72 191 71 72 191 71 72 191 71 72 191 71 72 191 71 72 191 71 72 191 71 72 191 71 72 191 71 72 191 71 72 191 71 72 191 71 72 191 71 72 191 71 72 191 71 72 191 71 72 191 71 72 191 71 72 191 71 72 191 71 72 191 71 72 191 71 72 191 71 72 191 71 72 191 71 72 191 71 72 191 71 72 191 71 72 191 71 72 191 71 72 191 71 72 191 71 72 191 71 72 191 71 72 191 71 72 191 71 72 191 71 72 191 71 72 191 
71 72 191 71 72 191 71 72 191 71 72 191 71 72 191 71 72 191 71 72 191 71 72 191 71 72 191 71 72 191 71 72 191 71 72 191 71 72 191 71 72 191 71 72 191 71 72 191 71 72 191 71 72 191 71 72 191 71 72 191 71 72 191 71 72 191 71 72 191 71 72 191 71 72 191 71 72 191 71 72 191 71 72 191 71 72 191 71 72 191 71 72 191 71 72 191 71 72 191 71 72 191 71 72 191 71 72 191 71 72 191 71 72 191 71 72 191 71 72 191 71 72 191 71 72 191 71 72 191 71 72 191 71 72 191 71 72 191 71 72 191 71 72 191 71 72 191 71 72 191 71 72 191 71 72 191 71 72 191 71 72 191 71 72 191 71 72 191 71 72 191 71 72 191 71 72 191 71 72 191 71 72 191 71 72 191 71 72 191 71 72 191 71 72 191 71 72 191 71 72 191 71 72 191 71 72 191 71 72 191 71 72 191 71 72 191 71 72 191 71 72 191 71 72 191 71 72 191 71 72 191 71 72 191 71 72 191 71 72 191 71 72 191 71 72 191 71 72 191 71 72 191 71 72 191 71 72 191 71 72 191 71 72 191 71 72 191 71 72 191 71 72 191 71 72 191 71 72 191 71 72 191 71 72 191 71 72 191 71 72 191 71 72 191 71 72 191 71 72 191 71 72 191 71 72 191 71 72 191 71 72 191 71 72 191 71 72 191 71 72 191 71 72 191 71 72 191 71 72 191 71 72 191 71 72 191 71 72 191 71 72 191 71 72 191 71 72 191 71 72 191 71 72 191 71 72 191 71 72 191 71 72 191 71 72 191 71 72 191 255 172 156 255 172 156 255 172 156 255 172 156 255 172 156 255 172 156 71 72 191 71 72 191 71 72 191 71 72 191 71 72 191 71 72 191 71 72 191 71 72 191 71 72 191 71 72 191 71 72 191 71 72 191 71 72 191 71 72 191 71 72 191 71 72 191 71 72 191 71 72 191 71 72 191 71 72 191 71 72 191 71 72 191 255 176 153 255 176 153 255 176 153 255 176 153 71 72 191 71 72 191 71 72 191 71 72 191 71 72 191 71 72 191 71 72 191 71 72 191 71 72 191 50 10 20 50 10 20 50 10 20 50 10 20 50 10 20 50 10 20 50 10 20 50 10 20 50 10 20 50 10 20 50 10 20 50 10 20 50 10 20 50 10 20 50 10 20 50 10 20 50 10 20 50 10 20 50 10 20 50 10 20 50 10 20 50 10 20 50 10 20 50 10 20 50 10 20 50 10 20 50 10 20 50 10 20 255 120 40 50 10 20 50 10 20 255 120 70 255 120 70 255 120 70 255 120 70 255 120 70 255 120 70 255 120 70 255 120 70 255 120 70 71 72 191 71 72 191 255 200 135 255 200 135 255 200 135 71 72 191 71 72 191 71 72 191 71 72 191 71 72 191 71 72 191 71 72 191 255 204 132 255 204 132 255 204 132 71 72 191 71 72 191 71 72 191 71 72 191 71 72 191 71 72 191 71 72 191 71 72 191 71 72 191 71 72 191 255 208 129 71 72 191 71 72 191 71 72 191 71 72 191 71 72 191 71 72 191 71 72 191 71 72 191 71 72 191 71 72 191 71 72 191 71 72 191 71 72 191 71 72 191 71 72 191 71 72 191 71 72 191 71 72 191 255 255 255 71 72 191 71 72 191 71 72 191 71 72 191 71 72 191 71 72 191 71 72 191 71 72 191 71 72 191 71 72 191 71 72 191 71 72 191 71 72 191 71 72 191 71 72 191 71 72 191 71 72 191 71 72 191 71 72 191 71 72 191 71 72 191 71 72 191 71 72 191 71 72 191 71 72 191 71 72 191 71 72 191 71 72 191 71 72 191 71 72 191 71 72 191 71 72 191 71 72 191 71 72 191 71 72 191 71 72 191 71 72 191 71 72 191 71 72 191 71 72 191 71 72 191 71 72 191 71 72 191 71 72 191 71 72 191 71 72 191 71 72 191 71 72 191 71 72 191 71 72 191 71 72 191 71 72 191 71 72 191 71 72 191 71 72 191 71 72 191 71 72 191 71 72 191 71 72 191 71 72 191 71 72 191 71 72 191 71 72 191 71 72 191 71 72 191 71 72 191 71 72 191 71 72 191 71 72 191 71 72 191 71 72 191 71 72 191 71 72 191 71 72 191 71 72 191 71 72 191 71 72 191 71 72 191 71 72 191 71 72 191 71 72 191 71 72 191 71 72 191 71 72 191 71 72 191 71 72 191 71 72 191 71 72 191 71 72 191 71 72 191 71 72 191 71 72 191 71 72 191 71 72 191 71 72 191 71 72 191 71 72 191 71 72 191 71 72 191 71 72 191 71 72 191 71 72 191 71 72 191 71 72 191 71 72 191 71 72 191 71 72 191 71 72 191 71 72 191 71 72 191 71 72 191 71 72 191 71 72 191 71 72 191 71 72 191 71 72 191 71 72 191 71 72 191 71 72 191 71 72 191 71 72 191 71 72 191 71 72 191 71 72 191 71 72 191 71 72 191 71 72 191 71 72 191 71 72 191 71 72 191 71 72 191 71 72 191 71 72 191 71 72 191 71 72 191 
72 71 192 72 71 192 72 71 192 72 71 192 72 71 192 72 71 192 72 71 192 72 71 192 72 71 192 72 71 192 72 71 192 72 71 192 72 71 192 72 71 192 72 71 192 72 71 192 72 71 192 72 71 192 72 71 192 72 71 192 72 71 192 72 71 192 72 71 192 72 71 192 72 71 192 72 71 192 72 71 192 72 71 192 72 71 192 72 71 192 72 71 192 72 71 192 72 71 192 72 71 192 72 71 192 72 71 192 72 71 192 72 71 192 72 71 192 72 71 192 72 71 192 72 71 192 72 71 192 72 71 192 72 71 192 72 71 192 72 71 192 72 71 192 72 71 192 72 71 192 72 71 192 72 71 192 72 71 192 72 71 192 72 71 192 72 71 192 72 71 192 72 71 192 72 71 192 72 71 192 72 71 192 72 71 192 72 71 192 72 71 192 72 71 192 72 71 192 72 71 192 72 71 192 72 71 192 72 71 192 72 71 192 72 71 192 72 71 192 72 71 192 72 71 192 72 71 192 72 71 192 72 71 192 72 71 192 72 71 192 72 71 192 72 71 192 72 71 192 72 71 192 72 71 192 72 71 192 72 71 192 72 71 192 72 71 192 72 71 192 72 71 192 72 71 192 72 71 192 72 71 192 72 71 192 72 71 192 72 71 192 72 71 192 72 71 192 72 71 192 72 71 192 72 71 192 72 71 192 72 71 192 72 71 192 72 71 192 72 71 192 72 71 192 72 71 192 72 71 192 72 71 192 72 71 192 72 71 192 72 71 192 72 71 192 72 71 192 72 71 192 72 71 192 72 71 192 72 71 192 72 71 192 255 172 156 255 172 156 255 172 156 255 172 156 255 172 156 255 172 156 72 71 192 72 71 192 72 71 192 72 71 192 72 71 192 72 71 192 72 71 192 72 71 192 72 71 192 72 71 192 72 71 192 72 71 192 72 71 192 72 71 192 72 71 192 72 71 192 72 71 192 72 71 192 72 71 192 72 71 192 72 71 192 72 71 192 72 71 192 255 176 153 255 176 153 255 176 153 72 71 192 72 71 192 72 71 192 72 71 192 72 71 192 72 71 192 72 71 192 72 71 192 72 71 192 72 71 192 72 71 192 50 10 20 50 10 20 50 10 20 50 10 20 50 10 20 50 10 20 50 10 20 50 10 20 50 10 20 50 10 20 50 10 20 50 10 20 50 10 20 50 10 20 50 10 20 50 10 20 50 10 20 50 10 20 50 10 20 50 10 20 50 10 20 50 10 20 50 10 20 50 10 20 50 10 20 50 10 20 50 10 20 50 10 20 255 120 40 50 10 20 255 120 70 255 120 70 255 120 70 255 120 70 255 120 70 255 120 70 255 120 70 72 71 192 72 71 192 72 71 192 72 71 192 72 71 192 255 200 135 255 200 135 255 200 135 72 71 192 72 71 192 72 71 192 72 71 192 72 71 192 72 71 192 72 71 192 72 71 192 255 204 132 255 204 132 255 204 132 72 71 192 72 71 192 72 71 192 72 71 192 72 71 192 72 71 192 72 71 192 72 71 192 72 71 192 72 71 192 72 71 192 72 71 192 72 71 192 72 71 192 72 71 192 72 71 192 72 71 192 72 71 192 72 71 192 72 71 192 72 71 192 72 71 192 72 71 192 72 71 192 72 71 192 72 71 192 72 71 192 72 71 192 72 71 192 255 255 255 255 255 255 72 71 192 72 71 192 72 71 192 72 71 192 72 71 192 72 71 192 72 71 192 72 71 192 72 71 192 72 71 192 72 71 192 72 71 192 72 71 192 72 71 192 72 71 192 72 71 192 72 71 192 72 71 192 72 71 192 72 71 192 72 71 192 72 71 192 72 71 192 72 71 192 72 71 192 72 71 192 72 71 192 72 71 192 72 71 192 72 71 192 72 71 192 72 71 192 72 71 192 72 71 192 72 71 192 72 71 192 72 71 192 72 71 192 72 71 192 72 71 192 72 71 192 72 71 192 72 71 192 72 71 192 72 71 192 72 71 192 72 71 192 72 71 192 72 71 192 72 71 192 72 71 192 72 71 192 72 71 192 72 71 192 72 71 192 72 71 192 72 71 192 72 71 192 72 71 192 72 71 192 72 71 192 72 71 192 72 71 192 72 71 192 72 71 192 72 71 192 72 71 192 72 71 192 72 71 192 72 71 192 72 71 192 72 71 192 72 71 192 72 71 192 72 71 192 72 71 192 72 71 192 72 71 192 72 71 192 72 71 192 72 71 192 72 71 192 72 71 192 72 71 192 72 71 192 72 71 192 72 71 192 72 71 192 72 71 192 72 71 192 72 71 192 72 71 192 72 71 192 72 71 192 72 71 192 72 71 192 72 71 192 72 71 192 72 71 192 72 71 192 72 71 192 72 71 192 72 71 192 72 71 192 72 71 192 72 71 192 72 71 192 72 71 192 72 71 192 72 71 192 72 71 192 72 71 192 72 71 192 72 71 192 72 71 192 72 71 192 72 71 192 72 71 192 72 71 192 72 71 192 72 71 192 72 71 192 72 71 192 72 71 192 72 71 192 72 71 192 72 71 192 72 71 192 72 71 192 72 71 192 72 71 192 72 71 192 72 71 192 
72 71 192 72 71 192 72 71 192 72 71 192 72 71 192 72 71 192 72 71 192 72 71 192 72 71 192 72 71 192 72 71 192 72 71 192 72 71 192 72 71 192 72 71 192 72 71 192 72 71 192 72 71 192 72 71 192 72 71 192 72 71 192 72 71 192 72 71 192 72 71 192 72 71 192 72 71 192 72 71 192 72 71 192 72 71 192 72 71 192 72 71 192 72 71 192 72 71 192 72 71 192 72 71 192 72 71 192 72 71 192 72 71 192 72 71 192 72 71 192 72 71 192 72 71 192 72 71 192 72 71 192 72 71 192 72 71 192 72 71 192 72 71 192 72 71 192 72 71 192 72 71 192 72 71 192 72 71 192 72 71 192 72 71 192 72 71 192 72 71 192 72 71 192 72 71 192 72 71 192 72 71 192 72 71 192 72 71 192 72 71 192 72 71 192 72 71 192 72 71 192 72 71 192 72 71 192 72 71 192 72 71 192 72 71 192 72 71 192 72 71 192 72 71 192 72 71 192 72 71 192 72 71 192 72 71 192 72 71 192 72 71 192 72 71 192 72 71 192 72 71 192 72 71 192 72 71 192 72 71 192 72 71 192 72 71 192 72 71 192 72 71 192 72 71 192 72 71 192 72 71 192 72 71 192 72 71 192 72 71 192 72 71 192 72 71 192 72 71 192 72 71 192 72 71 192 72 71 192 72 71 192 72 71 192 72 71 192 72 71 192 72 71 192 72 71 192 72 71 192 72 71 192 72 71 192 72 71 192 72 71 192 72 71 192 72 71 192 72 71 192 72 71 192 72 71 192 72 71 192 72 71 192 255 172 156 255 172 156 255 172 156 255 172 156 72 71 192 72 71 192 72 71 192 72 71 192 72 71 192 72 71 192 72 71 192 72 71 192 72 71 192 72 71 192 72 71 192 72 71 192 72 71 192 72 71 192 72 71 192 72 71 192 72 71 192 72 71 192 72 71 192 72 71 192 72 71 192 72 71 192 72 71 192 255 176 153 255 176 153 255 176 153 255 176 153 72 71 192 72 71 192 72 71 192 72 71 192 72 71 192 72 71 192 72 71 192 72 71 192 72 71 192 72 71 192 72 71 192 72 71 192 50 10 20 50 10 20 50 10 20 50 10 20 50 10 20 50 10 20 50 10 20 50 10 20 50 10 20 50 10 20 50 10 20 50 10 20 50 10 20 50 10 20 50 10 20 50 10 20 50 10 20 50 10 20 50 10 20 50 10 20 50 10 20 50 10 20 50 10 20 50 10 20 50 10 20 50 10 20 50 10 20 50 10 20 255 120 40 255 120 70 255 120 70 255 120 70 255 120 70 72 71 192 255 196 138 255 196 138 255 196 138 72 71 192 72 71 192 72 71 192 72 71 192 72 71 192 255 200 135 255 200 135 255 200 135 72 71 192 72 71 192 72 71 192 72 71 192 72 71 192 72 71 192 72 71 192 72 71 192 255 204 132 255 204 132 255 204 132 72 71 192 72 71 192 72 71 192 72 71 192 72 71 192 72 71 192 72 71 192 72 71 192 72 71 192 72 71 192 72 71 192 72 71 192 72 71 192 72 71 192 72 71 192 72 71 192 72 71 192 72 71 192 72 71 192 72 71 192 72 71 192 72 71 192 72 71 192 72 71 192 72 71 192 72 71 192 72 71 192 72 71 192 72 71 192 72 71 192 72 71 192 255 255 255 255 255 255 72 71 192 72 71 192 72 71 192 72 71 192 72 71 192 72 71 192 72 71 192 72 71 192 72 71 192 72 71 192 72 71 192 72 71 192 72 71 192 72 71 192 72 71 192 72 71 192 72 71 192 72 71 192 72 71 192 72 71 192 72 71 192 72 71 192 72 71 192 72 71 192 72 71 192 72 71 192 72 71 192 72 71 192 72 71 192 72 71 192 72 71 192 72 71 192 72 71 192 72 71 192 72 71 192 72 71 192 72 71 192 72 71 192 72 71 192 72 71 192 72 71 192 72 71 192 72 71 192 72 71 192 72 71 192 72 71 192 72 71 192 72 71 192 72 71 192 72 71 192 72 71 192 72 71 192 72 71 192 72 71 192 72 71 192 72 71 192 72 71 192 72 71 192 72 71 192 72 71 192 72 71 192 72 71 192 72 71 192 72 71 192 72 71 192 72 71 192 72 71 192 72 71 192 72 71 192 72 71 192 72 71 192 72 71 192 72 71 192 72 71 192 72 71 192 72 71 192 72 71 192 72 71 192 72 71 192 72 71 192 72 71 192 72 71 192 72 71 192 72 71 192 72 71 192 72 71 192 72 71 192 72 71 192 72 71 192 72 71 192 72 71 192 72 71 192 72 71 192 72 71 192 72 71 192 72 71 192 72 71 192 72 71 192 72 71 192 72 71 192 72 71 192 72 71 192 72 71 192 72 71 192 72 71 192 72 71 192 72 71 192 72 71 192 72 71 192 72 71 192 72 71 192 72 71 192 72 71 192 72 71 192 72 71 192 72 71 192 72 71 192 72 71 192 72 71 192 72 71 192 72 71 192 72 71 192 72 71 192 72 71 192 72 71 192 72 71 192 72 71 192 72 71 192 72 71 192 72 71 192 72 71 192 
72 70 193 72 70 193 72 70 193 72 70 193 72 70 193 72 70 193 72 70 193 72 70 193 72 70 193 72 70 193 72 70 193 72 70 193 72 70 193 72 70 193 72 70 193 72 70 193 72 70 193 72 70 193 72 70 193 72 70 193 72 70 193 72 70 193 72 70 193 72 70 193 72 70 193 72 70 193 72 70 193 72 70 193 72 70 193 72 70 193 72 70 193 72 70 193 72 70 193 72 70 193 72 70 193 72 70 193 72 70 193 72 70 193 72 70 193 72 70 193 72 70 193 72 70 193 72 70 193 72 70 193 72 70 193 72 70 193 72 70 193 72 70 193 72 70 193 72 70 193 72 70 193 72 70 193 72 70 193 72 70 193 72 70 193 72 70 193 72 70 193 72 70 193 72 70 193 72 70 193 72 70 193 72 70 193 72 70 193 72 70 193 72 70 193 72 70 193 72 70 193 72 70 193 72 70 193 72 70 193 72 70 193 72 70 193 72 70 193 72 70 193 72 70 193 72 70 193 72 70 193 72 70 193 72 70 193 72 70 193 72 70 193 72 70 193 72 70 193 72 70 193 72 70 193 72 70 193 72 70 193 72 70 193 72 70 193 72 70 193 72 70 193 72 70 193 72 70 193 72 70 193 72 70 193 72 70 193 72 70 193 72 70 193 72 70 193 72 70 193 72 70 193 72 70 193 72 70 193 72 70 193 72 70 193 72 70 193 72 70 193 72 70 193 72 70 193 72 70 193 72 70 193 72 70 193 72 70 193 72 70 193 72 70 193 72 70 193 72 70 193 72 70 193 72 70 193 72 70 193 72 70 193 255 172 156 255 172 156 72 70 193 72 70 193 72 70 193 72 70 193 72 70 193 72 70 193 72 70 193 72 70 193 72 70 193 72 70 193 72 70 193 72 70 193 72 70 193 72 70 193 72 70 193 72 70 193 72 70 193 72 70 193 72 70 193 72 70 193 72 70 193 72 70 193 72 70 193 72 70 193 255 176 153 255 176 153 255 176 153 255 176 153 72 70 193 72 70 193 72 70 193 72 70 193 72 70 193 72 70 193 72 70 193 72 70 193 72 70 193 72 70 193 72 70 193 72 70 193 50 10 20 50 10 20 50 10 20 50 10 20 50 10 20 50 10 20 50 10 20 50 10 20 50 10 20 50 10 20 50 10 20 50 10 20 50 10 20 50 10 20 50 10 20 50 10 20 50 10 20 50 10 20 50 10 20 50 10 20 50 10 20 50 10 20 50 10 20 50 10 20 50 10 20 50 10 20 50 10 20 50 10 20 50 10 20 255 120 40 255 192 141 72 70 193 72 70 193 72 70 193 72 70 193 255 196 138 255 196 138 255 196 138 72 70 193 72 70 193 72 70 193 72 70 193 72 70 193 72 70 193 255 200 135 255 200 135 255 200 135 72 70 193 72 70 193 72 70 193 72 70 193 72 70 193 72 70 193 72 70 193 72 70 193 255 204 132 255 204 132 255 204 132 72 70 193 72 70 193 72 70 193 72 70 193 72 70 193 72 70 193 72 70 193 72 70 193 72 70 193 72 70 193 72 70 193 72 70 193 72 70 193 72 70 193 72 70 193 72 70 193 72 70 193 72 70 193 72 70 193 72 70 193 72 70 193 72 70 193 72 70 193 72 70 193 72 70 193 72 70 193 72 70 193 72 70 193 72 70 193 72 70 193 72 70 193 72 70 193 255 255 255 255 255 255 72 70 193 72 70 193 72 70 193 72 70 193 72 70 193 72 70 193 72 70 193 72 70 193 72 70 193 72 70 193 72 70 193 72 70 193 72 70 193 72 70 193 72 70 193 72 70 193 72 70 193 72 70 193 72 70 193 72 70 193 72 70 193 72 70 193 72 70 193 72 70 193 72 70 193 72 70 193 72 70 193 72 70 193 72 70 193 72 70 193 72 70 193 72 70 193 72 70 193 72 70 193 72 70 193 72 70 193 72 70 193 72 70 193 72 70 193 72 70 193 72 70 193 72 70 193 72 70 193 72 70 193 72 70 193 72 70 193 72 70 193 72 70 193 72 70 193 72 70 193 72 70 193 72 70 193 72 70 193 72 70 193 72 70 193 72 70 193 72 70 193 72 70 193 72 70 193 72 70 193 72 70 193 72 70 193 72 70 193 72 70 193 72 70 193 72 70 193 72 70 193 72 70 193 72 70 193 72 70 193 72 70 193 72 70 193 72 70 193 72 70 193 72 70 193 72 70 193 72 70 193 72 70 193 72 70 193 72 70 193 72 70 193 72 70 193 72 70 193 72 70 193 72 70 193 72 70 193 72 70 193 72 70 193 72 70 193 72 70 193 72 70 193 72 70 193 72 70 193 72 70 193 72 70 193 72 70 193 72 70 193 72 70 193 72 70 193 72 70 193 72 70 193 72 70 193 72 70 193 72 70 193 72 70 193 72 70 193 72 70 193 72 70 193 72 70 193 72 70 193 72 70 193 72 70 193 72 70 193 72 70 193 72 70 193 72 70 193 72 70 193 72 70 193 72 70 193 72 70 193 72 70 193 72 70 193 72 70 193 72 70 193 72 70 193 72 70 193 72 70 193 72 70 193 72 70 193 
73 70 193 73 70 193 73 70 193 73 70 193 73 70 193 73 70 193 73 70 193 73 70 193 73 70 193 73 70 193 73 70 193 73 70 193 73 70 193 73 70 193 73 70 193 73 70 193 73 70 193 73 70 193 73 70 193 73 70 193 73 70 193 73 70 193 73 70 193 73 70 193 73 70 193 73 70 193 73 70 193 73 70 193 73 70 193 73 70 193 73 70 193 73 70 193 73 70 193 73 70 193 73 70 193 73 70 193 73 70 193 73 70 193 73 70 193 73 70 193 73 70 193 73 70 193 73 70 193 73 70 193 73 70 193 73 70 193 73 70 193 73 70 193 73 70 193 73 70 193 73 70 193 73 70 193 73 70 193 73 70 193 73 70 193 73 70 193 73 70 193 73 70 193 73 70 193 73 70 193 73 70 193 73 70 193 73 70 193 73 70 193 73 70 193 73 70 193 73 70 193 73 70 193 73 70 193 73 70 193 73 70 193 73 70 193 73 70 193 73 70 193 73 70 193 73 70 193 73 70 193 73 70 193 73 70 193 73 70 193 73 70 193 73 70 193 73 70 193 73 70 193 73 70 193 73 70 193 73 70 193 73 70 193 73 70 193 73 70 193 73 70 193 73 70 193 73 70 193 73 70 193 73 70 193 73 70 193 73 70 193 73 70 193 73 70 193 73 70 193 73 70 193 73 70 193 73 70 193 73 70 193 73 70 193 73 70 193 73 70 193 73 70 193 73 70 193 73 70 193 73 70 193 73 70 193 73 70 193 73 70 193 73 70 193 73 70 193 73 70 193 73 70 193 73 70 193 73 70 193 73 70 193 73 70 193 73 70 193 73 70 193 73 70 193 73 70 193 73 70 193 73 70 193 73 70 193 73 70 193 73 70 193 73 70 193 73 70 193 73 70 193 73 70 193 73 70 193 73 70 193 73 70 193 73 70 193 73 70 193 73 70 193 73 70 193 73 70 193 73 70 193 73 70 193 73 70 193 255 176 153 255 176 153 255 176 153 255 176 153 73 70 193 73 70 193 73 70 193 73 70 193 73 70 193 73 70 193 73 70 193 73 70 193 73 70 193 73 70 193 73 70 193 73 70 193 255 180 150 50 10 20 50 10 20 50 10 20 50 10 20 50 10 20 50 10 20 50 10 20 50 10 20 50 10 20 50 10 20 50 10 20 50 10 20 50 10 20 50 10 20 50 10 20 50 10 20 50 10 20 50 10 20 50 10 20 50 10 20 50 10 20 50 10 20 50 10 20 50 10 20 50 10 20 50 10 20 50 10 20 50 10 20 255 192 141 255 120 40 255 192 141 73 70 193 73 70 193 73 70 193 73 70 193 255 196 138 255 196 138 255 196 138 73 70 193 73 70 193 73 70 193 73 70 193 73 70 193 73 70 193 255 200 135 255 200 135 255 200 135 73 70 193 73 70 193 73 70 193 73 70 193 73 70 193 73 70 193 73 70 193 73 70 193 73 70 193 255 204 132 255 204 132 255 204 132 73 70 193 73 70 193 73 70 193 73 70 193 73 70 193 73 70 193 73 70 193 73 70 193 73 70 193 73 70 193 73 70 193 73 70 193 73 70 193 73 70 193 73 70 193 73 70 193 73 70 193 73 70 193 73 70 193 73 70 193 73 70 193 73 70 193 73 70 193 73 70 193 73 70 193 73 70 193 73 70 193 73 70 193 73 70 193 73 70 193 73 70 193 73 70 193 73 70 193 255 255 255 73 70 193 73 70 193 73 70 193 73 70 193 73 70 193 73 70 193 73 70 193 73 70 193 73 70 193 73 70 193 73 70 193 73 70 193 73 70 193 73 70 193 73 70 193 73 70 193 73 70 193 73 70 193 73 70 193 73 70 193 73 70 193 73 70 193 73 70 193 73 70 193 73 70 193 73 70 193 73 70 193 73 70 193 73 70 193 73 70 193 73 70 193 73 70 193 73 70 193 73 70 193 73 70 193 73 70 193 73 70 193 73 70 193 73 70 193 73 70 193 73 70 193 73 70 193 73 70 193 73 70 193 73 70 193 73 70 193 73 70 193 73 70 193 73 70 193 73 70 193 73 70 193 73 70 193 73 70 193 73 70 193 73 70 193 73 70 193 73 70 193 73 70 193 73 70 193 73 70 193 73 70 193 73 70 193 73 70 193 73 70 193 73 70 193 73 70 193 73 70 193 73 70 193 73 70 193 73 70 193 73 70 193 73 70 193 73 70 193 73 70 193 73 70 193 73 70 193 73 70 193 73 70 193 73 70 193 73 70 193 73 70 193 73 70 193 73 70 193 73 70 193 73 70 193 73 70 193 73 70 193 73 70 193 73 70 193 73 70 193 73 70 193 73 70 193 73 70 193 73 70 193 73 70 193 73 70 193 73 70 193 73 70 193 73 70 193 73 70 193 73 70 193 73 70 193 73 70 193 73 70 193 73 70 193 73 70 193 73 70 193 73 70 193 73 70 193 73 70 193 73 70 193 73 70 193 73 70 193 73 70 193 73 70 193 73 70 193 73 70 193 73 70 193 73 70 193 73 70 193 73 70 193 73 70 193 73 70 193 73 70 193 73 70 193 73 70 193 73 70 193 73 70 193 
73 69 194 73 69 194 73 69 194 73 69 194 73 69 194 73 69 194 73 69 194 73 69 194 73 69 194 73 69 194 73 69 194 73 69 194 73 69 194 73 69 194 73 69 194 73 69 194 73 69 194 73 69 194 73 69 194 73 69 194 73 69 194 73 69 194 73 69 194 73 69 194 73 69 194 73 69 194 73 69 194 73 69 194 73 69 194 73 69 194 73 69 194 73 69 194 73 69 194 73 69 194 73 69 194 73 69 194 73 69 194 73 69 194 73 69 194 73 69 194 73 69 194 73 69 194 73 69 194 73 69 194 73 69 194 73 69 194 73 69 194 73 69 194 73 69 194 73 69 194 73 69 194 73 69 194 73 69 194 73 69 194 73 69 194 73 69 194 73 69 194 73 69 194 73 69 194 73 69 194 73 69 194 73 69 194 73 69 194 73 69 194 73 69 194 73 69 194 73 69 194 73 69 194 73 69 194 73 69 194 73 69 194 73 69 194 73 69 194 73 69 194 73 69 194 73 69 194 73 69 194 73 69 194 73 69 194 73 69 194 73 69 194 73 69 194 73 69 194 73 69 194 73 69 194 73 69 194 73 69 194 73 69 194 73 69 194 73 69 194 73 69 194 73 69 194 73 69 194 73 69 194 73 69 194 73 69 194 73 69 194 73 69 194 73 69 194 73 69 194 73 69 194 73 69 194 73 69 194 73 69 194 73 69 194 73 69 194 73 69 194 73 69 194 73 69 194 73 69 194 73 69 194 73 69 194 73 69 194 73 69 194 73 69 194 73 69 194 73 69 194 73 69 194 73 69 194 73 69 194 73 69 194 73 69 194 73 69 194 73 69 194 73 69 194 73 69 194 73 69 194 73 69 194 73 69 194 73 69 194 73 69 194 73 69 194 73 69 194 73 69 194 73 69 194 73 69 194 73 69 194 73 69 194 73 69 194 73 69 194 73 69 194 73 69 194 73 69 194 73 69 194 255 176 153 255 176 153 255 176 153 255 176 153 73 69 194 73 69 194 73 69 194 73 69 194 73 69 194 73 69 194 73 69 194 73 69 194 73 69 194 73 69 194 73 69 194 73 69 194 73 69 194 73 69 194 255 180 150 50 10 20 50 10 20 50 10 20 50 10 20 50 10 20 50 10 20 50 10 20 50 10 20 50 10 20 50 10 20 50 10 20 50 10 20 50 10 20 50 10 20 50 10 20 50 10 20 50 10 20 50 10 20 50 10 20 50 10 20 50 10 20 50 10 20 50 10 20 50 10 20 50 10 20 50 10 20 50 10 20 73 69 194 255 192 141 255 120 40 255 192 141 73 69 194 73 69 194 73 69 194 73 69 194 73 69 194 255 196 138 255 196 138 255 196 138 73 69 194 73 69 194 73 69 194 73 69 194 73 69 194 73 69 194 255 200 135 255 200 135 255 200 135 73 69 194 73 69 194 73 69 194 73 69 194 73 69 194 73 69 194 73 69 194 73 69 194 73 69 194 255 204 132 255 204 132 255 204 132 73 69 194 73 69 194 73 69 194 73 69 194 73 69 194 73 69 194 73 69 194 73 69 194 73 69 194 73 69 194 73 69 194 73 69 194 73 69 194 73 69 194 73 69 194 73 69 194 73 69 194 73 69 194 73 69 194 73 69 194 73 69 194 73 69 194 73 69 194 73 69 194 73 69 194 73 69 194 73 69 194 73 69 194 73 69 194 73 69 194 73 69 194 73 69 194 73 69 194 255 255 255 255 255 255 73 69 194 73 69 194 73 69 194 73 69 194 73 69 194 73 69 194 73 69 194 73 69 194 73 69 194 73 69 194 73 69 194 73 69 194 73 69 194 73 69 194 73 69 194 73 69 194 73 69 194 73 69 194 73 69 194 73 69 194 73 69 194 73 69 194 73 69 194 73 69 194 73 69 194 73 69 194 73 69 194 73 69 194 73 69 194 73 69 194 73 69 194 73 69 194 73 69 194 73 69 194 73 69 194 73 69 194 73 69 194 73 69 194 73 69 194 73 69 194 73 69 194 73 69 194 73 69 194 73 69 194 73 69 194 73 69 194 73 69 194 73 69 194 73 69 194 73 69 194 73 69 194 73 69 194 73 69 194 73 69 194 73 69 194 73 69 194 73 69 194 73 69 194 73 69 194 73 69 194 73 69 194 73 69 194 73 69 194 73 69 194 73 69 194 73 69 194 73 69 194 73 69 194 73 69 194 73 69 194 73 69 194 73 69 194 73 69 194 73 69 194 73 69 194 73 69 194 73 69 194 73 69 194 73 69 194 73 69 194 73 69 194 73 69 194 73 69 194 73 69 194 73 69 194 73 69 194 73 69 194 73 69 194 73 69 194 73 69 194 73 69 194 73 69 194 73 69 194 73 69 194 73 69 194 73 69 194 73 69 194 73 69 194 73 69 194 73 69 194 73 69 194 73 69 194 73 69 194 73 69 194 73 69 194 73 69 194 73 69 194 73 69 194 73 69 194 73 69 194 73 69 194 73 69 194 73 69 194 73 69 194 73 69 194 73 69 194 73 69 194 73 69 194 73 69 194 73 69 194 73 69 194 73 69 194 73 69 194 73 69 194 73 69 194 73 69 194 
73 69 194 73 69 194 73 69 194 73 69 194 73 69 194 73 69 194 73 69 194 73 69 194 73 69 194 73 69 194 73 69 194 73 69 194 73 69 194 73 69 194 73 69 194 73 69 194 73 69 194 73 69 194 73 69 194 73 69 194 73 69 194 73 69 194 73 69 194 73 69 194 73 69 194 73 69 194 73 69 194 73 69 194 73 69 194 73 69 194 73 69 194 73 69 194 73 69 194 73 69 194 73 69 194 73 69 194 73 69 194 73 69 194 73 69 194 73 69 194 73 69 194 73 69 194 73 69 194 73 69 194 73 69 194 73 69 194 73 69 194 73 69 194 73 69 194 73 69 194 73 69 194 73 69 194 73 69 194 73 69 194 73 69 194 73 69 194 73 69 194 73 69 194 73 69 194 73 69 194 73 69 194 73 69 194 73 69 194 73 69 194 73 69 194 73 69 194 73 69 194 73 69 194 73 69 194 73 69 194 73 69 194 73 69 194 73 69 194 73 69 194 73 69 194 73 69 194 73 69 194 73 69 194 73 69 194 73 69 194 73 69 194 73 69 194 73 69 194 73 69 194 73 69 194 73 69 194 73 69 194 73 69 194 73 69 194 73 69 194 73 69 194 73 69 194 73 69 194 73 69 194 73 69 194 73 69 194 73 69 194 73 69 194 73 69 194 73 69 194 73 69 194 73 69 194 73 69 194 73 69 194 73 69 194 73 69 194 73 69 194 73 69 194 73 69 194 73 69 194 73 69 194 73 69 194 73 69 194 73 69 194 73 69 194 73 69 194 73 69 194 73 69 194 73 69 194 73 69 194 73 69 194 73 69 194 73 69 194 73 69 194 73 69 194 73 69 194 73 69 194 73 69 194 73 69 194 73 69 194 73 69 194 73 69 194 73 69 194 73 69 194 73 69 194 73 69 194 73 69 194 73 69 194 73 69 194 73 69 194 73 69 194 73 69 194 73 69 194 255 176 153 255 176 153 255 176 153 255 176 153 73 69 194 73 69 194 73 69 194 73 69 194 73 69 194 73 69 194 73 69 194 73 69 194 73 69 194 73 69 194 73 69 194 73 69 194 73 69 194 73 69 194 255 180 150 255 180 150 50 10 20 50 10 20 50 10 20 50 10 20 50 10 20 50 10 20 50 10 20 50 10 20 50 10 20 50 10 20 50 10 20 50 10 20 50 10 20 50 10 20 50 10 20 50 10 20 50 10 20 50 10 20 50 10 20 50 10 20 50 10 20 50 10 20 50 10 20 50 10 20 50 10 20 50 10 20 73 69 194 73 69 194 255 192 141 255 120 40 255 192 141 73 69 194 73 69 194 73 69 194 73 69 194 73 69 194 255 196 138 255 196 138 255 196 138 73 69 194 73 69 194 73 69 194 73 69 194 73 69 194 73 69 194 255 200 135 255 200 135 255 200 135 73 69 194 73 69 194 73 69 194 73 69 194 73 69 194 73 69 194 73 69 194 73 69 194 73 69 194 73 69 194 255 204 132 255 204 132 255 204 132 73 69 194 73 69 194 73 69 194 73 69 194 73 69 194 73 69 194 73 69 194 73 69 194 73 69 194 73 69 194 73 69 194 73 69 194 73 69 194 73 69 194 73 69 194 73 69 194 73 69 194 73 69 194 73 69 194 73 69 194 73 69 194 73 69 194 73 69 194 73 69 194 73 69 194 73 69 194 73 69 194 73 69 194 73 69 194 73 69 194 73 69 194 73 69 194 73 69 194 73 69 194 255 255 255 255 255 255 73 69 194 73 69 194 73 69 194 73 69 194 73 69 194 73 69 194 73 69 194 73 69 194 73 69 194 73 69 194 73 69 194 73 69 194 73 69 194 73 69 194 73 69 194 73 69 194 73 69 194 73 69 194 73 69 194 73 69 194 73 69 194 73 69 194 73 69 194 73 69 194 73 69 194 73 69 194 73 69 194 73 69 194 73 69 194 73 69 194 73 69 194 73 69 194 73 69 194 73 69 194 73 69 194 73 69 194 73 69 194 73 69 194 73 69 194 73 69 194 73 69 194 73 69 194 73 69 194 73 69 194 73 69 194 73 69 194 73 69 194 73 69 194 73 69 194 73 69 194 73 69 194 73 69 194 73 69 194 73 69 194 73 69 194 73 69 194 73 69 194 73 69 194 73 69 194 73 69 194 73 69 194 73 69 194 73 69 194 73 69 194 73 69 194 73 69 194 73 69 194 73 69 194 73 69 194 73 69 194 73 69 194 73 69 194 73 69 194 73 69 194 73 69 194 73 69 194 73 69 194 73 69 194 73 69 194 73 69 194 73 69 194 73 69 194 73 69 194 73 69 194 73 69 194 73 69 194 73 69 194 73 69 194 73 69 194 73 69 194 73 69 194 73 69 194 73 69 194 73 69 194 73 69 194 73 69 194 73 69 194 73 69 194 73 69 194 73 69 194 73 69 194 73 69 194 73 69 194 73 69 194 73 69 194 73 69 194 73 69 194 73 69 194 73 69 194 73 69 194 73 69 194 73 69 194 73 69 194 73 69 194 73 69 194 73 69 194 73 69 194 73 69 194 73 69 194 73 69 194 73 69 194 73 69 194 73 69 194 73 69 194 
74 68 195 74 68 195 74 68 195 74 68 195 74 68 195 74 68 195 74 68 195 74 68 195 74 68 195 74 68 195 74 68 195 74 68 195 74 68 195 74 68 195 74 68 195 74 68 195 74 68 195 74 68 195 74 68 195 74 68 195 74 68 195 74 68 195 74 68 195 74 68 195 74 68 195 74 68 195 74 68 195 74 68 195 74 68 195 74 68 195 74 68 195 74 68 195 74 68 195 74 68 195 74 68 195 74 68 195 74 68 195 74 68 195 74 68 195 74 68 195 74 68 195 74 68 195 74 68 195 74 68 195 74 68 195 74 68 195 74 68 195 74 68 195 74 68 195 74 68 195 74 68 195 74 68 195 74 68 195 74 68 195 74 68 195 74 68 195 74 68 195 74 68 195 74 68 195 74 68 195 74 68 195 74 68 195 74 68 195 74 68 195 74 68 195 74 68 195 74 68 195 74 68 195 74 68 195 74 68 195 74 68 195 74 68 195 74 68 195 74 68 195 74 68 195 74 68 195 74 68 195 74 68 195 74 68 195 74 68 195 74 68 195 74 68 195 74 68 195 74 68 195 74 68 195 74 68 195 74 68 195 74 68 195 74 68 195 74 68 195 74 68 195 74 68 195 74 68 195 74 68 195 74 68 195 74 68 195 74 68 195 74 68 195 74 68 195 74 68 195 74 68 195 74 68 195 74 68 195 74 68 195 74 68 195 74 68 195 74 68 195 74 68 195 74 68 195 74 68 195 74 68 195 74 68 195 74 68 195 74 68 195 74 68 195 74 68 195 74 68 195 74 68 195 74 68 195 74 68 195 74 68 195 74 68 195 74 68 195 74 68 195 74 68 195 74 68 195 74 68 195 74 68 195 74 68 195 74 68 195 74 68 195 74 68 195 74 68 195 74 68 195 74 68 195 74 68 195 74 68 195 74 68 195 74 68 195 74 68 195 74 68 195 74 68 195 255 176 153 255 176 153 255 176 153 255 176 153 74 68 195 74 68 195 74 68 195 74 68 195 74 68 195 74 68 195 74 68 195 74 68 195 74 68 195 74 68 195 74 68 195 74 68 195 74 68 195 74 68 195 255 180 150 255 180 150 255 180 150 50 10 20 50 10 20 50 10 20 50 10 20 50 10 20 50 10 20 50 10 20 50 10 20 50 10 20 50 10 20 50 10 20 50 10 20 50 10 20 50 10 20 50 10 20 50 10 20 50 10 20 50 10 20 50 10 20 50 10 20 50 10 20 50 10 20 50 10 20 50 10 20 50 10 20 74 68 195 74 68 195 74 68 195 255 192 141 255 120 40 255 192 141 74 68 195 74 68 195 74 68 195 74 68 195 74 68 195 255 196 138 255 196 138 255 196 138 74 68 195 74 68 195 74 68 195 74 68 195 74 68 195 74 68 195 74 68 195 255 200 135 255 200 135 255 200 135 74 68 195 74 68 195 74 68 195 74 68 195 74 68 195 74 68 195 74 68 195 74 68 195 74 68 195 255 204 132 255 204 132 255 204 132 74 68 195 74 68 195 74 68 195 74 68 195 74 68 195 74 68 195 74 68 195 74 68 195 74 68 195 74 68 195 74 68 195 74 68 195 74 68 195 74 68 195 74 68 195 74 68 195 74 68 195 74 68 195 74 68 195 74 68 195 74 68 195 74 68 195 74 68 195 74 68 195 74 68 195 74 68 195 74 68 195 74 68 195 74 68 195 74 68 195 74 68 195 74 68 195 74 68 195 74 68 195 74 68 195 74 68 195 255 255 255 255 255 255 74 68 195 74 68 195 74 68 195 74 68 195 74 68 195 74 68 195 74 68 195 74 68 195 74 68 195 74 68 195 74 68 195 74 68 195 74 68 195 74 68 195 74 68 195 74 68 195 74 68 195 74 68 195 74 68 195 74 68 195 74 68 195 74 68 195 74 68 195 74 68 195 74 68 195 74 68 195 74 68 195 74 68 195 74 68 195 74 68 195 74 68 195 74 68 195 74 68 195 74 68 195 74 68 195 74 68 195 74 68 195 74 68 195 74 68 195 74 68 195 74 68 195 74 68 195 74 68 195 74 68 195 74 68 195 74 68 195 74 68 195 74 68 195 74 68 195 74 68 195 74 68 195 74 68 195 74 68 195 74 68 195 74 68 195 74 68 195 74 68 195 74 68 195 74 68 195 74 68 195 74 68 195 74 68 195 74 68 195 74 68 195 74 68 195 74 68 195 74 68 195 74 68 195 74 68 195 74 68 195 74 68 195 74 68 195 74 68 195 74 68 195 74 68 195 74 68 195 74 68 195 74 68 195 74 68 195 74 68 195 74 68 195 74 68 195 74 68 195 74 68 195 74 68 195 74 68 195 74 68 195 74 68 195 74 68 195 74 68 195 74 68 195 74 68 195 74 68 195 74 68 195 74 68 195 74 68 195 74 68 195 74 68 195 74 68 195 74 68 195 74 68 195 74 68 195 74 68 195 74 68 195 74 68 195 74 68 195 74 68 195 74 68 195 74 68 195 74 68 195 74 68 195 74 68 195 74 68 195 74 68 195 74 68 195 74 68 195 74 68 195 74 68 195 74 68 195 74 68 195 74 68 195 74 68 195 
74 67 195 74 67 195 74 67 195 74 67 195 74 67 195 74 67 195 74 67 195 74 67 195 74 67 195 74 67 195 74 67 195 74 67 195 74 67 195 74 67 195 74 67 195 74 67 195 74 67 195 74 67 195 74 67 195 74 67 195 74 67 195 74 67 195 74 67 195 74 67 195 74 67 195 74 67 195 74 67 195 74 67 195 74 67 195 74 67 195 74 67 195 74 67 195 74 67 195 74 67 195 74 67 195 74 67 195 74 67 195 74 67 195 74 67 195 74 67 195 74 67 195 74 67 195 74 67 195 74 67 195 74 67 195 74 67 195 74 67 195 74 67 195 74 67 195 74 67 195 74 67 195 74 67 195 74 67 195 74 67 195 74 67 195 74 67 195 74 67 195 74 67 195 74 67 195 74 67 195 74 67 195 74 67 195 74 67 195 74 67 195 74 67 195 74 67 195 74 67 195 74 67 195 74 67 195 74 67 195 74 67 195 74 67 195 74 67 195 74 67 195 74 67 195 74 67 195 74 67 195 74 67 195 74 67 195 74 67 195 74 67 195 74 67 195 74 67 195 74 67 195 74 67 195 74 67 195 74 67 195 74 67 195 74 67 195 74 67 195 74 67 195 74 67 195 74 67 195 74 67 195 74 67 195 74 67 195 74 67 195 74 67 195 74 67 195 74 67 195 74 67 195 74 67 195 74 67 195 74 67 195 74 67 195 74 67 195 74 67 195 74 67 195 74 67 195 74 67 195 74 67 195 74 67 195 74 67 195 74 67 195 74 67 195 74 67 195 74 67 195 74 67 195 74 67 195 74 67 195 74 67 195 74 67 195 74 67 195 74 67 195 74 67 195 74 67 195 74 67 195 74 67 195 74 67 195 74 67 195 74 67 195 74 67 195 74 67 195 74 67 195 74 67 195 74 67 195 74 67 195 74 67 195 74 67 195 74 67 195 74 67 195 255 176 153 255 176 153 255 176 153 74 67 195 74 67 195 74 67 195 74 67 195 74 67 195 74 67 195 74 67 195 74 67 195 74 67 195 74 67 195 74 67 195 74 67 195 74 67 195 74 67 195 74 67 195 255 180 150 255 180 150 255 180 150 74 67 195 50 10 20 50 10 20 50 10 20 50 10 20 50 10 20 50 10 20 50 10 20 50 10 20 50 10 20 50 10 20 50 10 20 50 10 20 50 10 20 50 10 20 50 10 20 50 10 20 50 10 20 50 10 20 50 10 20 50 10 20 50 10 20 50 10 20 50 10 20 50 10 20 74 67 195 74 67 195 74 67 195 74 67 195 255 192 141 255 120 40 255 192 141 74 67 195 74 67 195 74 67 195 74 67 195 74 67 195 255 196 138 255 196 138 255 196 138 74 67 195 74 67 195 74 67 195 74 67 195 74 67 195 74 67 195 74 67 195 255 200 135 255 200 135 255 200 135 74 67 195 74 67 195 74 67 195 74 67 195 74 67 195 74 67 195 74 67 195 74 67 195 74 67 195 74 67 195 255 204 132 255 204 132 255 204 132 74 67 195 74 67 195 74 67 195 74 67 195 74 67 195 74 67 195 74 67 195 74 67 195 74 67 195 74 67 195 74 67 195 74 67 195 74 67 195 74 67 195 74 67 195 74 67 195 74 67 195 74 67 195 74 67 195 74 67 195 74 67 195 74 67 195 74 67 195 74 67 195 74 67 195 74 67 195 74 67 195 74 67 195 74 67 195 74 67 195 74 67 195 74 67 195 74 67 195 74 67 195 74 67 195 74 67 195 74 67 195 255 255 255 255 255 255 74 67 195 74 67 195 74 67 195 74 67 195 74 67 195 74 67 195 74 67 195 74 67 195 74 67 195 74 67 195 74 67 195 74 67 195 74 67 195 74 67 195 74 67 195 74 67 195 74 67 195 74 67 195 74 67 195 74 67 195 74 67 195 74 67 195 74 67 195 74 67 195 74 67 195 74 67 195 74 67 195 74 67 195 74 67 195 74 67 195 74 67 195 74 67 195 74 67 195 74 67 195 74 67 195 74 67 195 74 67 195 74 67 195 74 67 195 74 67 195 74 67 195 74 67 195 74 67 195 74 67 195 74 67 195 74 67 195 74 67 195 74 67 195 74 67 195 74 67 195 74 67 195 74 67 195 74 67 195 74 67 195 74 67 195 74 67 195 74 67 195 74 67 195 74 67 195 74 67 195 74 67 195 74 67 195 74 67 195 74 67 195 74 67 195 74 67 195 74 67 195 74 67 195 74 67 195 74 67 195 74 67 195 74 67 195 74 67 195 74 67 195 74 67 195 74 67 195 74 67 195 74 67 195 74 67 195 74 67 195 74 67 195 74 67 195 74 67 195 74 67 195 74 67 195 74 67 195 74 67 195 74 67 195 74 67 195 74 67 195 74 67 195 74 67 195 74 67 195 74 67 195 74 67 195 74 67 195 74 67 195 74 67 195 74 67 195 74 67 195 74 67 195 74 67 195 74 67 195 74 67 195 74 67 195 74 67 195 74 67 195 74 67 195 74 67 195 74 67 195 74 67 195 74 67 195 74 67 195 74 67 195 74 67 195 74 67 195 74 67 195 74 67 195 74 67 195 74 67 195 
75 67 195 75 67 195 75 67 195 75 67 195 75 67 195 75 67 195 75 67 195 75 67 195 75 67 195 75 67 195 75 67 195 75 67 195 75 67 195 75 67 195 75 67 195 75 67 195 75 67 195 75 67 195 75 67 195 75 67 195 75 67 195 75 67 195 75 67 195 75 67 195 75 67 195 75 67 195 75 67 195 75 67 195 75 67 195 75 67 195 75 67 195 75 67 195 75 67 195 75 67 195 75 67 195 75 67 195 75 67 195 75 67 195 75 67 195 75 67 195 75 67 195 75 67 195 75 67 195 75 67 195 75 67 195 75 67 195 75 67 195 75 67 195 75 67 195 75 67 195 75 67 195 75 67 195 75 67 195 75 67 195 75 67 195 75 67 195 75 67 195 75 67 195 75 67 195 75 67 195 75 67 195 75 67 195 75 67 195 75 67 195 75 67 195 75 67 195 75 67 195 75 67 195 75 67 195 75 67 195 75 67 195 75 67 195 75 67 195 75 67 195 75 67 195 75 67 195 75 67 195 75 67 195 75 67 195 75 67 195 75 67 195 75 67 195 75 67 195 75 67 195 75 67 195 75 67 195 75 67 195 75 67 195 75 67 195 75 67 195 75 67 195 75 67 195 75 67 195 75 67 195 75 67 195 75 67 195 75 67 195 75 67 195 75 67 195 75 67 195 75 67 195 75 67 195 75 67 195 75 67 195 75 67 195 75 67 195 75 67 195 75 67 195 75 67 195 75 67 195 75 67 195 75 67 195 75 67 195 75 67 195 75 67 195 75 67 195 75 67 195 75 67 195 75 67 195 75 67 195 75 67 195 75 67 195 75 67 195 75 67 195 75 67 195 75 67 195 75 67 195 75 67 195 75 67 195 75 67 195 75 67 195 75 67 195 75 67 195 75 67 195 75 67 195 75 67 195 75 67 195 75 67 195 75 67 195 255 176 153 255 176 153 255 176 153 255 176 153 75 67 195 75 67 195 75 67 195 75 67 195 75 67 195 75 67 195 75 67 195 75 67 195 75 67 195 75 67 195 75 67 195 75 67 195 75 67 195 75 67 195 75 67 195 255 180 150 255 180 150 255 180 150 75 67 195 75 67 195 50 10 20 50 10 20 50 10 20 50 10 20 50 10 20 50 10 20 50 10 20 50 10 20 50 10 20 50 10 20 50 10 20 50 10 20 50 10 20 50 10 20 50 10 20 50 10 20 50 10 20 50 10 20 50 10 20 50 10 20 50 10 20 50 10 20 50 10 20 75 67 195 75 67 195 75 67 195 75 67 195 75 67 195 255 192 141 255 120 40 255 192 141 75 67 195 75 67 195 75 67 195 75 67 195 75 67 195 75 67 195 255 196 138 255 196 138 255 196 138 75 67 195 75 67 195 75 67 195 75 67 195 75 67 195 75 67 195 75 67 195 255 200 135 255 200 135 255 200 135 75 67 195 75 67 195 75 67 195 75 67 195 75 67 195 75 67 195 75 67 195 75 67 195 75 67 195 75 67 195 255 204 132 255 204 132 255 204 132 75 67 195 75 67 195 75 67 195 75 67 195 75 67 195 75 67 195 75 67 195 75 67 195 75 67 195 75 67 195 75 67 195 75 67 195 75 67 195 75 67 195 75 67 195 75 67 195 75 67 195 75 67 195 75 67 195 75 67 195 75 67 195 75 67 195 75 67 195 75 67 195 75 67 195 75 67 195 75 67 195 75 67 195 75 67 195 75 67 195 75 67 195 75 67 195 75 67 195 75 67 195 75 67 195 75 67 195 75 67 195 75 67 195 255 255 255 75 67 195 75 67 195 75 67 195 75 67 195 75 67 195 75 67 195 75 67 195 75 67 195 75 67 195 75 67 195 75 67 195 75 67 195 75 67 195 75 67 195 75 67 195 75 67 195 75 67 195 75 67 195 75 67 195 75 67 195 75 67 195 75 67 195 75 67 195 75 67 195 75 67 195 75 67 195 75 67 195 75 67 195 75 67 195 75 67 195 75 67 195 75 67 195 75 67 195 75 67 195 75 67 195 75 67 195 75 67 195 75 67 195 75 67 195 75 67 195 75 67 195 75 67 195 75 67 195 75 67 195 75 67 195 75 67 195 75 67 195 75 67 195 75 67 195 75 67 195 75 67 195 75 67 195 75 67 195 75 67 195 75 67 195 75 67 195 75 67 195 75 67 195 75 67 195 75 67 195 75 67 195 75 67 195 75 67 195 75 67 195 75 67 195 75 67 195 75 67 195 75 67 195 75 67 195 75 67 195 75 67 195 75 67 195 75 67 195 75 67 195 75 67 195 75 67 195 75 67 195 75 67 195 75 67 195 75 67 195 75 67 195 75 67 195 75 67 195 75 67 195 75 67 195 75 67 195 75 67 195 75 67 195 75 67 195 75 67 195 75 67 195 75 67 195 75 67 195 75 67 195 75 67 195 75 67 195 75 67 195 75 67 195 75 67 195 75 67 195 75 67 195 75 67 195 75 67 195 75 67 195 75 67 195 75 67 195 75 67 195 75 67 195 75 67 195 75 67 195 75 67 195 75 67 195 75 67 195 75 67 195 75 67 195 75 67 195 75 67 195 75 67 195 75 67 195 
75 66 196 75 66 196 75 66 196 75 66 196 75 66 196 75 66 196 75 66 196 75 66 196 75 66 196 75 66 196 75 66 196 75 66 196 75 66 196 75 66 196 75 66 196 75 66 196 75 66 196 75 66 196 75 66 196 75 66 196 75 66 196 75 66 196 75 66 196 75 66 196 75 66 196 75 66 196 75 66 196 75 66 196 75 66 196 75 66 196 75 66 196 75 66 196 75 66 196 75 66 196 75 66 196 75 66 196 75 66 196 75 66 196 75 66 196 75 66 196 75 66 196 75 66 196 75 66 196 75 66 196 75 66 196 75 66 196 75 66 196 75 66 196 75 66 196 75 66 196 75 66 196 75 66 196 75 66 196 75 66 196 75 66 196 75 66 196 75 66 196 75 66 196 75 66 196 75 66 196 75 66 196 75 66 196 75 66 196 75 66 196 75 66 196 75 66 196 75 66 196 75 66 196 75 66 196 75 66 196 75 66 196 75 66 196 75 66 196 75 66 196 75 66 196 75 66 196 75 66 196 75 66 196 75 66 196 75 66 196 75 66 196 75 66 196 75 66 196 75 66 196 75 66 196 75 66 196 75 66 196 75 66 196 75 66 196 75 66 196 75 66 196 75 66 196 75 66 196 75 66 196 75 66 196 75 66 196 75 66 196 75 66 196 75 66 196 75 66 196 75 66 196 75 66 196 75 66 196 75 66 196 75 66 196 75 66 196 75 66 196 75 66 196 75 66 196 75 66 196 75 66 196 75 66 196 75 66 196 75 66 196 75 66 196 75 66 196 75 66 196 75 66 196 75 66 196 75 66 196 75 66 196 75 66 196 75 66 196 75 66 196 75 66 196 75 66 196 75 66 196 75 66 196 75 66 196 75 66 196 75 66 196 75 66 196 75 66 196 75 66 196 75 66 196 75 66 196 75 66 196 75 66 196 255 176 153 255 176 153 255 176 153 255 176 153 75 66 196 75 66 196 75 66 196 75 66 196 75 66 196 75 66 196 75 66 196 75 66 196 75 66 196 75 66 196 75 66 196 75 66 196 75 66 196 75 66 196 75 66 196 255 180 150 255 180 150 255 180 150 75 66 196 75 66 196 75 66 196 50 10 20 50 10 20 50 10 20 50 10 20 50 10 20 50 10 20 50 10 20 50 10 20 50 10 20 50 10 20 50 10 20 50 10 20 50 10 20 50 10 20 50 10 20 50 10 20 50 10 20 50 10 20 50 10 20 50 10 20 50 10 20 50 10 20 75 66 196 75 66 196 75 66 196 75 66 196 75 66 196 75 66 196 255 192 141 255 120 40 255 192 141 75 66 196 75 66 196 75 66 196 75 66 196 75 66 196 75 66 196 255 196 138 255 196 138 255 196 138 75 66 196 75 66 196 75 66 196 75 66 196 75 66 196 75 66 196 75 66 196 255 200 135 255 200 135 255 200 135 75 66 196 75 66 196 75 66 196 75 66 196 75 66 196 75 66 196 75 66 196 75 66 196 75 66 196 75 66 196 75 66 196 75 66 196 75 66 196 75 66 196 75 66 196 75 66 196 75 66 196 75 66 196 75 66 196 75 66 196 75 66 196 75 66 196 75 66 196 75 66 196 75 66 196 75 66 196 75 66 196 75 66 196 75 66 196 75 66 196 75 66 196 75 66 196 75 66 196 75 66 196 75 66 196 75 66 196 75 66 196 75 66 196 75 66 196 75 66 196 75 66 196 75 66 196 75 66 196 75 66 196 75 66 196 75 66 196 75 66 196 75 66 196 75 66 196 75 66 196 75 66 196 75 66 196 255 255 255 255 255 255 75 66 196 75 66 196 75 66 196 75 66 196 75 66 196 75 66 196 75 66 196 75 66 196 75 66 196 75 66 196 75 66 196 75 66 196 75 66 196 75 66 196 75 66 196 75 66 196 75 66 196 75 66 196 75 66 196 75 66 196 75 66 196 75 66 196 75 66 196 75 66 196 75 66 196 75 66 196 75 66 196 75 66 196 75 66 196 75 66 196 75 66 196 75 66 196 75 66 196 75 66 196 75 66 196 75 66 196 75 66 196 75 66 196 75 66 196 75 66 196 75 66 196 75 66 196 75 66 196 75 66 196 75 66 196 75 66 196 75 66 196 75 66 196 75 66 196 75 66 196 75 66 196 75 66 196 75 66 196 75 66 196 75 66 196 75 66 196 75 66 196 75 66 196 75 66 196 75 66 196 75 66 196 75 66 196 75 66 196 75 66 196 75 66 196 75 66 196 75 66 196 75 66 196 75 66 196 75 66 196 75 66 196 75 66 196 75 66 196 75 66 196 75 66 196 75 66 196 75 66 196 75 66 196 75 66 196 75 66 196 75 66 196 75 66 196 75 66 196 75 66 196 75 66 196 75 66 196 75 66 196 75 66 196 75 66 196 75 66 196 75 66 196 75 66 196 75 66 196 75 66 196 75 66 196 75 66 196 75 66 196 75 66 196 75 66 196 75 66 196 75 66 196 75 66 196 75 66 196 75 66 196 75 66 196 75 66 196 75 66 196 75 66 196 75 66 196 75 66 196 75 66 196 75 66 196 75 66 196 75 66 196 75 66 196 75 66 196 75 66 196 
75 66 196 75 66 196 75 66 196 75 66 196 75 66 196 75 66 196 75 66 196 75 66 196 75 66 196 75 66 196 75 66 196 75 66 196 75 66 196 75 66 196 75 66 196 75 66 196 75 66 196 75 66 196 75 66 196 75 66 196 75 66 196 75 66 196 75 66 196 75 66 196 75 66 196 75 66 196 75 66 196 75 66 196 75 66 196 75 66 196 75 66 196 75 66 196 75 66 196 75 66 196 75 66 196 75 66 196 75 66 196 75 66 196 75 66 196 75 66 196 75 66 196 75 66 196 75 66 196 75 66 196 75 66 196 75 66 196 75 66 196 75 66 196 75 66 196 75 66 196 75 66 196 75 66 196 75 66 196 75 66 196 75 66 196 75 66 196 75 66 196 75 66 196 75 66 196 75 66 196 75 66 196 75 66 196 75 66 196 75 66 196 75 66 196 75 66 196 75 66 196 75 66 196 75 66 196 75 66 196 75 66 196 75 66 196 75 66 196 75 66 196 75 66 196 75 66 196 75 66 196 75 66 196 75 66 196 75 66 196 75 66 196 75 66 196 75 66 196 75 66 196 75 66 196 75 66 196 75 66 196 75 66 196 75 66 196 75 66 196 75 66 196 75 66 196 75 66 196 75 66 196 75 66 196 75 66 196 75 66 196 75 66 196 75 66 196 75 66 196 75 66 196 75 66 196 75 66 196 75 66 196 75 66 196 75 66 196 75 66 196 75 66 196 75 66 196 75 66 196 75 66 196 75 66 196 75 66 196 75 66 196 75 66 196 75 66 196 75 66 196 75 66 196 75 66 196 75 66 196 75 66 196 75 66 196 75 66 196 75 66 196 75 66 196 75 66 196 75 66 196 75 66 196 75 66 196 75 66 196 75 66 196 75 66 196 75 66 196 75 66 196 75 66 196 75 66 196 75 66 196 255 176 153 255 176 153 255 176 153 255 176 153 75 66 196 75 66 196 75 66 196 75 66 196 75 66 196 75 66 196 75 66 196 75 66 196 75 66 196 75 66 196 75 66 196 75 66 196 75 66 196 75 66 196 75 66 196 75 66 196 255 180 150 255 180 150 255 180 150 75 66 196 75 66 196 75 66 196 50 10 20 50 10 20 50 10 20 50 10 20 50 10 20 50 10 20 50 10 20 50 10 20 50 10 20 50 10 20 50 10 20 50 10 20 50 10 20 50 10 20 50 10 20 50 10 20 50 10 20 50 10 20 50 10 20 50 10 20 50 10 20 75 66 196 75 66 196 75 66 196 75 66 196 75 66 196 75 66 196 75 66 196 255 192 141 255 120 40 255 192 141 75 66 196 75 66 196 75 66 196 75 66 196 75 66 196 75 66 196 255 196 138 255 196 138 255 196 138 75 66 196 75 66 196 75 66 196 75 66 196 75 66 196 75 66 196 75 66 196 75 66 196 255 200 135 255 200 135 255 200 135 75 66 196 75 66 196 75 66 196 75 66 196 75 66 196 75 66 196 75 66 196 75 66 196 75 66 196 75 66 196 75 66 196 75 66 196 75 66 196 75 66 196 75 66 196 75 66 196 75 66 196 75 66 196 75 66 196 75 66 196 75 66 196 75 66 196 75 66 196 75 66 196 75 66 196 75 66 196 75 66 196 75 66 196 75 66 196 75 66 196 75 66 196 75 66 196 75 66 196 75 66 196 75 66 196 75 66 196 75 66 196 75 66 196 75 66 196 75 66 196 75 66 196 75 66 196 75 66 196 75 66 196 75 66 196 75 66 196 75 66 196 75 66 196 75 66 196 75 66 196 75 66 196 75 66 196 75 66 196 255 255 255 255 255 255 75 66 196 75 66 196 75 66 196 75 66 196 75 66 196 75 66 196 75 66 196 75 66 196 75 66 196 75 66 196 75 66 196 75 66 196 75 66 196 75 66 196 75 66 196 75 66 196 75 66 196 75 66 196 75 66 196 75 66 196 75 66 196 75 66 196 75 66 196 75 66 196 75 66 196 75 66 196 75 66 196 75 66 196 75 66 196 75 66 196 75 66 196 75 66 196 75 66 196 75 66 196 75 66 196 75 66 196 75 66 196 75 66 196 75 66 196 75 66 196 75 66 196 75 66 196 75 66 196 75 66 196 75 66 196 75 66 196 75 66 196 75 66 196 75 66 196 75 66 196 75 66 196 75 66 196 75 66 196 75 66 196 75 66 196 75 66 196 75 66 196 75 66 196 75 66 196 75 66 196 75 66 196 75 66 196 75 66 196 75 66 196 75 66 196 75 66 196 75 66 196 75 66 196 75 66 196 75 66 196 75 66 196 75 66 196 75 66 196 75 66 196 75 66 196 75 66 196 75 66 196 75 66 196 75 66 196 75 66 196 75 66 196 75 66 196 75 66 196 75 66 196 75 66 196 75 66 196 75 66 196 75 66 196 75 66 196 75 66 196 75 66 196 75 66 196 75 66 196 75 66 196 75 66 196 75 66 196 75 66 196 75 66 196 75 66 196 75 66 196 75 66 196 75 66 196 75 66 196 75 66 196 75 66 196 75 66 196 75 66 196 75 66 196 75 66 196 75 66 196 75 66 196 75 66 196 75 66 196 75 66 196 75 66 196 
76 65 197 76 65 197 76 65 197 76 65 197 76 65 197 76 65 197 76 65 197 76 65 197 76 65 197 76 65 197 76 65 197 76 65 197 76 65 197 76 65 197 76 65 197 76 65 197 76 65 197 76 65 197 76 65 197 76 65 197 76 65 197 76 65 197 76 65 197 76 65 197 76 65 197 76 65 197 76 65 197 76 65 197 76 65 197 76 65 197 76 65 197 76 65 197 76 65 197 76 65 197 76 65 197 76 65 197 76 65 197 76 65 197 76 65 197 76 65 197 76 65 197 76 65 197 76 65 197 76 65 197 76 65 197 76 65 197 76 65 197 76 65 197 76 65 197 76 65 197 76 65 197 76 65 197 76 65 197 76 65 197 76 65 197 76 65 197 76 65 197 76 65 197 76 65 197 76 65 197 76 65 197 76 65 197 76 65 197 76 65 197 76 65 197 76 65 197 76 65 197 76 65 197 76 65 197 76 65 197 76 65 197 76 65 197 76 65 197 76 65 197 76 65 197 76 65 197 76 65 197 76 65 197 76 65 197 76 65 197 76 65 197 76 65 197 76 65 197 76 65 197 76 65 197 76 65 197 76 65 197 76 65 197 76 65 197 76 65 197 76 65 197 76 65 197 76 65 197 76 65 197 76 65 197 76 65 197 76 65 197 76 65 197 76 65 197 76 65 197 76 65 197 76 65 197 76 65 197 76 65 197 76 65 197 76 65 197 76 65 197 76 65 197 76 65 197 76 65 197 76 65 197 76 65 197 76 65 197 76 65 197 76 65 197 76 65 197 76 65 197 76 65 197 76 65 197 76 65 197 76 65 197 76 65 197 76 65 197 76 65 197 76 65 197 76 65 197 76 65 197 76 65 197 76 65 197 76 65 197 76 65 197 76 65 197 76 65 197 76 65 197 76 65 197 255 176 153 255 176 153 255 176 153 255 176 153 76 65 197 76 65 197 76 65 197 76 65 197 76 65 197 76 65 197 76 65 197 76 65 197 76 65 197 76 65 197 76 65 197 76 65 197 76 65 197 76 65 197 76 65 197 76 65 197 76 65 197 255 180 150 255 180 150 255 180 150 76 65 197 76 65 197 76 65 197 76 65 197 50 10 20 50 10 20 50 10 20 50 10 20 50 10 20 50 10 20 50 10 20 50 10 20 50 10 20 50 10 20 50 10 20 50 10 20 50 10 20 50 10 20 50 10 20 50 10 20 50 10 20 50 10 20 50 10 20 255 188 144 255 188 144 76 65 197 76 65 197 76 65 197 76 65 197 76 65 197 76 65 197 76 65 197 255 192 141 255 120 40 255 192 141 76 65 197 76 65 197 76 65 197 76 65 197 76 65 197 76 65 197 255 196 138 255 196 138 255 196 138 76 65 197 76 65 197 76 65 197 76 65 197 76 65 197 76 65 197 76 65 197 76 65 197 255 200 135 255 200 135 255 200 135 76 65 197 76 65 197 76 65 197 76 65 197 76 65 197 76 65 197 76 65 197 76 65 197 76 65 197 76 65 197 76 65 197 76 65 197 76 65 197 76 65 197 76 65 197 76 65 197 76 65 197 76 65 197 76 65 197 76 65 197 76 65 197 76 65 197 76 65 197 76 65 197 76 65 197 76 65 197 76 65 197 76 65 197 76 65 197 76 65 197 76 65 197 76 65 197 76 65 197 76 65 197 76 65 197 76 65 197 76 65 197 76 65 197 76 65 197 76 65 197 76 65 197 76 65 197 76 65 197 76 65 197 76 65 197 76 65 197 76 65 197 76 65 197 76 65 197 76 65 197 76 65 197 76 65 197 76 65 197 76 65 197 76 65 197 255 255 255 255 255 255 76 65 197 76 65 197 76 65 197 76 65 197 76 65 197 76 65 197 76 65 197 76 65 197 76 65 197 76 65 197 76 65 197 76 65 197 76 65 197 76 65 197 76 65 197 76 65 197 76 65 197 76 65 197 76 65 197 76 65 197 76 65 197 76 65 197 76 65 197 76 65 197 76 65 197 76 65 197 76 65 197 76 65 197 76 65 197 76 65 197 76 65 197 76 65 197 76 65 197 76 65 197 76 65 197 76 65 197 76 65 197 76 65 197 76 65 197 76 65 197 76 65 197 76 65 197 76 65 197 76 65 197 76 65 197 76 65 197 76 65 197 76 65 197 76 65 197 76 65 197 76 65 197 76 65 197 76 65 197 76 65 197 76 65 197 76 65 197 76 65 197 76 65 197 76 65 197 76 65 197 76 65 197 76 65 197 76 65 197 76 65 197 76 65 197 76 65 197 76 65 197 76 65 197 76 65 197 76 65 197 76 65 197 76 65 197 76 65 197 76 65 197 76 65 197 76 65 197 76 65 197 76 65 197 76 65 197 76 65 197 76 65 197 76 65 197 76 65 197 76 65 197 76 65 197 76 65 197 76 65 197 76 65 197 76 65 197 76 65 197 76 65 197 76 65 197 76 65 197 76 65 197 76 65 197 76 65 197 76 65 197 76 65 197 76 65 197 76 65 197 76 65 197 76 65 197 76 65 197 76 65 197 76 65 197 76 65 197 76 65 197 76 65 197 76 65 197 76 65 197 76 65 197 76 65 197 76 65 197 
76 65 197 76 65 197 76 65 197 76 65 197 76 65 197 76 65 197 76 65 197 76 65 197 76 65 197 76 65 197 76 65 197 76 65 197 76 65 197 76 65 197 76 65 197 76 65 197 76 65 197 76 65 197 76 65 197 76 65 197 76 65 197 76 65 197 76 65 197 76 65 197 76 65 197 76 65 197 76 65 197 76 65 197 76 65 197 76 65 197 76 65 197 76 65 197 76 65 197 76 65 197 76 65 197 76 65 197 76 65 197 76 65 197 76 65 197 76 65 197 76 65 197 76 65 197 76 65 197 76 65 197 76 65 197 76 65 197 76 65 197 76 65 197 76 65 197 76 65 197 76 65 197 76 65 197 76 65 197 76 65 197 76 65 197 76 65 197 76 65 197 76 65 197 76 65 197 76 65 197 76 65 197 76 65 197 76 65 197 76 65 197 76 65 197 76 65 197 76 65 197 76 65 197 76 65 197 76 65 197 76 65 197 76 65 197 76 65 197 76 65 197 76 65 197 76 65 197 76 65 197 76 65 197 76 65 197 76 65 197 76 65 197 76 65 197 76 65 197 76 65 197 76 65 197 76 65 197 76 65 197 76 65 197 76 65 197 76 65 197 76 65 197 76 65 197 76 65 197 76 65 197 76 65 197 76 65 197 76 65 197 76 65 197 76 65 197 76 65 197 76 65 197 76 65 197 76 65 197 76 65 197 76 65 197 76 65 197 76 65 197 76 65 197 76 65 197 76 65 197 76 65 197 76 65 197 76 65 197 76 65 197 76 65 197 76 65 197 76 65 197 76 65 197 76 65 197 76 65 197 76 65 197 76 65 197 76 65 197 76 65 197 76 65 197 76 65 197 76 65 197 76 65 197 76 65 197 76 65 197 76 65 197 76 65 197 76 65 197 76 65 197 255 176 153 255 176 153 255 176 153 255 176 153 76 65 197 76 65 197 76 65 197 76 65 197 76 65 197 76 65 197 76 65 197 76 65 197 76 65 197 76 65 197 76 65 197 76 65 197 76 65 197 76 65 197 76 65 197 76 65 197 76 65 197 255 180 150 255 180 150 255 180 150 76 65 197 76 65 197 76 65 197 76 65 197 76 65 197 50 10 20 50 10 20 50 10 20 50 10 20 50 10 20 50 10 20 50 10 20 50 10 20 50 10 20 50 10 20 50 10 20 50 10 20 50 10 20 50 10 20 50 10 20 50 10 20 50 10 20 50 10 20 255 188 144 255 188 144 255 188 144 76 65 197 76 65 197 76 65 197 76 65 197 76 65 197 76 65 197 76 65 197 255 192 141 255 120 40 255 192 141 76 65 197 76 65 197 76 65 197 76 65 197 76 65 197 76 65 197 255 196 138 255 196 138 255 196 138 76 65 197 76 65 197 76 65 197 76 65 197 76 65 197 76 65 197 76 65 197 76 65 197 76 65 197 255 200 135 255 200 135 255 200 135 76 65 197 76 65 197 76 65 197 76 65 197 76 65 197 76 65 197 76 65 197 76 65 197 76 65 197 76 65 197 76 65 197 76 65 197 76 65 197 76 65 197 76 65 197 76 65 197 76 65 197 76 65 197 76 65 197 76 65 197 76 65 197 76 65 197 76 65 197 76 65 197 76 65 197 76 65 197 76 65 197 76 65 197 76 65 197 76 65 197 76 65 197 76 65 197 76 65 197 76 65 197 76 65 197 76 65 197 76 65 197 76 65 197 76 65 197 76 65 197 76 65 197 76 65 197 76 65 197 76 65 197 76 65 197 76 65 197 76 65 197 76 65 197 76 65 197 76 65 197 76 65 197 76 65 197 76 65 197 76 65 197 76 65 197 76 65 197 255 255 255 76 65 197 76 65 197 76 65 197 76 65 197 76 65 197 76 65 197 76 65 197 76 65 197 76 65 197 76 65 197 76 65 197 76 65 197 76 65 197 76 65 197 76 65 197 76 65 197 76 65 197 76 65 197 76 65 197 76 65 197 76 65 197 76 65 197 76 65 197 76 65 197 76 65 197 76 65 197 76 65 197 76 65 197 76 65 197 76 65 197 76 65 197 76 65 197 76 65 197 76 65 197 76 65 197 76 65 197 76 65 197 76 65 197 76 65 197 76 65 197 76 65 197 76 65 197 76 65 197 76 65 197 76 65 197 76 65 197 76 65 197 76 65 197 76 65 197 76 65 197 76 65 197 76 65 197 76 65 197 76 65 197 76 65 197 76 65 197 76 65 197 76 65 197 76 65 197 76 65 197 76 65 197 76 65 197 76 65 197 76 65 197 76 65 197 76 65 197 76 65 197 76 65 197 76 65 197 76 65 197 76 65 197 76 65 197 76 65 197 76 65 197 76 65 197 76 65 197 76 65 197 76 65 197 76 65 197 76 65 197 76 65 197 76 65 197 76 65 197 76 65 197 76 65 197 76 65 197 76 65 197 76 65 197 76 65 197 76 65 197 76 65 197 76 65 197 76 65 197 76 65 197 76 65 197 76 65 197 76 65 197 76 65 197 76 65 197 76 65 197 76 65 197 76 65 197 76 65 197 76 65 197 76 65 197 76 65 197 76 65 197 76 65 197 76 65 197 76 65 197 76 65 197 76 65 197 
76 64 197 76 64 197 76 64 197 76 64 197 76 64 197 76 64 197 76 64 197 76 64 197 76 64 197 76 64 197 76 64 197 76 64 197 76 64 197 76 64 197 76 64 197 76 64 197 76 64 197 76 64 197 76 64 197 76 64 197 76 64 197 76 64 197 76 64 197 76 64 197 76 64 197 76 64 197 76 64 197 76 64 197 76 64 197 76 64 197 76 64 197 76 64 197 76 64 197 76 64 197 76 64 197 76 64 197 76 64 197 76 64 197 76 64 197 76 64 197 76 64 197 76 64 197 76 64 197 76 64 197 76 64 197 76 64 197 76 64 197 76 64 197 76 64 197 76 64 197 76 64 197 76 64 197 76 64 197 76 64 197 76 64 197 76 64 197 76 64 197 76 64 197 76 64 197 76 64 197 76 64 197 76 64 197 76 64 197 76 64 197 76 64 197 76 64 197 76 64 197 76 64 197 76 64 197 76 64 197 76 64 197 76 64 197 76 64 197 76 64 197 76 64 197 76 64 197 76 64 197 76 64 197 76 64 197 76 64 197 76 64 197 76 64 197 76 64 197 76 64 197 76 64 197 76 64 197 76 64 197 76 64 197 76 64 197 76 64 197 76 64 197 76 64 197 76 64 197 76 64 197 76 64 197 76 64 197 76 64 197 76 64 197 76 64 197 76 64 197 76 64 197 76 64 197 76 64 197 76 64 197 76 64 197 76 64 197 76 64 197 76 64 197 76 64 197 76 64 197 76 64 197 76 64 197 76 64 197 76 64 197 76 64 197 76 64 197 76 64 197 76 64 197 76 64 197 76 64 197 76 64 197 76 64 197 76 64 197 76 64 197 76 64 197 76 64 197 76 64 197 76 64 197 76 64 197 76 64 197 76 64 197 76 64 197 76 64 197 255 176 153 255 176 153 255 176 153 255 176 153 76 64 197 76 64 197 76 64 197 76 64 197 76 64 197 76 64 197 76 64 197 76 64 197 76 64 197 76 64 197 76 64 197 76 64 197 76 64 197 76 64 197 76 64 197 76 64 197 76 64 197 255 180 150 255 180 150 255 180 150 76 64 197 76 64 197 76 64 197 76 64 197 76 64 197 76 64 197 50 10 20 50 10 20 50 10 20 50 10 20 50 10 20 50 10 20 50 10 20 50 10 20 50 10 20 50 10 20 50 10 20 50 10 20 50 10 20 50 10 20 50 10 20 50 10 20 50 10 20 255 188 144 255 188 144 255 188 144 76 64 197 76 64 197 76 64 197 76 64 197 76 64 197 76 64 197 76 64 197 76 64 197 255 192 141 255 120 40 255 192 141 76 64 197 76 64 197 76 64 197 76 64 197 76 64 197 76 64 197 76 64 197 255 196 138 255 196 138 255 196 138 76 64 197 76 64 197 76 64 197 76 64 197 76 64 197 76 64 197 76 64 197 76 64 197 255 200 135 255 200 135 255 200 135 76 64 197 76 64 197 76 64 197 76 64 197 76 64 197 76 64 197 76 64 197 76 64 197 76 64 197 76 64 197 76 64 197 76 64 197 76 64 197 76 64 197 76 64 197 76 64 197 76 64 197 76 64 197 76 64 197 76 64 197 76 64 197 76 64 197 76 64 197 76 64 197 76 64 197 76 64 197 76 64 197 76 64 197 76 64 197 76 64 197 76 64 197 76 64 197 76 64 197 76 64 197 76 64 197 76 64 197 76 64 197 76 64 197 76 64 197 76 64 197 76 64 197 76 64 197 76 64 197 76 64 197 76 64 197 76 64 197 76 64 197 76 64 197 76 64 197 76 64 197 76 64 197 76 64 197 76 64 197 76 64 197 76 64 197 76 64 197 76 64 197 255 255 255 255 255 255 76 64 197 76 64 197 76 64 197 76 64 197 76 64 197 76 64 197 76 64 197 76 64 197 76 64 197 76 64 197 76 64 197 76 64 197 76 64 197 76 64 197 76 64 197 76 64 197 76 64 197 76 64 197 76 64 197 76 64 197 76 64 197 76 64 197 76 64 197 76 64 197 76 64 197 76 64 197 76 64 197 76 64 197 76 64 197 76 64 197 76 64 197 76 64 197 76 64 197 76 64 197 76 64 197 76 64 197 76 64 197 76 64 197 76 64 197 76 64 197 76 64 197 76 64 197 76 64 197 76 64 197 76 64 197 76 64 197 76 64 197 76 64 197 76 64 197 76 64 197 76 64 197 76 64 197 76 64 197 76 64 197 76 64 197 76 64 197 76 64 197 76 64 197 76 64 197 76 64 197 76 64 197 76 64 197 76 64 197 76 64 197 76 64 197 76 64 197 76 64 197 76 64 197 76 64 197 76 64 197 76 64 197 76 64 197 76 64 197 76 64 197 76 64 197 76 64 197 76 64 197 76 64 197 76 64 197 76 64 197 76 64 197 76 64 197 76 64 197 76 64 197 76 64 197 76 64 197 76 64 197 76 64 197 76 64 197 76 64 197 76 64 197 76 64 197 76 64 197 76 64 197 76 64 197 76 64 197 76 64 197 76 64 197 76 64 197 76 64 197 76 64 197 76 64 197 76 64 197 76 64 197 76 64 197 76 64 197 76 64 197 76 64 197 76 64 197 76 64 197 
77 64 198 77 64 198 77 64 198 77 64 198 77 64 198 77 64 198 77 64 198 77 64 198 77 64 198 77 64 198 77 64 198 77 64 198 77 64 198 77 64 198 77 64 198 77 64 198 77 64 198 77 64 198 77 64 198 77 64 198 77 64 198 77 64 198 77 64 198 77 64 198 77 64 198 77 64 198 77 64 198 77 64 198 77 64 198 77 64 198 77 64 198 77 64 198 77 64 198 77 64 198 77 64 198 77 64 198 77 64 198 77 64 198 77 64 198 77 64 198 77 64 198 77 64 198 77 64 198 77 64 198 77 64 198 77 64 198 77 64 198 77 64 198 77 64 198 77 64 198 77 64 198 77 64 198 77 64 198 77 64 198 77 64 198 77 64 198 77 64 198 77 64 198 77 64 198 77 64 198 77 64 198 77 64 198 77 64 198 77 64 198 77 64 198 77 64 198 77 64 198 77 64 198 77 64 198 77 64 198 77 64 198 77 64 198 77 64 198 77 64 198 77 64 198 77 64 198 77 64 198 77 64 198 77 64 198 77 64 198 77 64 198 77 64 198 77 64 198 77 64 198 77 64 198 77 64 198 77 64 198 77 64 198 77 64 198 77 64 198 77 64 198 77 64 198 77 64 198 77 64 198 77 64 198 77 64 198 77 64 198 77 64 198 77 64 198 77 64 198 77 64 198 77 64 198 77 64 198 77 64 198 77 64 198 77 64 198 77 64 198 77 64 198 77 64 198 77 64 198 77 64 198 77 64 198 77 64 198 77 64 198 77 64 198 77 64 198 77 64 198 77 64 198 77 64 198 77 64 198 77 64 198 77 64 198 77 64 198 77 64 198 77 64 198 77 64 198 77 64 198 77 64 198 77 64 198 77 64 198 77 64 198 77 64 198 77 64 198 255 176 153 255 176 153 77 64 198 77 64 198 77 64 198 77 64 198 77 64 198 77 64 198 77 64 198 77 64 198 77 64 198 77 64 198 77 64 198 77 64 198 77 64 198 77 64 198 77 64 198 77 64 198 77 64 198 77 64 198 255 180 150 255 180 150 255 180 150 77 64 198 77 64 198 77 64 198 77 64 198 77 64 198 77 64 198 77 64 198 50 10 20 50 10 20 50 10 20 50 10 20 50 10 20 50 10 20 50 10 20 50 10 20 50 10 20 50 10 20 50 10 20 50 10 20 50 10 20 50 10 20 50 10 20 50 10 20 77 64 198 255 188 144 255 188 144 255 188 144 77 64 198 77 64 198 77 64 198 77 64 198 77 64 198 77 64 198 77 64 198 77 64 198 255 192 141 255 120 40 255 192 141 77 64 198 77 64 198 77 64 198 77 64 198 77 64 198 77 64 198 77 64 198 255 196 138 255 196 138 255 196 138 77 64 198 77 64 198 77 64 198 77 64 198 77 64 198 77 64 198 77 64 198 77 64 198 77 64 198 255 200 135 255 200 135 255 200 135 77 64 198 77 64 198 77 64 198 77 64 198 77 64 198 77 64 198 77 64 198 77 64 198 77 64 198 77 64 198 77 64 198 77 64 198 77 64 198 77 64 198 77 64 198 77 64 198 77 64 198 77 64 198 77 64 198 77 64 198 77 64 198 77 64 198 77 64 198 77 64 198 77 64 198 77 64 198 77 64 198 77 64 198 77 64 198 77 64 198 77 64 198 77 64 198 77 64 198 77 64 198 77 64 198 77 64 198 77 64 198 77 64 198 77 64 198 77 64 198 77 64 198 77 64 198 77 64 198 77 64 198 77 64 198 77 64 198 77 64 198 77 64 198 77 64 198 77 64 198 77 64 198 77 64 198 77 64 198 77 64 198 77 64 198 77 64 198 77 64 198 77 64 198 255 255 255 255 255 255 77 64 198 77 64 198 77 64 198 77 64 198 77 64 198 77 64 198 77 64 198 77 64 198 77 64 198 77 64 198 77 64 198 77 64 198 77 64 198 77 64 198 77 64 198 77 64 198 77 64 198 77 64 198 77 64 198 77 64 198 77 64 198 77 64 198 77 64 198 77 64 198 77 64 198 77 64 198 77 64 198 77 64 198 77 64 198 77 64 198 77 64 198 77 64 198 77 64 198 77 64 198 77 64 198 77 64 198 77 64 198 77 64 198 77 64 198 77 64 198 77 64 198 77 64 198 77 64 198 77 64 198 77 64 198 77 64 198 77 64 198 77 64 198 77 64 198 77 64 198 77 64 198 77 64 198 77 64 198 77 64 198 77 64 198 77 64 198 77 64 198 77 64 198 77 64 198 77 64 198 77 64 198 77 64 198 77 64 198 77 64 198 77 64 198 77 64 198 77 64 198 77 64 198 77 64 198 77 64 198 77 64 198 77 64 198 77 64 198 77 64 198 77 64 198 77 64 198 77 64 198 77 64 198 77 64 198 77 64 198 77 64 198 77 64 198 77 64 198 77 64 198 77 64 198 77 64 198 77 64 198 77 64 198 77 64 198 77 64 198 77 64 198 77 64 198 77 64 198 77 64 198 77 64 198 77 64 198 77 64 198 77 64 198 77 64 198 77 64 198 77 64 198 77 64 198 77 64 198 77 64 198 77 64 198 77 64 198 77 64 198 77 64 198 
77 63 198 77 63 198 77 63 198 77 63 198 77 63 198 77 63 198 77 63 198 77 63 198 77 63 198 77 63 198 77 63 198 77 63 198 77 63 198 77 63 198 77 63 198 77 63 198 77 63 198 77 63 198 77 63 198 77 63 198 77 63 198 77 63 198 77 63 198 77 63 198 77 63 198 77 63 198 77 63 198 77 63 198 77 63 198 77 63 198 77 63 198 77 63 198 77 63 198 77 63 198 77 63 198 77 63 198 77 63 198 77 63 198 77 63 198 77 63 198 77 63 198 77 63 198 77 63 198 77 63 198 77 63 198 77 63 198 77 63 198 77 63 198 77 63 198 77 63 198 77 63 198 77 63 198 77 63 198 77 63 198 77 63 198 77 63 198 77 63 198 77 63 198 77 63 198 77 63 198 77 63 198 77 63 198 77 63 198 77 63 198 77 63 198 77 63 198 77 63 198 77 63 198 77 63 198 77 63 198 77 63 198 77 63 198 77 63 198 77 63 198 77 63 198 77 63 198 77 63 198 77 63 198 77 63 198 77 63 198 77 63 198 77 63 198 77 63 198 77 63 198 77 63 198 77 63 198 77 63 198 77 63 198 77 63 198 77 63 198 77 63 198 77 63 198 77 63 198 77 63 198 77 63 198 77 63 198 77 63 198 77 63 198 77 63 198 77 63 198 77 63 198 77 63 198 77 63 198 77 63 198 77 63 198 77 63 198 77 63 198 77 63 198 77 63 198 77 63 198 77 63 198 77 63 198 77 63 198 77 63 198 77 63 198 77 63 198 77 63 198 77 63 198 77 63 198 77 63 198 77 63 198 77 63 198 77 63 198 77 63 198 77 63 198 77 63 198 77 63 198 77 63 198 77 63 198 77 63 198 77 63 198 77 63 198 77 63 198 255 176 153 77 63 198 77 63 198 77 63 198 77 63 198 77 63 198 77 63 198 77 63 198 77 63 198 77 63 198 77 63 198 77 63 198 77 63 198 77 63 198 77 63 198 77 63 198 77 63 198 77 63 198 77 63 198 77 63 198 255 180 150 255 180 150 255 180 150 77 63 198 77 63 198 77 63 198 77 63 198 77 63 198 77 63 198 77 63 198 50 10 20 50 10 20 50 10 20 50 10 20 50 10 20 50 10 20 50 10 20 50 10 20 50 10 20 50 10 20 50 10 20 50 10 20 50 10 20 50 10 20 50 10 20 77 63 198 77 63 198 255 188 144 255 188 144 255 188 144 77 63 198 77 63 198 77 63 198 77 63 198 77 63 198 77 63 198 77 63 198 77 63 198 255 192 141 255 120 40 255 192 141 77 63 198 77 63 198 77 63 198 77 63 198 77 63 198 77 63 198 77 63 198 255 196 138 255 196 138 255 196 138 77 63 198 77 63 198 77 63 198 77 63 198 77 63 198 77 63 198 77 63 198 77 63 198 77 63 198 255 200 135 255 200 135 255 200 135 77 63 198 77 63 198 77 63 198 77 63 198 77 63 198 77 63 198 77 63 198 77 63 198 77 63 198 77 63 198 77 63 198 77 63 198 77 63 198 77 63 198 77 63 198 77 63 198 77 63 198 77 63 198 77 63 198 77 63 198 77 63 198 77 63 198 77 63 198 77 63 198 77 63 198 77 63 198 77 63 198 77 63 198 77 63 198 77 63 198 77 63 198 77 63 198 77 63 198 77 63 198 77 63 198 77 63 198 77 63 198 77 63 198 77 63 198 77 63 198 77 63 198 77 63 198 77 63 198 77 63 198 77 63 198 77 63 198 77 63 198 77 63 198 77 63 198 77 63 198 77 63 198 77 63 198 77 63 198 77 63 198 77 63 198 77 63 198 77 63 198 77 63 198 77 63 198 77 63 198 255 255 255 255 255 255 77 63 198 77 63 198 77 63 198 77 63 198 77 63 198 77 63 198 77 63 198 77 63 198 77 63 198 77 63 198 77 63 198 77 63 198 77 63 198 77 63 198 77 63 198 77 63 198 77 63 198 77 63 198 77 63 198 77 63 198 77 63 198 77 63 198 77 63 198 77 63 198 77 63 198 77 63 198 77 63 198 77 63 198 77 63 198 77 63 198 77 63 198 77 63 198 77 63 198 77 63 198 77 63 198 77 63 198 77 63 198 77 63 198 77 63 198 77 63 198 77 63 198 77 63 198 77 63 198 77 63 198 77 63 198 77 63 198 77 63 198 77 63 198 77 63 198 77 63 198 77 63 198 77 63 198 77 63 198 77 63 198 77 63 198 77 63 198 77 63 198 77 63 198 77 63 198 77 63 198 77 63 198 77 63 198 77 63 198 77 63 198 77 63 198 77 63 198 77 63 198 77 63 198 77 63 198 77 63 198 77 63 198 77 63 198 77 63 198 77 63 198 77 63 198 77 63 198 77 63 198 77 63 198 77 63 198 77 63 198 77 63 198 77 63 198 77 63 198 77 63 198 77 63 198 77 63 198 77 63 198 77 63 198 77 63 198 77 63 198 77 63 198 77 63 198 77 63 198 77 63 198 77 63 198 77 63 198 77 63 198 77 63 198 77 63 198 77 63 198 77 63 198 77 63 198 77 63 198 77 63 198 77 63 198 77 63 198 
78 62 199 78 62 199 78 62 199 78 62 199 78 62 199 78 62 199 78 62 199 78 62 199 78 62 199 78 62 199 78 62 199 78 62 199 78 62 199 78 62 199 78 62 199 78 62 199 78 62 199 78 62 199 78 62 199 78 62 199 78 62 199 78 62 199 78 62 199 78 62 199 78 62 199 78 62 199 78 62 199 78 62 199 78 62 199 78 62 199 78 62 199 78 62 199 78 62 199 78 62 199 78 62 199 78 62 199 78 62 199 78 62 199 78 62 199 78 62 199 78 62 199 78 62 199 78 62 199 78 62 199 78 62 199 78 62 199 78 62 199 78 62 199 78 62 199 78 62 199 78 62 199 78 62 199 78 62 199 78 62 199 78 62 199 78 62 199 78 62 199 78 62 199 78 62 199 78 62 199 78 62 199 78 62 199 78 62 199 78 62 199 78 62 199 78 62 199 78 62 199 78 62 199 78 62 199 78 62 199 78 62 199 78 62 199 78 62 199 78 62 199 78 62 199 78 62 199 78 62 199 78 62 199 78 62 199 78 62 199 78 62 199 78 62 199 78 62 199 78 62 199 78 62 199 78 62 199 78 62 199 78 62 199 78 62 199 78 62 199 78 62 199 78 62 199 78 62 199 78 62 199 78 62 199 78 62 199 78 62 199 78 62 199 78 62 199 78 62 199 78 62 199 78 62 199 78 62 199 78 62 199 78 62 199 78 62 199 78 62 199 78 62 199 78 62 199 78 62 199 78 62 199 78 62 199 78 62 199 78 62 199 78 62 199 78 62 199 78 62 199 78 62 199 78 62 199 78 62 199 78 62 199 78 62 199 78 62 199 78 62 199 78 62 199 78 62 199 78 62 199 78 62 199 78 62 199 78 62 199 78 62 199 78 62 199 78 62 199 78 62 199 78 62 199 78 62 199 78 62 199 78 62 199 78 62 199 78 62 199 78 62 199 78 62 199 78 62 199 78 62 199 78 62 199 78 62 199 78 62 199 78 62 199 78 62 199 78 62 199 78 62 199 78 62 199 255 180 150 255 180 150 255 180 150 78 62 199 78 62 199 78 62 199 78 62 199 78 62 199 78 62 199 78 62 199 50 10 20 50 10 20 50 10 20 50 10 20 50 10 20 50 10 20 50 10 20 50 10 20 50 10 20 50 10 20 50 10 20 50 10 20 50 10 20 50 10 20 50 10 20 78 62 199 78 62 199 78 62 199 255 188 144 255 188 144 255 188 144 78 62 199 78 62 199 78 62 199 78 62 199 78 62 199 78 62 199 78 62 199 78 62 199 255 192 141 255 120 40 255 192 141 78 62 199 78 62 199 78 62 199 78 62 199 78 62 199 78 62 199 78 62 199 255 196 138 255 196 138 255 196 138 78 62 199 78 62 199 78 62 199 78 62 199 78 62 199 78 62 199 78 62 199 78 62 199 78 62 199 78 62 199 255 200 135 255 200 135 255 200 135 78 62 199 78 62 199 78 62 199 78 62 199 78 62 199 78 62 199 78 62 199 78 62 199 78 62 199 78 62 199 78 62 199 78 62 199 78 62 199 78 62 199 78 62 199 78 62 199 78 62 199 78 62 199 78 62 199 78 62 199 78 62 199 78 62 199 78 62 199 78 62 199 78 62 199 78 62 199 78 62 199 78 62 199 78 62 199 78 62 199 78 62 199 78 62 199 78 62 199 78 62 199 78 62 199 78 62 199 78 62 199 78 62 199 78 62 199 78 62 199 78 62 199 78 62 199 78 62 199 78 62 199 78 62 199 78 62 199 78 62 199 78 62 199 78 62 199 78 62 199 78 62 199 78 62 199 78 62 199 78 62 199 78 62 199 78 62 199 78 62 199 78 62 199 78 62 199 78 62 199 78 62 199 255 255 255 255 255 255 78 62 199 78 62 199 78 62 199 78 62 199 78 62 199 78 62 199 78 62 199 78 62 199 78 62 199 78 62 199 78 62 199 78 62 199 78 62 199 78 62 199 78 62 199 78 62 199 78 62 199 78 62 199 78 62 199 78 62 199 78 62 199 78 62 199 78 62 199 78 62 199 78 62 199 78 62 199 78 62 199 78 62 199 78 62 199 78 62 199 78 62 199 78 62 199 78 62 199 78 62 199 78 62 199 78 62 199 78 62 199 78 62 199 78 62 199 78 62 199 78 62 199 78 62 199 78 62 199 78 62 199 78 62 199 78 62 199 78 62 199 78 62 199 78 62 199 78 62 199 78 62 199 78 62 199 78 62 199 78 62 199 78 62 199 78 62 199 78 62 199 78 62 199 78 62 199 78 62 199 78 62 199 78 62 199 78 62 199 78 62 199 78 62 199 78 62 199 78 62 199 78 62 199 78 62 199 78 62 199 78 62 199 78 62 199 78 62 199 78 62 199 78 62 199 78 62 199 78 62 199 78 62 199 78 62 199 78 62 199 78 62 199 78 62 199 78 62 199 78 62 199 78 62 199 78 62 199 78 62 199 78 62 199 78 62 199 78 62 199 78 62 199 78 62 199 78 62 199 78 62 199 78 62 199 78 62 199 78 62 199 78 62 199 78 62 199 78 62 199 78 62 199 78 62 199 78 62 199 78 62 199 
78 62 199 78 62 199 78 62 199 78 62 199 78 62 199 78 62 199 78 62 199 78 62 199 78 62 199 78 62 199 78 62 199 78 62 199 78 62 199 78 62 199 78 62 199 78 62 199 78 62 199 78 62 199 78 62 199 78 62 199 78 62 199 78 62 199 78 62 199 78 62 199 78 62 199 78 62 199 78 62 199 78 62 199 78 62 199 78 62 199 78 62 199 78 62 199 78 62 199 78 62 199 78 62 199 78 62 199 78 62 199 78 62 199 78 62 199 78 62 199 78 62 199 78 62 199 78 62 199 78 62 199 78 62 199 78 62 199 78 62 199 78 62 199 78 62 199 78 62 199 78 62 199 78 62 199 78 62 199 78 62 199 78 62 199 78 62 199 78 62 199 78 62 199 78 62 199 78 62 199 78 62 199 78 62 199 78 62 199 78 62 199 78 62 199 78 62 199 78 62 199 78 62 199 78 62 199 78 62 199 78 62 199 78 62 199 78 62 199 78 62 199 78 62 199 78 62 199 78 62 199 78 62 199 78 62 199 78 62 199 78 62 199 78 62 199 78 62 199 78 62 199 78 62 199 78 62 199 78 62 199 78 62 199 78 62 199 78 62 199 78 62 199 78 62 199 78 62 199 78 62 199 78 62 199 78 62 199 78 62 199 78 62 199 78 62 199 78 62 199 78 62 199 78 62 199 78 62 199 78 62 199 78 62 199 78 62 199 78 62 199 78 62 199 78 62 199 78 62 199 78 62 199 78 62 199 78 62 199 78 62 199 78 62 199 78 62 199 78 62 199 78 62 199 78 62 199 78 62 199 78 62 199 78 62 199 78 62 199 78 62 199 78 62 199 78 62 199 78 62 199 78 62 199 78 62 199 78 62 199 78 62 199 78 62 199 78 62 199 78 62 199 78 62 199 78 62 199 78 62 199 78 62 199 78 62 199 78 62 199 78 62 199 78 62 199 78 62 199 78 62 199 78 62 199 78 62 199 78 62 199 78 62 199 78 62 199 78 62 199 78 62 199 255 180 150 255 180 150 255 180 150 78 62 199 78 62 199 78 62 199 78 62 199 78 62 199 78 62 199 78 62 199 78 62 199 50 10 20 50 10 20 50 10 20 50 10 20 50 10 20 50 10 20 50 10 20 50 10 20 50 10 20 50 10 20 50 10 20 50 10 20 50 10 20 50 10 20 78 62 199 78 62 199 78 62 199 255 188 144 255 188 144 255 188 144 78 62 199 78 62 199 78 62 199 78 62 199 78 62 199 78 62 199 78 62 199 78 62 199 78 62 199 255 192 141 255 120 40 255 192 141 78 62 199 78 62 199 78 62 199 78 62 199 78 62 199 78 62 199 78 62 199 255 196 138 255 196 138 255 196 138 78 62 199 78 62 199 78 62 199 78 62 199 78 62 199 78 62 199 78 62 199 78 62 199 78 62 199 78 62 199 255 200 135 255 200 135 255 200 135 78 62 199 78 62 199 78 62 199 78 62 199 78 62 199 78 62 199 78 62 199 78 62 199 78 62 199 78 62 199 78 62 199 78 62 199 78 62 199 78 62 199 78 62 199 78 62 199 78 62 199 78 62 199 78 62 199 78 62 199 78 62 199 78 62 199 78 62 199 78 62 199 78 62 199 78 62 199 78 62 199 78 62 199 78 62 199 78 62 199 78 62 199 78 62 199 78 62 199 78 62 199 78 62 199 78 62 199 78 62 199 78 62 199 78 62 199 78 62 199 78 62 199 78 62 199 78 62 199 78 62 199 78 62 199 78 62 199 78 62 199 78 62 199 78 62 199 78 62 199 78 62 199 78 62 199 78 62 199 78 62 199 78 62 199 78 62 199 78 62 199 78 62 199 78 62 199 78 62 199 78 62 199 78 62 199 78 62 199 255 255 255 78 62 199 78 62 199 78 62 199 78 62 199 78 62 199 78 62 199 78 62 199 78 62 199 78 62 199 78 62 199 78 62 199 78 62 199 78 62 199 78 62 199 78 62 199 78 62 199 78 62 199 78 62 199 78 62 199 78 62 199 78 62 199 78 62 199 78 62 199 78 62 199 78 62 199 78 62 199 78 62 199 78 62 199 78 62 199 78 62 199 78 62 199 78 62 199 78 62 199 78 62 199 78 62 199 78 62 199 78 62 199 78 62 199 78 62 199 78 62 199 78 62 199 78 62 199 78 62 199 78 62 199 78 62 199 78 62 199 78 62 199 78 62 199 78 62 199 78 62 199 78 62 199 78 62 199 78 62 199 78 62 199 78 62 199 78 62 199 78 62 199 78 62 199 78 62 199 78 62 199 78 62 199 78 62 199 78 62 199 78 62 199 78 62 199 78 62 199 78 62 199 78 62 199 78 62 199 78 62 199 78 62 199 78 62 199 78 62 199 78 62 199 78 62 199 78 62 199 78 62 199 78 62 199 78 62 199 78 62 199 78 62 199 78 62 199 78 62 199 78 62 199 78 62 199 78 62 199 78 62 199 78 62 199 78 62 199 78 62 199 78 62 199 78 62 199 78 62 199 78 62 199 78 62 199 78 62 199 78 62 199 78 62 199 78 62 199 78 62 199 78 62 199 78 62 199 78 62 199 
78 61 199 78 61 199 78 61 199 78 61 199 78 61 199 78 61 199 78 61 199 78 61 199 78 61 199 78 61 199 78 61 199 78 61 199 78 61 199 78 61 199 78 61 199 78 61 199 78 61 199 78 61 199 78 61 199 78 61 199 78 61 199 78 61 199 78 61 199 78 61 199 78 61 199 78 61 199 78 61 199 78 61 199 78 61 199 78 61 199 78 61 199 78 61 199 78 61 199 78 61 199 78 61 199 78 61 199 78 61 199 78 61 199 78 61 199 78 61 199 78 61 199 78 61 199 78 61 199 78 61 199 78 61 199 78 61 199 78 61 199 78 61 199 78 61 199 78 61 199 78 61 199 78 61 199 78 61 199 78 61 199 78 61 199 78 61 199 78 61 199 78 61 199 78 61 199 78 61 199 78 61 199 78 61 199 78 61 199 78 61 199 78 61 199 78 61 199 78 61 199 78 61 199 78 61 199 78 61 199 78 61 199 78 61 199 78 61 199 78 61 199 78 61 199 78 61 199 78 61 199 78 61 199 78 61 199 78 61 199 78 61 199 78 61 199 78 61 199 78 61 199 78 61 199 78 61 199 78 61 199 78 61 199 78 61 199 78 61 199 78 61 199 78 61 199 78 61 199 78 61 199 78 61 199 78 61 199 78 61 199 78 61 199 78 61 199 78 61 199 78 61 199 78 61 199 78 61 199 78 61 199 78 61 199 78 61 199 78 61 199 78 61 199 78 61 199 78 61 199 78 61 199 78 61 199 78 61 199 78 61 199 78 61 199 78 61 199 78 61 199 78 61 199 78 61 199 78 61 199 78 61 199 78 61 199 78 61 199 78 61 199 78 61 199 78 61 199 78 61 199 78 61 199 78 61 199 78 61 199 78 61 199 78 61 199 78 61 199 78 61 199 78 61 199 78 61 199 78 61 199 78 61 199 78 61 199 78 61 199 78 61 199 78 61 199 78 61 199 78 61 199 78 61 199 78 61 199 78 61 199 78 61 199 78 61 199 78 61 199 255 180 150 255 180 150 255 180 150 78 61 199 78 61 199 78 61 199 78 61 199 78 61 199 78 61 199 78 61 199 78 61 199 78 61 199 50 10 20 50 10 20 50 10 20 50 10 20 50 10 20 50 10 20 50 10 20 50 10 20 50 10 20 50 10 20 50 10 20 50 10 20 50 10 20 78 61 199 78 61 199 78 61 199 78 61 199 255 188 144 255 188 144 255 188 144 78 61 199 78 61 199 78 61 199 78 61 199 78 61 199 78 61 199 78 61 199 78 61 199 78 61 199 255 192 141 255 120 40 255 192 141 78 61 199 78 61 199 78 61 199 78 61 199 78 61 199 78 61 199 78 61 199 78 61 199 255 196 138 255 196 138 255 196 138 78 61 199 78 61 199 78 61 199 78 61 199 78 61 199 78 61 199 78 61 199 78 61 199 78 61 199 78 61 199 78 61 199 78 61 199 78 61 199 78 61 199 78 61 199 78 61 199 78 61 199 78 61 199 78 61 199 78 61 199 78 61 199 78 61 199 78 61 199 78 61 199 78 61 199 78 61 199 78 61 199 78 61 199 78 61 199 78 61 199 78 61 199 78 61 199 78 61 199 78 61 199 78 61 199 78 61 199 78 61 199 78 61 199 78 61 199 78 61 199 78 61 199 78 61 199 78 61 199 78 61 199 78 61 199 78 61 199 78 61 199 78 61 199 78 61 199 78 61 199 78 61 199 78 61 199 78 61 199 78 61 199 78 61 199 78 61 199 78 61 199 78 61 199 78 61 199 78 61 199 78 61 199 78 61 199 78 61 199 78 61 199 78 61 199 78 61 199 78 61 199 78 61 199 78 61 199 78 61 199 78 61 199 78 61 199 78 61 199 78 61 199 78 61 199 78 61 199 255 255 255 255 255 255 78 61 199 78 61 199 78 61 199 78 61 199 78 61 199 78 61 199 78 61 199 78 61 199 78 61 199 78 61 199 78 61 199 78 61 199 78 61 199 78 61 199 78 61 199 78 61 199 78 61 199 78 61 199 78 61 199 78 61 199 78 61 199 78 61 199 78 61 199 78 61 199 78 61 199 78 61 199 78 61 199 78 61 199 78 61 199 78 61 199 78 61 199 78 61 199 78 61 199 78 61 199 78 61 199 78 61 199 78 61 199 78 61 199 78 61 199 78 61 199 78 61 199 78 61 199 78 61 199 78 61 199 78 61 199 78 61 199 78 61 199 78 61 199 78 61 199 78 61 199 78 61 199 78 61 199 78 61 199 78 61 199 78 61 199 78 61 199 78 61 199 78 61 199 78 61 199 78 61 199 78 61 199 78 61 199 78 61 199 78 61 199 78 61 199 78 61 199 78 61 199 78 61 199 78 61 199 78 61 199 78 61 199 78 61 199 78 61 199 78 61 199 78 61 199 78 61 199 78 61 199 78 61 199 78 61 199 78 61 199 78 61 199 78 61 199 78 61 199 78 61 199 78 61 199 78 61 199 78 61 199 78 61 199 78 61 199 78 61 199 78 61 199 78 61 199 78 61 199 78 61 199 78 61 199 78 61 199 78 61 199 78 61 199 78 61 199 78 61 199 78 61 199 
79 61 200 79 61 200 79 61 200 79 61 200 79 61 200 79 61 200 79 61 200 79 61 200 79 61 200 79 61 200 79 61 200 79 61 200 79 61 200 79 61 200 79 61 200 79 61 200 79 61 200 79 61 200 79 61 200 79 61 200 79 61 200 79 61 200 79 61 200 79 61 200 79 61 200 79 61 200 79 61 200 79 61 200 79 61 200 79 61 200 79 61 200 79 61 200 79 61 200 79 61 200 79 61 200 79 61 200 79 61 200 79 61 200 79 61 200 79 61 200 79 61 200 79 61 200 79 61 200 79 61 200 79 61 200 79 61 200 79 61 200 79 61 200 79 61 200 79 61 200 79 61 200 79 61 200 79 61 200 79 61 200 79 61 200 79 61 200 79 61 200 79 61 200 79 61 200 79 61 200 79 61 200 79 61 200 79 61 200 79 61 200 79 61 200 79 61 200 79 61 200 79 61 200 79 61 200 79 61 200 79 61 200 79 61 200 79 61 200 79 61 200 79 61 200 79 61 200 79 61 200 79 61 200 79 61 200 79 61 200 79 61 200 79 61 200 79 61 200 79 61 200 79 61 200 79 61 200 79 61 200 79 61 200 79 61 200 79 61 200 79 61 200 79 61 200 79 61 200 79 61 200 79 61 200 79 61 200 79 61 200 79 61 200 79 61 200 79 61 200 79 61 200 79 61 200 79 61 200 79 61 200 79 61 200 79 61 200 79 61 200 79 61 200 79 61 200 79 61 200 79 61 200 79 61 200 79 61 200 79 61 200 79 61 200 79 61 200 79 61 200 79 61 200 79 61 200 79 61 200 79 61 200 79 61 200 79 61 200 79 61 200 79 61 200 79 61 200 79 61 200 79 61 200 79 61 200 79 61 200 79 61 200 79 61 200 79 61 200 79 61 200 79 61 200 79 61 200 79 61 200 79 61 200 79 61 200 79 61 200 79 61 200 79 61 200 79 61 200 79 61 200 79 61 200 79 61 200 79 61 200 79 61 200 79 61 200 255 180 150 255 180 150 255 180 150 79 61 200 79 61 200 79 61 200 79 61 200 79 61 200 79 61 200 79 61 200 79 61 200 79 61 200 79 61 200 50 10 20 50 10 20 50 10 20 50 10 20 50 10 20 50 10 20 50 10 20 50 10 20 50 10 20 50 10 20 50 10 20 50 10 20 79 61 200 79 61 200 79 61 200 79 61 200 79 61 200 255 188 144 255 188 144 255 188 144 79 61 200 79 61 200 79 61 200 79 61 200 79 61 200 79 61 200 79 61 200 79 61 200 79 61 200 255 192 141 255 120 40 255 192 141 79 61 200 79 61 200 79 61 200 79 61 200 79 61 200 79 61 200 79 61 200 79 61 200 255 196 138 255 196 138 255 196 138 79 61 200 79 61 200 79 61 200 79 61 200 79 61 200 79 61 200 79 61 200 79 61 200 79 61 200 79 61 200 79 61 200 79 61 200 79 61 200 79 61 200 79 61 200 79 61 200 79 61 200 79 61 200 79 61 200 79 61 200 79 61 200 79 61 200 79 61 200 79 61 200 79 61 200 79 61 200 79 61 200 79 61 200 79 61 200 79 61 200 79 61 200 79 61 200 79 61 200 79 61 200 79 61 200 79 61 200 79 61 200 79 61 200 79 61 200 79 61 200 79 61 200 79 61 200 79 61 200 79 61 200 79 61 200 79 61 200 79 61 200 79 61 200 79 61 200 79 61 200 79 61 200 79 61 200 79 61 200 79 61 200 79 61 200 79 61 200 79 61 200 79 61 200 79 61 200 79 61 200 79 61 200 79 61 200 79 61 200 79 61 200 79 61 200 79 61 200 79 61 200 79 61 200 79 61 200 79 61 200 79 61 200 79 61 200 79 61 200 79 61 200 79 61 200 79 61 200 79 61 200 79 61 200 255 255 255 255 255 255 79 61 200 79 61 200 79 61 200 79 61 200 79 61 200 79 61 200 79 61 200 79 61 200 79 61 200 79 61 200 79 61 200 79 61 200 79 61 200 79 61 200 79 61 200 79 61 200 79 61 200 79 61 200 79 61 200 79 61 200 79 61 200 79 61 200 79 61 200 79 61 200 79 61 200 79 61 200 79 61 200 79 61 200 79 61 200 79 61 200 79 61 200 79 61 200 79 61 200 79 61 200 79 61 200 79 61 200 79 61 200 79 61 200 79 61 200 79 61 200 79 61 200 79 61 200 79 61 200 79 61 200 79 61 200 79 61 200 79 61 200 79 61 200 79 61 200 79 61 200 79 61 200 79 61 200 79 61 200 79 61 200 79 61 200 79 61 200 79 61 200 79 61 200 79 61 200 79 61 200 79 61 200 79 61 200 79 61 200 79 61 200 79 61 200 79 61 200 79 61 200 79 61 200 79 61 200 79 61 200 79 61 200 79 61 200 79 61 200 79 61 200 79 61 200 79 61 200 79 61 200 79 61 200 79 61 200 79 61 200 79 61 200 79 61 200 79 61 200 79 61 200 79 61 200 79 61 200 79 61 200 79 61 200 79 61 200 79 61 200 79 61 200 79 61 200 79 61 200 79 61 200 79 61 200 79 61 200 79 61 200 79 61 200 79 61 200 
79 60 200 79 60 200 79 60 200 79 60 200 79 60 200 79 60 200 79 60 200 79 60 200 79 60 200 79 60 200 79 60 200 79 60 200 79 60 200 79 60 200 79 60 200 79 60 200 79 60 200 79 60 200 79 60 200 79 60 200 79 60 200 79 60 200 79 60 200 79 60 200 79 60 200 79 60 200 79 60 200 79 60 200 79 60 200 79 60 200 79 60 200 79 60 200 79 60 200 79 60 200 79 60 200 79 60 200 79 60 200 79 60 200 79 60 200 79 60 200 79 60 200 79 60 200 79 60 200 79 60 200 79 60 200 79 60 200 79 60 200 79 60 200 79 60 200 79 60 200 79 60 200 79 60 200 79 60 200 79 60 200 79 60 200 79 60 200 79 60 200 79 60 200 79 60 200 79 60 200 79 60 200 79 60 200 79 60 200 79 60 200 79 60 200 79 60 200 79 60 200 79 60 200 79 60 200 79 60 200 79 60 200 79 60 200 79 60 200 79 60 200 79 60 200 79 60 200 79 60 200 79 60 200 79 60 200 79 60 200 79 60 200 79 60 200 79 60 200 79 60 200 79 60 200 79 60 200 79 60 200 79 60 200 79 60 200 79 60 200 79 60 200 79 60 200 79 60 200 79 60 200 79 60 200 79 60 200 79 60 200 79 60 200 79 60 200 79 60 200 79 60 200 79 60 200 79 60 200 79 60 200 79 60 200 79 60 200 79 60 200 79 60 200 79 60 200 79 60 200 79 60 200 79 60 200 79 60 200 79 60 200 79 60 200 79 60 200 79 60 200 79 60 200 79 60 200 79 60 200 79 60 200 79 60 200 79 60 200 79 60 200 79 60 200 79 60 200 79 60 200 79 60 200 79 60 200 79 60 200 79 60 200 79 60 200 79 60 200 79 60 200 79 60 200 79 60 200 79 60 200 79 60 200 79 60 200 79 60 200 79 60 200 79 60 200 79 60 200 79 60 200 79 60 200 79 60 200 79 60 200 79 60 200 255 180 150 255 180 150 255 180 150 79 60 200 79 60 200 79 60 200 79 60 200 79 60 200 79 60 200 79 60 200 79 60 200 79 60 200 79 60 200 79 60 200 50 10 20 50 10 20 50 10 20 50 10 20 50 10 20 50 10 20 50 10 20 50 10 20 50 10 20 50 10 20 50 10 20 79 60 200 79 60 200 79 60 200 79 60 200 79 60 200 79 60 200 255 188 144 255 188 144 255 188 144 79 60 200 79 60 200 79 60 200 79 60 200 79 60 200 79 60 200 79 60 200 79 60 200 79 60 200 255 192 141 255 120 40 255 192 141 79 60 200 79 60 200 79 60 200 79 60 200 79 60 200 79 60 200 79 60 200 79 60 200 255 196 138 255 196 138 255 196 138 79 60 200 79 60 200 79 60 200 79 60 200 79 60 200 79 60 200 79 60 200 79 60 200 79 60 200 79 60 200 79 60 200 79 60 200 79 60 200 79 60 200 79 60 200 79 60 200 79 60 200 79 60 200 79 60 200 79 60 200 79 60 200 79 60 200 79 60 200 79 60 200 79 60 200 79 60 200 79 60 200 79 60 200 79 60 200 79 60 200 79 60 200 79 60 200 79 60 200 79 60 200 79 60 200 79 60 200 79 60 200 79 60 200 79 60 200 79 60 200 79 60 200 79 60 200 79 60 200 79 60 200 79 60 200 79 60 200 79 60 200 79 60 200 79 60 200 79 60 200 79 60 200 79 60 200 79 60 200 79 60 200 79 60 200 79 60 200 79 60 200 79 60 200 79 60 200 79 60 200 79 60 200 79 60 200 79 60 200 79 60 200 79 60 200 79 60 200 79 60 200 79 60 200 79 60 200 79 60 200 79 60 200 79 60 200 79 60 200 79 60 200 79 60 200 79 60 200 79 60 200 79 60 200 79 60 200 79 60 200 255 255 255 255 255 255 79 60 200 79 60 200 79 60 200 79 60 200 79 60 200 79 60 200 79 60 200 79 60 200 79 60 200 79 60 200 79 60 200 79 60 200 79 60 200 79 60 200 79 60 200 79 60 200 79 60 200 79 60 200 79 60 200 79 60 200 79 60 200 79 60 200 79 60 200 79 60 200 79 60 200 79 60 200 79 60 200 79 60 200 79 60 200 79 60 200 79 60 200 79 60 200 79 60 200 79 60 200 79 60 200 79 60 200 79 60 200 79 60 200 79 60 200 79 60 200 79 60 200 79 60 200 79 60 200 79 60 200 79 60 200 79 60 200 79 60 200 79 60 200 79 60 200 79 60 200 79 60 200 79 60 200 79 60 200 79 60 200 79 60 200 79 60 200 79 60 200 79 60 200 79 60 200 79 60 200 79 60 200 79 60 200 79 60 200 79 60 200 79 60 200 79 60 200 79 60 200 79 60 200 79 60 200 79 60 200 79 60 200 79 60 200 79 60 200 79 60 200 79 60 200 79 60 200 79 60 200 79 60 200 79 60 200 79 60 200 79 60 200 79 60 200 79 60 200 79 60 200 79 60 200 79 60 200 79 60 200 79 60 200 79 60 200 79 60 200 79 60 200 79 60 200 79 60 200 79 60 200 79 60 200 79 60 200 79 60 200 
79 60 200 79 60 200 79 60 200 79 60 200 79 60 200 79 60 200 79 60 200 79 60 200 79 60 200 79 60 200 79 60 200 79 60 200 79 60 200 79 60 200 79 60 200 79 60 200 79 60 200 79 60 200 79 60 200 79 60 200 79 60 200 79 60 200 79 60 200 79 60 200 79 60 200 79 60 200 79 60 200 79 60 200 79 60 200 79 60 200 79 60 200 79 60 200 79 60 200 79 60 200 79 60 200 79 60 200 79 60 200 79 60 200 79 60 200 79 60 200 79 60 200 79 60 200 79 60 200 79 60 200 79 60 200 79 60 200 79 60 200 79 60 200 79 60 200 79 60 200 79 60 200 79 60 200 79 60 200 79 60 200 79 60 200 79 60 200 79 60 200 79 60 200 79 60 200 79 60 200 79 60 200 79 60 200 79 60 200 79 60 200 79 60 200 79 60 200 79 60 200 79 60 200 79 60 200 79 60 200 79 60 200 79 60 200 79 60 200 79 60 200 79 60 200 79 60 200 79 60 200 79 60 200 79 60 200 79 60 200 79 60 200 79 60 200 79 60 200 79 60 200 79 60 200 79 60 200 79 60 200 79 60 200 79 60 200 79 60 200 79 60 200 79 60 200 79 60 200 79 60 200 79 60 200 79 60 200 79 60 200 79 60 200 79 60 200 79 60 200 79 60 200 79 60 200 79 60 200 79 60 200 79 60 200 79 60 200 79 60 200 79 60 200 79 60 200 79 60 200 79 60 200 79 60 200 79 60 200 79 60 200 79 60 200 79 60 200 79 60 200 79 60 200 79 60 200 79 60 200 79 60 200 79 60 200 79 60 200 79 60 200 79 60 200 79 60 200 79 60 200 79 60 200 79 60 200 79 60 200 79 60 200 79 60 200 79 60 200 79 60 200 79 60 200 79 60 200 79 60 200 79 60 200 79 60 200 79 60 200 79 60 200 79 60 200 79 60 200 79 60 200 79 60 200 79 60 200 79 60 200 79 60 200 255 180 150 255 180 150 255 180 150 79 60 200 79 60 200 79 60 200 79 60 200 79 60 200 79 60 200 79 60 200 79 60 200 79 60 200 79 60 200 79 60 200 50 10 20 50 10 20 50 10 20 50 10 20 50 10 20 50 10 20 50 10 20 50 10 20 50 10 20 50 10 20 79 60 200 79 60 200 79 60 200 79 60 200 79 60 200 79 60 200 255 188 144 255 188 144 255 188 144 79 60 200 79 60 200 79 60 200 79 60 200 79 60 200 79 60 200 79 60 200 79 60 200 79 60 200 79 60 200 255 192 141 255 120 40 255 192 141 79 60 200 79 60 200 79 60 200 79 60 200 79 60 200 79 60 200 79 60 200 79 60 200 255 196 138 255 196 138 255 196 138 79 60 200 79 60 200 79 60 200 79 60 200 79 60 200 79 60 200 79 60 200 79 60 200 79 60 200 79 60 200 79 60 200 79 60 200 79 60 200 79 60 200 79 60 200 79 60 200 79 60 200 79 60 200 79 60 200 79 60 200 79 60 200 79 60 200 79 60 200 79 60 200 79 60 200 79 60 200 79 60 200 79 60 200 79 60 200 79 60 200 79 60 200 79 60 200 79 60 200 79 60 200 79 60 200 79 60 200 79 60 200 79 60 200 79 60 200 79 60 200 79 60 200 79 60 200 79 60 200 79 60 200 79 60 200 79 60 200 79 60 200 79 60 200 79 60 200 79 60 200 79 60 200 79 60 200 79 60 200 79 60 200 79 60 200 79 60 200 79 60 200 79 60 200 79 60 200 79 60 200 79 60 200 79 60 200 79 60 200 79 60 200 79 60 200 79 60 200 79 60 200 79 60 200 79 60 200 79 60 200 79 60 200 79 60 200 79 60 200 79 60 200 79 60 200 79 60 200 79 60 200 79 60 200 79 60 200 79 60 200 79 60 200 79 60 200 255 255 255 79 60 200 79 60 200 79 60 200 79 60 200 79 60 200 79 60 200 79 60 200 79 60 200 79 60 200 79 60 200 79 60 200 79 60 200 79 60 200 79 60 200 79 60 200 79 60 200 79 60 200 79 60 200 79 60 200 79 60 200 79 60 200 79 60 200 79 60 200 79 60 200 79 60 200 79 60 200 79 60 200 79 60 200 79 60 200 79 60 200 79 60 200 79 60 200 79 60 200 79 60 200 79 60 200 79 60 200 79 60 200 79 60 200 79 60 200 79 60 200 79 60 200 79 60 200 79 60 200 79 60 200 79 60 200 79 60 200 79 60 200 79 60 200 79 60 200 79 60 200 79 60 200 79 60 200 79 60 200 79 60 200 79 60 200 79 60 200 79 60 200 79 60 200 79 60 200 79 60 200 79 60 200 79 60 200 79 60 200 79 60 200 79 60 200 79 60 200 79 60 200 79 60 200 79 60 200 79 60 200 79 60 200 79 60 200 79 60 200 79 60 200 79 60 200 79 60 200 79 60 200 79 60 200 79 60 200 79 60 200 79 60 200 79 60 200 79 60 200 79 60 200 79 60 200 79 60 200 79 60 200 79 60 200 79 60 200 79 60 200 79 60 200 79 60 200 79 60 200 79 60 200 79 60 200 79 60 200 
80 59 201 80 59 201 80 59 201 80 59 201 80 59 201 80 59 201 80 59 201 80 59 201 80 59 201 80 59 201 80 59 201 80 59 201 80 59 201 80 59 201 80 59 201 80 59 201 80 59 201 80 59 201 80 59 201 80 59 201 80 59 201 80 59 201 80 59 201 80 59 201 80 59 201 80 59 201 80 59 201 80 59 201 80 59 201 80 59 201 80 59 201 80 59 201 80 59 201 80 59 201 80 59 201 80 59 201 80 59 201 80 59 201 80 59 201 80 59 201 80 59 201 80 59 201 80 59 201 80 59 201 80 59 201 80 59 201 80 59 201 80 59 201 80 59 201 80 59 201 80 59 201 80 59 201 80 59 201 80 59 201 80 59 201 80 59 201 80 59 201 80 59 201 80 59 201 80 59 201 80 59 201 80 59 201 80 59 201 80 59 201 80 59 201 80 59 201 80 59 201 80 59 201 80 59 201 80 59 201 80 59 201 80 59 201 80 59 201 80 59 201 80 59 201 80 59 201 80 59 201 80 59 201 80 59 201 80 59 201 80 59 201 80 59 201 80 59 201 80 59 201 80 59 201 80 59 201 80 59 201 80 59 201 80 59 201 80 59 201 80 59 201 80 59 201 80 59 201 80 59 201 80 59 201 80 59 201 80 59 201 80 59 201 80 59 201 80 59 201 80 59 201 80 59 201 80 59 201 80 59 201 80 59 201 80 59 201 80 59 201 80 59 201 80 59 201 80 59 201 80 59 201 80 59 201 80 59 201 80 59 201 80 59 201 80 59 201 80 59 201 80 59 201 80 59 201 80 59 201 80 59 201 80 59 201 80 59 201 80 59 201 80 59 201 80 59 201 80 59 201 80 59 201 80 59 201 80 59 201 80 59 201 80 59 201 80 59 201 80 59 201 80 59 201 80 59 201 80 59 201 80 59 201 80 59 201 80 59 201 80 59 201 80 59 201 80 59 201 80 59 201 80 59 201 80 59 201 80 59 201 255 180 150 255 180 150 255 180 150 80 59 201 80 59 201 80 59 201 80 59 201 80 59 201 80 59 201 80 59 201 80 59 201 80 59 201 80 59 201 80 59 201 80 59 201 50 10 20 50 10 20 50 10 20 50 10 20 50 10 20 50 10 20 50 10 20 50 10 20 50 10 20 80 59 201 80 59 201 80 59 201 80 59 201 80 59 201 80 59 201 80 59 201 255 188 144 255 188 144 255 188 144 80 59 201 80 59 201 80 59 201 80 59 201 80 59 201 80 59 201 80 59 201 80 59 201 80 59 201 80 59 201 255 192 141 255 120 40 255 192 141 80 59 201 80 59 201 80 59 201 80 59 201 80 59 201 80 59 201 80 59 201 80 59 201 80 59 201 255 196 138 255 196 138 255 196 138 80 59 201 80 59 201 80 59 201 80 59 201 80 59 201 80 59 201 80 59 201 80 59 201 80 59 201 80 59 201 80 59 201 80 59 201 80 59 201 80 59 201 80 59 201 80 59 201 80 59 201 80 59 201 80 59 201 80 59 201 80 59 201 80 59 201 80 59 201 80 59 201 80 59 201 80 59 201 80 59 201 80 59 201 80 59 201 80 59 201 80 59 201 80 59 201 80 59 201 80 59 201 80 59 201 80 59 201 80 59 201 80 59 201 80 59 201 80 59 201 80 59 201 80 59 201 80 59 201 80 59 201 80 59 201 80 59 201 80 59 201 80 59 201 80 59 201 80 59 201 80 59 201 80 59 201 80 59 201 80 59 201 80 59 201 80 59 201 80 59 201 80 59 201 80 59 201 80 59 201 80 59 201 80 59 201 80 59 201 80 59 201 80 59 201 80 59 201 80 59 201 80 59 201 80 59 201 80 59 201 80 59 201 80 59 201 80 59 201 80 59 201 80 59 201 80 59 201 80 59 201 80 59 201 80 59 201 80 59 201 80 59 201 80 59 201 255 255 255 255 255 255 80 59 201 80 59 201 80 59 201 80 59 201 80 59 201 80 59 201 80 59 201 80 59 201 80 59 201 80 59 201 80 59 201 80 59 201 80 59 201 80 59 201 80 59 201 80 59 201 80 59 201 80 59 201 80 59 201 80 59 201 80 59 201 80 59 201 80 59 201 80 59 201 80 59 201 80 59 201 80 59 201 80 59 201 80 59 201 80 59 201 80 59 201 80 59 201 80 59 201 80 59 201 80 59 201 80 59 201 80 59 201 80 59 201 80 59 201 80 59 201 80 59 201 80 59 201 80 59 201 80 59 201 80 59 201 80 59 201 80 59 201 80 59 201 80 59 201 80 59 201 80 59 201 80 59 201 80 59 201 80 59 201 80 59 201 80 59 201 80 59 201 80 59 201 80 59 201 80 59 201 80 59 201 80 59 201 80 59 201 80 59 201 80 59 201 80 59 201 80 59 201 80 59 201 80 59 201 80 59 201 80 59 201 80 59 201 80 59 201 80 59 201 80 59 201 80 59 201 80 59 201 80 59 201 80 59 201 80 59 201 80 59 201 80 59 201 80 59 201 80 59 201 80 59 201 80 59 201 80 59 201 80 59 201 80 59 201 80 59 201 80 59 201 80 59 201 80 59 201 80 59 201 
80 59 201 80 59 201 80 59 201 80 59 201 80 59 201 80 59 201 80 59 201 80 59 201 80 59 201 80 59 201 80 59 201 80 59 201 80 59 201 80 59 201 80 59 201 80 59 201 80 59 201 80 59 201 80 59 201 80 59 201 80 59 201 80 59 201 80 59 201 80 59 201 80 59 201 80 59 201 80 59 201 80 59 201 80 59 201 80 59 201 80 59 201 80 59 201 80 59 201 80 59 201 80 59 201 80 59 201 80 59 201 80 59 201 80 59 201 80 59 201 80 59 201 80 59 201 80 59 201 80 59 201 80 59 201 80 59 201 80 59 201 80 59 201 80 59 201 80 59 201 80 59 201 80 59 201 80 59 201 80 59 201 80 59 201 80 59 201 80 59 201 80 59 201 80 59 201 80 59 201 80 59 201 80 59 201 80 59 201 80 59 201 80 59 201 80 59 201 80 59 201 80 59 201 80 59 201 80 59 201 80 59 201 80 59 201 80 59 201 80 59 201 80 59 201 80 59 201 80 59 201 80 59 201 80 59 201 80 59 201 80 59 201 80 59 201 80 59 201 80 59 201 80 59 201 80 59 201 80 59 201 80 59 201 80 59 201 80 59 201 80 59 201 80 59 201 80 59 201 80 59 201 80 59 201 80 59 201 80 59 201 80 59 201 80 59 201 80 59 201 80 59 201 80 59 201 80 59 201 80 59 201 80 59 201 80 59 201 80 59 201 80 59 201 80 59 201 80 59 201 80 59 201 80 59 201 80 59 201 80 59 201 80 59 201 80 59 201 80 59 201 80 59 201 80 59 201 80 59 201 80 59 201 80 59 201 80 59 201 80 59 201 80 59 201 80 59 201 80 59 201 80 59 201 80 59 201 80 59 201 80 59 201 80 59 201 80 59 201 80 59 201 80 59 201 80 59 201 80 59 201 80 59 201 80 59 201 80 59 201 80 59 201 80 59 201 80 59 201 80 59 201 80 59 201 80 59 201 255 180 150 255 180 150 255 180 150 80 59 201 80 59 201 80 59 201 80 59 201 80 59 201 80 59 201 80 59 201 80 59 201 80 59 201 80 59 201 80 59 201 80 59 201 80 59 201 50 10 20 50 10 20 50 10 20 50 10 20 50 10 20 50 10 20 50 10 20 50 10 20 80 59 201 80 59 201 80 59 201 80 59 201 80 59 201 80 59 201 80 59 201 80 59 201 255 188 144 255 188 144 255 188 144 80 59 201 80 59 201 80 59 201 80 59 201 80 59 201 80 59 201 80 59 201 80 59 201 80 59 201 80 59 201 255 192 141 255 120 40 255 192 141 80 59 201 80 59 201 80 59 201 80 59 201 80 59 201 80 59 201 80 59 201 80 59 201 80 59 201 255 196 138 255 196 138 255 196 138 80 59 201 80 59 201 80 59 201 80 59 201 80 59 201 80 59 201 80 59 201 80 59 201 80 59 201 80 59 201 80 59 201 80 59 201 80 59 201 80 59 201 80 59 201 80 59 201 80 59 201 80 59 201 80 59 201 80 59 201 80 59 201 80 59 201 80 59 201 80 59 201 80 59 201 80 59 201 80 59 201 80 59 201 80 59 201 80 59 201 80 59 201 80 59 201 80 59 201 80 59 201 80 59 201 80 59 201 80 59 201 80 59 201 80 59 201 80 59 201 80 59 201 80 59 201 80 59 201 80 59 201 80 59 201 80 59 201 80 59 201 80 59 201 80 59 201 80 59 201 80 59 201 80 59 201 80 59 201 80 59 201 80 59 201 80 59 201 80 59 201 80 59 201 80 59 201 80 59 201 80 59 201 80 59 201 80 59 201 80 59 201 80 59 201 80 59 201 80 59 201 80 59 201 80 59 201 80 59 201 80 59 201 80 59 201 80 59 201 80 59 201 80 59 201 80 59 201 80 59 201 80 59 201 80 59 201 80 59 201 80 59 201 80 59 201 80 59 201 80 59 201 255 255 255 255 255 255 80 59 201 80 59 201 80 59 201 80 59 201 80 59 201 80 59 201 80 59 201 80 59 201 80 59 201 80 59 201 80 59 201 80 59 201 80 59 201 80 59 201 80 59 201 80 59 201 80 59 201 80 59 201 80 59 201 80 59 201 80 59 201 80 59 201 80 59 201 80 59 201 80 59 201 80 59 201 80 59 201 80 59 201 80 59 201 80 59 201 80 59 201 80 59 201 80 59 201 80 59 201 80 59 201 80 59 201 80 59 201 80 59 201 80 59 201 80 59 201 80 59 201 80 59 201 80 59 201 80 59 201 80 59 201 80 59 201 80 59 201 80 59 201 80 59 201 80 59 201 80 59 201 80 59 201 80 59 201 80 59 201 80 59 201 80 59 201 80 59 201 80 59 201 80 59 201 80 59 201 80 59 201 80 59 201 80 59 201 80 59 201 80 59 201 80 59 201 80 59 201 80 59 201 80 59 201 80 59 201 80 59 201 80 59 201 80 59 201 80 59 201 80 59 201 80 59 201 80 59 201 80 59 201 80 59 201 80 59 201 80 59 201 80 59 201 80 59 201 80 59 201 80 59 201 80 59 201 80 59 201 80 59 201 80 59 201 80 59 201 80 59 201 80 59 201 
81 58 201 81 58 201 81 58 201 81 58 201 81 58 201 81 58 201 81 58 201 81 58 201 81 58 201 81 58 201 81 58 201 81 58 201 81 58 201 81 58 201 81 58 201 81 58 201 81 58 201 81 58 201 81 58 201 81 58 201 81 58 201 81 58 201 81 58 201 81 58 201 81 58 201 81 58 201 81 58 201 81 58 201 81 58 201 81 58 201 81 58 201 81 58 201 81 58 201 81 58 201 81 58 201 81 58 201 81 58 201 81 58 201 81 58 201 81 58 201 81 58 201 81 58 201 81 58 201 81 58 201 81 58 201 81 58 201 81 58 201 81 58 201 81 58 201 81 58 201 81 58 201 81 58 201 81 58 201 81 58 201 81 58 201 81 58 201 81 58 201 81 58 201 81 58 201 81 58 201 81 58 201 81 58 201 81 58 201 81 58 201 81 58 201 81 58 201 81 58 201 81 58 201 81 58 201 81 58 201 81 58 201 81 58 201 81 58 201 81 58 201 81 58 201 81 58 201 81 58 201 81 58 201 81 58 201 81 58 201 81 58 201 81 58 201 81 58 201 81 58 201 81 58 201 81 58 201 81 58 201 81 58 201 81 58 201 81 58 201 81 58 201 81 58 201 81 58 201 81 58 201 81 58 201 81 58 201 81 58 201 81 58 201 81 58 201 81 58 201 81 58 201 81 58 201 81 58 201 81 58 201 81 58 201 81 58 201 81 58 201 81 58 201 81 58 201 81 58 201 81 58 201 81 58 201 81 58 201 81 58 201 81 58 201 81 58 201 81 58 201 81 58 201 81 58 201 81 58 201 81 58 201 81 58 201 81 58 201 81 58 201 81 58 201 81 58 201 81 58 201 81 58 201 81 58 201 81 58 201 81 58 201 81 58 201 81 58 201 81 58 201 81 58 201 81 58 201 81 58 201 81 58 201 81 58 201 81 58 201 81 58 201 81 58 201 81 58 201 81 58 201 81 58 201 81 58 201 81 58 201 81 58 201 81 58 201 81 58 201 81 58 201 81 58 201 81 58 201 81 58 201 81 58 201 81 58 201 81 58 201 81 58 201 81 58 201 81 58 201 81 58 201 81 58 201 50 10 20 50 10 20 50 10 20 50 10 20 50 10 20 50 10 20 50 10 20 81 58 201 81 58 201 81 58 201 81 58 201 81 58 201 81 58 201 81 58 201 81 58 201 81 58 201 255 188 144 255 188 144 255 188 144 81 58 201 81 58 201 81 58 201 81 58 201 81 58 201 81 58 201 81 58 201 81 58 201 81 58 201 81 58 201 255 192 141 255 120 40 255 192 141 81 58 201 81 58 201 81 58 201 81 58 201 81 58 201 81 58 201 81 58 201 81 58 201 81 58 201 255 196 138 255 196 138 255 196 138 81 58 201 81 58 201 81 58 201 81 58 201 81 58 201 81 58 201 81 58 201 81 58 201 81 58 201 81 58 201 81 58 201 81 58 201 81 58 201 81 58 201 81 58 201 81 58 201 81 58 201 81 58 201 81 58 201 81 58 201 81 58 201 81 58 201 81 58 201 81 58 201 81 58 201 81 58 201 81 58 201 81 58 201 81 58 201 81 58 201 81 58 201 81 58 201 81 58 201 81 58 201 81 58 201 81 58 201 81 58 201 81 58 201 81 58 201 81 58 201 81 58 201 81 58 201 81 58 201 81 58 201 81 58 201 81 58 201 81 58 201 81 58 201 81 58 201 81 58 201 81 58 201 81 58 201 81 58 201 81 58 201 81 58 201 81 58 201 81 58 201 81 58 201 81 58 201 81 58 201 81 58 201 81 58 201 81 58 201 81 58 201 81 58 201 81 58 201 81 58 201 81 58 201 81 58 201 81 58 201 81 58 201 81 58 201 81 58 201 81 58 201 81 58 201 81 58 201 81 58 201 81 58 201 81 58 201 81 58 201 81 58 201 81 58 201 81 58 201 81 58 201 81 58 201 81 58 201 255 255 255 255 255 255 81 58 201 81 58 201 81 58 201 81 58 201 81 58 201 81 58 201 81 58 201 81 58 201 81 58 201 81 58 201 81 58 201 81 58 201 81 58 201 81 58 201 81 58 201 81 58 201 81 58 201 81 58 201 81 58 201 81 58 201 81 58 201 81 58 201 81 58 201 81 58 201 81 58 201 81 58 201 81 58 201 81 58 201 81 58 201 81 58 201 81 58 201 81 58 201 81 58 201 81 58 201 81 58 201 81 58 201 81 58 201 81 58 201 81 58 201 81 58 201 81 58 201 81 58 201 81 58 201 81 58 201 81 58 201 81 58 201 81 58 201 81 58 201 81 58 201 81 58 201 81 58 201 81 58 201 81 58 201 81 58 201 81 58 201 81 58 201 81 58 201 81 58 201 81 58 201 81 58 201 81 58 201 81 58 201 81 58 201 81 58 201 81 58 201 81 58 201 81 58 201 81 58 201 81 58 201 81 58 201 81 58 201 81 58 201 81 58 201 81 58 201 81 58 201 81 58 201 81 58 201 81 58 201 81 58 201 81 58 201 81 58 201 81 58 201 81 58 201 81 58 201 81 58 201 81 58 201 81 58 201 81 58 201 81 58 201 81 58 201 
81 57 202 81 57 202 81 57 202 81 57 202 81 57 202 81 57 202 81 57 202 81 57 202 81 57 202 81 57 202 81 57 202 81 57 202 81 57 202 81 57 202 81 57 202 81 57 202 81 57 202 81 57 202 81 57 202 81 57 202 81 57 202 81 57 202 81 57 202 81 57 202 81 57 202 81 57 202 81 57 202 81 57 202 81 57 202 81 57 202 81 57 202 81 57 202 81 57 202 81 57 202 81 57 202 81 57 202 81 57 202 81 57 202 81 57 202 81 57 202 81 57 202 81 57 202 81 57 202 81 57 202 81 57 202 81 57 202 81 57 202 81 57 202 81 57 202 81 57 202 81 57 202 81 57 202 81 57 202 81 57 202 81 57 202 81 57 202 81 57 202 81 57 202 81 57 202 81 57 202 81 57 202 81 57 202 81 57 202 81 57 202 81 57 202 81 57 202 81 57 202 81 57 202 81 57 202 81 57 202 81 57 202 81 57 202 81 57 202 81 57 202 81 57 202 81 57 202 81 57 202 81 57 202 81 57 202 81 57 202 81 57 202 81 57 202 81 57 202 81 57 202 81 57 202 81 57 202 81 57 202 81 57 202 81 57 202 81 57 202 81 57 202 81 57 202 81 57 202 81 57 202 81 57 202 81 57 202 81 57 202 81 57 202 81 57 202 81 57 202 81 57 202 81 57 202 81 57 202 81 57 202 81 57 202 81 57 202 81 57 202 81 57 202 81 57 202 81 57 202 81 57 202 81 57 202 81 57 202 81 57 202 81 57 202 81 57 202 81 57 202 81 57 202 81 57 202 81 57 202 81 57 202 81 57 202 81 57 202 81 57 202 81 57 202 81 57 202 81 57 202 81 57 202 81 57 202 81 57 202 81 57 202 81 57 202 81 57 202 81 57 202 81 57 202 81 57 202 81 57 202 81 57 202 81 57 202 81 57 202 81 57 202 81 57 202 81 57 202 81 57 202 81 57 202 81 57 202 81 57 202 81 57 202 81 57 202 81 57 202 81 57 202 81 57 202 81 57 202 81 57 202 81 57 202 81 57 202 81 57 202 81 57 202 81 57 202 81 57 202 81 57 202 81 57 202 50 10 20 50 10 20 50 10 20 50 10 20 50 10 20 50 10 20 81 57 202 81 57 202 81 57 202 81 57 202 81 57 202 81 57 202 81 57 202 81 57 202 81 57 202 255 188 144 255 188 144 255 188 144 81 57 202 81 57 202 81 57 202 81 57 202 81 57 202 81 57 202 81 57 202 81 57 202 81 57 202 81 57 202 81 57 202 255 192 141 255 120 40 255 192 141 81 57 202 81 57 202 81 57 202 81 57 202 81 57 202 81 57 202 81 57 202 81 57 202 81 57 202 81 57 202 81 57 202 81 57 202 81 57 202 81 57 202 81 57 202 81 57 202 81 57 202 81 57 202 81 57 202 81 57 202 81 57 202 81 57 202 81 57 202 81 57 202 81 57 202 81 57 202 81 57 202 81 57 202 81 57 202 81 57 202 81 57 202 81 57 202 81 57 202 81 57 202 81 57 202 81 57 202 81 57 202 81 57 202 81 57 202 81 57 202 81 57 202 81 57 202 81 57 202 81 57 202 81 57 202 81 57 202 81 57 202 81 57 202 81 57 202 81 57 202 81 57 202 81 57 202 81 57 202 81 57 202 81 57 202 81 57 202 81 57 202 81 57 202 81 57 202 81 57 202 81 57 202 81 57 202 81 57 202 81 57 202 81 57 202 81 57 202 81 57 202 81 57 202 81 57 202 81 57 202 81 57 202 81 57 202 81 57 202 81 57 202 81 57 202 81 57 202 81 57 202 81 57 202 81 57 202 81 57 202 81 57 202 81 57 202 81 57 202 81 57 202 81 57 202 81 57 202 81 57 202 81 57 202 81 57 202 81 57 202 81 57 202 81 57 202 81 57 202 81 57 202 81 57 202 81 57 202 81 57 202 81 57 202 81 57 202 81 57 202 255 255 255 255 255 255 81 57 202 81 57 202 81 57 202 81 57 202 81 57 202 81 57 202 81 57 202 81 57 202 81 57 202 81 57 202 81 57 202 81 57 202 81 57 202 81 57 202 81 57 202 81 57 202 81 57 202 81 57 202 81 57 202 81 57 202 81 57 202 81 57 202 81 57 202 81 57 202 81 57 202 81 57 202 81 57 202 81 57 202 81 57 202 81 57 202 81 57 202 81 57 202 81 57 202 81 57 202 81 57 202 81 57 202 81 57 202 81 57 202 81 57 202 81 57 202 81 57 202 81 57 202 81 57 202 81 57 202 81 57 202 81 57 202 81 57 202 81 57 202 81 57 202 81 57 202 81 57 202 81 57 202 81 57 202 81 57 202 81 57 202 81 57 202 81 57 202 81 57 202 81 57 202 81 57 202 81 57 202 81 57 202 81 57 202 81 57 202 81 57 202 81 57 202 81 57 202 81 57 202 81 57 202 81 57 202 81 57 202 81 57 202 81 57 202 81 57 202 81 57 202 81 57 202 81 57 202 81 57 202 81 57 202 81 57 202 81 57 202 81 57 202 81 57 202 81 57 202 81 57 202 81 57 202 81 57 202 81 57 202 
81 57 202 81 57 202 81 57 202 81 57 202 81 57 202 81 57 202 81 57 202 81 57 202 81 57 202 81 57 202 81 57 202 81 57 202 81 57 202 81 57 202 81 57 202 81 57 202 81 57 202 81 57 202 81 57 202 81 57 202 81 57 202 81 57 202 81 57 202 81 57 202 81 57 202 81 57 202 81 57 202 81 57 202 81 57 202 81 57 202 81 57 202 81 57 202 81 57 202 81 57 202 81 57 202 81 57 202 81 57 202 81 57 202 81 57 202 81 57 202 81 57 202 81 57 202 81 57 202 81 57 202 81 57 202 81 57 202 81 57 202 81 57 202 81 57 202 81 57 202 81 57 202 81 57 202 81 57 202 81 57 202 81 57 202 81 57 202 81 57 202 81 57 202 81 57 202 81 57 202 81 57 202 81 57 202 81 57 202 81 57 202 81 57 202 81 57 202 81 57 202 81 57 202 81 57 202 81 57 202 81 57 202 81 57 202 81 57 202 81 57 202 81 57 202 81 57 202 81 57 202 81 57 202 81 57 202 81 57 202 81 57 202 81 57 202 81 57 202 81 57 202 81 57 202 81 57 202 81 57 202 81 57 202 81 57 202 81 57 202 81 57 202 81 57 202 81 57 202 81 57 202 81 57 202 81 57 202 81 57 202 81 57 202 81 57 202 81 57 202 81 57 202 81 57 202 81 57 202 81 57 202 81 57 202 81 57 202 81 57 202 81 57 202 81 57 202 81 57 202 81 57 202 81 57 202 81 57 202 81 57 202 81 57 202 81 57 202 81 57 202 81 57 202 81 57 202 81 57 202 81 57 202 81 57 202 81 57 202 81 57 202 81 57 202 81 57 202 81 57 202 81 57 202 81 57 202 81 57 202 81 57 202 81 57 202 81 57 202 81 57 202 81 57 202 81 57 202 81 57 202 81 57 202 81 57 202 81 57 202 81 57 202 81 57 202 81 57 202 81 57 202 81 57 202 81 57 202 81 57 202 81 57 202 81 57 202 81 57 202 81 57 202 81 57 202 81 57 202 81 57 202 81 57 202 81 57 202 81 57 202 81 57 202 81 57 202 81 57 202 81 57 202 81 57 202 50 10 20 50 10 20 50 10 20 50 10 20 50 10 20 81 57 202 81 57 202 81 57 202 81 57 202 81 57 202 81 57 202 81 57 202 81 57 202 81 57 202 81 57 202 255 188 144 255 188 144 255 188 144 81 57 202 81 57 202 81 57 202 81 57 202 81 57 202 81 57 202 81 57 202 81 57 202 81 57 202 81 57 202 81 57 202 255 192 141 255 120 40 255 192 141 81 57 202 81 57 202 81 57 202 81 57 202 81 57 202 81 57 202 81 57 202 81 57 202 81 57 202 81 57 202 81 57 202 81 57 202 81 57 202 81 57 202 81 57 202 81 57 202 81 57 202 81 57 202 81 57 202 81 57 202 81 57 202 81 57 202 81 57 202 81 57 202 81 57 202 81 57 202 81 57 202 81 57 202 81 57 202 81 57 202 81 57 202 81 57 202 81 57 202 81 57 202 81 57 202 81 57 202 81 57 202 81 57 202 81 57 202 81 57 202 81 57 202 81 57 202 81 57 202 81 57 202 81 57 202 81 57 202 81 57 202 81 57 202 81 57 202 81 57 202 81 57 202 81 57 202 81 57 202 81 57 202 81 57 202 81 57 202 81 57 202 81 57 202 81 57 202 81 57 202 81 57 202 81 57 202 81 57 202 81 57 202 81 57 202 81 57 202 81 57 202 81 57 202 81 57 202 81 57 202 81 57 202 81 57 202 81 57 202 81 57 202 81 57 202 81 57 202 81 57 202 81 57 202 81 57 202 81 57 202 81 57 202 81 57 202 81 57 202 81 57 202 81 57 202 81 57 202 81 57 202 81 57 202 81 57 202 81 57 202 81 57 202 81 57 202 81 57 202 81 57 202 81 57 202 81 57 202 81 57 202 81 57 202 81 57 202 81 57 202 81 57 202 81 57 202 255 255 255 81 57 202 81 57 202 81 57 202 81 57 202 81 57 202 81 57 202 81 57 202 81 57 202 81 57 202 81 57 202 81 57 202 81 57 202 81 57 202 81 57 202 81 57 202 81 57 202 81 57 202 81 57 202 81 57 202 81 57 202 81 57 202 81 57 202 81 57 202 81 57 202 81 57 202 81 57 202 81 57 202 81 57 202 81 57 202 81 57 202 81 57 202 81 57 202 81 57 202 81 57 202 81 57 202 81 57 202 81 57 202 81 57 202 81 57 202 81 57 202 81 57 202 81 57 202 81 57 202 81 57 202 81 57 202 81 57 202 81 57 202 81 57 202 81 57 202 81 57 202 81 57 202 81 57 202 81 57 202 81 57 202 81 57 202 81 57 202 81 57 202 81 57 202 81 57 202 81 57 202 81 57 202 81 57 202 81 57 202 81 57 202 81 57 202 81 57 202 81 57 202 81 57 202 81 57 202 81 57 202 81 57 202 81 57 202 81 57 202 81 57 202 81 57 202 81 57 202 81 57 202 81 57 202 81 57 202 81 57 202 81 57 202 81 57 202 81 57 202 81 57 202 81 57 202 81 57 202 81 57 202 
82 56 202 82 56 202 82 56 202 82 56 202 82 56 202 82 56 202 82 56 202 82 56 202 82 56 202 82 56 202 82 56 202 82 56 202 82 56 202 82 56 202 82 56 202 82 56 202 82 56 202 82 56 202 82 56 202 82 56 202 82 56 202 82 56 202 82 56 202 82 56 202 82 56 202 82 56 202 82 56 202 82 56 202 82 56 202 82 56 202 82 56 202 82 56 202 82 56 202 82 56 202 82 56 202 82 56 202 82 56 202 82 56 202 82 56 202 82 56 202 82 56 202 82 56 202 82 56 202 82 56 202 82 56 202 82 56 202 82 56 202 82 56 202 82 56 202 82 56 202 82 56 202 82 56 202 82 56 202 82 56 202 82 56 202 82 56 202 82 56 202 82 56 202 82 56 202 82 56 202 82 56 202 82 56 202 82 56 202 82 56 202 82 56 202 82 56 202 82 56 202 82 56 202 82 56 202 82 56 202 82 56 202 82 56 202 82 56 202 82 56 202 82 56 202 82 56 202 82 56 202 82 56 202 82 56 202 82 56 202 82 56 202 82 56 202 82 56 202 82 56 202 82 56 202 82 56 202 82 56 202 82 56 202 82 56 202 82 56 202 82 56 202 82 56 202 82 56 202 82 56 202 82 56 202 82 56 202 82 56 202 82 56 202 82 56 202 82 56 202 82 56 202 82 56 202 82 56 202 82 56 202 82 56 202 82 56 202 82 56 202 82 56 202 82 56 202 82 56 202 82 56 202 82 56 202 82 56 202 82 56 202 82 56 202 82 56 202 82 56 202 82 56 202 82 56 202 82 56 202 82 56 202 82 56 202 82 56 202 82 56 202 82 56 202 82 56 202 82 56 202 82 56 202 82 56 202 82 56 202 82 56 202 82 56 202 82 56 202 82 56 202 82 56 202 82 56 202 82 56 202 82 56 202 82 56 202 82 56 202 82 56 202 82 56 202 82 56 202 82 56 202 82 56 202 82 56 202 82 56 202 82 56 202 82 56 202 82 56 202 82 56 202 82 56 202 82 56 202 82 56 202 82 56 202 82 56 202 82 56 202 82 56 202 82 56 202 82 56 202 82 56 202 82 56 202 50 10 20 50 10 20 50 10 20 50 10 20 82 56 202 82 56 202 82 56 202 82 56 202 82 56 202 82 56 202 82 56 202 82 56 202 82 56 202 82 56 202 82 56 202 255 188 144 255 188 144 255 188 144 82 56 202 82 56 202 82 56 202 82 56 202 82 56 202 82 56 202 82 56 202 82 56 202 82 56 202 82 56 202 82 56 202 255 192 141 255 120 40 255 192 141 82 56 202 82 56 202 82 56 202 82 56 202 82 56 202 82 56 202 82 56 202 82 56 202 82 56 202 82 56 202 82 56 202 82 56 202 82 56 202 82 56 202 82 56 202 82 56 202 82 56 202 82 56 202 82 56 202 82 56 202 82 56 202 82 56 202 82 56 202 82 56 202 82 56 202 82 56 202 82 56 202 82 56 202 82 56 202 82 56 202 82 56 202 82 56 202 82 56 202 82 56 202 82 56 202 82 56 202 82 56 202 82 56 202 82 56 202 82 56 202 82 56 202 82 56 202 82 56 202 82 56 202 82 56 202 82 56 202 82 56 202 82 56 202 82 56 202 82 56 202 82 56 202 82 56 202 82 56 202 82 56 202 82 56 202 82 56 202 82 56 202 82 56 202 82 56 202 82 56 202 82 56 202 82 56 202 82 56 202 82 56 202 82 56 202 82 56 202 82 56 202 82 56 202 82 56 202 82 56 202 82 56 202 82 56 202 82 56 202 82 56 202 82 56 202 82 56 202 82 56 202 82 56 202 82 56 202 82 56 202 82 56 202 82 56 202 82 56 202 82 56 202 82 56 202 82 56 202 82 56 202 82 56 202 82 56 202 82 56 202 82 56 202 82 56 202 82 56 202 82 56 202 82 56 202 82 56 202 82 56 202 82 56 202 82 56 202 82 56 202 82 56 202 82 56 202 82 56 202 255 255 255 255 255 255 82 56 202 82 56 202 82 56 202 82 56 202 82 56 202 82 56 202 82 56 202 82 56 202 82 56 202 82 56 202 82 56 202 82 56 202 82 56 202 82 56 202 82 56 202 82 56 202 82 56 202 82 56 202 82 56 202 82 56 202 82 56 202 82 56 202 82 56 202 82 56 202 82 56 202 82 56 202 82 56 202 82 56 202 82 56 202 82 56 202 82 56 202 82 56 202 82 56 202 82 56 202 82 56 202 82 56 202 82 56 202 82 56 202 82 56 202 82 56 202 82 56 202 82 56 202 82 56 202 82 56 202 82 56 202 82 56 202 82 56 202 82 56 202 82 56 202 82 56 202 82 56 202 82 56 202 82 56 202 82 56 202 82 56 202 82 56 202 82 56 202 82 56 202 82 56 202 82 56 202 82 56 202 82 56 202 82 56 202 82 56 202 82 56 202 82 56 202 82 56 202 82 56 202 82 56 202 82 56 202 82 56 202 82 56 202 82 56 202 82 56 202 82 56 202 82 56 202 82 56 202 82 56 202 82 56 202 82 56 202 82 56 202 82 56 202 82 56 202 82 56 202 82 56 202 
82 56 202 82 56 202 82 56 202 82 56 202 82 56 202 82 56 202 82 56 202 82 56 202 82 56 202 82 56 202 82 56 202 82 56 202 82 56 202 82 56 202 82 56 202 82 56 202 82 56 202 82 56 202 82 56 202 82 56 202 82 56 202 82 56 202 82 56 202 82 56 202 82 56 202 82 56 202 82 56 202 82 56 202 82 56 202 82 56 202 82 56 202 82 56 202 82 56 202 82 56 202 82 56 202 82 56 202 82 56 202 82 56 202 82 56 202 82 56 202 82 56 202 82 56 202 82 56 202 82 56 202 82 56 202 82 56 202 82 56 202 82 56 202 82 56 202 82 56 202 82 56 202 82 56 202 82 56 202 82 56 202 82 56 202 82 56 202 82 56 202 82 56 202 82 56 202 82 56 202 82 56 202 82 56 202 82 56 202 82 56 202 82 56 202 82 56 202 82 56 202 82 56 202 82 56 202 82 56 202 82 56 202 82 56 202 82 56 202 82 56 202 82 56 202 82 56 202 82 56 202 82 56 202 82 56 202 82 56 202 82 56 202 82 56 202 82 56 202 82 56 202 82 56 202 82 56 202 82 56 202 82 56 202 82 56 202 82 56 202 82 56 202 82 56 202 82 56 202 82 56 202 82 56 202 82 56 202 82 56 202 82 56 202 82 56 202 82 56 202 82 56 202 82 56 202 82 56 202 82 56 202 82 56 202 82 56 202 82 56 202 82 56 202 82 56 202 82 56 202 82 56 202 82 56 202 82 56 202 82 56 202 82 56 202 82 56 202 82 56 202 82 56 202 82 56 202 82 56 202 82 56 202 82 56 202 82 56 202 82 56 202 82 56 202 82 56 202 82 56 202 82 56 202 82 56 202 82 56 202 82 56 202 82 56 202 82 56 202 82 56 202 82 56 202 82 56 202 82 56 202 82 56 202 82 56 202 82 56 202 82 56 202 82 56 202 82 56 202 82 56 202 82 56 202 82 56 202 82 56 202 82 56 202 82 56 202 82 56 202 82 56 202 82 56 202 82 56 202 82 56 202 82 56 202 82 56 202 82 56 202 82 56 202 82 56 202 82 56 202 82 56 202 255 184 147 50 10 20 50 10 20 50 10 20 82 56 202 82 56 202 82 56 202 82 56 202 82 56 202 82 56 202 82 56 202 82 56 202 82 56 202 82 56 202 82 56 202 82 56 202 255 188 144 255 188 144 255 188 144 82 56 202 82 56 202 82 56 202 82 56 202 82 56 202 82 56 202 82 56 202 82 56 202 82 56 202 82 56 202 82 56 202 255 192 141 255 120 40 255 192 141 82 56 202 82 56 202 82 56 202 82 56 202 82 56 202 82 56 202 82 56 202 82 56 202 82 56 202 82 56 202 82 56 202 82 56 202 82 56 202 82 56 202 82 56 202 82 56 202 82 56 202 82 56 202 82 56 202 82 56 202 82 56 202 82 56 202 82 56 202 82 56 202 82 56 202 82 56 202 82 56 202 82 56 202 82 56 202 82 56 202 82 56 202 82 56 202 82 56 202 82 56 202 82 56 202 82 56 202 82 56 202 82 56 202 82 56 202 82 56 202 82 56 202 82 56 202 82 56 202 82 56 202 82 56 202 82 56 202 82 56 202 82 56 202 82 56 202 82 56 202 82 56 202 82 56 202 82 56 202 82 56 202 82 56 202 82 56 202 82 56 202 82 56 202 82 56 202 82 56 202 82 56 202 82 56 202 82 56 202 82 56 202 82 56 202 82 56 202 82 56 202 82 56 202 82 56 202 82 56 202 82 56 202 82 56 202 82 56 202 82 56 202 82 56 202 82 56 202 82 56 202 82 56 202 82 56 202 82 56 202 82 56 202 82 56 202 82 56 202 82 56 202 82 56 202 82 56 202 82 56 202 82 56 202 82 56 202 82 56 202 82 56 202 82 56 202 82 56 202 82 56 202 82 56 202 82 56 202 82 56 202 82 56 202 82 56 202 82 56 202 82 56 202 82 56 202 82 56 202 82 56 202 82 56 202 255 255 255 255 255 255 82 56 202 82 56 202 82 56 202 82 56 202 82 56 202 82 56 202 82 56 202 82 56 202 82 56 202 82 56 202 82 56 202 82 56 202 82 56 202 82 56 202 82 56 202 82 56 202 82 56 202 82 56 202 82 56 202 82 56 202 82 56 202 82 56 202 82 56 202 82 56 202 82 56 202 82 56 202 82 56 202 82 56 202 82 56 202 82 56 202 82 56 202 82 56 202 82 56 202 82 56 202 82 56 202 82 56 202 82 56 202 82 56 202 82 56 202 82 56 202 82 56 202 82 56 202 82 56 202 82 56 202 82 56 202 82 56 202 82 56 202 82 56 202 82 56 202 82 56 202 82 56 202 82 56 202 82 56 202 82 56 202 82 56 202 82 56 202 82 56 202 82 56 202 82 56 202 82 56 202 82 56 202 82 56 202 82 56 202 82 56 202 82 56 202 82 56 202 82 56 202 82 56 202 82 56 202 82 56 202 82 56 202 82 56 202 82 56 202 82 56 202 82 56 202 82 56 202 82 56 202 82 56 202 82 56 202 82 56 202 82 56 202 82 56 202 82 56 202 
82 55 203 82 55 203 82 55 203 82 55 203 82 55 203 82 55 203 82 55 203 82 55 203 82 55 203 82 55 203 82 55 203 82 55 203 82 55 203 82 55 203 82 55 203 82 55 203 82 55 203 82 55 203 82 55 203 82 55 203 82 55 203 82 55 203 82 55 203 82 55 203 82 55 203 82 55 203 82 55 203 82 55 203 82 55 203 82 55 203 82 55 203 82 55 203 82 55 203 82 55 203 82 55 203 82 55 203 82 55 203 82 55 203 82 55 203 82 55 203 82 55 203 82 55 203 82 55 203 82 55 203 82 55 203 82 55 203 82 55 203 82 55 203 82 55 203 82 55 203 82 55 203 82 55 203 82 55 203 82 55 203 82 55 203 82 55 203 82 55 203 82 55 203 82 55 203 82 55 203 82 55 203 82 55 203 82 55 203 82 55 203 82 55 203 82 55 203 82 55 203 82 55 203 82 55 203 82 55 203 82 55 203 82 55 203 82 55 203 82 55 203 82 55 203 82 55 203 82 55 203 82 55 203 82 55 203 82 55 203 82 55 203 82 55 203 82 55 203 82 55 203 82 55 203 82 55 203 82 55 203 82 55 203 82 55 203 82 55 203 82 55 203 82 55 203 82 55 203 82 55 203 82 55 203 82 55 203 82 55 203 82 55 203 82 55 203 82 55 203 82 55 203 82 55 203 82 55 203 82 55 203 82 55 203 82 55 203 82 55 203 82 55 203 82 55 203 82 55 203 82 55 203 82 55 203 82 55 203 82 55 203 82 55 203 82 55 203 82 55 203 82 55 203 82 55 203 82 55 203 82 55 203 82 55 203 82 55 203 82 55 203 82 55 203 82 55 203 82 55 203 82 55 203 82 55 203 82 55 203 82 55 203 82 55 203 82 55 203 82 55 203 82 55 203 82 55 203 82 55 203 82 55 203 82 55 203 82 55 203 82 55 203 82 55 203 82 55 203 82 55 203 82 55 203 82 55 203 82 55 203 82 55 203 82 55 203 82 55 203 82 55 203 82 55 203 82 55 203 82 55 203 82 55 203 82 55 203 82 55 203 82 55 203 82 55 203 82 55 203 82 55 203 255 184 147 50 10 20 50 10 20 82 55 203 82 55 203 82 55 203 82 55 203 82 55 203 82 55 203 82 55 203 82 55 203 82 55 203 82 55 203 82 55 203 82 55 203 255 188 144 255 188 144 255 188 144 82 55 203 82 55 203 82 55 203 82 55 203 82 55 203 82 55 203 82 55 203 82 55 203 82 55 203 82 55 203 82 55 203 82 55 203 255 192 141 255 120 40 255 192 141 82 55 203 82 55 203 82 55 203 82 55 203 82 55 203 82 55 203 82 55 203 82 55 203 82 55 203 82 55 203 82 55 203 82 55 203 82 55 203 82 55 203 82 55 203 82 55 203 82 55 203 82 55 203 82 55 203 82 55 203 82 55 203 82 55 203 82 55 203 82 55 203 82 55 203 82 55 203 82 55 203 82 55 203 82 55 203 82 55 203 82 55 203 82 55 203 82 55 203 82 55 203 82 55 203 82 55 203 82 55 203 82 55 203 82 55 203 82 55 203 82 55 203 82 55 203 82 55 203 82 55 203 82 55 203 82 55 203 82 55 203 82 55 203 82 55 203 82 55 203 82 55 203 82 55 203 82 55 203 82 55 203 82 55 203 82 55 203 82 55 203 82 55 203 82 55 203 82 55 203 82 55 203 82 55 203 82 55 203 82 55 203 82 55 203 82 55 203 82 55 203 82 55 203 82 55 203 82 55 203 82 55 203 82 55 203 82 55 203 82 55 203 82 55 203 82 55 203 82 55 203 82 55 203 82 55 203 82 55 203 82 55 203 82 55 203 82 55 203 82 55 203 82 55 203 82 55 203 82 55 203 82 55 203 82 55 203 82 55 203 82 55 203 82 55 203 82 55 203 82 55 203 82 55 203 82 55 203 82 55 203 82 55 203 82 55 203 82 55 203 82 55 203 82 55 203 82 55 203 82 55 203 82 55 203 82 55 203 82 55 203 255 255 255 255 255 255 82 55 203 82 55 203 82 55 203 82 55 203 82 55 203 82 55 203 82 55 203 82 55 203 82 55 203 82 55 203 82 55 203 82 55 203 82 55 203 82 55 203 82 55 203 82 55 203 82 55 203 82 55 203 82 55 203 82 55 203 82 55 203 82 55 203 82 55 203 82 55 203 82 55 203 82 55 203 82 55 203 82 55 203 82 55 203 82 55 203 82 55 203 82 55 203 82 55 203 82 55 203 82 55 203 82 55 203 82 55 203 82 55 203 82 55 203 82 55 203 82 55 203 82 55 203 82 55 203 82 55 203 82 55 203 82 55 203 82 55 203 82 55 203 82 55 203 82 55 203 82 55 203 82 55 203 82 55 203 82 55 203 82 55 203 82 55 203 82 55 203 82 55 203 82 55 203 82 55 203 82 55 203 82 55 203 82 55 203 82 55 203 82 55 203 82 55 203 82 55 203 82 55 203 82 55 203 82 55 203 82 55 203 82 55 203 82 55 203 82 55 203 82 55 203 82 55 203 82 55 203 82 55 203 82 55 203 82 55 203 82 55 203 
83 55 203 83 55 203 83 55 203 83 55 203 83 55 203 83 55 203 83 55 203 83 55 203 83 55 203 83 55 203 83 55 203 83 55 203 83 55 203 83 55 203 83 55 203 83 55 203 83 55 203 83 55 203 83 55 203 83 55 203 83 55 203 83 55 203 83 55 203 83 55 203 83 55 203 83 55 203 83 55 203 83 55 203 83 55 203 83 55 203 83 55 203 83 55 203 83 55 203 83 55 203 83 55 203 83 55 203 83 55 203 83 55 203 83 55 203 83 55 203 83 55 203 83 55 203 83 55 203 83 55 203 83 55 203 83 55 203 83 55 203 83 55 203 83 55 203 83 55 203 83 55 203 83 55 203 83 55 203 83 55 203 83 55 203 83 55 203 83 55 203 83 55 203 83 55 203 83 55 203 83 55 203 83 55 203 83 55 203 83 55 203 83 55 203 83 55 203 83 55 203 83 55 203 83 55 203 83 55 203 83 55 203 83 55 203 83 55 203 83 55 203 83 55 203 83 55 203 83 55 203 83 55 203 83 55 203 83 55 203 83 55 203 83 55 203 83 55 203 83 55 203 83 55 203 83 55 203 83 55 203 83 55 203 83 55 203 83 55 203 83 55 203 83 55 203 83 55 203 83 55 203 83 55 203 83 55 203 83 55 203 83 55 203 83 55 203 83 55 203 83 55 203 83 55 203 83 55 203 83 55 203 83 55 203 83 55 203 83 55 203 83 55 203 83 55 203 83 55 203 83 55 203 83 55 203 83 55 203 83 55 203 83 55 203 83 55 203 83 55 203 83 55 203 83 55 203 83 55 203 83 55 203 83 55 203 83 55 203 83 55 203 83 55 203 83 55 203 83 55 203 83 55 203 83 55 203 83 55 203 83 55 203 83 55 203 83 55 203 83 55 203 83 55 203 83 55 203 83 55 203 83 55 203 83 55 203 83 55 203 83 55 203 83 55 203 83 55 203 83 55 203 83 55 203 83 55 203 83 55 203 83 55 203 83 55 203 83 55 203 83 55 203 83 55 203 83 55 203 83 55 203 83 55 203 83 55 203 83 55 203 83 55 203 83 55 203 83 55 203 83 55 203 83 55 203 50 10 20 83 55 203 83 55 203 83 55 203 83 55 203 83 55 203 83 55 203 83 55 203 83 55 203 83 55 203 83 55 203 83 55 203 83 55 203 83 55 203 255 188 144 255 188 144 255 188 144 83 55 203 83 55 203 83 55 203 83 55 203 83 55 203 83 55 203 83 55 203 83 55 203 83 55 203 83 55 203 83 55 203 83 55 203 83 55 203 255 120 40 83 55 203 83 55 203 83 55 203 83 55 203 83 55 203 83 55 203 83 55 203 83 55 203 83 55 203 83 55 203 83 55 203 83 55 203 83 55 203 83 55 203 83 55 203 83 55 203 83 55 203 83 55 203 83 55 203 83 55 203 83 55 203 83 55 203 83 55 203 83 55 203 83 55 203 83 55 203 83 55 203 83 55 203 83 55 203 83 55 203 83 55 203 83 55 203 83 55 203 83 55 203 83 55 203 83 55 203 83 55 203 83 55 203 83 55 203 83 55 203 83 55 203 83 55 203 83 55 203 83 55 203 83 55 203 83 55 203 83 55 203 83 55 203 83 55 203 83 55 203 83 55 203 83 55 203 83 55 203 83 55 203 83 55 203 83 55 203 83 55 203 83 55 203 83 55 203 83 55 203 83 55 203 83 55 203 83 55 203 83 55 203 83 55 203 83 55 203 83 55 203 83 55 203 83 55 203 83 55 203 83 55 203 83 55 203 83 55 203 83 55 203 83 55 203 83 55 203 83 55 203 83 55 203 83 55 203 83 55 203 83 55 203 83 55 203 83 55 203 83 55 203 83 55 203 83 55 203 83 55 203 83 55 203 83 55 203 83 55 203 83 55 203 83 55 203 83 55 203 83 55 203 83 55 203 83 55 203 83 55 203 83 55 203 83 55 203 83 55 203 83 55 203 83 55 203 83 55 203 83 55 203 83 55 203 83 55 203 83 55 203 83 55 203 83 55 203 83 55 203 255 255 255 83 55 203 83 55 203 83 55 203 83 55 203 83 55 203 83 55 203 83 55 203 83 55 203 83 55 203 83 55 203 83 55 203 83 55 203 83 55 203 83 55 203 83 55 203 83 55 203 83 55 203 83 55 203 83 55 203 83 55 203 83 55 203 83 55 203 83 55 203 83 55 203 83 55 203 83 55 203 83 55 203 83 55 203 83 55 203 83 55 203 83 55 203 83 55 203 83 55 203 83 55 203 83 55 203 83 55 203 83 55 203 83 55 203 83 55 203 83 55 203 83 55 203 83 55 203 83 55 203 83 55 203 83 55 203 83 55 203 83 55 203 83 55 203 83 55 203 83 55 203 83 55 203 83 55 203 83 55 203 83 55 203 83 55 203 83 55 203 83 55 203 83 55 203 83 55 203 83 55 203 83 55 203 83 55 203 83 55 203 83 55 203 83 55 203 83 55 203 83 55 203 83 55 203 83 55 203 83 55 203 83 55 203 83 55 203 83 55 203 83 55 203 83 55 203 83 55 203 83 55 203 83 55 203 83 55 203 83 55 203 
83 54 203 83 54 203 83 54 203 83 54 203 83 54 203 83 54 203 83 54 203 83 54 203 83 54 203 83 54 203 83 54 203 83 54 203 83 54 203 83 54 203 83 54 203 83 54 203 83 54 203 83 54 203 83 54 203 83 54 203 83 54 203 83 54 203 83 54 203 83 54 203 83 54 203 83 54 203 83 54 203 83 54 203 83 54 203 83 54 203 83 54 203 83 54 203 83 54 203 83 54 203 83 54 203 83 54 203 83 54 203 83 54 203 83 54 203 83 54 203 83 54 203 83 54 203 83 54 203 83 54 203 83 54 203 83 54 203 83 54 203 83 54 203 83 54 203 83 54 203 83 54 203 83 54 203 83 54 203 83 54 203 83 54 203 83 54 203 83 54 203 83 54 203 83 54 203 83 54 203 83 54 203 83 54 203 83 54 203 83 54 203 83 54 203 83 54 203 83 54 203 83 54 203 83 54 203 83 54 203 83 54 203 83 54 203 83 54 203 83 54 203 83 54 203 83 54 203 83 54 203 83 54 203 83 54 203 83 54 203 83 54 203 83 54 203 83 54 203 83 54 203 83 54 203 83 54 203 83 54 203 83 54 203 83 54 203 83 54 203 83 54 203 83 54 203 83 54 203 83 54 203 83 54 203 83 54 203 83 54 203 83 54 203 83 54 203 83 54 203 83 54 203 83 54 203 83 54 203 83 54 203 83 54 203 83 54 203 83 54 203 83 54 203 83 54 203 83 54 203 83 54 203 83 54 203 83 54 203 83 54 203 83 54 203 83 54 203 83 54 203 83 54 203 83 54 203 83 54 203 83 54 203 83 54 203 83 54 203 83 54 203 83 54 203 83 54 203 83 54 203 83 54 203 83 54 203 83 54 203 83 54 203 83 54 203 83 54 203 83 54 203 83 54 203 83 54 203 83 54 203 83 54 203 83 54 203 83 54 203 83 54 203 83 54 203 83 54 203 83 54 203 83 54 203 83 54 203 83 54 203 83 54 203 83 54 203 83 54 203 83 54 203 83 54 203 83 54 203 83 54 203 83 54 203 83 54 203 83 54 203 83 54 203 83 54 203 83 54 203 83 54 203 83 54 203 83 54 203 83 54 203 83 54 203 83 54 203 83 54 203 83 54 203 83 54 203 83 54 203 83 54 203 83 54 203 83 54 203 83 54 203 83 54 203 83 54 203 255 188 144 255 188 144 255 188 144 83 54 203 83 54 203 83 54 203 83 54 203 83 54 203 83 54 203 83 54 203 83 54 203 83 54 203 83 54 203 83 54 203 83 54 203 83 54 203 255 120 40 83 54 203 83 54 203 83 54 203 83 54 203 83 54 203 83 54 203 83 54 203 83 54 203 83 54 203 83 54 203 83 54 203 83 54 203 83 54 203 83 54 203 83 54 203 83 54 203 83 54 203 83 54 203 83 54 203 83 54 203 83 54 203 83 54 203 83 54 203 83 54 203 83 54 203 83 54 203 83 54 203 83 54 203 83 54 203 83 54 203 83 54 203 83 54 203 83 54 203 83 54 203 83 54 203 83 54 203 83 54 203 83 54 203 83 54 203 83 54 203 83 54 203 83 54 203 83 54 203 83 54 203 83 54 203 83 54 203 83 54 203 83 54 203 83 54 203 83 54 203 83 54 203 83 54 203 83 54 203 83 54 203 83 54 203 83 54 203 83 54 203 83 54 203 83 54 203 83 54 203 83 54 203 83 54 203 83 54 203 83 54 203 83 54 203 83 54 203 83 54 203 83 54 203 83 54 203 83 54 203 83 54 203 83 54 203 83 54 203 83 54 203 83 54 203 83 54 203 83 54 203 83 54 203 83 54 203 83 54 203 83 54 203 83 54 203 83 54 203 83 54 203 83 54 203 83 54 203 83 54 203 83 54 203 83 54 203 83 54 203 83 54 203 83 54 203 83 54 203 83 54 203 83 54 203 83 54 203 83 54 203 83 54 203 83 54 203 83 54 203 83 54 203 83 54 203 83 54 203 83 54 203 83 54 203 83 54 203 83 54 203 83 54 203 83 54 203 83 54 203 83 54 203 255 255 255 255 255 255 83 54 203 83 54 203 83 54 203 83 54 203 83 54 203 83 54 203 83 54 203 83 54 203 83 54 203 83 54 203 83 54 203 83 54 203 83 54 203 83 54 203 83 54 203 83 54 203 83 54 203 83 54 203 83 54 203 83 54 203 83 54 203 83 54 203 83 54 203 83 54 203 83 54 203 83 54 203 83 54 203 83 54 203 83 54 203 83 54 203 83 54 203 83 54 203 83 54 203 83 54 203 83 54 203 83 54 203 83 54 203 83 54 203 83 54 203 83 54 203 83 54 203 83 54 203 83 54 203 83 54 203 83 54 203 83 54 203 83 54 203 83 54 203 83 54 203 83 54 203 83 54 203 83 54 203 83 54 203 83 54 203 83 54 203 83 54 203 83 54 203 83 54 203 83 54 203 83 54 203 83 54 203 83 54 203 83 54 203 83 54 203 83 54 203 83 54 203 83 54 203 83 54 203 83 54 203 83 54 203 83 54 203 83 54 203 83 54 203 83 54 203 83 54 203 83 54 203 83 54 203 83 54 203 
84 53 204 84 53 204 84 53 204 84 53 204 84 53 204 84 53 204 84 53 204 84 53 204 84 53 204 84 53 204 84 53 204 84 53 204 84 53 204 84 53 204 84 53 204 84 53 204 84 53 204 84 53 204 84 53 204 84 53 204 84 53 204 84 53 204 84 53 204 84 53 204 84 53 204 84 53 204 84 53 204 84 53 204 84 53 204 84 53 204 84 53 204 84 53 204 84 53 204 84 53 204 84 53 204 84 53 204 84 53 204 84 53 204 84 53 204 84 53 204 84 53 204 84 53 204 84 53 204 84 53 204 84 53 204 84 53 204 84 53 204 84 53 204 84 53 204 84 53 204 84 53 204 84 53 204 84 53 204 84 53 204 84 53 204 84 53 204 84 53 204 84 53 204 84 53 204 84 53 204 84 53 204 84 53 204 84 53 204 84 53 204 84 53 204 84 53 204 84 53 204 84 53 204 84 53 204 84 53 204 84 53 204 84 53 204 84 53 204 84 53 204 84 53 204 84 53 204 84 53 204 84 53 204 84 53 204 84 53 204 84 53 204 84 53 204 84 53 204 84 53 204 84 53 204 84 53 204 84 53 204 84 53 204 84 53 204 84 53 204 84 53 204 84 53 204 84 53 204 84 53 204 84 53 204 84 53 204 84 53 204 84 53 204 84 53 204 84 53 204 84 53 204 84 53 204 84 53 204 84 53 204 84 53 204 84 53 204 84 53 204 84 53 204 84 53 204 84 53 204 84 53 204 84 53 204 84 53 204 84 53 204 84 53 204 84 53 204 84 53 204 84 53 204 84 53 204 84 53 204 84 53 204 84 53 204 84 53 204 84 53 204 84 53 204 84 53 204 84 53 204 84 53 204 84 53 204 84 53 204 84 53 204 84 53 204 84 53 204 84 53 204 84 53 204 84 53 204 84 53 204 84 53 204 84 53 204 84 53 204 84 53 204 84 53 204 84 53 204 84 53 204 84 53 204 84 53 204 84 53 204 84 53 204 84 53 204 84 53 204 84 53 204 84 53 204 84 53 204 84 53 204 84 53 204 84 53 204 84 53 204 84 53 204 84 53 204 84 53 204 84 53 204 84 53 204 84 53 204 84 53 204 84 53 204 84 53 204 84 53 204 84 53 204 84 53 204 84 53 204 84 53 204 84 53 204 84 53 204 84 53 204 84 53 204 84 53 204 84 53 204 84 53 204 84 53 204 84 53 204 84 53 204 84 53 204 84 53 204 84 53 204 84 53 204 84 53 204 84 53 204 84 53 204 84 53 204 84 53 204 84 53 204 84 53 204 255 120 40 84 53 204 84 53 204 84 53 204 84 53 204 84 53 204 84 53 204 84 53 204 84 53 204 84 53 204 84 53 204 84 53 204 84 53 204 84 53 204 84 53 204 84 53 204 84 53 204 84 53 204 84 53 204 84 53 204 84 53 204 84 53 204 84 53 204 84 53 204 84 53 204 84 53 204 84 53 204 84 53 204 84 53 204 84 53 204 84 53 204 84 53 204 84 53 204 84 53 204 84 53 204 84 53 204 84 53 204 84 53 204 84 53 204 84 53 204 84 53 204 84 53 204 84 53 204 84 53 204 84 53 204 84 53 204 84 53 204 84 53 204 84 53 204 84 53 204 84 53 204 84 53 204 84 53 204 84 53 204 84 53 204 84 53 204 84 53 204 84 53 204 84 53 204 84 53 204 84 53 204 84 53 204 84 53 204 84 53 204 84 53 204 84 53 204 84 53 204 84 53 204 84 53 204 84 53 204 84 53 204 84 53 204 84 53 204 84 53 204 84 53 204 84 53 204 84 53 204 84 53 204 84 53 204 84 53 204 84 53 204 84 53 204 84 53 204 84 53 204 84 53 204 84 53 204 84 53 204 84 53 204 84 53 204 84 53 204 84 53 204 84 53 204 84 53 204 84 53 204 84 53 204 84 53 204 84 53 204 84 53 204 84 53 204 84 53 204 84 53 204 84 53 204 84 53 204 84 53 204 84 53 204 84 53 204 84 53 204 84 53 204 84 53 204 84 53 204 84 53 204 84 53 204 84 53 204 84 53 204 255 255 255 255 255 255 84 53 204 84 53 204 84 53 204 84 53 204 84 53 204 84 53 204 84 53 204 84 53 204 84 53 204 84 53 204 84 53 204 84 53 204 84 53 204 84 53 204 84 53 204 84 53 204 84 53 204 84 53 204 84 53 204 84 53 204 84 53 204 84 53 204 84 53 204 84 53 204 84 53 204 84 53 204 84 53 204 84 53 204 84 53 204 84 53 204 84 53 204 84 53 204 84 53 204 84 53 204 84 53 204 84 53 204 84 53 204 84 53 204 84 53 204 84 53 204 84 53 204 84 53 204 84 53 204 84 53 204 84 53 204 84 53 204 84 53 204 84 53 204 84 53 204 84 53 204 84 53 204 84 53 204 84 53 204 84 53 204 84 53 204 84 53 204 84 53 204 84 53 204 84 53 204 84 53 204 84 53 204 84 53 204 84 53 204 84 53 204 84 53 204 84 53 204 84 53 204 84 53 204 84 53 204 84 53 204 84 53 204 84 53 204 84 53 204 84 53 204 84 53 204 84 53 204 
84 53 204 84 53 204 84 53 204 84 53 204 84 53 204 84 53 204 84 53 204 84 53 204 84 53 204 84 53 204 84 53 204 84 53 204 84 53 204 84 53 204 84 53 204 84 53 204 84 53 204 84 53 204 84 53 204 84 53 204 84 53 204 84 53 204 84 53 204 84 53 204 84 53 204 84 53 204 84 53 204 84 53 204 84 53 204 84 53 204 84 53 204 84 53 204 84 53 204 84 53 204 84 53 204 84 53 204 84 53 204 84 53 204 84 53 204 84 53 204 84 53 204 84 53 204 84 53 204 84 53 204 84 53 204 84 53 204 84 53 204 84 53 204 84 53 204 84 53 204 84 53 204 84 53 204 84 53 204 84 53 204 84 53 204 84 53 204 84 53 204 84 53 204 84 53 204 84 53 204 84 53 204 84 53 204 84 53 204 84 53 204 84 53 204 84 53 204 84 53 204 84 53 204 84 53 204 84 53 204 84 53 204 84 53 204 84 53 204 84 53 204 84 53 204 84 53 204 84 53 204 84 53 204 84 53 204 84 53 204 84 53 204 84 53 204 84 53 204 84 53 204 84 53 204 84 53 204 84 53 204 84 53 204 84 53 204 84 53 204 84 53 204 84 53 204 84 53 204 84 53 204 84 53 204 84 53 204 84 53 204 84 53 204 84 53 204 84 53 204 84 53 204 84 53 204 84 53 204 84 53 204 84 53 204 84 53 204 84 53 204 84 53 204 84 53 204 84 53 204 84 53 204 84 53 204 84 53 204 84 53 204 84 53 204 84 53 204 84 53 204 84 53 204 84 53 204 84 53 204 84 53 204 84 53 204 84 53 204 84 53 204 84 53 204 84 53 204 84 53 204 84 53 204 84 53 204 84 53 204 84 53 204 84 53 204 84 53 204 84 53 204 84 53 204 84 53 204 84 53 204 84 53 204 84 53 204 84 53 204 84 53 204 84 53 204 84 53 204 84 53 204 84 53 204 84 53 204 84 53 204 84 53 204 84 53 204 84 53 204 84 53 204 84 53 204 84 53 204 84 53 204 84 53 204 84 53 204 84 53 204 84 53 204 84 53 204 84 53 204 84 53 204 84 53 204 84 53 204 84 53 204 84 53 204 84 53 204 84 53 204 84 53 204 84 53 204 84 53 204 84 53 204 84 53 204 84 53 204 84 53 204 84 53 204 84 53 204 84 53 204 84 53 204 84 53 204 84 53 204 84 53 204 84 53 204 84 53 204 84 53 204 84 53 204 84 53 204 84 53 204 84 53 204 84 53 204 84 53 204 84 53 204 84 53 204 255 120 40 84 53 204 84 53 204 84 53 204 84 53 204 84 53 204 84 53 204 84 53 204 84 53 204 84 53 204 84 53 204 84 53 204 84 53 204 84 53 204 84 53 204 84 53 204 84 53 204 84 53 204 84 53 204 84 53 204 84 53 204 84 53 204 84 53 204 84 53 204 84 53 204 84 53 204 84 53 204 84 53 204 84 53 204 84 53 204 84 53 204 84 53 204 84 53 204 84 53 204 84 53 204 84 53 204 84 53 204 84 53 204 84 53 204 84 53 204 84 53 204 84 53 204 84 53 204 84 53 204 84 53 204 84 53 204 84 53 204 84 53 204 84 53 204 84 53 204 84 53 204 84 53 204 84 53 204 84 53 204 84 53 204 84 53 204 84 53 204 84 53 204 84 53 204 84 53 204 84 53 204 84 53 204 84 53 204 84 53 204 84 53 204 84 53 204 84 53 204 84 53 204 84 53 204 84 53 204 84 53 204 84 53 204 84 53 204 84 53 204 84 53 204 84 53 204 84 53 204 84 53 204 84 53 204 84 53 204 84 53 204 84 53 204 84 53 204 84 53 204 84 53 204 84 53 204 84 53 204 84 53 204 84 53 204 84 53 204 84 53 204 84 53 204 84 53 204 84 53 204 84 53 204 84 53 204 84 53 204 84 53 204 84 53 204 84 53 204 84 53 204 84 53 204 84 53 204 84 53 204 84 53 204 84 53 204 84 53 204 84 53 204 84 53 204 84 53 204 84 53 204 84 53 204 84 53 204 84 53 204 84 53 204 84 53 204 255 255 255 255 255 255 84 53 204 84 53 204 84 53 204 84 53 204 84 53 204 84 53 204 84 53 204 84 53 204 84 53 204 84 53 204 84 53 204 84 53 204 84 53 204 84 53 204 84 53 204 84 53 204 84 53 204 84 53 204 84 53 204 84 53 204 84 53 204 84 53 204 84 53 204 84 53 204 84 53 204 84 53 204 84 53 204 84 53 204 84 53 204 84 53 204 84 53 204 84 53 204 84 53 204 84 53 204 84 53 204 84 53 204 84 53 204 84 53 204 84 53 204 84 53 204 84 53 204 84 53 204 84 53 204 84 53 204 84 53 204 84 53 204 84 53 204 84 53 204 84 53 204 84 53 204 84 53 204 84 53 204 84 53 204 84 53 204 84 53 204 84 53 204 84 53 204 84 53 204 84 53 204 84 53 204 84 53 204 84 53 204 84 53 204 84 53 204 84 53 204 84 53 204 84 53 204 84 53 204 84 53 204 84 53 204 84 53 204 84 53 204 84 53 204 84 53 204 
84 52 204 84 52 204 84 52 204 84 52 204 84 52 204 84 52 204 84 52 204 84 52 204 84 52 204 84 52 204 84 52 204 84 52 204 84 52 204 84 52 204 84 52 204 84 52 204 84 52 204 84 52 204 84 52 204 84 52 204 84 52 204 84 52 204 84 52 204 84 52 204 84 52 204 84 52 204 84 52 204 84 52 204 84 52 204 84 52 204 84 52 204 84 52 204 84 52 204 84 52 204 84 52 204 84 52 204 84 52 204 84 52 204 84 52 204 84 52 204 84 52 204 84 52 204 84 52 204 84 52 204 84 52 204 84 52 204 84 52 204 84 52 204 84 52 204 84 52 204 84 52 204 84 52 204 84 52 204 84 52 204 84 52 204 84 52 204 84 52 204 84 52 204 84 52 204 84 52 204 84 52 204 84 52 204 84 52 204 84 52 204 84 52 204 84 52 204 84 52 204 84 52 204 84 52 204 84 52 204 84 52 204 84 52 204 84 52 204 84 52 204 84 52 204 84 52 204 84 52 204 84 52 204 84 52 204 84 52 204 84 52 204 84 52 204 84 52 204 84 52 204 84 52 204 84 52 204 84 52 204 84 52 204 84 52 204 84 52 204 84 52 204 84 52 204 84 52 204 84 52 204 84 52 204 84 52 204 84 52 204 84 52 204 84 52 204 84 52 204 84 52 204 84 52 204 84 52 204 84 52 204 84 52 204 84 52 204 84 52 204 84 52 204 84 52 204 84 52 204 84 52 204 84 52 204 84 52 204 84 52 204 84 52 204 84 52 204 84 52 204 84 52 204 84 52 204 84 52 204 84 52 204 84 52 204 84 52 204 84 52 204 84 52 204 84 52 204 84 52 204 84 52 204 84 52 204 84 52 204 84 52 204 84 52 204 84 52 204 84 52 204 84 52 204 84 52 204 84 52 204 84 52 204 84 52 204 84 52 204 84 52 204 84 52 204 84 52 204 84 52 204 84 52 204 84 52 204 84 52 204 84 52 204 84 52 204 84 52 204 84 52 204 84 52 204 84 52 204 84 52 204 84 52 204 84 52 204 84 52 204 84 52 204 84 52 204 84 52 204 84 52 204 84 52 204 84 52 204 84 52 204 84 52 204 84 52 204 84 52 204 84 52 204 84 52 204 84 52 204 84 52 204 84 52 204 84 52 204 84 52 204 84 52 204 84 52 204 84 52 204 84 52 204 84 52 204 84 52 204 84 52 204 84 52 204 84 52 204 84 52 204 84 52 204 84 52 204 84 52 204 84 52 204 84 52 204 84 52 204 84 52 204 84 52 204 255 120 40 84 52 204 84 52 204 84 52 204 84 52 204 84 52 204 84 52 204 84 52 204 84 52 204 84 52 204 84 52 204 84 52 204 84 52 204 84 52 204 84 52 204 84 52 204 84 52 204 84 52 204 84 52 204 84 52 204 84 52 204 84 52 204 84 52 204 84 52 204 84 52 204 84 52 204 84 52 204 84 52 204 84 52 204 84 52 204 84 52 204 84 52 204 84 52 204 84 52 204 84 52 204 84 52 204 84 52 204 84 52 204 84 52 204 84 52 204 84 52 204 84 52 204 84 52 204 84 52 204 84 52 204 84 52 204 84 52 204 84 52 204 84 52 204 84 52 204 84 52 204 84 52 204 84 52 204 84 52 204 84 52 204 84 52 204 84 52 204 84 52 204 84 52 204 84 52 204 84 52 204 84 52 204 84 52 204 84 52 204 84 52 204 84 52 204 84 52 204 84 52 204 84 52 204 84 52 204 84 52 204 84 52 204 84 52 204 84 52 204 84 52 204 84 52 204 84 52 204 84 52 204 84 52 204 84 52 204 84 52 204 84 52 204 84 52 204 84 52 204 84 52 204 84 52 204 84 52 204 84 52 204 84 52 204 84 52 204 84 52 204 84 52 204 84 52 204 84 52 204 84 52 204 84 52 204 84 52 204 84 52 204 84 52 204 84 52 204 84 52 204 84 52 204 84 52 204 84 52 204 84 52 204 84 52 204 84 52 204 84 52 204 84 52 204 84 52 204 84 52 204 84 52 204 84 52 204 84 52 204 84 52 204 84 52 204 84 52 204 84 52 204 255 255 255 255 255 255 84 52 204 84 52 204 84 52 204 84 52 204 84 52 204 84 52 204 84 52 204 84 52 204 84 52 204 84 52 204 84 52 204 84 52 204 84 52 204 84 52 204 84 52 204 84 52 204 84 52 204 84 52 204 84 52 204 84 52 204 84 52 204 84 52 204 84 52 204 84 52 204 84 52 204 84 52 204 84 52 204 84 52 204 84 52 204 84 52 204 84 52 204 84 52 204 84 52 204 84 52 204 84 52 204 84 52 204 84 52 204 84 52 204 84 52 204 84 52 204 84 52 204 84 52 204 84 52 204 84 52 204 84 52 204 84 52 204 84 52 204 84 52 204 84 52 204 84 52 204 84 52 204 84 52 204 84 52 204 84 52 204 84 52 204 84 52 204 84 52 204 84 52 204 84 52 204 84 52 204 84 52 204 84 52 204 84 52 204 84 52 204 84 52 204 84 52 204 84 52 204 84 52 204 84 52 204 84 52 204 84 52 204 84 52 204 
85 52 204 85 52 204 85 52 204 85 52 204 85 52 204 85 52 204 85 52 204 85 52 204 85 52 204 85 52 204 85 52 204 85 52 204 85 52 204 85 52 204 85 52 204 85 52 204 85 52 204 85 52 204 85 52 204 85 52 204 85 52 204 85 52 204 85 52 204 85 52 204 85 52 204 85 52 204 85 52 204 85 52 204 85 52 204 85 52 204 85 52 204 85 52 204 85 52 204 85 52 204 85 52 204 85 52 204 85 52 204 85 52 204 85 52 204 85 52 204 85 52 204 85 52 204 85 52 204 85 52 204 85 52 204 85 52 204 85 52 204 85 52 204 85 52 204 85 52 204 85 52 204 85 52 204 85 52 204 85 52 204 85 52 204 85 52 204 85 52 204 85 52 204 85 52 204 85 52 204 85 52 204 85 52 204 85 52 204 85 52 204 85 52 204 85 52 204 85 52 204 85 52 204 85 52 204 85 52 204 85 52 204 85 52 204 85 52 204 85 52 204 85 52 204 85 52 204 85 52 204 85 52 204 85 52 204 85 52 204 85 52 204 85 52 204 85 52 204 85 52 204 85 52 204 85 52 204 85 52 204 85 52 204 85 52 204 85 52 204 85 52 204 85 52 204 85 52 204 85 52 204 85 52 204 85 52 204 85 52 204 85 52 204 85 52 204 85 52 204 85 52 204 85 52 204 85 52 204 85 52 204 85 52 204 85 52 204 85 52 204 85 52 204 85 52 204 85 52 204 85 52 204 85 52 204 85 52 204 85 52 204 85 52 204 85 52 204 85 52 204 85 52 204 85 52 204 85 52 204 85 52 204 85 52 204 85 52 204 85 52 204 85 52 204 85 52 204 85 52 204 85 52 204 85 52 204 85 52 204 85 52 204 85 52 204 85 52 204 85 52 204 85 52 204 85 52 204 85 52 204 85 52 204 85 52 204 85 52 204 85 52 204 85 52 204 85 52 204 85 52 204 85 52 204 85 52 204 85 52 204 85 52 204 85 52 204 85 52 204 85 52 204 85 52 204 85 52 204 85 52 204 85 52 204 85 52 204 85 52 204 85 52 204 85 52 204 85 52 204 85 52 204 85 52 204 85 52 204 85 52 204 85 52 204 85 52 204 85 52 204 85 52 204 85 52 204 85 52 204 85 52 204 85 52 204 85 52 204 85 52 204 85 52 204 85 52 204 85 52 204 85 52 204 85 52 204 85 52 204 85 52 204 85 52 204 85 52 204 85 52 204 85 52 204 85 52 204 85 52 204 85 52 204 85 52 204 85 52 204 85 52 204 85 52 204 255 120 40 85 52 204 85 52 204 85 52 204 85 52 204 85 52 204 85 52 204 85 52 204 85 52 204 85 52 204 85 52 204 85 52 204 85 52 204 85 52 204 85 52 204 85 52 204 85 52 204 85 52 204 85 52 204 85 52 204 85 52 204 85 52 204 85 52 204 85 52 204 85 52 204 85 52 204 85 52 204 85 52 204 85 52 204 85 52 204 85 52 204 85 52 204 85 52 204 85 52 204 85 52 204 85 52 204 85 52 204 85 52 204 85 52 204 85 52 204 85 52 204 85 52 204 85 52 204 85 52 204 85 52 204 85 52 204 85 52 204 85 52 204 85 52 204 85 52 204 85 52 204 85 52 204 85 52 204 85 52 204 85 52 204 85 52 204 85 52 204 85 52 204 85 52 204 85 52 204 85 52 204 85 52 204 85 52 204 85 52 204 85 52 204 85 52 204 85 52 204 85 52 204 85 52 204 85 52 204 85 52 204 85 52 204 85 52 204 85 52 204 85 52 204 85 52 204 85 52 204 85 52 204 85 52 204 85 52 204 85 52 204 85 52 204 85 52 204 85 52 204 85 52 204 85 52 204 85 52 204 85 52 204 85 52 204 85 52 204 85 52 204 85 52 204 85 52 204 85 52 204 85 52 204 85 52 204 85 52 204 85 52 204 85 52 204 85 52 204 85 52 204 85 52 204 85 52 204 85 52 204 85 52 204 85 52 204 85 52 204 85 52 204 85 52 204 85 52 204 85 52 204 85 52 204 85 52 204 85 52 204 85 52 204 85 52 204 85 52 204 85 52 204 85 52 204 85 52 204 255 255 255 85 52 204 85 52 204 85 52 204 85 52 204 85 52 204 85 52 204 85 52 204 85 52 204 85 52 204 85 52 204 85 52 204 85 52 204 85 52 204 85 52 204 85 52 204 85 52 204 85 52 204 85 52 204 85 52 204 85 52 204 85 52 204 85 52 204 85 52 204 85 52 204 85 52 204 85 52 204 85 52 204 85 52 204 85 52 204 85 52 204 85 52 204 85 52 204 85 52 204 85 52 204 85 52 204 85 52 204 85 52 204 85 52 204 85 52 204 85 52 204 85 52 204 85 52 204 85 52 204 85 52 204 85 52 204 85 52 204 85 52 204 85 52 204 85 52 204 85 52 204 85 52 204 85 52 204 85 52 204 85 52 204 85 52 204 85 52 204 85 52 204 85 52 204 85 52 204 85 52 204 85 52 204 85 52 204 85 52 204 85 52 204 85 52 204 85 52 204 85 52 204 85 52 204 85 52 204 85 52 204 85 52 204 
85 51 205 85 51 205 85 51 205 85 51 205 85 51 205 85 51 205 85 51 205 85 51 205 85 51 205 85 51 205 85 51 205 85 51 205 85 51 205 85 51 205 85 51 205 85 51 205 85 51 205 85 51 205 85 51 205 85 51 205 85 51 205 85 51 205 85 51 205 85 51 205 85 51 205 85 51 205 85 51 205 85 51 205 85 51 205 85 51 205 85 51 205 85 51 205 85 51 205 85 51 205 85 51 205 85 51 205 85 51 205 85 51 205 85 51 205 85 51 205 85 51 205 85 51 205 85 51 205 85 51 205 85 51 205 85 51 205 85 51 205 85 51 205 85 51 205 85 51 205 85 51 205 85 51 205 85 51 205 85 51 205 85 51 205 85 51 205 85 51 205 85 51 205 85 51 205 85 51 205 85 51 205 85 51 205 85 51 205 85 51 205 85 51 205 85 51 205 85 51 205 85 51 205 85 51 205 85 51 205 85 51 205 85 51 205 85 51 205 85 51 205 85 51 205 85 51 205 85 51 205 85 51 205 85 51 205 85 51 205 85 51 205 85 51 205 85 51 205 85 51 205 85 51 205 85 51 205 85 51 205 85 51 205 85 51 205 85 51 205 85 51 205 85 51 205 85 51 205 85 51 205 85 51 205 85 51 205 85 51 205 85 51 205 85 51 205 85 51 205 85 51 205 85 51 205 85 51 205 85 51 205 85 51 205 85 51 205 85 51 205 85 51 205 85 51 205 85 51 205 85 51 205 85 51 205 85 51 205 85 51 205 85 51 205 85 51 205 85 51 205 85 51 205 85 51 205 85 51 205 85 51 205 85 51 205 85 51 205 85 51 205 85 51 205 85 51 205 85 51 205 85 51 205 85 51 205 85 51 205 85 51 205 85 51 205 85 51 205 85 51 205 85 51 205 85 51 205 85 51 205 85 51 205 85 51 205 85 51 205 85 51 205 85 51 205 85 51 205 85 51 205 85 51 205 85 51 205 85 51 205 85 51 205 85 51 205 85 51 205 85 51 205 85 51 205 85 51 205 85 51 205 85 51 205 85 51 205 85 51 205 85 51 205 85 51 205 85 51 205 85 51 205 85 51 205 85 51 205 85 51 205 85 51 205 85 51 205 85 51 205 85 51 205 85 51 205 85 51 205 85 51 205 85 51 205 85 51 205 85 51 205 85 51 205 85 51 205 85 51 205 85 51 205 85 51 205 85 51 205 85 51 205 85 51 205 85 51 205 85 51 205 85 51 205 85 51 205 85 51 205 85 51 205 85 51 205 85 51 205 85 51 205 85 51 205 255 120 40 85 51 205 85 51 205 85 51 205 85 51 205 85 51 205 85 51 205 85 51 205 85 51 205 85 51 205 85 51 205 85 51 205 85 51 205 85 51 205 85 51 205 85 51 205 85 51 205 85 51 205 85 51 205 85 51 205 85 51 205 85 51 205 85 51 205 85 51 205 85 51 205 85 51 205 85 51 205 85 51 205 85 51 205 85 51 205 85 51 205 85 51 205 85 51 205 85 51 205 85 51 205 85 51 205 85 51 205 85 51 205 85 51 205 85 51 205 85 51 205 85 51 205 85 51 205 85 51 205 85 51 205 85 51 205 85 51 205 85 51 205 85 51 205 85 51 205 85 51 205 85 51 205 85 51 205 85 51 205 85 51 205 85 51 205 85 51 205 85 51 205 85 51 205 85 51 205 85 51 205 85 51 205 85 51 205 85 51 205 85 51 205 85 51 205 85 51 205 85 51 205 85 51 205 85 51 205 85 51 205 85 51 205 85 51 205 85 51 205 85 51 205 85 51 205 85 51 205 85 51 205 85 51 205 85 51 205 85 51 205 85 51 205 85 51 205 85 51 205 85 51 205 85 51 205 85 51 205 85 51 205 85 51 205 85 51 205 85 51 205 85 51 205 85 51 205 85 51 205 85 51 205 85 51 205 85 51 205 85 51 205 85 51 205 85 51 205 85 51 205 85 51 205 85 51 205 85 51 205 85 51 205 85 51 205 85 51 205 85 51 205 85 51 205 85 51 205 85 51 205 85 51 205 85 51 205 85 51 205 85 51 205 85 51 205 85 51 205 85 51 205 85 51 205 85 51 205 85 51 205 255 255 255 255 255 255 85 51 205 85 51 205 85 51 205 85 51 205 85 51 205 85 51 205 85 51 205 85 51 205 85 51 205 85 51 205 85 51 205 85 51 205 85 51 205 85 51 205 85 51 205 85 51 205 85 51 205 85 51 205 85 51 205 85 51 205 85 51 205 85 51 205 85 51 205 85 51 205 85 51 205 85 51 205 85 51 205 85 51 205 85 51 205 85 51 205 85 51 205 85 51 205 85 51 205 85 51 205 85 51 205 85 51 205 85 51 205 85 51 205 85 51 205 85 51 205 85 51 205 85 51 205 85 51 205 85 51 205 85 51 205 85 51 205 85 51 205 85 51 205 85 51 205 85 51 205 85 51 205 85 51 205 85 51 205 85 51 205 85 51 205 85 51 205 85 51 205 85 51 205 85 51 205 85 51 205 85 51 205 85 51 205 85 51 205 85 51 205 85 51 205 85 51 205 85 51 205 85 51 205 85 51 205 
85 51 205 85 51 205 85 51 205 85 51 205 85 51 205 85 51 205 85 51 205 85 51 205 85 51 205 85 51 205 85 51 205 85 51 205 85 51 205 85 51 205 85 51 205 85 51 205 85 51 205 85 51 205 85 51 205 85 51 205 85 51 205 85 51 205 85 51 205 85 51 205 85 51 205 85 51 205 85 51 205 85 51 205 85 51 205 85 51 205 85 51 205 85 51 205 85 51 205 85 51 205 85 51 205 85 51 205 85 51 205 85 51 205 85 51 205 85 51 205 85 51 205 85 51 205 85 51 205 85 51 205 85 51 205 85 51 205 85 51 205 85 51 205 85 51 205 85 51 205 85 51 205 85 51 205 85 51 205 85 51 205 85 51 205 85 51 205 85 51 205 85 51 205 85 51 205 85 51 205 85 51 205 85 51 205 85 51 205 85 51 205 85 51 205 85 51 205 85 51 205 85 51 205 85 51 205 85 51 205 85 51 205 85 51 205 85 51 205 85 51 205 85 51 205 85 51 205 85 51 205 85 51 205 85 51 205 85 51 205 85 51 205 85 51 205 85 51 205 85 51 205 85 51 205 85 51 205 85 51 205 85 51 205 85 51 205 85 51 205 85 51 205 85 51 205 85 51 205 85 51 205 85 51 205 85 51 205 85 51 205 85 51 205 85 51 205 85 51 205 85 51 205 85 51 205 85 51 205 85 51 205 85 51 205 85 51 205 85 51 205 85 51 205 85 51 205 85 51 205 85 51 205 85 51 205 85 51 205 85 51 205 85 51 205 85 51 205 85 51 205 85 51 205 85 51 205 85 51 205 85 51 205 85 51 205 85 51 205 85 51 205 85 51 205 85 51 205 85 51 205 85 51 205 85 51 205 85 51 205 85 51 205 85 51 205 85 51 205 85 51 205 85 51 205 85 51 205 85 51 205 85 51 205 85 51 205 85 51 205 85 51 205 85 51 205 85 51 205 85 51 205 85 51 205 85 51 205 85 51 205 85 51 205 85 51 205 85 51 205 85 51 205 85 51 205 85 51 205 85 51 205 85 51 205 85 51 205 85 51 205 85 51 205 85 51 205 85 51 205 85 51 205 85 51 205 85 51 205 85 51 205 85 51 205 85 51 205 85 51 205 85 51 205 85 51 205 85 51 205 85 51 205 85 51 205 85 51 205 85 51 205 85 51 205 85 51 205 85 51 205 85 51 205 85 51 205 85 51 205 85 51 205 85 51 205 85 51 205 85 51 205 85 51 205 85 51 205 85 51 205 85 51 205 85 51 205 85 51 205 85 51 205 85 51 205 255 120 40 85 51 205 85 51 205 85 51 205 85 51 205 85 51 205 85 51 205 85 51 205 85 51 205 85 51 205 85 51 205 85 51 205 85 51 205 85 51 205 85 51 205 85 51 205 85 51 205 85 51 205 85 51 205 85 51 205 85 51 205 85 51 205 85 51 205 85 51 205 85 51 205 85 51 205 85 51 205 85 51 205 85 51 205 85 51 205 85 51 205 85 51 205 85 51 205 85 51 205 85 51 205 85 51 205 85 51 205 85 51 205 85 51 205 85 51 205 85 51 205 85 51 205 85 51 205 85 51 205 85 51 205 85 51 205 85 51 205 85 51 205 85 51 205 85 51 205 85 51 205 85 51 205 85 51 205 85 51 205 85 51 205 85 51 205 85 51 205 85 51 205 85 51 205 85 51 205 85 51 205 85 51 205 85 51 205 85 51 205 85 51 205 85 51 205 85 51 205 85 51 205 85 51 205 85 51 205 85 51 205 85 51 205 85 51 205 85 51 205 85 51 205 85 51 205 85 51 205 85 51 205 85 51 205 85 51 205 85 51 205 85 51 205 85 51 205 85 51 205 85 51 205 85 51 205 85 51 205 85 51 205 85 51 205 85 51 205 85 51 205 85 51 205 85 51 205 85 51 205 85 51 205 85 51 205 85 51 205 85 51 205 85 51 205 85 51 205 85 51 205 85 51 205 85 51 205 85 51 205 85 51 205 85 51 205 85 51 205 85 51 205 85 51 205 85 51 205 85 51 205 85 51 205 85 51 205 85 51 205 85 51 205 85 51 205 85 51 205 85 51 205 85 51 205 85 51 205 85 51 205 85 51 205 85 51 205 255 255 255 255 255 255 85 51 205 85 51 205 85 51 205 85 51 205 85 51 205 85 51 205 85 51 205 85 51 205 85 51 205 85 51 205 85 51 205 85 51 205 85 51 205 85 51 205 85 51 205 85 51 205 85 51 205 85 51 205 85 51 205 85 51 205 85 51 205 85 51 205 85 51 205 85 51 205 85 51 205 85 51 205 85 51 205 85 51 205 85 51 205 85 51 205 85 51 205 85 51 205 85 51 205 85 51 205 85 51 205 85 51 205 85 51 205 85 51 205 85 51 205 85 51 205 85 51 205 85 51 205 85 51 205 85 51 205 85 51 205 85 51 205 85 51 205 85 51 205 85 51 205 85 51 205 85 51 205 85 51 205 85 51 205 85 51 205 85 51 205 85 51 205 85 51 205 85 51 205 85 51 205 85 51 205 85 51 205 85 51 205 85 51 205 85 51 205 85 51 205 85 51 205 85 51 205 
86 50 205 86 50 205 86 50 205 86 50 205 86 50 205 86 50 205 86 50 205 86 50 205 86 50 205 86 50 205 86 50 205 86 50 205 86 50 205 86 50 205 86 50 205 86 50 205 86 50 205 86 50 205 86 50 205 86 50 205 86 50 205 86 50 205 86 50 205 86 50 205 86 50 205 86 50 205 86 50 205 86 50 205 86 50 205 86 50 205 86 50 205 86 50 205 86 50 205 86 50 205 86 50 205 86 50 205 86 50 205 86 50 205 86 50 205 86 50 205 86 50 205 86 50 205 86 50 205 86 50 205 86 50 205 86 50 205 86 50 205 86 50 205 86 50 205 86 50 205 86 50 205 86 50 205 86 50 205 86 50 205 86 50 205 86 50 205 86 50 205 86 50 205 86 50 205 86 50 205 86 50 205 86 50 205 86 50 205 86 50 205 86 50 205 86 50 205 86 50 205 86 50 205 86 50 205 86 50 205 86 50 205 86 50 205 86 50 205 86 50 205 86 50 205 86 50 205 86 50 205 86 50 205 86 50 205 86 50 205 86 50 205 86 50 205 86 50 205 86 50 205 86 50 205 86 50 205 86 50 205 86 50 205 86 50 205 86 50 205 86 50 205 86 50 205 86 50 205 86 50 205 86 50 205 86 50 205 86 50 205 86 50 205 86 50 205 86 50 205 86 50 205 86 50 205 86 50 205 86 50 205 86 50 205 86 50 205 86 50 205 86 50 205 86 50 205 86 50 205 86 50 205 86 50 205 86 50 205 86 50 205 86 50 205 86 50 205 86 50 205 86 50 205 86 50 205 86 50 205 86 50 205 86 50 205 86 50 205 86 50 205 86 50 205 86 50 205 86 50 205 86 50 205 86 50 205 86 50 205 86 50 205 86 50 205 86 50 205 86 50 205 86 50 205 86 50 205 86 50 205 86 50 205 86 50 205 86 50 205 86 50 205 86 50 205 86 50 205 86 50 205 86 50 205 86 50 205 86 50 205 86 50 205 86 50 205 86 50 205 86 50 205 86 50 205 86 50 205 86 50 205 86 50 205 86 50 205 86 50 205 86 50 205 86 50 205 86 50 205 86 50 205 86 50 205 86 50 205 86 50 205 86 50 205 86 50 205 86 50 205 86 50 205 86 50 205 86 50 205 86 50 205 86 50 205 86 50 205 86 50 205 86 50 205 86 50 205 86 50 205 86 50 205 86 50 205 86 50 205 86 50 205 86 50 205 86 50 205 86 50 205 86 50 205 86 50 205 86 50 205 86 50 205 86 50 205 86 50 205 86 50 205 86 50 205 255 120 40 86 50 205 86 50 205 86 50 205 86 50 205 86 50 205 86 50 205 86 50 205 86 50 205 86 50 205 86 50 205 86 50 205 86 50 205 86 50 205 86 50 205 86 50 205 86 50 205 86 50 205 86 50 205 86 50 205 86 50 205 86 50 205 86 50 205 86 50 205 86 50 205 86 50 205 86 50 205 86 50 205 86 50 205 86 50 205 86 50 205 86 50 205 86 50 205 86 50 205 86 50 205 86 50 205 86 50 205 86 50 205 86 50 205 86 50 205 86 50 205 86 50 205 86 50 205 86 50 205 86 50 205 86 50 205 86 50 205 86 50 205 86 50 205 86 50 205 86 50 205 86 50 205 86 50 205 86 50 205 86 50 205 86 50 205 86 50 205 86 50 205 86 50 205 86 50 205 86 50 205 86 50 205 86 50 205 86 50 205 86 50 205 86 50 205 86 50 205 86 50 205 86 50 205 86 50 205 86 50 205 86 50 205 86 50 205 86 50 205 86 50 205 86 50 205 86 50 205 86 50 205 86 50 205 86 50 205 86 50 205 86 50 205 86 50 205 86 50 205 86 50 205 86 50 205 86 50 205 86 50 205 86 50 205 86 50 205 86 50 205 86 50 205 86 50 205 86 50 205 86 50 205 86 50 205 86 50 205 86 50 205 86 50 205 86 50 205 86 50 205 86 50 205 86 50 205 86 50 205 86 50 205 86 50 205 86 50 205 86 50 205 86 50 205 86 50 205 86 50 205 86 50 205 86 50 205 86 50 205 86 50 205 86 50 205 86 50 205 86 50 205 86 50 205 86 50 205 86 50 205 86 50 205 86 50 205 86 50 205 86 50 205 255 255 255 255 255 255 86 50 205 86 50 205 86 50 205 86 50 205 86 50 205 86 50 205 86 50 205 86 50 205 86 50 205 86 50 205 86 50 205 86 50 205 86 50 205 86 50 205 86 50 205 86 50 205 86 50 205 86 50 205 86 50 205 86 50 205 86 50 205 86 50 205 86 50 205 86 50 205 86 50 205 86 50 205 86 50 205 86 50 205 86 50 205 86 50 205 86 50 205 86 50 205 86 50 205 86 50 205 86 50 205 86 50 205 86 50 205 86 50 205 86 50 205 86 50 205 86 50 205 86 50 205 86 50 205 86 50 205 86 50 205 86 50 205 86 50 205 86 50 205 86 50 205 86 50 205 86 50 205 86 50 205 86 50 205 86 50 205 86 50 205 86 50 205 86 50 205 86 50 205 86 50 205 86 50 205 86 50 205 86 50 205 86 50 205 86 50 205 86 50 205 
86 50 205 86 50 205 86 50 205 86 50 205 86 50 205 86 50 205 86 50 205 86 50 205 86 50 205 86 50 205 86 50 205 86 50 205 86 50 205 86 50 205 86 50 205 86 50 205 86 50 205 86 50 205 86 50 205 86 50 205 86 50 205 86 50 205 86 50 205 86 50 205 86 50 205 86 50 205 86 50 205 86 50 205 86 50 205 86 50 205 86 50 205 86 50 205 86 50 205 86 50 205 86 50 205 86 50 205 86 50 205 86 50 205 86 50 205 86 50 205 86 50 205 86 50 205 86 50 205 86 50 205 86 50 205 86 50 205 86 50 205 86 50 205 86 50 205 86 50 205 86 50 205 86 50 205 86 50 205 86 50 205 86 50 205 86 50 205 86 50 205 86 50 205 86 50 205 86 50 205 86 50 205 86 50 205 86 50 205 86 50 205 86 50 205 86 50 205 86 50 205 86 50 205 86 50 205 86 50 205 86 50 205 86 50 205 86 50 205 86 50 205 86 50 205 86 50 205 86 50 205 86 50 205 86 50 205 86 50 205 86 50 205 86 50 205 86 50 205 86 50 205 86 50 205 86 50 205 86 50 205 86 50 205 86 50 205 86 50 205 86 50 205 86 50 205 86 50 205 86 50 205 86 50 205 86 50 205 86 50 205 86 50 205 86 50 205 86 50 205 86 50 205 86 50 205 86 50 205 86 50 205 86 50 205 86 50 205 86 50 205 86 50 205 86 50 205 86 50 205 86 50 205 86 50 205 86 50 205 86 50 205 86 50 205 86 50 205 86 50 205 86 50 205 86 50 205 86 50 205 86 50 205 86 50 205 86 50 205 86 50 205 86 50 205 86 50 205 86 50 205 86 50 205 86 50 205 86 50 205 86 50 205 86 50 205 86 50 205 86 50 205 86 50 205 86 50 205 86 50 205 86 50 205 86 50 205 86 50 205 86 50 205 86 50 205 86 50 205 86 50 205 86 50 205 86 50 205 86 50 205 86 50 205 86 50 205 86 50 205 86 50 205 86 50 205 86 50 205 86 50 205 86 50 205 86 50 205 86 50 205 86 50 205 86 50 205 86 50 205 86 50 205 86 50 205 86 50 205 86 50 205 86 50 205 86 50 205 86 50 205 86 50 205 86 50 205 86 50 205 86 50 205 86 50 205 86 50 205 86 50 205 86 50 205 86 50 205 86 50 205 86 50 205 86 50 205 86 50 205 86 50 205 86 50 205 86 50 205 86 50 205 86 50 205 86 50 205 86 50 205 86 50 205 86 50 205 86 50 205 86 50 205 86 50 205 255 120 40 86 50 205 86 50 205 86 50 205 86 50 205 86 50 205 86 50 205 86 50 205 86 50 205 86 50 205 86 50 205 86 50 205 86 50 205 86 50 205 86 50 205 86 50 205 86 50 205 86 50 205 86 50 205 86 50 205 86 50 205 86 50 205 86 50 205 86 50 205 86 50 205 86 50 205 86 50 205 86 50 205 86 50 205 86 50 205 86 50 205 86 50 205 86 50 205 86 50 205 86 50 205 86 50 205 86 50 205 86 50 205 86 50 205 86 50 205 86 50 205 86 50 205 86 50 205 86 50 205 86 50 205 86 50 205 86 50 205 86 50 205 86 50 205 86 50 205 86 50 205 86 50 205 86 50 205 86 50 205 86 50 205 86 50 205 86 50 205 86 50 205 86 50 205 86 50 205 86 50 205 86 50 205 86 50 205 86 50 205 86 50 205 86 50 205 86 50 205 86 50 205 86 50 205 86 50 205 86 50 205 86 50 205 86 50 205 86 50 205 86 50 205 86 50 205 86 50 205 86 50 205 86 50 205 86 50 205 86 50 205 86 50 205 86 50 205 86 50 205 86 50 205 86 50 205 86 50 205 86 50 205 86 50 205 86 50 205 86 50 205 86 50 205 86 50 205 86 50 205 86 50 205 86 50 205 86 50 205 86 50 205 86 50 205 86 50 205 86 50 205 86 50 205 86 50 205 86 50 205 86 50 205 86 50 205 86 50 205 86 50 205 86 50 205 86 50 205 86 50 205 86 50 205 86 50 205 86 50 205 86 50 205 86 50 205 86 50 205 86 50 205 86 50 205 86 50 205 86 50 205 86 50 205 86 50 205 86 50 205 86 50 205 86 50 205 86 50 205 255 255 255 86 50 205 86 50 205 86 50 205 86 50 205 86 50 205 86 50 205 86 50 205 86 50 205 86 50 205 86 50 205 86 50 205 86 50 205 86 50 205 86 50 205 86 50 205 86 50 205 86 50 205 86 50 205 86 50 205 86 50 205 86 50 205 86 50 205 86 50 205 86 50 205 86 50 205 86 50 205 86 50 205 86 50 205 86 50 205 86 50 205 86 50 205 86 50 205 86 50 205 86 50 205 86 50 205 86 50 205 86 50 205 86 50 205 86 50 205 86 50 205 86 50 205 86 50 205 86 50 205 86 50 205 86 50 205 86 50 205 86 50 205 86 50 205 86 50 205 86 50 205 86 50 205 86 50 205 86 50 205 86 50 205 86 50 205 86 50 205 86 50 205 86 50 205 86 50 205 86 50 205 86 50 205 86 50 205 86 50 205 86 50 205 
86 49 206 86 49 206 86 49 206 86 49 206 86 49 206 86 49 206 86 49 206 86 49 206 86 49 206 86 49 206 86 49 206 86 49 206 86 49 206 86 49 206 86 49 206 86 49 206 86 49 206 86 49 206 86 49 206 86 49 206 86 49 206 86 49 206 86 49 206 86 49 206 86 49 206 86 49 206 86 49 206 86 49 206 86 49 206 86 49 206 86 49 206 86 49 206 86 49 206 86 49 206 86 49 206 86 49 206 86 49 206 86 49 206 86 49 206 86 49 206 86 49 206 86 49 206 86 49 206 86 49 206 86 49 206 86 49 206 86 49 206 86 49 206 86 49 206 86 49 206 86 49 206 86 49 206 86 49 206 86 49 206 86 49 206 86 49 206 86 49 206 86 49 206 86 49 206 86 49 206 86 49 206 86 49 206 86 49 206 86 49 206 86 49 206 86 49 206 86 49 206 86 49 206 86 49 206 86 49 206 86 49 206 86 49 206 86 49 206 86 49 206 86 49 206 86 49 206 86 49 206 86 49 206 86 49 206 86 49 206 86 49 206 86 49 206 86 49 206 86 49 206 86 49 206 86 49 206 86 49 206 86 49 206 86 49 206 86 49 206 86 49 206 86 49 206 86 49 206 86 49 206 86 49 206 86 49 206 86 49 206 86 49 206 86 49 206 86 49 206 86 49 206 86 49 206 86 49 206 86 49 206 86 49 206 86 49 206 86 49 206 86 49 206 86 49 206 86 49 206 86 49 206 86 49 206 86 49 206 86 49 206 86 49 206 86 49 206 86 49 206 86 49 206 86 49 206 86 49 206 86 49 206 86 49 206 86 49 206 86 49 206 86 49 206 86 49 206 86 49 206 86 49 206 86 49 206 86 49 206 86 49 206 86 49 206 86 49 206 86 49 206 86 49 206 86 49 206 86 49 206 86 49 206 86 49 206 86 49 206 86 49 206 86 49 206 86 49 206 86 49 206 86 49 206 86 49 206 86 49 206 86 49 206 86 49 206 86 49 206 86 49 206 86 49 206 86 49 206 86 49 206 86 49 206 86 49 206 86 49 206 86 49 206 86 49 206 86 49 206 86 49 206 86 49 206 86 49 206 86 49 206 86 49 206 86 49 206 86 49 206 86 49 206 86 49 206 86 49 206 86 49 206 86 49 206 86 49 206 86 49 206 86 49 206 86 49 206 86 49 206 86 49 206 86 49 206 86 49 206 86 49 206 86 49 206 86 49 206 86 49 206 86 49 206 86 49 206 86 49 206 86 49 206 86 49 206 86 49 206 86 49 206 86 49 206 255 120 40 86 49 206 86 49 206 86 49 206 86 49 206 86 49 206 86 49 206 86 49 206 86 49 206 86 49 206 86 49 206 86 49 206 86 49 206 86 49 206 86 49 206 86 49 206 86 49 206 86 49 206 86 49 206 86 49 206 86 49 206 86 49 206 86 49 206 86 49 206 86 49 206 86 49 206 86 49 206 86 49 206 86 49 206 86 49 206 86 49 206 86 49 206 86 49 206 86 49 206 86 49 206 86 49 206 86 49 206 86 49 206 86 49 206 86 49 206 86 49 206 86 49 206 86 49 206 86 49 206 86 49 206 86 49 206 86 49 206 86 49 206 86 49 206 86 49 206 86 49 206 86 49 206 86 49 206 86 49 206 86 49 206 86 49 206 86 49 206 86 49 206 86 49 206 86 49 206 86 49 206 86 49 206 86 49 206 86 49 206 86 49 206 86 49 206 86 49 206 86 49 206 86 49 206 86 49 206 86 49 206 86 49 206 86 49 206 86 49 206 86 49 206 86 49 206 86 49 206 86 49 206 86 49 206 86 49 206 86 49 206 86 49 206 86 49 206 86 49 206 86 49 206 86 49 206 86 49 206 86 49 206 86 49 206 86 49 206 86 49 206 86 49 206 86 49 206 86 49 206 86 49 206 86 49 206 86 49 206 86 49 206 86 49 206 86 49 206 86 49 206 86 49 206 86 49 206 86 49 206 86 49 206 86 49 206 86 49 206 86 49 206 86 49 206 86 49 206 86 49 206 86 49 206 86 49 206 86 49 206 86 49 206 86 49 206 86 49 206 86 49 206 86 49 206 86 49 206 86 49 206 86 49 206 86 49 206 86 49 206 86 49 206 86 49 206 86 49 206 86 49 206 255 255 255 255 255 255 86 49 206 86 49 206 86 49 206 86 49 206 86 49 206 86 49 206 86 49 206 86 49 206 86 49 206 86 49 206 86 49 206 86 49 206 86 49 206 86 49 206 86 49 206 86 49 206 86 49 206 86 49 206 86 49 206 86 49 206 86 49 206 86 49 206 86 49 206 86 49 206 86 49 206 86 49 206 86 49 206 86 49 206 86 49 206 86 49 206 86 49 206 86 49 206 86 49 206 86 49 206 86 49 206 86 49 206 86 49 206 86 49 206 86 49 206 86 49 206 86 49 206 86 49 206 86 49 206 86 49 206 86 49 206 86 49 206 86 49 206 86 49 206 86 49 206 86 49 206 86 49 206 86 49 206 86 49 206 86 49 206 86 49 206 86 49 206 86 49 206 86 49 206 86 49 206 86 49 206 86 49 206 86 49 206 
87 48 206 87 48 206 87 48 206 87 48 206 87 48 206 87 48 206 87 48 206 87 48 206 87 48 206 87 48 206 87 48 206 87 48 206 87 48 206 87 48 206 87 48 206 87 48 206 87 48 206 87 48 206 87 48 206 87 48 206 87 48 206 87 48 206 87 48 206 87 48 206 87 48 206 87 48 206 87 48 206 87 48 206 87 48 206 87 48 206 87 48 206 87 48 206 87 48 206 87 48 206 87 48 206 87 48 206 87 48 206 87 48 206 87 48 206 87 48 206 87 48 206 87 48 206 87 48 206 87 48 206 87 48 206 87 48 206 87 48 206 87 48 206 87 48 206 87 48 206 87 48 206 87 48 206 87 48 206 87 48 206 87 48 206 87 48 206 87 48 206 87 48 206 87 48 206 87 48 206 87 48 206 87 48 206 87 48 206 87 48 206 87 48 206 87 48 206 87 48 206 87 48 206 87 48 206 87 48 206 87 48 206 87 48 206 87 48 206 87 48 206 87 48 206 87 48 206 87 48 206 87 48 206 87 48 206 87 48 206 87 48 206 87 48 206 87 48 206 87 48 206 87 48 206 87 48 206 87 48 206 87 48 206 87 48 206 87 48 206 87 48 206 87 48 206 87 48 206 87 48 206 87 48 206 87 48 206 87 48 206 87 48 206 87 48 206 87 48 206 87 48 206 87 48 206 87 48 206 87 48 206 87 48 206 87 48 206 87 48 206 87 48 206 87 48 206 87 48 206 87 48 206 87 48 206 87 48 206 87 48 206 87 48 206 87 48 206 87 48 206 87 48 206 87 48 206 87 48 206 87 48 206 87 48 206 87 48 206 87 48 206 87 48 206 87 48 206 87 48 206 87 48 206 87 48 206 87 48 206 87 48 206 87 48 206 87 48 206 87 48 206 87 48 206 87 48 206 87 48 206 87 48 206 87 48 206 87 48 206 87 48 206 87 48 206 87 48 206 87 48 206 87 48 206 87 48 206 87 48 206 87 48 206 87 48 206 87 48 206 87 48 206 87 48 206 87 48 206 87 48 206 87 48 206 87 48 206 87 48 206 87 48 206 87 48 206 87 48 206 87 48 206 87 48 206 87 48 206 87 48 206 87 48 206 87 48 206 87 48 206 87 48 206 87 48 206 87 48 206 87 48 206 87 48 206 87 48 206 87 48 206 87 48 206 87 48 206 87 48 206 87 48 206 87 48 206 87 48 206 87 48 206 87 48 206 87 48 206 87 48 206 87 48 206 87 48 206 87 48 206 87 48 206 87 48 206 87 48 206 87 48 206 87 48 206 255 120 40 87 48 206 87 48 206 87 48 206 87 48 206 87 48 206 87 48 206 87 48 206 87 48 206 87 48 206 87 48 206 87 48 206 87 48 206 87 48 206 87 48 206 87 48 206 87 48 206 87 48 206 87 48 206 87 48 206 87 48 206 87 48 206 87 48 206 87 48 206 87 48 206 87 48 206 87 48 206 87 48 206 87 48 206 87 48 206 87 48 206 87 48 206 87 48 206 87 48 206 87 48 206 87 48 206 87 48 206 87 48 206 87 48 206 87 48 206 87 48 206 87 48 206 87 48 206 87 48 206 87 48 206 87 48 206 87 48 206 87 48 206 87 48 206 87 48 206 87 48 206 87 48 206 87 48 206 87 48 206 87 48 206 87 48 206 87 48 206 87 48 206 87 48 206 87 48 206 87 48 206 87 48 206 87 48 206 87 48 206 87 48 206 87 48 206 87 48 206 87 48 206 87 48 206 87 48 206 87 48 206 87 48 206 87 48 206 87 48 206 87 48 206 87 48 206 87 48 206 87 48 206 87 48 206 87 48 206 87 48 206 87 48 206 87 48 206 87 48 206 87 48 206 87 48 206 87 48 206 87 48 206 87 48 206 87 48 206 87 48 206 87 48 206 87 48 206 87 48 206 87 48 206 87 48 206 87 48 206 87 48 206 87 48 206 87 48 206 87 48 206 87 48 206 87 48 206 87 48 206 87 48 206 87 48 206 87 48 206 87 48 206 87 48 206 87 48 206 87 48 206 87 48 206 87 48 206 87 48 206 87 48 206 87 48 206 87 48 206 87 48 206 87 48 206 87 48 206 87 48 206 87 48 206 87 48 206 87 48 206 87 48 206 87 48 206 87 48 206 87 48 206 87 48 206 87 48 206 255 255 255 255 255 255 87 48 206 87 48 206 87 48 206 87 48 206 87 48 206 87 48 206 87 48 206 87 48 206 87 48 206 87 48 206 87 48 206 87 48 206 87 48 206 87 48 206 87 48 206 87 48 206 87 48 206 87 48 206 87 48 206 87 48 206 87 48 206 87 48 206 87 48 206 87 48 206 87 48 206 87 48 206 87 48 206 87 48 206 87 48 206 87 48 206 87 48 206 87 48 206 87 48 206 87 48 206 87 48 206 87 48 206 87 48 206 87 48 206 87 48 206 87 48 206 87 48 206 87 48 206 87 48 206 87 48 206 87 48 206 87 48 206 87 48 206 87 48 206 87 48 206 87 48 206 87 48 206 87 48 206 87 48 206 87 48 206 87 48 206 87 48 206 87 48 206 87 48 206 87 48 206 87 48 206 
87 48 206 87 48 206 87 48 206 87 48 206 87 48 206 87 48 206 87 48 206 87 48 206 87 48 206 87 48 206 87 48 206 87 48 206 87 48 206 87 48 206 87 48 206 87 48 206 87 48 206 87 48 206 87 48 206 87 48 206 87 48 206 87 48 206 87 48 206 87 48 206 87 48 206 87 48 206 87 48 206 87 48 206 87 48 206 87 48 206 87 48 206 87 48 206 87 48 206 87 48 206 87 48 206 87 48 206 87 48 206 87 48 206 87 48 206 87 48 206 87 48 206 87 48 206 87 48 206 87 48 206 87 48 206 87 48 206 87 48 206 87 48 206 87 48 206 87 48 206 87 48 206 87 48 206 87 48 206 87 48 206 87 48 206 87 48 206 87 48 206 87 48 206 87 48 206 87 48 206 87 48 206 87 48 206 87 48 206 87 48 206 87 48 206 87 48 206 87 48 206 87 48 206 87 48 206 87 48 206 87 48 206 87 48 206 87 48 206 87 48 206 87 48 206 87 48 206 87 48 206 87 48 206 87 48 206 87 48 206 87 48 206 87 48 206 87 48 206 87 48 206 87 48 206 87 48 206 87 48 206 87 48 206 87 48 206 87 48 206 87 48 206 87 48 206 87 48 206 87 48 206 87 48 206 87 48 206 87 48 206 87 48 206 87 48 206 87 48 206 87 48 206 87 48 206 87 48 206 87 48 206 87 48 206 87 48 206 87 48 206 87 48 206 87 48 206 87 48 206 87 48 206 87 48 206 87 48 206 87 48 206 87 48 206 87 48 206 87 48 206 87 48 206 87 48 206 87 48 206 87 48 206 87 48 206 87 48 206 87 48 206 87 48 206 87 48 206 87 48 206 87 48 206 87 48 206 87 48 206 87 48 206 87 48 206 87 48 206 87 48 206 87 48 206 87 48 206 87 48 206 87 48 206 87 48 206 87 48 206 87 48 206 87 48 206 87 48 206 87 48 206 87 48 206 87 48 206 87 48 206 87 48 206 87 48 206 87 48 206 87 48 206 87 48 206 87 48 206 87 48 206 87 48 206 87 48 206 87 48 206 87 48 206 87 48 206 87 48 206 87 48 206 87 48 206 87 48 206 87 48 206 87 48 206 87 48 206 87 48 206 87 48 206 87 48 206 87 48 206 87 48 206 87 48 206 87 48 206 87 48 206 87 48 206 87 48 206 87 48 206 87 48 206 87 48 206 87 48 206 87 48 206 87 48 206 87 48 206 87 48 206 87 48 206 87 48 206 87 48 206 87 48 206 87 48 206 87 48 206 87 48 206 87 48 206 255 120 40 87 48 206 87 48 206 87 48 206 87 48 206 87 48 206 87 48 206 87 48 206 87 48 206 87 48 206 87 48 206 87 48 206 87 48 206 87 48 206 87 48 206 87 48 206 87 48 206 87 48 206 87 48 206 87 48 206 87 48 206 87 48 206 87 48 206 87 48 206 87 48 206 87 48 206 87 48 206 87 48 206 87 48 206 87 48 206 87 48 206 87 48 206 87 48 206 87 48 206 87 48 206 87 48 206 87 48 206 87 48 206 87 48 206 87 48 206 87 48 206 87 48 206 87 48 206 87 48 206 87 48 206 87 48 206 87 48 206 87 48 206 87 48 206 87 48 206 87 48 206 87 48 206 87 48 206 87 48 206 87 48 206 87 48 206 87 48 206 87 48 206 87 48 206 87 48 206 87 48 206 87 48 206 87 48 206 87 48 206 87 48 206 87 48 206 87 48 206 87 48 206 87 48 206 87 48 206 87 48 206 87 48 206 87 48 206 87 48 206 87 48 206 87 48 206 87 48 206 87 48 206 87 48 206 87 48 206 87 48 206 87 48 206 87 48 206 87 48 206 87 48 206 87 48 206 87 48 206 87 48 206 87 48 206 87 48 206 87 48 206 87 48 206 87 48 206 87 48 206 87 48 206 87 48 206 87 48 206 87 48 206 87 48 206 87 48 206 87 48 206 87 48 206 87 48 206 87 48 206 87 48 206 87 48 206 87 48 206 87 48 206 87 48 206 87 48 206 87 48 206 87 48 206 87 48 206 87 48 206 87 48 206 87 48 206 87 48 206 87 48 206 87 48 206 87 48 206 87 48 206 87 48 206 87 48 206 87 48 206 87 48 206 87 48 206 87 48 206 87 48 206 87 48 206 87 48 206 87 48 206 87 48 206 255 255 255 255 255 255 87 48 206 87 48 206 87 48 206 87 48 206 87 48 206 87 48 206 87 48 206 87 48 206 87 48 206 87 48 206 87 48 206 87 48 206 87 48 206 87 48 206 87 48 206 87 48 206 87 48 206 87 48 206 87 48 206 87 48 206 87 48 206 87 48 206 87 48 206 87 48 206 87 48 206 87 48 206 87 48 206 87 48 206 87 48 206 87 48 206 87 48 206 87 48 206 87 48 206 87 48 206 87 48 206 87 48 206 87 48 206 87 48 206 87 48 206 87 48 206 87 48 206 87 48 206 87 48 206 87 48 206 87 48 206 87 48 206 87 48 206 87 48 206 87 48 206 87 48 206 87 48 206 87 48 206 87 48 206 87 48 206 87 48 206 87 48 206 87 48 206 87 48 206 
88 47 206 88 47 206 88 47 206 88 47 206 88 47 206 88 47 206 88 47 206 88 47 206 88 47 206 88 47 206 88 47 206 88 47 206 88 47 206 88 47 206 88 47 206 88 47 206 88 47 206 88 47 206 88 47 206 88 47 206 88 47 206 88 47 206 88 47 206 88 47 206 88 47 206 88 47 206 88 47 206 88 47 206 88 47 206 88 47 206 88 47 206 88 47 206 88 47 206 88 47 206 88 47 206 88 47 206 88 47 206 88 47 206 88 47 206 88 47 206 88 47 206 88 47 206 88 47 206 88 47 206 88 47 206 88 47 206 88 47 206 88 47 206 88 47 206 88 47 206 88 47 206 88 47 206 88 47 206 88 47 206 88 47 206 88 47 206 88 47 206 88 47 206 88 47 206 88 47 206 88 47 206 88 47 206 88 47 206 88 47 206 88 47 206 88 47 206 88 47 206 88 47 206 88 47 206 88 47 206 88 47 206 88 47 206 88 47 206 88 47 206 88 47 206 88 47 206 88 47 206 88 47 206 88 47 206 88 47 206 88 47 206 88 47 206 88 47 206 88 47 206 88 47 206 88 47 206 88 47 206 88 47 206 88 47 206 88 47 206 88 47 206 88 47 206 88 47 206 88 47 206 88 47 206 88 47 206 88 47 206 88 47 206 88 47 206 88 47 206 88 47 206 88 47 206 88 47 206 88 47 206 88 47 206 88 47 206 88 47 206 88 47 206 88 47 206 88 47 206 88 47 206 88 47 206 88 47 206 88 47 206 88 47 206 88 47 206 88 47 206 88 47 206 88 47 206 88 47 206 88 47 206 88 47 206 88 47 206 88 47 206 88 47 206 88 47 206 88 47 206 88 47 206 88 47 206 88 47 206 88 47 206 88 47 206 88 47 206 88 47 206 88 47 206 88 47 206 88 47 206 88 47 206 88 47 206 88 47 206 88 47 206 88 47 206 88 47 206 88 47 206 88 47 206 88 47 206 88 47 206 88 47 206 88 47 206 88 47 206 88 47 206 88 47 206 88 47 206 88 47 206 88 47 206 88 47 206 88 47 206 88 47 206 88 47 206 88 47 206 88 47 206 88 47 206 88 47 206 88 47 206 88 47 206 88 47 206 88 47 206 88 47 206 88 47 206 88 47 206 88 47 206 88 47 206 88 47 206 88 47 206 88 47 206 88 47 206 88 47 206 88 47 206 88 47 206 88 47 206 88 47 206 88 47 206 88 47 206 88 47 206 88 47 206 88 47 206 88 47 206 88 47 206 88 47 206 88 47 206 88 47 206 88 47 206 255 120 40 88 47 206 88 47 206 88 47 206 88 47 206 88 47 206 88 47 206 88 47 206 88 47 206 88 47 206 88 47 206 88 47 206 88 47 206 88 47 206 88 47 206 88 47 206 88 47 206 88 47 206 88 47 206 88 47 206 88 47 206 88 47 206 88 47 206 88 47 206 88 47 206 88 47 206 88 47 206 88 47 206 88 47 206 88 47 206 88 47 206 88 47 206 88 47 206 88 47 206 88 47 206 88 47 206 88 47 206 88 47 206 88 47 206 88 47 206 88 47 206 88 47 206 88 47 206 88 47 206 88 47 206 88 47 206 88 47 206 88 47 206 88 47 206 88 47 206 88 47 206 88 47 206 88 47 206 88 47 206 88 47 206 88 47 206 88 47 206 88 47 206 88 47 206 88 47 206 88 47 206 88 47 206 88 47 206 88 47 206 88 47 206 88 47 206 88 47 206 88 47 206 88 47 206 88 47 206 88 47 206 88 47 206 88 47 206 88 47 206 88 47 206 88 47 206 88 47 206 88 47 206 88 47 206 88 47 206 88 47 206 88 47 206 88 47 206 88 47 206 88 47 206 88 47 206 88 47 206 88 47 206 88 47 206 88 47 206 88 47 206 88 47 206 88 47 206 88 47 206 88 47 206 88 47 206 88 47 206 88 47 206 88 47 206 88 47 206 88 47 206 88 47 206 88 47 206 88 47 206 88 47 206 88 47 206 88 47 206 88 47 206 88 47 206 88 47 206 88 47 206 88 47 206 88 47 206 88 47 206 88 47 206 88 47 206 88 47 206 88 47 206 88 47 206 88 47 206 88 47 206 88 47 206 88 47 206 88 47 206 88 47 206 88 47 206 88 47 206 88 47 206 88 47 206 88 47 206 88 47 206 88 47 206 88 47 206 88 47 206 255 255 255 255 255 255 88 47 206 88 47 206 88 47 206 88 47 206 88 47 206 88 47 206 88 47 206 88 47 206 88 47 206 88 47 206 88 47 206 88 47 206 88 47 206 88 47 206 88 47 206 88 47 206 88 47 206 88 47 206 88 47 206 88 47 206 88 47 206 88 47 206 88 47 206 88 47 206 88 47 206 88 47 206 88 47 206 88 47 206 88 47 206 88 47 206 88 47 206 88 47 206 88 47 206 88 47 206 88 47 206 88 47 206 88 47 206 88 47 206 88 47 206 88 47 206 88 47 206 88 47 206 88 47 206 88 47 206 88 47 206 88 47 206 88 47 206 88 47 206 88 47 206 88 47 206 88 47 206 88 47 206 88 47 206 88 47 206 88 47 206 88 47 206 
88 47 206 88 47 206 88 47 206 88 47 206 88 47 206 88 47 206 88 47 206 88 47 206 88 47 206 88 47 206 88 47 206 88 47 206 88 47 206 88 47 206 88 47 206 88 47 206 88 47 206 88 47 206 88 47 206 88 47 206 88 47 206 88 47 206 88 47 206 88 47 206 88 47 206 88 47 206 88 47 206 88 47 206 88 47 206 88 47 206 88 47 206 88 47 206 88 47 206 88 47 206 88 47 206 88 47 206 88 47 206 88 47 206 88 47 206 88 47 206 88 47 206 88 47 206 88 47 206 88 47 206 88 47 206 88 47 206 88 47 206 88 47 206 88 47 206 88 47 206 88 47 206 88 47 206 88 47 206 88 47 206 88 47 206 88 47 206 88 47 206 88 47 206 88 47 206 88 47 206 88 47 206 88 47 206 88 47 206 88 47 206 88 47 206 88 47 206 88 47 206 88 47 206 88 47 206 88 47 206 88 47 206 88 47 206 88 47 206 88 47 206 88 47 206 88 47 206 88 47 206 88 47 206 88 47 206 88 47 206 88 47 206 88 47 206 88 47 206 88 47 206 88 47 206 88 47 206 88 47 206 88 47 206 88 47 206 88 47 206 88 47 206 88 47 206 88 47 206 88 47 206 88 47 206 88 47 206 88 47 206 88 47 206 88 47 206 88 47 206 88 47 206 88 47 206 88 47 206 88 47 206 88 47 206 88 47 206 88 47 206 88 47 206 88 47 206 88 47 206 88 47 206 88 47 206 88 47 206 88 47 206 88 47 206 88 47 206 88 47 206 88 47 206 88 47 206 88 47 206 88 47 206 88 47 206 88 47 206 88 47 206 88 47 206 88 47 206 88 47 206 88 47 206 88 47 206 88 47 206 88 47 206 88 47 206 88 47 206 88 47 206 88 47 206 88 47 206 88 47 206 88 47 206 88 47 206 88 47 206 88 47 206 88 47 206 88 47 206 88 47 206 88 47 206 88 47 206 88 47 206 88 47 206 88 47 206 88 47 206 88 47 206 88 47 206 88 47 206 88 47 206 88 47 206 88 47 206 88 47 206 88 47 206 88 47 206 88 47 206 88 47 206 88 47 206 88 47 206 88 47 206 88 47 206 88 47 206 88 47 206 88 47 206 88 47 206 88 47 206 88 47 206 88 47 206 88 47 206 88 47 206 88 47 206 88 47 206 88 47 206 88 47 206 88 47 206 88 47 206 88 47 206 88 47 206 88 47 206 88 47 206 88 47 206 88 47 206 88 47 206 88 47 206 88 47 206 88 47 206 88 47 206 88 47 206 255 120 40 88 47 206 88 47 206 88 47 206 88 47 206 88 47 206 88 47 206 88 47 206 88 47 206 88 47 206 88 47 206 88 47 206 88 47 206 88 47 206 88 47 206 88 47 206 88 47 206 88 47 206 88 47 206 88 47 206 88 47 206 88 47 206 88 47 206 88 47 206 88 47 206 88 47 206 88 47 206 88 47 206 88 47 206 88 47 206 88 47 206 88 47 206 88 47 206 88 47 206 88 47 206 88 47 206 88 47 206 88 47 206 88 47 206 88 47 206 88 47 206 88 47 206 88 47 206 88 47 206 88 47 206 88 47 206 88 47 206 88 47 206 88 47 206 88 47 206 88 47 206 88 47 206 88 47 206 88 47 206 88 47 206 88 47 206 88 47 206 88 47 206 88 47 206 88 47 206 88 47 206 88 47 206 88 47 206 88 47 206 88 47 206 88 47 206 88 47 206 88 47 206 88 47 206 88 47 206 88 47 206 88 47 206 88 47 206 88 47 206 88 47 206 88 47 206 88 47 206 88 47 206 88 47 206 88 47 206 88 47 206 88 47 206 88 47 206 88 47 206 88 47 206 88 47 206 88 47 206 88 47 206 88 47 206 88 47 206 88 47 206 88 47 206 88 47 206 88 47 206 88 47 206 88 47 206 88 47 206 88 47 206 88 47 206 88 47 206 88 47 206 88 47 206 88 47 206 88 47 206 88 47 206 88 47 206 88 47 206 88 47 206 88 47 206 88 47 206 88 47 206 88 47 206 88 47 206 88 47 206 88 47 206 88 47 206 88 47 206 88 47 206 88 47 206 88 47 206 88 47 206 88 47 206 88 47 206 88 47 206 88 47 206 88 47 206 88 47 206 88 47 206 88 47 206 88 47 206 88 47 206 88 47 206 88 47 206 88 47 206 88 47 206 88 47 206 255 255 255 88 47 206 88 47 206 88 47 206 88 47 206 88 47 206 88 47 206 88 47 206 88 47 206 88 47 206 88 47 206 88 47 206 88 47 206 88 47 206 88 47 206 88 47 206 88 47 206 88 47 206 88 47 206 88 47 206 88 47 206 88 47 206 88 47 206 88 47 206 88 47 206 88 47 206 88 47 206 88 47 206 88 47 206 88 47 206 88 47 206 88 47 206 88 47 206 88 47 206 88 47 206 88 47 206 88 47 206 88 47 206 88 47 206 88 47 206 88 47 206 88 47 206 88 47 206 88 47 206 88 47 206 88 47 206 88 47 206 88 47 206 88 47 206 88 47 206 88 47 206 88 47 206 88 47 206 88 47 206 88 47 206 88 47 206 
88 46 207 88 46 207 88 46 207 88 46 207 88 46 207 88 46 207 88 46 207 88 46 207 88 46 207 88 46 207 88 46 207 88 46 207 88 46 207 88 46 207 88 46 207 88 46 207 88 46 207 88 46 207 88 46 207 88 46 207 88 46 207 88 46 207 88 46 207 88 46 207 88 46 207 88 46 207 88 46 207 88 46 207 88 46 207 88 46 207 88 46 207 88 46 207 88 46 207 88 46 207 88 46 207 88 46 207 88 46 207 88 46 207 88 46 207 88 46 207 88 46 207 88 46 207 88 46 207 88 46 207 88 46 207 88 46 207 88 46 207 88 46 207 88 46 207 88 46 207 88 46 207 88 46 207 88 46 207 88 46 207 88 46 207 88 46 207 88 46 207 88 46 207 88 46 207 88 46 207 88 46 207 88 46 207 88 46 207 88 46 207 88 46 207 88 46 207 88 46 207 88 46 207 88 46 207 88 46 207 88 46 207 88 46 207 88 46 207 88 46 207 88 46 207 88 46 207 88 46 207 88 46 207 88 46 207 88 46 207 88 46 207 88 46 207 88 46 207 88 46 207 88 46 207 88 46 207 88 46 207 88 46 207 88 46 207 88 46 207 88 46 207 88 46 207 88 46 207 88 46 207 88 46 207 88 46 207 88 46 207 88 46 207 88 46 207 88 46 207 88 46 207 88 46 207 88 46 207 88 46 207 88 46 207 88 46 207 88 46 207 88 46 207 88 46 207 88 46 207 88 46 207 88 46 207 88 46 207 88 46 207 88 46 207 88 46 207 88 46 207 88 46 207 88 46 207 88 46 207 88 46 207 88 46 207 88 46 207 88 46 207 88 46 207 88 46 207 88 46 207 88 46 207 88 46 207 88 46 207 88 46 207 88 46 207 88 46 207 88 46 207 88 46 207 88 46 207 88 46 207 88 46 207 88 46 207 88 46 207 88 46 207 88 46 207 88 46 207 88 46 207 88 46 207 88 46 207 88 46 207 88 46 207 88 46 207 88 46 207 88 46 207 88 46 207 88 46 207 88 46 207 88 46 207 88 46 207 88 46 207 88 46 207 88 46 207 88 46 207 88 46 207 88 46 207 88 46 207 88 46 207 88 46 207 88 46 207 88 46 207 88 46 207 88 46 207 88 46 207 88 46 207 88 46 207 88 46 207 88 46 207 88 46 207 88 46 207 88 46 207 88 46 207 88 46 207 88 46 207 88 46 207 88 46 207 88 46 207 88 46 207 88 46 207 88 46 207 88 46 207 88 46 207 88 46 207 88 46 207 88 46 207 88 46 207 255 120 40 88 46 207 88 46 207 88 46 207 88 46 207 88 46 207 88 46 207 88 46 207 88 46 207 88 46 207 88 46 207 88 46 207 88 46 207 88 46 207 88 46 207 88 46 207 88 46 207 88 46 207 88 46 207 88 46 207 88 46 207 88 46 207 88 46 207 88 46 207 88 46 207 88 46 207 88 46 207 88 46 207 88 46 207 88 46 207 88 46 207 88 46 207 88 46 207 88 46 207 88 46 207 88 46 207 88 46 207 88 46 207 88 46 207 88 46 207 88 46 207 88 46 207 88 46 207 88 46 207 88 46 207 88 46 207 88 46 207 88 46 207 88 46 207 88 46 207 88 46 207 88 46 207 88 46 207 88 46 207 88 46 207 88 46 207 88 46 207 88 46 207 88 46 207 88 46 207 88 46 207 88 46 207 88 46 207 88 46 207 88 46 207 88 46 207 88 46 207 88 46 207 88 46 207 88 46 207 88 46 207 88 46 207 88 46 207 88 46 207 88 46 207 88 46 207 88 46 207 88 46 207 88 46 207 88 46 207 88 46 207 88 46 207 88 46 207 88 46 207 88 46 207 88 46 207 88 46 207 88 46 207 88 46 207 88 46 207 88 46 207 88 46 207 88 46 207 88 46 207 88 46 207 88 46 207 88 46 207 88 46 207 88 46 207 88 46 207 88 46 207 88 46 207 88 46 207 88 46 207 88 46 207 88 46 207 88 46 207 88 46 207 88 46 207 88 46 207 88 46 207 88 46 207 88 46 207 88 46 207 88 46 207 88 46 207 88 46 207 88 46 207 88 46 207 88 46 207 88 46 207 88 46 207 88 46 207 88 46 207 88 46 207 88 46 207 88 46 207 88 46 207 88 46 207 88 46 207 88 46 207 88 46 207 88 46 207 88 46 207 88 46 207 88 46 207 88 46 207 255 255 255 255 255 255 88 46 207 88 46 207 88 46 207 88 46 207 88 46 207 88 46 207 88 46 207 88 46 207 88 46 207 88 46 207 88 46 207 88 46 207 88 46 207 88 46 207 88 46 207 88 46 207 88 46 207 88 46 207 88 46 207 88 46 207 88 46 207 88 46 207 88 46 207 88 46 207 88 46 207 88 46 207 88 46 207 88 46 207 88 46 207 88 46 207 88 46 207 88 46 207 88 46 207 88 46 207 88 46 207 88 46 207 88 46 207 88 46 207 88 46 207 88 46 207 88 46 207 88 46 207 88 46 207 88 46 207 88 46 207 88 46 207 88 46 207 88 46 207 88 46 207 88 46 207 88 46 207 88 46 207 88 46 207 
89 46 207 89 46 207 89 46 207 89 46 207 89 46 207 89 46 207 89 46 207 89 46 207 89 46 207 89 46 207 89 46 207 89 46 207 89 46 207 89 46 207 89 46 207 89 46 207 89 46 207 89 46 207 89 46 207 89 46 207 89 46 207 89 46 207 89 46 207 89 46 207 89 46 207 89 46 207 89 46 207 89 46 207 89 46 207 89 46 207 89 46 207 89 46 207 89 46 207 89 46 207 89 46 207 89 46 207 89 46 207 89 46 207 89 46 207 89 46 207 89 46 207 89 46 207 89 46 207 89 46 207 89 46 207 89 46 207 89 46 207 89 46 207 89 46 207 89 46 207 89 46 207 89 46 207 89 46 207 89 46 207 89 46 207 89 46 207 89 46 207 89 46 207 89 46 207 89 46 207 89 46 207 89 46 207 89 46 207 89 46 207 89 46 207 89 46 207 89 46 207 89 46 207 89 46 207 89 46 207 89 46 207 89 46 207 89 46 207 89 46 207 89 46 207 89 46 207 89 46 207 89 46 207 89 46 207 89 46 207 89 46 207 89 46 207 89 46 207 89 46 207 89 46 207 89 46 207 89 46 207 89 46 207 89 46 207 89 46 207 89 46 207 89 46 207 89 46 207 89 46 207 89 46 207 89 46 207 89 46 207 89 46 207 89 46 207 89 46 207 89 46 207 89 46 207 89 46 207 89 46 207 89 46 207 89 46 207 89 46 207 89 46 207 89 46 207 89 46 207 89 46 207 89 46 207 89 46 207 89 46 207 89 46 207 89 46 207 89 46 207 89 46 207 89 46 207 89 46 207 89 46 207 89 46 207 89 46 207 89 46 207 89 46 207 89 46 207 89 46 207 89 46 207 89 46 207 89 46 207 89 46 207 89 46 207 89 46 207 89 46 207 89 46 207 89 46 207 89 46 207 89 46 207 89 46 207 89 46 207 89 46 207 89 46 207 89 46 207 89 46 207 89 46 207 89 46 207 89 46 207 89 46 207 89 46 207 89 46 207 89 46 207 89 46 207 89 46 207 89 46 207 89 46 207 89 46 207 89 46 207 89 46 207 89 46 207 89 46 207 89 46 207 89 46 207 89 46 207 89 46 207 89 46 207 89 46 207 89 46 207 89 46 207 89 46 207 89 46 207 89 46 207 89 46 207 89 46 207 89 46 207 89 46 207 89 46 207 89 46 207 89 46 207 89 46 207 89 46 207 89 46 207 89 46 207 89 46 207 89 46 207 89 46 207 89 46 207 89 46 207 89 46 207 89 46 207 89 46 207 89 46 207 89 46 207 255 120 40 89 46 207 89 46 207 89 46 207 89 46 207 89 46 207 89 46 207 89 46 207 89 46 207 89 46 207 89 46 207 89 46 207 89 46 207 89 46 207 89 46 207 89 46 207 89 46 207 89 46 207 89 46 207 89 46 207 89 46 207 89 46 207 89 46 207 89 46 207 89 46 207 89 46 207 89 46 207 89 46 207 89 46 207 89 46 207 89 46 207 89 46 207 89 46 207 89 46 207 89 46 207 89 46 207 89 46 207 89 46 207 89 46 207 89 46 207 89 46 207 89 46 207 89 46 207 89 46 207 89 46 207 89 46 207 89 46 207 89 46 207 89 46 207 89 46 207 89 46 207 89 46 207 89 46 207 89 46 207 89 46 207 89 46 207 89 46 207 89 46 207 89 46 207 89 46 207 89 46 207 89 46 207 89 46 207 89 46 207 89 46 207 89 46 207 89 46 207 89 46 207 89 46 207 89 46 207 89 46 207 89 46 207 89 46 207 89 46 207 89 46 207 89 46 207 89 46 207 89 46 207 89 46 207 89 46 207 89 46 207 89 46 207 89 46 207 89 46 207 89 46 207 89 46 207 89 46 207 89 46 207 89 46 207 89 46 207 89 46 207 89 46 207 89 46 207 89 46 207 89 46 207 89 46 207 89 46 207 89 46 207 89 46 207 89 46 207 89 46 207 89 46 207 89 46 207 89 46 207 89 46 207 89 46 207 89 46 207 89 46 207 89 46 207 89 46 207 89 46 207 89 46 207 89 46 207 89 46 207 89 46 207 89 46 207 89 46 207 89 46 207 89 46 207 89 46 207 89 46 207 89 46 207 89 46 207 89 46 207 89 46 207 89 46 207 89 46 207 89 46 207 89 46 207 89 46 207 89 46 207 89 46 207 89 46 207 89 46 207 89 46 207 89 46 207 89 46 207 89 46 207 89 46 207 255 255 255 255 255 255 89 46 207 89 46 207 89 46 207 89 46 207 89 46 207 89 46 207 89 46 207 89 46 207 89 46 207 89 46 207 89 46 207 89 46 207 89 46 207 89 46 207 89 46 207 89 46 207 89 46 207 89 46 207 89 46 207 89 46 207 89 46 207 89 46 207 89 46 207 89 46 207 89 46 207 89 46 207 89 46 207 89 46 207 89 46 207 89 46 207 89 46 207 89 46 207 89 46 207 89 46 207 89 46 207 89 46 207 89 46 207 89 46 207 89 46 207 89 46 207 89 46 207 89 46 207 89 46 207 89 46 207 89 46 207 89 46 207 89 46 207 89 46 207 89 46 207 89 46 207 89 46 207 
89 45 207 89 45 207 89 45 207 89 45 207 89 45 207 89 45 207 89 45 207 89 45 207 89 45 207 89 45 207 89 45 207 89 45 207 89 45 207 89 45 207 89 45 207 89 45 207 89 45 207 89 45 207 89 45 207 89 45 207 89 45 207 89 45 207 89 45 207 89 45 207 89 45 207 89 45 207 89 45 207 89 45 207 89 45 207 89 45 207 89 45 207 89 45 207 89 45 207 89 45 207 89 45 207 89 45 207 89 45 207 89 45 207 89 45 207 89 45 207 89 45 207 89 45 207 89 45 207 89 45 207 89 45 207 89 45 207 89 45 207 89 45 207 89 45 207 89 45 207 89 45 207 89 45 207 89 45 207 89 45 207 89 45 207 89 45 207 89 45 207 89 45 207 89 45 207 89 45 207 89 45 207 89 45 207 89 45 207 89 45 207 89 45 207 89 45 207 89 45 207 89 45 207 89 45 207 89 45 207 89 45 207 89 45 207 89 45 207 89 45 207 89 45 207 89 45 207 89 45 207 89 45 207 89 45 207 89 45 207 89 45 207 89 45 207 89 45 207 89 45 207 89 45 207 89 45 207 89 45 207 89 45 207 89 45 207 89 45 207 89 45 207 89 45 207 89 45 207 89 45 207 89 45 207 89 45 207 89 45 207 89 45 207 89 45 207 89 45 207 89 45 207 89 45 207 89 45 207 89 45 207 89 45 207 89 45 207 89 45 207 89 45 207 89 45 207 89 45 207 89 45 207 89 45 207 89 45 207 89 45 207 89 45 207 89 45 207 89 45 207 89 45 207 89 45 207 89 45 207 89 45 207 89 45 207 89 45 207 89 45 207 89 45 207 89 45 207 89 45 207 89 45 207 89 45 207 89 45 207 89 45 207 89 45 207 89 45 207 89 45 207 89 45 207 89 45 207 89 45 207 89 45 207 89 45 207 89 45 207 89 45 207 89 45 207 89 45 207 89 45 207 89 45 207 89 45 207 89 45 207 89 45 207 89 45 207 89 45 207 89 45 207 89 45 207 89 45 207 89 45 207 89 45 207 89 45 207 89 45 207 89 45 207 89 45 207 89 45 207 89 45 207 89 45 207 89 45 207 89 45 207 89 45 207 89 45 207 89 45 207 89 45 207 89 45 207 89 45 207 89 45 207 89 45 207 89 45 207 89 45 207 89 45 207 89 45 207 89 45 207 89 45 207 89 45 207 89 45 207 89 45 207 89 45 207 89 45 207 89 45 207 89 45 207 89 45 207 89 45 207 89 45 207 89 45 207 89 45 207 89 45 207 89 45 207 255 120 40 89 45 207 89 45 207 89 45 207 89 45 207 89 45 207 89 45 207 89 45 207 89 45 207 89 45 207 89 45 207 89 45 207 89 45 207 89 45 207 89 45 207 89 45 207 89 45 207 89 45 207 89 45 207 89 45 207 89 45 207 89 45 207 89 45 207 89 45 207 89 45 207 89 45 207 89 45 207 89 45 207 89 45 207 89 45 207 89 45 207 89 45 207 89 45 207 89 45 207 89 45 207 89 45 207 89 45 207 89 45 207 89 45 207 89 45 207 89 45 207 89 45 207 89 45 207 89 45 207 89 45 207 89 45 207 89 45 207 89 45 207 89 45 207 89 45 207 89 45 207 89 45 207 89 45 207 89 45 207 89 45 207 89 45 207 89 45 207 89 45 207 89 45 207 89 45 207 89 45 207 89 45 207 89 45 207 89 45 207 89 45 207 89 45 207 89 45 207 89 45 207 89 45 207 89 45 207 89 45 207 89 45 207 89 45 207 89 45 207 89 45 207 89 45 207 89 45 207 89 45 207 89 45 207 89 45 207 89 45 207 89 45 207 89 45 207 89 45 207 89 45 207 89 45 207 89 45 207 89 45 207 89 45 207 89 45 207 89 45 207 89 45 207 89 45 207 89 45 207 89 45 207 89 45 207 89 45 207 89 45 207 89 45 207 89 45 207 89 45 207 89 45 207 89 45 207 89 45 207 89 45 207 89 45 207 89 45 207 89 45 207 89 45 207 89 45 207 89 45 207 89 45 207 89 45 207 89 45 207 89 45 207 89 45 207 89 45 207 89 45 207 89 45 207 89 45 207 89 45 207 89 45 207 89 45 207 89 45 207 89 45 207 89 45 207 89 45 207 89 45 207 89 45 207 89 45 207 89 45 207 89 45 207 89 45 207 89 45 207 89 45 207 89 45 207 89 45 207 89 45 207 89 45 207 89 45 207 89 45 207 255 255 255 255 255 255 89 45 207 89 45 207 89 45 207 89 45 207 89 45 207 89 45 207 89 45 207 89 45 207 89 45 207 89 45 207 89 45 207 89 45 207 89 45 207 89 45 207 89 45 207 89 45 207 89 45 207 89 45 207 89 45 207 89 45 207 89 45 207 89 45 207 89 45 207 89 45 207 89 45 207 89 45 207 89 45 207 89 45 207 89 45 207 89 45 207 89 45 207 89 45 207 89 45 207 89 45 207 89 45 207 89 45 207 89 45 207 89 45 207 89 45 207 89 45 207 89 45 207 89 45 207 89 45 207 89 45 207 89 45 207 89 45 207 89 45 207 89 45 207 89 45 207 
89 45 207 89 45 207 89 45 207 89 45 207 89 45 207 89 45 207 89 45 207 89 45 207 89 45 207 89 45 207 89 45 207 89 45 207 89 45 207 89 45 207 89 45 207 89 45 207 89 45 207 89 45 207 89 45 207 89 45 207 89 45 207 89 45 207 89 45 207 89 45 207 89 45 207 89 45 207 89 45 207 89 45 207 89 45 207 89 45 207 89 45 207 89 45 207 89 45 207 89 45 207 89 45 207 89 45 207 89 45 207 89 45 207 89 45 207 89 45 207 89 45 207 89 45 207 89 45 207 89 45 207 89 45 207 89 45 207 89 45 207 89 45 207 89 45 207 89 45 207 89 45 207 89 45 207 89 45 207 89 45 207 89 45 207 89 45 207 89 45 207 89 45 207 89 45 207 89 45 207 89 45 207 89 45 207 89 45 207 89 45 207 89 45 207 89 45 207 89 45 207 89 45 207 89 45 207 89 45 207 89 45 207 89 45 207 89 45 207 89 45 207 89 45 207 89 45 207 89 45 207 89 45 207 89 45 207 89 45 207 89 45 207 89 45 207 89 45 207 89 45 207 89 45 207 89 45 207 89 45 207 89 45 207 89 45 207 89 45 207 89 45 207 89 45 207 89 45 207 89 45 207 89 45 207 89 45 207 89 45 207 89 45 207 89 45 207 89 45 207 89 45 207 89 45 207 89 45 207 89 45 207 89 45 207 89 45 207 89 45 207 89 45 207 89 45 207 89 45 207 89 45 207 89 45 207 89 45 207 89 45 207 89 45 207 89 45 207 89 45 207 89 45 207 89 45 207 89 45 207 89 45 207 89 45 207 89 45 207 89 45 207 89 45 207 89 45 207 89 45 207 89 45 207 89 45 207 89 45 207 89 45 207 89 45 207 89 45 207 89 45 207 89 45 207 89 45 207 89 45 207 89 45 207 89 45 207 89 45 207 89 45 207 89 45 207 89 45 207 89 45 207 89 45 207 89 45 207 89 45 207 89 45 207 89 45 207 89 45 207 89 45 207 89 45 207 89 45 207 89 45 207 89 45 207 89 45 207 89 45 207 89 45 207 89 45 207 89 45 207 89 45 207 89 45 207 89 45 207 89 45 207 89 45 207 89 45 207 89 45 207 89 45 207 89 45 207 89 45 207 89 45 207 89 45 207 89 45 207 89 45 207 89 45 207 89 45 207 89 45 207 89 45 207 89 45 207 89 45 207 89 45 207 89 45 207 89 45 207 89 45 207 89 45 207 89 45 207 89 45 207 89 45 207 89 45 207 89 45 207 89 45 207 89 45 207 255 120 40 89 45 207 89 45 207 89 45 207 89 45 207 89 45 207 89 45 207 89 45 207 89 45 207 89 45 207 89 45 207 89 45 207 89 45 207 89 45 207 89 45 207 89 45 207 89 45 207 89 45 207 89 45 207 89 45 207 89 45 207 89 45 207 89 45 207 89 45 207 89 45 207 89 45 207 89 45 207 89 45 207 89 45 207 89 45 207 89 45 207 89 45 207 89 45 207 89 45 207 89 45 207 89 45 207 89 45 207 89 45 207 89 45 207 89 45 207 89 45 207 89 45 207 89 45 207 89 45 207 89 45 207 89 45 207 89 45 207 89 45 207 89 45 207 89 45 207 89 45 207 89 45 207 89 45 207 89 45 207 89 45 207 89 45 207 89 45 207 89 45 207 89 45 207 89 45 207 89 45 207 89 45 207 89 45 207 89 45 207 89 45 207 89 45 207 89 45 207 89 45 207 89 45 207 89 45 207 89 45 207 89 45 207 89 45 207 89 45 207 89 45 207 89 45 207 89 45 207 89 45 207 89 45 207 89 45 207 89 45 207 89 45 207 89 45 207 89 45 207 89 45 207 89 45 207 89 45 207 89 45 207 89 45 207 89 45 207 89 45 207 89 45 207 89 45 207 89 45 207 89 45 207 89 45 207 89 45 207 89 45 207 89 45 207 89 45 207 89 45 207 89 45 207 89 45 207 89 45 207 89 45 207 89 45 207 89 45 207 89 45 207 89 45 207 89 45 207 89 45 207 89 45 207 89 45 207 89 45 207 89 45 207 89 45 207 89 45 207 89 45 207 89 45 207 89 45 207 89 45 207 89 45 207 89 45 207 89 45 207 89 45 207 89 45 207 89 45 207 89 45 207 89 45 207 89 45 207 89 45 207 89 45 207 89 45 207 89 45 207 89 45 207 89 45 207 89 45 207 89 45 207 89 45 207 89 45 207 89 45 207 89 45 207 89 45 207 255 255 255 89 45 207 89 45 207 89 45 207 89 45 207 89 45 207 89 45 207 89 45 207 89 45 207 89 45 207 89 45 207 89 45 207 89 45 207 89 45 207 89 45 207 89 45 207 89 45 207 89 45 207 89 45 207 89 45 207 89 45 207 89 45 207 89 45 207 89 45 207 89 45 207 89 45 207 89 45 207 89 45 207 89 45 207 89 45 207 89 45 207 89 45 207 89 45 207 89 45 207 89 45 207 89 45 207 89 45 207 89 45 207 89 45 207 89 45 207 89 45 207 89 45 207 89 45 207 89 45 207 89 45 207 89 45 207 89 45 207 89 45 207 89 45 207 
90 44 207 90 44 207 90 44 207 90 44 207 90 44 207 90 44 207 90 44 207 90 44 207 90 44 207 90 44 207 90 44 207 90 44 207 90 44 207 90 44 207 90 44 207 90 44 207 90 44 207 90 44 207 90 44 207 90 44 207 90 44 207 90 44 207 90 44 207 90 44 207 90 44 207 90 44 207 90 44 207 90 44 207 90 44 207 90 44 207 90 44 207 90 44 207 90 44 207 90 44 207 90 44 207 90 44 207 90 44 207 90 44 207 90 44 207 90 44 207 90 44 207 90 44 207 90 44 207 90 44 207 90 44 207 90 44 207 90 44 207 90 44 207 90 44 207 90 44 207 90 44 207 90 44 207 90 44 207 90 44 207 90 44 207 90 44 207 90 44 207 90 44 207 90 44 207 90 44 207 90 44 207 90 44 207 90 44 207 90 44 207 90 44 207 90 44 207 90 44 207 90 44 207 90 44 207 90 44 207 90 44 207 90 44 207 90 44 207 90 44 207 90 44 207 90 44 207 90 44 207 90 44 207 90 44 207 90 44 207 90 44 207 90 44 207 90 44 207 90 44 207 90 44 207 90 44 207 90 44 207 90 44 207 90 44 207 90 44 207 90 44 207 90 44 207 90 44 207 90 44 207 90 44 207 90 44 207 90 44 207 90 44 207 90 44 207 90 44 207 90 44 207 90 44 207 90 44 207 90 44 207 90 44 207 90 44 207 90 44 207 90 44 207 90 44 207 90 44 207 90 44 207 90 44 207 90 44 207 90 44 207 90 44 207 90 44 207 90 44 207 90 44 207 90 44 207 90 44 207 90 44 207 90 44 207 90 44 207 90 44 207 90 44 207 90 44 207 90 44 207 90 44 207 90 44 207 90 44 207 90 44 207 90 44 207 90 44 207 90 44 207 90 44 207 90 44 207 90 44 207 90 44 207 90 44 207 90 44 207 90 44 207 90 44 207 90 44 207 90 44 207 90 44 207 90 44 207 90 44 207 90 44 207 90 44 207 90 44 207 90 44 207 90 44 207 90 44 207 90 44 207 90 44 207 90 44 207 90 44 207 90 44 207 90 44 207 90 44 207 90 44 207 90 44 207 90 44 207 90 44 207 90 44 207 90 44 207 90 44 207 90 44 207 90 44 207 90 44 207 90 44 207 90 44 207 90 44 207 90 44 207 90 44 207 90 44 207 90 44 207 90 44 207 90 44 207 90 44 207 90 44 207 90 44 207 90 44 207 90 44 207 90 44 207 90 44 207 90 44 207 90 44 207 90 44 207 90 44 207 90 44 207 90 44 207 255 120 40 90 44 207 90 44 207 90 44 207 90 44 207 90 44 207 90 44 207 90 44 207 90 44 207 90 44 207 90 44 207 90 44 207 90 44 207 90 44 207 90 44 207 90 44 207 90 44 207 90 44 207 90 44 207 90 44 207 90 44 207 90 44 207 90 44 207 90 44 207 90 44 207 90 44 207 90 44 207 90 44 207 90 44 207 90 44 207 90 44 207 90 44 207 90 44 207 90 44 207 90 44 207 90 44 207 90 44 207 90 44 207 90 44 207 90 44 207 90 44 207 90 44 207 90 44 207 90 44 207 90 44 207 90 44 207 90 44 207 90 44 207 90 44 207 90 44 207 90 44 207 90 44 207 90 44 207 90 44 207 90 44 207 90 44 207 90 44 207 90 44 207 90 44 207 90 44 207 90 44 207 90 44 207 90 44 207 90 44 207 90 44 207 90 44 207 90 44 207 90 44 207 90 44 207 90 44 207 90 44 207 90 44 207 90 44 207 90 44 207 90 44 207 90 44 207 90 44 207 90 44 207 90 44 207 90 44 207 90 44 207 90 44 207 90 44 207 90 44 207 90 44 207 90 44 207 90 44 207 90 44 207 90 44 207 90 44 207 90 44 207 90 44 207 90 44 207 90 44 207 90 44 207 90 44 207 90 44 207 90 44 207 90 44 207 90 44 207 90 44 207 90 44 207 90 44 207 90 44 207 90 44 207 90 44 207 90 44 207 90 44 207 90 44 207 90 44 207 90 44 207 90 44 207 90 44 207 90 44 207 90 44 207 90 44 207 90 44 207 90 44 207 90 44 207 90 44 207 90 44 207 90 44 207 90 44 207 90 44 207 90 44 207 90 44 207 90 44 207 90 44 207 90 44 207 90 44 207 90 44 207 90 44 207 90 44 207 90 44 207 90 44 207 90 44 207 90 44 207 90 44 207 90 44 207 90 44 207 90 44 207 90 44 207 90 44 207 90 44 207 255 255 255 255 255 255 90 44 207 90 44 207 90 44 207 90 44 207 90 44 207 90 44 207 90 44 207 90 44 207 90 44 207 90 44 207 90 44 207 90 44 207 90 44 207 90 44 207 90 44 207 90 44 207 90 44 207 90 44 207 90 44 207 90 44 207 90 44 207 90 44 207 90 44 207 90 44 207 90 44 207 90 44 207 90 44 207 90 44 207 90 44 207 90 44 207 90 44 207 90 44 207 90 44 207 90 44 207 90 44 207 90 44 207 90 44 207 90 44 207 90 44 207 90 44 207 90 44 207 90 44 207 90 44 207 90 44 207 90 44 207 90 44 207 
90 43 208 90 43 208 90 43 208 90 43 208 90 43 208 90 43 208 90 43 208 90 43 208 90 43 208 90 43 208 90 43 208 90 43 208 90 43 208 90 43 208 90 43 208 90 43 208 90 43 208 90 43 208 90 43 208 90 43 208 90 43 208 90 43 208 90 43 208 90 43 208 90 43 208 90 43 208 90 43 208 90 43 208 90 43 208 90 43 208 90 43 208 90 43 208 90 43 208 90 43 208 90 43 208 90 43 208 90 43 208 90 43 208 90 43 208 90 43 208 90 43 208 90 43 208 90 43 208 90 43 208 90 43 208 90 43 208 90 43 208 90 43 208 90 43 208 90 43 208 90 43 208 90 43 208 90 43 208 90 43 208 90 43 208 90 43 208 90 43 208 90 43 208 90 43 208 90 43 208 90 43 208 90 43 208 90 43 208 90 43 208 90 43 208 90 43 208 90 43 208 90 43 208 90 43 208 90 43 208 90 43 208 90 43 208 90 43 208 90 43 208 90 43 208 90 43 208 90 43 208 90 43 208 90 43 208 90 43 208 90 43 208 90 43 208 90 43 208 90 43 208 90 43 208 90 43 208 90 43 208 90 43 208 90 43 208 90 43 208 90 43 208 90 43 208 90 43 208 90 43 208 90 43 208 90 43 208 90 43 208 90 43 208 90 43 208 90 43 208 90 43 208 90 43 208 90 43 208 90 43 208 90 43 208 90 43 208 90 43 208 90 43 208 90 43 208 90 43 208 90 43 208 90 43 208 90 43 208 90 43 208 90 43 208 90 43 208 90 43 208 90 43 208 90 43 208 90 43 208 90 43 208 90 43 208 90 43 208 90 43 208 90 43 208 90 43 208 90 43 208 90 43 208 90 43 208 90 43 208 90 43 208 90 43 208 90 43 208 90 43 208 90 43 208 90 43 208 90 43 208 90 43 208 90 43 208 90 43 208 90 43 208 90 43 208 90 43 208 90 43 208 90 43 208 90 43 208 90 43 208 90 43 208 90 43 208 90 43 208 90 43 208 90 43 208 90 43 208 90 43 208 90 43 208 90 43 208 90 43 208 90 43 208 90 43 208 90 43 208 90 43 208 90 43 208 90 43 208 90 43 208 90 43 208 90 43 208 90 43 208 90 43 208 90 43 208 90 43 208 90 43 208 90 43 208 90 43 208 90 43 208 90 43 208 90 43 208 90 43 208 90 43 208 90 43 208 90 43 208 90 43 208 90 43 208 90 43 208 90 43 208 90 43 208 90 43 208 90 43 208 90 43 208 90 43 208 90 43 208 90 43 208 90 43 208 255 120 40 90 43 208 90 43 208 90 43 208 90 43 208 90 43 208 90 43 208 90 43 208 90 43 208 90 43 208 90 43 208 90 43 208 90 43 208 90 43 208 90 43 208 90 43 208 90 43 208 90 43 208 90 43 208 90 43 208 90 43 208 90 43 208 90 43 208 90 43 208 90 43 208 90 43 208 90 43 208 90 43 208 90 43 208 90 43 208 90 43 208 90 43 208 90 43 208 90 43 208 90 43 208 90 43 208 90 43 208 90 43 208 90 43 208 90 43 208 90 43 208 90 43 208 90 43 208 90 43 208 90 43 208 90 43 208 90 43 208 90 43 208 90 43 208 90 43 208 90 43 208 90 43 208 90 43 208 90 43 208 90 43 208 90 43 208 90 43 208 90 43 208 90 43 208 90 43 208 90 43 208 90 43 208 90 43 208 90 43 208 90 43 208 90 43 208 90 43 208 90 43 208 90 43 208 90 43 208 90 43 208 90 43 208 90 43 208 90 43 208 90 43 208 90 43 208 90 43 208 90 43 208 90 43 208 90 43 208 90 43 208 90 43 208 90 43 208 90 43 208 90 43 208 90 43 208 90 43 208 90 43 208 90 43 208 90 43 208 90 43 208 90 43 208 90 43 208 90 43 208 90 43 208 90 43 208 90 43 208 90 43 208 90 43 208 90 43 208 90 43 208 90 43 208 90 43 208 90 43 208 90 43 208 90 43 208 90 43 208 90 43 208 90 43 208 90 43 208 90 43 208 90 43 208 90 43 208 90 43 208 90 43 208 90 43 208 90 43 208 90 43 208 90 43 208 90 43 208 90 43 208 90 43 208 90 43 208 90 43 208 90 43 208 90 43 208 90 43 208 90 43 208 90 43 208 90 43 208 90 43 208 90 43 208 90 43 208 90 43 208 90 43 208 90 43 208 90 43 208 90 43 208 90 43 208 90 43 208 90 43 208 90 43 208 90 43 208 90 43 208 90 43 208 90 43 208 255 255 255 255 255 255 90 43 208 90 43 208 90 43 208 90 43 208 90 43 208 90 43 208 90 43 208 90 43 208 90 43 208 90 43 208 90 43 208 90 43 208 90 43 208 90 43 208 90 43 208 90 43 208 90 43 208 90 43 208 90 43 208 90 43 208 90 43 208 90 43 208 90 43 208 90 43 208 90 43 208 90 43 208 90 43 208 90 43 208 90 43 208 90 43 208 90 43 208 90 43 208 90 43 208 90 43 208 90 43 208 90 43 208 90 43 208 90 43 208 90 43 208 90 43 208 90 43 208 90 43 208 90 43 208 90 43 208 
91 43 208 91 43 208 91 43 208 91 43 208 91 43 208 91 43 208 91 43 208 91 43 208 91 43 208 91 43 208 91 43 208 91 43 208 91 43 208 91 43 208 91 43 208 91 43 208 91 43 208 91 43 208 91 43 208 91 43 208 91 43 208 91 43 208 91 43 208 91 43 208 91 43 208 91 43 208 91 43 208 91 43 208 91 43 208 91 43 208 91 43 208 91 43 208 91 43 208 91 43 208 91 43 208 91 43 208 91 43 208 91 43 208 91 43 208 91 43 208 91 43 208 91 43 208 91 43 208 91 43 208 91 43 208 91 43 208 91 43 208 91 43 208 91 43 208 91 43 208 91 43 208 91 43 208 91 43 208 91 43 208 91 43 208 91 43 208 91 43 208 91 43 208 91 43 208 91 43 208 91 43 208 91 43 208 91 43 208 91 43 208 91 43 208 91 43 208 91 43 208 91 43 208 91 43 208 91 43 208 91 43 208 91 43 208 91 43 208 91 43 208 91 43 208 91 43 208 91 43 208 91 43 208 91 43 208 91 43 208 91 43 208 91 43 208 91 43 208 91 43 208 91 43 208 91 43 208 91 43 208 91 43 208 91 43 208 91 43 208 91 43 208 91 43 208 91 43 208 91 43 208 91 43 208 91 43 208 91 43 208 91 43 208 91 43 208 91 43 208 91 43 208 91 43 208 91 43 208 91 43 208 91 43 208 91 43 208 91 43 208 91 43 208 91 43 208 91 43 208 91 43 208 91 43 208 91 43 208 91 43 208 91 43 208 91 43 208 91 43 208 91 43 208 91 43 208 91 43 208 91 43 208 91 43 208 91 43 208 91 43 208 91 43 208 91 43 208 91 43 208 91 43 208 91 43 208 91 43 208 91 43 208 91 43 208 91 43 208 91 43 208 91 43 208 91 43 208 91 43 208 91 43 208 91 43 208 91 43 208 91 43 208 91 43 208 91 43 208 91 43 208 91 43 208 91 43 208 91 43 208 91 43 208 91 43 208 91 43 208 91 43 208 91 43 208 91 43 208 91 43 208 91 43 208 91 43 208 91 43 208 91 43 208 91 43 208 91 43 208 91 43 208 91 43 208 91 43 208 91 43 208 91 43 208 91 43 208 91 43 208 91 43 208 91 43 208 91 43 208 91 43 208 91 43 208 91 43 208 91 43 208 91 43 208 91 43 208 91 43 208 91 43 208 91 43 208 91 43 208 91 43 208 91 43 208 91 43 208 91 43 208 91 43 208 91 43 208 91 43 208 91 43 208 91 43 208 91 43 208 91 43 208 91 43 208 255 120 40 91 43 208 91 43 208 91 43 208 91 43 208 91 43 208 91 43 208 91 43 208 91 43 208 91 43 208 91 43 208 91 43 208 91 43 208 91 43 208 91 43 208 91 43 208 91 43 208 91 43 208 91 43 208 91 43 208 91 43 208 91 43 208 91 43 208 91 43 208 91 43 208 91 43 208 91 43 208 91 43 208 91 43 208 91 43 208 91 43 208 91 43 208 91 43 208 91 43 208 91 43 208 91 43 208 91 43 208 91 43 208 91 43 208 91 43 208 91 43 208 91 43 208 91 43 208 91 43 208 91 43 208 91 43 208 91 43 208 91 43 208 91 43 208 91 43 208 91 43 208 91 43 208 91 43 208 91 43 208 91 43 208 91 43 208 91 43 208 91 43 208 91 43 208 91 43 208 91 43 208 91 43 208 91 43 208 91 43 208 91 43 208 91 43 208 91 43 208 91 43 208 91 43 208 91 43 208 91 43 208 91 43 208 91 43 208 91 43 208 91 43 208 91 43 208 91 43 208 91 43 208 91 43 208 91 43 208 91 43 208 91 43 208 91 43 208 91 43 208 91 43 208 91 43 208 91 43 208 91 43 208 91 43 208 91 43 208 91 43 208 91 43 208 91 43 208 91 43 208 91 43 208 91 43 208 91 43 208 91 43 208 91 43 208 91 43 208 91 43 208 91 43 208 91 43 208 91 43 208 91 43 208 91 43 208 91 43 208 91 43 208 91 43 208 91 43 208 91 43 208 91 43 208 91 43 208 91 43 208 91 43 208 91 43 208 91 43 208 91 43 208 91 43 208 91 43 208 91 43 208 91 43 208 91 43 208 91 43 208 91 43 208 91 43 208 91 43 208 91 43 208 91 43 208 91 43 208 91 43 208 91 43 208 91 43 208 91 43 208 91 43 208 91 43 208 91 43 208 91 43 208 91 43 208 91 43 208 91 43 208 91 43 208 91 43 208 91 43 208 91 43 208 91 43 208 91 43 208 91 43 208 255 255 255 255 255 255 91 43 208 91 43 208 91 43 208 91 43 208 91 43 208 91 43 208 91 43 208 91 43 208 91 43 208 91 43 208 91 43 208 91 43 208 91 43 208 91 43 208 91 43 208 91 43 208 91 43 208 91 43 208 91 43 208 91 43 208 91 43 208 91 43 208 91 43 208 91 43 208 91 43 208 91 43 208 91 43 208 91 43 208 91 43 208 91 43 208 91 43 208 91 43 208 91 43 208 91 43 208 91 43 208 91 43 208 91 43 208 91 43 208 91 43 208 91 43 208 91 43 208 91 43 208 
91 42 208 91 42 208 91 42 208 91 42 208 91 42 208 91 42 208 91 42 208 91 42 208 91 42 208 91 42 208 91 42 208 91 42 208 91 42 208 91 42 208 91 42 208 91 42 208 91 42 208 91 42 208 91 42 208 91 42 208 91 42 208 91 42 208 91 42 208 91 42 208 91 42 208 91 42 208 91 42 208 91 42 208 91 42 208 91 42 208 91 42 208 91 42 208 91 42 208 91 42 208 91 42 208 91 42 208 91 42 208 91 42 208 91 42 208 91 42 208 91 42 208 91 42 208 91 42 208 91 42 208 91 42 208 91 42 208 91 42 208 91 42 208 91 42 208 91 42 208 91 42 208 91 42 208 91 42 208 91 42 208 91 42 208 91 42 208 91 42 208 91 42 208 91 42 208 91 42 208 91 42 208 91 42 208 91 42 208 91 42 208 91 42 208 91 42 208 91 42 208 91 42 208 91 42 208 91 42 208 91 42 208 91 42 208 91 42 208 91 42 208 91 42 208 91 42 208 91 42 208 91 42 208 91 42 208 91 42 208 91 42 208 91 42 208 91 42 208 91 42 208 91 42 208 91 42 208 91 42 208 91 42 208 91 42 208 91 42 208 91 42 208 91 42 208 91 42 208 91 42 208 91 42 208 91 42 208 91 42 208 91 42 208 91 42 208 91 42 208 91 42 208 91 42 208 91 42 208 91 42 208 91 42 208 91 42 208 91 42 208 91 42 208 91 42 208 91 42 208 91 42 208 91 42 208 91 42 208 91 42 208 91 42 208 91 42 208 91 42 208 91 42 208 91 42 208 91 42 208 91 42 208 91 42 208 91 42 208 91 42 208 91 42 208 91 42 208 91 42 208 91 42 208 91 42 208 91 42 208 91 42 208 91 42 208 91 42 208 91 42 208 91 42 208 91 42 208 91 42 208 91 42 208 91 42 208 91 42 208 91 42 208 91 42 208 91 42 208 91 42 208 91 42 208 91 42 208 91 42 208 91 42 208 91 42 208 91 42 208 91 42 208 91 42 208 91 42 208 91 42 208 91 42 208 91 42 208 91 42 208 91 42 208 91 42 208 91 42 208 91 42 208 91 42 208 91 42 208 91 42 208 91 42 208 91 42 208 91 42 208 91 42 208 91 42 208 91 42 208 91 42 208 91 42 208 91 42 208 91 42 208 91 42 208 91 42 208 91 42 208 91 42 208 91 42 208 91 42 208 91 42 208 91 42 208 91 42 208 91 42 208 91 42 208 91 42 208 91 42 208 91 42 208 91 42 208 91 42 208 91 42 208 91 42 208 255 120 40 91 42 208 91 42 208 91 42 208 91 42 208 91 42 208 91 42 208 91 42 208 91 42 208 91 42 208 91 42 208 91 42 208 91 42 208 91 42 208 91 42 208 91 42 208 91 42 208 91 42 208 91 42 208 91 42 208 91 42 208 91 42 208 91 42 208 91 42 208 91 42 208 91 42 208 91 42 208 91 42 208 91 42 208 91 42 208 91 42 208 91 42 208 91 42 208 91 42 208 91 42 208 91 42 208 91 42 208 91 42 208 91 42 208 91 42 208 91 42 208 91 42 208 91 42 208 91 42 208 91 42 208 91 42 208 91 42 208 91 42 208 91 42 208 91 42 208 91 42 208 91 42 208 91 42 208 91 42 208 91 42 208 91 42 208 91 42 208 91 42 208 91 42 208 91 42 208 91 42 208 91 42 208 91 42 208 91 42 208 91 42 208 91 42 208 91 42 208 91 42 208 91 42 208 91 42 208 91 42 208 91 42 208 91 42 208 91 42 208 91 42 208 91 42 208 91 42 208 91 42 208 91 42 208 91 42 208 91 42 208 91 42 208 91 42 208 91 42 208 91 42 208 91 42 208 91 42 208 91 42 208 91 42 208 91 42 208 91 42 208 91 42 208 91 42 208 91 42 208 91 42 208 91 42 208 91 42 208 91 42 208 91 42 208 91 42 208 91 42 208 91 42 208 91 42 208 91 42 208 91 42 208 91 42 208 91 42 208 91 42 208 91 42 208 91 42 208 91 42 208 91 42 208 91 42 208 91 42 208 91 42 208 91 42 208 91 42 208 91 42 208 91 42 208 91 42 208 91 42 208 91 42 208 91 42 208 91 42 208 91 42 208 91 42 208 91 42 208 91 42 208 91 42 208 91 42 208 91 42 208 91 42 208 91 42 208 91 42 208 91 42 208 91 42 208 91 42 208 91 42 208 91 42 208 91 42 208 91 42 208 91 42 208 91 42 208 91 42 208 91 42 208 91 42 208 91 42 208 91 42 208 91 42 208 91 42 208 255 255 255 255 255 255 91 42 208 91 42 208 91 42 208 91 42 208 91 42 208 91 42 208 91 42 208 91 42 208 91 42 208 91 42 208 91 42 208 91 42 208 91 42 208 91 42 208 91 42 208 91 42 208 91 42 208 91 42 208 91 42 208 91 42 208 91 42 208 91 42 208 91 42 208 91 42 208 91 42 208 91 42 208 91 42 208 91 42 208 91 42 208 91 42 208 91 42 208 91 42 208 91 42 208 91 42 208 91 42 208 91 42 208 91 42 208 91 42 208 91 42 208 91 42 208 
91 42 208 91 42 208 91 42 208 91 42 208 91 42 208 91 42 208 91 42 208 91 42 208 91 42 208 91 42 208 91 42 208 91 42 208 91 42 208 91 42 208 91 42 208 91 42 208 91 42 208 91 42 208 91 42 208 91 42 208 91 42 208 91 42 208 91 42 208 91 42 208 91 42 208 91 42 208 91 42 208 91 42 208 91 42 208 91 42 208 91 42 208 91 42 208 91 42 208 91 42 208 91 42 208 91 42 208 91 42 208 91 42 208 91 42 208 91 42 208 91 42 208 91 42 208 91 42 208 91 42 208 91 42 208 91 42 208 91 42 208 91 42 208 91 42 208 91 42 208 91 42 208 91 42 208 91 42 208 91 42 208 91 42 208 91 42 208 91 42 208 91 42 208 91 42 208 91 42 208 91 42 208 91 42 208 91 42 208 91 42 208 91 42 208 91 42 208 91 42 208 91 42 208 91 42 208 91 42 208 91 42 208 91 42 208 91 42 208 91 42 208 91 42 208 91 42 208 91 42 208 91 42 208 91 42 208 91 42 208 91 42 208 91 42 208 91 42 208 91 42 208 91 42 208 91 42 208 91 42 208 91 42 208 91 42 208 91 42 208 91 42 208 91 42 208 91 42 208 91 42 208 91 42 208 91 42 208 91 42 208 91 42 208 91 42 208 91 42 208 91 42 208 91 42 208 91 42 208 91 42 208 91 42 208 91 42 208 91 42 208 91 42 208 91 42 208 91 42 208 91 42 208 91 42 208 91 42 208 91 42 208 91 42 208 91 42 208 91 42 208 91 42 208 91 42 208 91 42 208 91 42 208 91 42 208 91 42 208 91 42 208 91 42 208 91 42 208 91 42 208 91 42 208 91 42 208 91 42 208 91 42 208 91 42 208 91 42 208 91 42 208 91 42 208 91 42 208 91 42 208 91 42 208 91 42 208 91 42 208 91 42 208 91 42 208 91 42 208 91 42 208 91 42 208 91 42 208 91 42 208 91 42 208 91 42 208 91 42 208 91 42 208 91 42 208 91 42 208 91 42 208 91 42 208 91 42 208 91 42 208 91 42 208 91 42 208 91 42 208 91 42 208 91 42 208 91 42 208 91 42 208 91 42 208 91 42 208 91 42 208 91 42 208 91 42 208 91 42 208 91 42 208 91 42 208 91 42 208 91 42 208 91 42 208 91 42 208 91 42 208 91 42 208 91 42 208 91 42 208 91 42 208 91 42 208 91 42 208 91 42 208 91 42 208 91 42 208 91 42 208 91 42 208 91 42 208 91 42 208 91 42 208 91 42 208 255 120 40 91 42 208 91 42 208 91 42 208 91 42 208 91 42 208 91 42 208 91 42 208 91 42 208 91 42 208 91 42 208 91 42 208 91 42 208 91 42 208 91 42 208 91 42 208 91 42 208 91 42 208 91 42 208 91 42 208 91 42 208 91 42 208 91 42 208 91 42 208 91 42 208 91 42 208 91 42 208 91 42 208 91 42 208 91 42 208 91 42 208 91 42 208 91 42 208 91 42 208 91 42 208 91 42 208 91 42 208 91 42 208 91 42 208 91 42 208 91 42 208 91 42 208 91 42 208 91 42 208 91 42 208 91 42 208 91 42 208 91 42 208 91 42 208 91 42 208 91 42 208 91 42 208 91 42 208 91 42 208 91 42 208 91 42 208 91 42 208 91 42 208 91 42 208 91 42 208 91 42 208 91 42 208 91 42 208 91 42 208 91 42 208 91 42 208 91 42 208 91 42 208 91 42 208 91 42 208 91 42 208 91 42 208 91 42 208 91 42 208 91 42 208 91 42 208 91 42 208 91 42 208 91 42 208 91 42 208 91 42 208 91 42 208 91 42 208 91 42 208 91 42 208 91 42 208 91 42 208 91 42 208 91 42 208 91 42 208 91 42 208 91 42 208 91 42 208 91 42 208 91 42 208 91 42 208 91 42 208 91 42 208 91 42 208 91 42 208 91 42 208 91 42 208 91 42 208 91 42 208 91 42 208 91 42 208 91 42 208 91 42 208 91 42 208 91 42 208 91 42 208 91 42 208 91 42 208 91 42 208 91 42 208 91 42 208 91 42 208 91 42 208 91 42 208 91 42 208 91 42 208 91 42 208 91 42 208 91 42 208 91 42 208 91 42 208 91 42 208 91 42 208 91 42 208 91 42 208 91 42 208 91 42 208 91 42 208 91 42 208 91 42 208 91 42 208 91 42 208 91 42 208 91 42 208 91 42 208 91 42 208 91 42 208 91 42 208 91 42 208 91 42 208 91 42 208 91 42 208 91 42 208 91 42 208 91 42 208 91 42 208 91 42 208 255 255 255 91 42 208 91 42 208 91 42 208 91 42 208 91 42 208 91 42 208 91 42 208 91 42 208 91 42 208 91 42 208 91 42 208 91 42 208 91 42 208 91 42 208 91 42 208 91 42 208 91 42 208 91 42 208 91 42 208 91 42 208 91 42 208 91 42 208 91 42 208 91 42 208 91 42 208 91 42 208 91 42 208 91 42 208 91 42 208 91 42 208 91 42 208 91 42 208 91 42 208 91 42 208 91 42 208 91 42 208 91 42 208 91 42 208 91 42 208 
92 41 208 92 41 208 92 41 208 92 41 208 92 41 208 92 41 208 92 41 208 92 41 208 92 41 208 92 41 208 92 41 208 92 41 208 92 41 208 92 41 208 92 41 208 92 41 208 92 41 208 92 41 208 92 41 208 92 41 208 92 41 208 92 41 208 92 41 208 92 41 208 92 41 208 92 41 208 92 41 208 92 41 208 92 41 208 92 41 208 92 41 208 92 41 208 92 41 208 92 41 208 92 41 208 92 41 208 92 41 208 92 41 208 92 41 208 92 41 208 92 41 208 92 41 208 92 41 208 92 41 208 92 41 208 92 41 208 92 41 208 92 41 208 92 41 208 92 41 208 92 41 208 92 41 208 92 41 208 92 41 208 92 41 208 92 41 208 92 41 208 92 41 208 92 41 208 92 41 208 92 41 208 92 41 208 92 41 208 92 41 208 92 41 208 92 41 208 92 41 208 92 41 208 92 41 208 92 41 208 92 41 208 92 41 208 92 41 208 92 41 208 92 41 208 92 41 208 92 41 208 92 41 208 92 41 208 92 41 208 92 41 208 92 41 208 92 41 208 92 41 208 92 41 208 92 41 208 92 41 208 92 41 208 92 41 208 92 41 208 92 41 208 92 41 208 92 41 208 92 41 208 92 41 208 92 41 208 92 41 208 92 41 208 92 41 208 92 41 208 92 41 208 92 41 208 92 41 208 92 41 208 92 41 208 92 41 208 92 41 208 92 41 208 92 41 208 92 41 208 92 41 208 92 41 208 92 41 208 92 41 208 92 41 208 92 41 208 92 41 208 92 41 208 92 41 208 92 41 208 92 41 208 92 41 208 92 41 208 92 41 208 92 41 208 92 41 208 92 41 208 92 41 208 92 41 208 92 41 208 92 41 208 92 41 208 92 41 208 92 41 208 92 41 208 92 41 208 92 41 208 92 41 208 92 41 208 92 41 208 92 41 208 92 41 208 92 41 208 92 41 208 92 41 208 92 41 208 92 41 208 92 41 208 92 41 208 92 41 208 92 41 208 92 41 208 92 41 208 92 41 208 92 41 208 92 41 208 92 41 208 92 41 208 92 41 208 92 41 208 92 41 208 92 41 208 92 41 208 92 41 208 92 41 208 92 41 208 92 41 208 92 41 208 92 41 208 92 41 208 92 41 208 92 41 208 92 41 208 92 41 208 92 41 208 92 41 208 92 41 208 92 41 208 92 41 208 92 41 208 92 41 208 92 41 208 92 41 208 92 41 208 92 41 208 92 41 208 92 41 208 92 41 208 92 41 208 92 41 208 92 41 208 92 41 208 255 120 40 92 41 208 92 41 208 92 41 208 92 41 208 92 41 208 92 41 208 92 41 208 92 41 208 92 41 208 92 41 208 92 41 208 92 41 208 92 41 208 92 41 208 92 41 208 92 41 208 92 41 208 92 41 208 92 41 208 92 41 208 92 41 208 92 41 208 92 41 208 92 41 208 92 41 208 92 41 208 92 41 208 92 41 208 92 41 208 92 41 208 92 41 208 92 41 208 92 41 208 92 41 208 92 41 208 92 41 208 92 41 208 92 41 208 92 41 208 92 41 208 92 41 208 92 41 208 92 41 208 92 41 208 92 41 208 92 41 208 92 41 208 92 41 208 92 41 208 92 41 208 92 41 208 92 41 208 92 41 208 92 41 208 92 41 208 92 41 208 92 41 208 92 41 208 92 41 208 92 41 208 92 41 208 92 41 208 92 41 208 92 41 208 92 41 208 92 41 208 92 41 208 92 41 208 92 41 208 92 41 208 92 41 208 92 41 208 92 41 208 92 41 208 92 41 208 92 41 208 92 41 208 92 41 208 92 41 208 92 41 208 92 41 208 92 41 208 92 41 208 92 41 208 92 41 208 92 41 208 92 41 208 92 41 208 92 41 208 92 41 208 92 41 208 92 41 208 92 41 208 92 41 208 92 41 208 92 41 208 92 41 208 92 41 208 92 41 208 92 41 208 92 41 208 92 41 208 92 41 208 92 41 208 92 41 208 92 41 208 92 41 208 92 41 208 92 41 208 92 41 208 92 41 208 92 41 208 92 41 208 92 41 208 92 41 208 92 41 208 92 41 208 92 41 208 92 41 208 92 41 208 92 41 208 92 41 208 92 41 208 92 41 208 92 41 208 92 41 208 92 41 208 92 41 208 92 41 208 92 41 208 92 41 208 92 41 208 92 41 208 92 41 208 92 41 208 92 41 208 92 41 208 92 41 208 92 41 208 92 41 208 92 41 208 92 41 208 92 41 208 92 41 208 92 41 208 92 41 208 92 41 208 92 41 208 92 41 208 92 41 208 92 41 208 92 41 208 255 255 255 255 255 255 92 41 208 92 41 208 92 41 208 92 41 208 92 41 208 92 41 208 92 41 208 92 41 208 92 41 208 92 41 208 92 41 208 92 41 208 92 41 208 92 41 208 92 41 208 92 41 208 92 41 208 92 41 208 92 41 208 92 41 208 92 41 208 92 41 208 92 41 208 92 41 208 92 41 208 92 41 208 92 41 208 92 41 208 92 41 208 92 41 208 92 41 208 92 41 208 92 41 208 92 41 208 92 41 208 92 41 208 92 41 208 
92 41 208 92 41 208 92 41 208 92 41 208 92 41 208 92 41 208 92 41 208 92 41 208 92 41 208 92 41 208 92 41 208 92 41 208 92 41 208 92 41 208 92 41 208 92 41 208 92 41 208 92 41 208 92 41 208 92 41 208 92 41 208 92 41 208 92 41 208 92 41 208 92 41 208 92 41 208 92 41 208 92 41 208 92 41 208 92 41 208 92 41 208 92 41 208 92 41 208 92 41 208 92 41 208 92 41 208 92 41 208 92 41 208 92 41 208 92 41 208 92 41 208 92 41 208 92 41 208 92 41 208 92 41 208 92 41 208 92 41 208 92 41 208 92 41 208 92 41 208 92 41 208 92 41 208 92 41 208 92 41 208 92 41 208 92 41 208 92 41 208 92 41 208 92 41 208 92 41 208 92 41 208 92 41 208 92 41 208 92 41 208 92 41 208 92 41 208 92 41 208 92 41 208 92 41 208 92 41 208 92 41 208 92 41 208 92 41 208 92 41 208 92 41 208 92 41 208 92 41 208 92 41 208 92 41 208 92 41 208 92 41 208 92 41 208 92 41 208 92 41 208 92 41 208 92 41 208 92 41 208 92 41 208 92 41 208 92 41 208 92 41 208 92 41 208 92 41 208 92 41 208 92 41 208 92 41 208 92 41 208 92 41 208 92 41 208 92 41 208 92 41 208 92 41 208 92 41 208 92 41 208 92 41 208 92 41 208 92 41 208 92 41 208 92 41 208 92 41 208 92 41 208 92 41 208 92 41 208 92 41 208 92 41 208 92 41 208 92 41 208 92 41 208 92 41 208 92 41 208 92 41 208 92 41 208 92 41 208 92 41 208 92 41 208 92 41 208 92 41 208 92 41 208 92 41 208 92 41 208 92 41 208 92 41 208 92 41 208 92 41 208 92 41 208 92 41 208 92 41 208 92 41 208 92 41 208 92 41 208 92 41 208 92 41 208 92 41 208 92 41 208 92 41 208 92 41 208 92 41 208 92 41 208 92 41 208 92 41 208 92 41 208 92 41 208 92 41 208 92 41 208 92 41 208 92 41 208 92 41 208 92 41 208 92 41 208 92 41 208 92 41 208 92 41 208 92 41 208 92 41 208 92 41 208 92 41 208 92 41 208 92 41 208 92 41 208 92 41 208 92 41 208 92 41 208 92 41 208 92 41 208 92 41 208 92 41 208 92 41 208 92 41 208 92 41 208 92 41 208 92 41 208 92 41 208 92 41 208 92 41 208 92 41 208 92 41 208 92 41 208 92 41 208 92 41 208 92 41 208 92 41 208 92 41 208 255 120 40 92 41 208 92 41 208 92 41 208 92 41 208 92 41 208 92 41 208 92 41 208 92 41 208 92 41 208 92 41 208 92 41 208 92 41 208 92 41 208 92 41 208 92 41 208 92 41 208 92 41 208 92 41 208 92 41 208 92 41 208 92 41 208 92 41 208 92 41 208 92 41 208 92 41 208 92 41 208 92 41 208 92 41 208 92 41 208 92 41 208 92 41 208 92 41 208 92 41 208 92 41 208 92 41 208 92 41 208 92 41 208 92 41 208 92 41 208 92 41 208 92 41 208 92 41 208 92 41 208 92 41 208 92 41 208 92 41 208 92 41 208 92 41 208 92 41 208 92 41 208 92 41 208 92 41 208 92 41 208 92 41 208 92 41 208 92 41 208 92 41 208 92 41 208 92 41 208 92 41 208 92 41 208 92 41 208 92 41 208 92 41 208 92 41 208 92 41 208 92 41 208 92 41 208 92 41 208 92 41 208 92 41 208 92 41 208 92 41 208 92 41 208 92 41 208 92 41 208 92 41 208 92 41 208 92 41 208 92 41 208 92 41 208 92 41 208 92 41 208 92 41 208 92 41 208 92 41 208 92 41 208 92 41 208 92 41 208 92 41 208 92 41 208 92 41 208 92 41 208 92 41 208 92 41 208 92 41 208 92 41 208 92 41 208 92 41 208 92 41 208 92 41 208 92 41 208 92 41 208 92 41 208 92 41 208 92 41 208 92 41 208 92 41 208 92 41 208 92 41 208 92 41 208 92 41 208 92 41 208 92 41 208 92 41 208 92 41 208 92 41 208 92 41 208 92 41 208 92 41 208 92 41 208 92 41 208 92 41 208 92 41 208 92 41 208 92 41 208 92 41 208 92 41 208 92 41 208 92 41 208 92 41 208 92 41 208 92 41 208 92 41 208 92 41 208 92 41 208 92 41 208 92 41 208 92 41 208 92 41 208 92 41 208 92 41 208 92 41 208 92 41 208 92 41 208 92 41 208 92 41 208 92 41 208 92 41 208 92 41 208 92 41 208 92 41 208 92 41 208 92 41 208 255 255 255 255 255 255 92 41 208 92 41 208 92 41 208 92 41 208 92 41 208 92 41 208 92 41 208 92 41 208 92 41 208 92 41 208 92 41 208 92 41 208 92 41 208 92 41 208 92 41 208 92 41 208 92 41 208 92 41 208 92 41 208 92 41 208 92 41 208 92 41 208 92 41 208 92 41 208 92 41 208 92 41 208 92 41 208 92 41 208 92 41 208 92 41 208 92 41 208 92 41 208 92 41 208 92 41 208 92 41 208 
92 40 208 92 40 208 92 40 208 92 40 208 92 40 208 92 40 208 92 40 208 92 40 208 92 40 208 92 40 208 92 40 208 92 40 208 92 40 208 92 40 208 92 40 208 92 40 208 92 40 208 92 40 208 92 40 208 92 40 208 92 40 208 92 40 208 92 40 208 92 40 208 92 40 208 92 40 208 92 40 208 92 40 208 92 40 208 92 40 208 92 40 208 92 40 208 92 40 208 92 40 208 92 40 208 92 40 208 92 40 208 92 40 208 92 40 208 92 40 208 92 40 208 92 40 208 92 40 208 92 40 208 92 40 208 92 40 208 92 40 208 92 40 208 92 40 208 92 40 208 92 40 208 92 40 208 92 40 208 92 40 208 92 40 208 92 40 208 92 40 208 92 40 208 92 40 208 92 40 208 92 40 208 92 40 208 92 40 208 92 40 208 92 40 208 92 40 208 92 40 208 92 40 208 92 40 208 92 40 208 92 40 208 92 40 208 92 40 208 92 40 208 92 40 208 92 40 208 92 40 208 92 40 208 92 40 208 92 40 208 92 40 208 92 40 208 92 40 208 92 40 208 92 40 208 92 40 208 92 40 208 92 40 208 92 40 208 92 40 208 92 40 208 92 40 208 92 40 208 92 40 208 92 40 208 92 40 208 92 40 208 92 40 208 92 40 208 92 40 208 92 40 208 92 40 208 92 40 208 92 40 208 92 40 208 92 40 208 92 40 208 92 40 208 92 40 208 92 40 208 92 40 208 92 40 208 92 40 208 92 40 208 92 40 208 92 40 208 92 40 208 92 40 208 92 40 208 92 40 208 92 40 208 92 40 208 92 40 208 92 40 208 92 40 208 92 40 208 92 40 208 92 40 208 92 40 208 92 40 208 92 40 208 92 40 208 92 40 208 92 40 208 92 40 208 92 40 208 92 40 208 92 40 208 92 40 208 92 40 208 92 40 208 92 40 208 92 40 208 92 40 208 92 40 208 92 40 208 92 40 208 92 40 208 92 40 208 92 40 208 92 40 208 92 40 208 92 40 208 92 40 208 92 40 208 92 40 208 92 40 208 92 40 208 92 40 208 92 40 208 92 40 208 92 40 208 92 40 208 92 40 208 92 40 208 92 40 208 92 40 208 92 40 208 92 40 208 92 40 208 92 40 208 92 40 208 92 40 208 92 40 208 92 40 208 92 40 208 92 40 208 92 40 208 92 40 208 92 40 208 92 40 208 92 40 208 92 40 208 92 40 208 92 40 208 92 40 208 92 40 208 92 40 208 92 40 208 92 40 208 92 40 208 92 40 208 255 120 40 92 40 208 92 40 208 92 40 208 92 40 208 92 40 208 92 40 208 92 40 208 92 40 208 92 40 208 92 40 208 92 40 208 92 40 208 92 40 208 92 40 208 92 40 208 92 40 208 92 40 208 92 40 208 92 40 208 92 40 208 92 40 208 92 40 208 92 40 208 92 40 208 92 40 208 92 40 208 92 40 208 92 40 208 92 40 208 92 40 208 92 40 208 92 40 208 92 40 208 92 40 208 92 40 208 92 40 208 92 40 208 92 40 208 92 40 208 92 40 208 92 40 208 92 40 208 92 40 208 92 40 208 92 40 208 92 40 208 92 40 208 92 40 208 92 40 208 92 40 208 92 40 208 92 40 208 92 40 208 92 40 208 92 40 208 92 40 208 92 40 208 92 40 208 92 40 208 92 40 208 92 40 208 92 40 208 92 40 208 92 40 208 92 40 208 92 40 208 92 40 208 92 40 208 92 40 208 92 40 208 92 40 208 92 40 208 92 40 208 92 40 208 92 40 208 92 40 208 92 40 208 92 40 208 92 40 208 92 40 208 92 40 208 92 40 208 92 40 208 92 40 208 92 40 208 92 40 208 92 40 208 92 40 208 92 40 208 92 40 208 92 40 208 92 40 208 92 40 208 92 40 208 92 40 208 92 40 208 92 40 208 92 40 208 92 40 208 92 40 208 92 40 208 92 40 208 92 40 208 92 40 208 92 40 208 92 40 208 92 40 208 92 40 208 92 40 208 92 40 208 92 40 208 92 40 208 92 40 208 92 40 208 92 40 208 92 40 208 92 40 208 92 40 208 92 40 208 92 40 208 92 40 208 92 40 208 92 40 208 92 40 208 92 40 208 92 40 208 92 40 208 92 40 208 92 40 208 92 40 208 92 40 208 92 40 208 92 40 208 92 40 208 92 40 208 92 40 208 92 40 208 92 40 208 92 40 208 92 40 208 92 40 208 92 40 208 92 40 208 92 40 208 92 40 208 92 40 208 92 40 208 92 40 208 92 40 208 92 40 208 92 40 208 92 40 208 92 40 208 92 40 208 92 40 208 92 40 208 255 255 255 255 255 255 92 40 208 92 40 208 92 40 208 92 40 208 92 40 208 92 40 208 92 40 208 92 40 208 92 40 208 92 40 208 92 40 208 92 40 208 92 40 208 92 40 208 92 40 208 92 40 208 92 40 208 92 40 208 92 40 208 92 40 208 92 40 208 92 40 208 92 40 208 92 40 208 92 40 208 92 40 208 92 40 208 92 40 208 92 40 208 92 40 208 92 40 208 92 40 208 92 40 208 
93 40 208 93 40 208 93 40 208 93 40 208 93 40 208 93 40 208 93 40 208 93 40 208 93 40 208 93 40 208 93 40 208 93 40 208 93 40 208 93 40 208 93 40 208 93 40 208 93 40 208 93 40 208 93 40 208 93 40 208 93 40 208 93 40 208 93 40 208 93 40 208 93 40 208 93 40 208 93 40 208 93 40 208 93 40 208 93 40 208 93 40 208 93 40 208 93 40 208 93 40 208 93 40 208 93 40 208 93 40 208 93 40 208 93 40 208 93 40 208 93 40 208 93 40 208 93 40 208 93 40 208 93 40 208 93 40 208 93 40 208 93 40 208 93 40 208 93 40 208 93 40 208 93 40 208 93 40 208 93 40 208 93 40 208 93 40 208 93 40 208 93 40 208 93 40 208 93 40 208 93 40 208 93 40 208 93 40 208 93 40 208 93 40 208 93 40 208 93 40 208 93 40 208 93 40 208 93 40 208 93 40 208 93 40 208 93 40 208 93 40 208 93 40 208 93 40 208 93 40 208 93 40 208 93 40 208 93 40 208 93 40 208 93 40 208 93 40 208 93 40 208 93 40 208 93 40 208 93 40 208 93 40 208 93 40 208 93 40 208 93 40 208 93 40 208 93 40 208 93 40 208 93 40 208 93 40 208 93 40 208 93 40 208 93 40 208 93 40 208 93 40 208 93 40 208 93 40 208 93 40 208 93 40 208 93 40 208 93 40 208 93 40 208 93 40 208 93 40 208 93 40 208 93 40 208 93 40 208 93 40 208 93 40 208 93 40 208 93 40 208 93 40 208 93 40 208 93 40 208 93 40 208 93 40 208 93 40 208 93 40 208 93 40 208 93 40 208 93 40 208 93 40 208 93 40 208 93 40 208 93 40 208 93 40 208 93 40 208 93 40 208 93 40 208 93 40 208 93 40 208 93 40 208 93 40 208 93 40 208 93 40 208 93 40 208 93 40 208 93 40 208 93 40 208 93 40 208 93 40 208 93 40 208 93 40 208 93 40 208 93 40 208 93 40 208 93 40 208 93 40 208 93 40 208 93 40 208 93 40 208 93 40 208 93 40 208 93 40 208 93 40 208 93 40 208 93 40 208 93 40 208 93 40 208 93 40 208 93 40 208 93 40 208 93 40 208 93 40 208 93 40 208 93 40 208 93 40 208 93 40 208 93 40 208 93 40 208 93 40 208 93 40 208 93 40 208 93 40 208 93 40 208 93 40 208 93 40 208 93 40 208 93 40 208 93 40 208 93 40 208 93 40 208 93 40 208 93 40 208 93 40 208 93 40 208 255 120 40 93 40 208 93 40 208 93 40 208 93 40 208 93 40 208 93 40 208 93 40 208 93 40 208 93 40 208 93 40 208 93 40 208 93 40 208 93 40 208 93 40 208 93 40 208 93 40 208 93 40 208 93 40 208 93 40 208 93 40 208 93 40 208 93 40 208 93 40 208 93 40 208 93 40 208 93 40 208 93 40 208 93 40 208 93 40 208 93 40 208 93 40 208 93 40 208 93 40 208 93 40 208 93 40 208 93 40 208 93 40 208 93 40 208 93 40 208 93 40 208 93 40 208 93 40 208 93 40 208 93 40 208 93 40 208 93 40 208 93 40 208 93 40 208 93 40 208 93 40 208 93 40 208 93 40 208 93 40 208 93 40 208 93 40 208 93 40 208 93 40 208 93 40 208 93 40 208 93 40 208 93 40 208 93 40 208 93 40 208 93 40 208 93 40 208 93 40 208 93 40 208 93 40 208 93 40 208 93 40 208 93 40 208 93 40 208 93 40 208 93 40 208 93 40 208 93 40 208 93 40 208 93 40 208 93 40 208 93 40 208 93 40 208 93 40 208 93 40 208 93 40 208 93 40 208 93 40 208 93 40 208 93 40 208 93 40 208 93 40 208 93 40 208 93 40 208 93 40 208 93 40 208 93 40 208 93 40 208 93 40 208 93 40 208 93 40 208 93 40 208 93 40 208 93 40 208 93 40 208 93 40 208 93 40 208 93 40 208 93 40 208 93 40 208 93 40 208 93 40 208 93 40 208 93 40 208 93 40 208 93 40 208 93 40 208 93 40 208 93 40 208 93 40 208 93 40 208 93 40 208 93 40 208 93 40 208 93 40 208 93 40 208 93 40 208 93 40 208 93 40 208 93 40 208 93 40 208 93 40 208 93 40 208 93 40 208 93 40 208 93 40 208 93 40 208 93 40 208 93 40 208 93 40 208 93 40 208 93 40 208 93 40 208 93 40 208 93 40 208 93 40 208 93 40 208 93 40 208 93 40 208 93 40 208 93 40 208 93 40 208 93 40 208 93 40 208 93 40 208 93 40 208 93 40 208 93 40 208 93 40 208 93 40 208 255 255 255 93 40 208 93 40 208 93 40 208 93 40 208 93 40 208 93 40 208 93 40 208 93 40 208 93 40 208 93 40 208 93 40 208 93 40 208 93 40 208 93 40 208 93 40 208 93 40 208 93 40 208 93 40 208 93 40 208 93 40 208 93 40 208 93 40 208 93 40 208 93 40 208 93 40 208 93 40 208 93 40 208 93 40 208 93 40 208 93 40 208 93 40 208 93 40 208 
93 39 209 93 39 209 93 39 209 93 39 209 93 39 209 93 39 209 93 39 209 93 39 209 93 39 209 93 39 209 93 39 209 93 39 209 93 39 209 93 39 209 93 39 209 93 39 209 93 39 209 93 39 209 93 39 209 93 39 209 93 39 209 93 39 209 93 39 209 93 39 209 93 39 209 93 39 209 93 39 209 93 39 209 93 39 209 93 39 209 93 39 209 93 39 209 93 39 209 93 39 209 93 39 209 93 39 209 93 39 209 93 39 209 93 39 209 93 39 209 93 39 209 93 39 209 93 39 209 93 39 209 93 39 209 93 39 209 93 39 209 93 39 209 93 39 209 93 39 209 93 39 209 93 39 209 93 39 209 93 39 209 93 39 209 93 39 209 93 39 209 93 39 209 93 39 209 93 39 209 93 39 209 93 39 209 93 39 209 93 39 209 93 39 209 93 39 209 93 39 209 93 39 209 93 39 209 93 39 209 93 39 209 93 39 209 93 39 209 93 39 209 93 39 209 93 39 209 93 39 209 93 39 209 93 39 209 93 39 209 93 39 209 93 39 209 93 39 209 93 39 209 93 39 209 93 39 209 93 39 209 93 39 209 93 39 209 93 39 209 93 39 209 93 39 209 93 39 209 93 39 209 93 39 209 93 39 209 93 39 209 93 39 209 93 39 209 93 39 209 93 39 209 93 39 209 93 39 209 93 39 209 93 39 209 93 39 209 93 39 209 93 39 209 93 39 209 93 39 209 93 39 209 93 39 209 93 39 209 93 39 209 93 39 209 93 39 209 93 39 209 93 39 209 93 39 209 93 39 209 93 39 209 93 39 209 93 39 209 93 39 209 93 39 209 93 39 209 93 39 209 93 39 209 93 39 209 93 39 209 93 39 209 93 39 209 93 39 209 93 39 209 93 39 209 93 39 209 93 39 209 93 39 209 93 39 209 93 39 209 93 39 209 93 39 209 93 39 209 93 39 209 93 39 209 93 39 209 93 39 209 93 39 209 93 39 209 93 39 209 93 39 209 93 39 209 93 39 209 93 39 209 93 39 209 93 39 209 93 39 209 93 39 209 93 39 209 93 39 209 93 39 209 93 39 209 93 39 209 93 39 209 93 39 209 93 39 209 93 39 209 93 39 209 93 39 209 93 39 209 93 39 209 93 39 209 93 39 209 93 39 209 93 39 209 93 39 209 93 39 209 93 39 209 93 39 209 93 39 209 93 39 209 93 39 209 93 39 209 93 39 209 93 39 209 93 39 209 93 39 209 93 39 209 93 39 209 93 39 209 93 39 209 93 39 209 255 120 40 93 39 209 93 39 209 93 39 209 93 39 209 93 39 209 93 39 209 93 39 209 93 39 209 93 39 209 93 39 209 93 39 209 93 39 209 93 39 209 93 39 209 93 39 209 93 39 209 93 39 209 93 39 209 93 39 209 93 39 209 93 39 209 93 39 209 93 39 209 93 39 209 93 39 209 93 39 209 93 39 209 93 39 209 93 39 209 93 39 209 93 39 209 93 39 209 93 39 209 93 39 209 93 39 209 93 39 209 93 39 209 93 39 209 93 39 209 93 39 209 93 39 209 93 39 209 93 39 209 93 39 209 93 39 209 93 39 209 93 39 209 93 39 209 93 39 209 93 39 209 93 39 209 93 39 209 93 39 209 93 39 209 93 39 209 93 39 209 93 39 209 93 39 209 93 39 209 93 39 209 93 39 209 93 39 209 93 39 209 93 39 209 93 39 209 93 39 209 93 39 209 93 39 209 93 39 209 93 39 209 93 39 209 93 39 209 93 39 209 93 39 209 93 39 209 93 39 209 93 39 209 93 39 209 93 39 209 93 39 209 93 39 209 93 39 209 93 39 209 93 39 209 93 39 209 93 39 209 93 39 209 93 39 209 93 39 209 93 39 209 93 39 209 93 39 209 93 39 209 93 39 209 93 39 209 93 39 209 93 39 209 93 39 209 93 39 209 93 39 209 93 39 209 93 39 209 93 39 209 93 39 209 93 39 209 93 39 209 93 39 209 93 39 209 93 39 209 93 39 209 93 39 209 93 39 209 93 39 209 93 39 209 93 39 209 93 39 209 93 39 209 93 39 209 93 39 209 93 39 209 93 39 209 93 39 209 93 39 209 93 39 209 93 39 209 93 39 209 93 39 209 93 39 209 93 39 209 93 39 209 93 39 209 93 39 209 93 39 209 93 39 209 93 39 209 93 39 209 93 39 209 93 39 209 93 39 209 93 39 209 93 39 209 93 39 209 93 39 209 93 39 209 93 39 209 93 39 209 93 39 209 93 39 209 93 39 209 93 39 209 93 39 209 93 39 209 93 39 209 93 39 209 93 39 209 93 39 209 93 39 209 93 39 209 93 39 209 255 255 255 255 255 255 93 39 209 93 39 209 93 39 209 93 39 209 93 39 209 93 39 209 93 39 209 93 39 209 93 39 209 93 39 209 93 39 209 93 39 209 93 39 209 93 39 209 93 39 209 93 39 209 93 39 209 93 39 209 93 39 209 93 39 209 93 39 209 93 39 209 93 39 209 93 39 209 93 39 209 93 39 209 93 39 209 93 39 209 93 39 209 93 39 209 
94 38 209 94 38 209 94 38 209 94 38 209 94 38 209 94 38 209 94 38 209 94 38 209 94 38 209 94 38 209 94 38 209 94 38 209 94 38 209 94 38 209 94 38 209 94 38 209 94 38 209 94 38 209 94 38 209 94 38 209 94 38 209 94 38 209 94 38 209 94 38 209 94 38 209 94 38 209 94 38 209 94 38 209 94 38 209 94 38 209 94 38 209 94 38 209 94 38 209 94 38 209 94 38 209 94 38 209 94 38 209 94 38 209 94 38 209 94 38 209 94 38 209 94 38 209 94 38 209 94 38 209 94 38 209 94 38 209 94 38 209 94 38 209 94 38 209 94 38 209 94 38 209 94 38 209 94 38 209 94 38 209 94 38 209 94 38 209 94 38 209 94 38 209 94 38 209 94 38 209 94 38 209 94 38 209 94 38 209 94 38 209 94 38 209 94 38 209 94 38 209 94 38 209 94 38 209 94 38 209 94 38 209 94 38 209 94 38 209 94 38 209 94 38 209 94 38 209 94 38 209 94 38 209 94 38 209 94 38 209 94 38 209 94 38 209 94 38 209 94 38 209 94 38 209 94 38 209 94 38 209 94 38 209 94 38 209 94 38 209 94 38 209 94 38 209 94 38 209 94 38 209 94 38 209 94 38 209 94 38 209 94 38 209 94 38 209 94 38 209 94 38 209 94 38 209 94 38 209 94 38 209 94 38 209 94 38 209 94 38 209 94 38 209 94 38 209 94 38 209 94 38 209 94 38 209 94 38 209 94 38 209 94 38 209 94 38 209 94 38 209 94 38 209 94 38 209 94 38 209 94 38 209 94 38 209 94 38 209 94 38 209 94 38 209 94 38 209 94 38 209 94 38 209 94 38 209 94 38 209 94 38 209 94 38 209 94 38 209 94 38 209 94 38 209 94 38 209 94 38 209 94 38 209 94 38 209 94 38 209 94 38 209 94 38 209 94 38 209 94 38 209 94 38 209 94 38 209 94 38 209 94 38 209 94 38 209 94 38 209 94 38 209 94 38 209 94 38 209 94 38 209 94 38 209 94 38 209 94 38 209 94 38 209 94 38 209 94 38 209 94 38 209 94 38 209 94 38 209 94 38 209 94 38 209 94 38 209 94 38 209 94 38 209 94 38 209 94 38 209 94 38 209 94 38 209 94 38 209 94 38 209 94 38 209 94 38 209 94 38 209 94 38 209 94 38 209 94 38 209 94 38 209 94 38 209 94 38 209 94 38 209 94 38 209 94 38 209 94 38 209 94 38 209 94 38 209 94 38 209 94 38 209 94 38 209 255 120 40 94 38 209 94 38 209 94 38 209 94 38 209 94 38 209 94 38 209 94 38 209 94 38 209 94 38 209 94 38 209 94 38 209 94 38 209 94 38 209 94 38 209 94 38 209 94 38 209 94 38 209 94 38 209 94 38 209 94 38 209 94 38 209 94 38 209 94 38 209 94 38 209 94 38 209 94 38 209 94 38 209 94 38 209 94 38 209 94 38 209 94 38 209 94 38 209 94 38 209 94 38 209 94 38 209 94 38 209 94 38 209 94 38 209 94 38 209 94 38 209 94 38 209 94 38 209 94 38 209 94 38 209 94 38 209 94 38 209 94 38 209 94 38 209 94 38 209 94 38 209 94 38 209 94 38 209 94 38 209 94 38 209 94 38 209 94 38 209 94 38 209 94 38 209 94 38 209 94 38 209 94 38 209 94 38 209 94 38 209 94 38 209 94 38 209 94 38 209 94 38 209 94 38 209 94 38 209 94 38 209 94 38 209 94 38 209 94 38 209 94 38 209 94 38 209 94 38 209 94 38 209 94 38 209 94 38 209 94 38 209 94 38 209 94 38 209 94 38 209 94 38 209 94 38 209 94 38 209 94 38 209 94 38 209 94 38 209 94 38 209 94 38 209 94 38 209 94 38 209 94 38 209 94 38 209 94 38 209 94 38 209 94 38 209 94 38 209 94 38 209 94 38 209 94 38 209 94 38 209 94 38 209 94 38 209 94 38 209 94 38 209 94 38 209 94 38 209 94 38 209 94 38 209 94 38 209 94 38 209 94 38 209 94 38 209 94 38 209 94 38 209 94 38 209 94 38 209 94 38 209 94 38 209 94 38 209 94 38 209 94 38 209 94 38 209 94 38 209 94 38 209 94 38 209 94 38 209 94 38 209 94 38 209 94 38 209 94 38 209 94 38 209 94 38 209 94 38 209 94 38 209 94 38 209 94 38 209 94 38 209 94 38 209 94 38 209 94 38 209 94 38 209 94 38 209 94 38 209 94 38 209 94 38 209 94 38 209 94 38 209 94 38 209 94 38 209 94 38 209 94 38 209 94 38 209 94 38 209 94 38 209 94 38 209 94 38 209 94 38 209 94 38 209 255 255 255 255 255 255 94 38 209 94 38 209 94 38 209 94 38 209 94 38 209 94 38 209 94 38 209 94 38 209 94 38 209 94 38 209 94 38 209 94 38 209 94 38 209 94 38 209 94 38 209 94 38 209 94 38 209 94 38 209 94 38 209 94 38 209 94 38 209 94 38 209 94 38 209 94 38 209 94 38 209 94 38 209 94 38 209 94 38 209 
94 38 209 94 38 209 94 38 209 94 38 209 94 38 209 94 38 209 94 38 209 94 38 209 94 38 209 94 38 209 94 38 209 94 38 209 94 38 209 94 38 209 94 38 209 94 38 209 94 38 209 94 38 209 94 38 209 94 38 209 94 38 209 94 38 209 94 38 209 94 38 209 94 38 209 94 38 209 94 38 209 94 38 209 94 38 209 94 38 209 94 38 209 94 38 209 94 38 209 94 38 209 94 38 209 94 38 209 94 38 209 94 38 209 94 38 209 94 38 209 94 38 209 94 38 209 94 38 209 94 38 209 94 38 209 94 38 209 94 38 209 94 38 209 94 38 209 94 38 209 94 38 209 94 38 209 94 38 209 94 38 209 94 38 209 94 38 209 94 38 209 94 38 209 94 38 209 94 38 209 94 38 209 94 38 209 94 38 209 94 38 209 94 38 209 94 38 209 94 38 209 94 38 209 94 38 209 94 38 209 94 38 209 94 38 209 94 38 209 94 38 209 94 38 209 94 38 209 94 38 209 94 38 209 94 38 209 94 38 209 94 38 209 94 38 209 94 38 209 94 38 209 94 38 209 94 38 209 94 38 209 94 38 209 94 38 209 94 38 209 94 38 209 94 38 209 94 38 209 94 38 209 94 38 209 94 38 209 94 38 209 94 38 209 94 38 209 94 38 209 94 38 209 94 38 209 94 38 209 94 38 209 94 38 209 94 38 209 94 38 209 94 38 209 94 38 209 94 38 209 94 38 209 94 38 209 94 38 209 94 38 209 94 38 209 94 38 209 94 38 209 94 38 209 94 38 209 94 38 209 94 38 209 94 38 209 94 38 209 94 38 209 94 38 209 94 38 209 94 38 209 94 38 209 94 38 209 94 38 209 94 38 209 94 38 209 94 38 209 94 38 209 94 38 209 94 38 209 94 38 209 94 38 209 94 38 209 94 38 209 94 38 209 94 38 209 94 38 209 94 38 209 94 38 209 94 38 209 94 38 209 94 38 209 94 38 209 94 38 209 94 38 209 94 38 209 94 38 209 94 38 209 94 38 209 94 38 209 94 38 209 94 38 209 94 38 209 94 38 209 94 38 209 94 38 209 94 38 209 94 38 209 94 38 209 94 38 209 94 38 209 94 38 209 94 38 209 94 38 209 94 38 209 94 38 209 94 38 209 94 38 209 94 38 209 94 38 209 94 38 209 94 38 209 94 38 209 94 38 209 94 38 209 94 38 209 94 38 209 94 38 209 94 38 209 94 38 209 94 38 209 94 38 209 94 38 209 94 38 209 94 38 209 94 38 209 255 120 40 94 38 209 94 38 209 94 38 209 94 38 209 94 38 209 94 38 209 94 38 209 94 38 209 94 38 209 94 38 209 94 38 209 94 38 209 94 38 209 94 38 209 94 38 209 94 38 209 94 38 209 94 38 209 94 38 209 94 38 209 94 38 209 94 38 209 94 38 209 94 38 209 94 38 209 94 38 209 94 38 209 94 38 209 94 38 209 94 38 209 94 38 209 94 38 209 94 38 209 94 38 209 94 38 209 94 38 209 94 38 209 94 38 209 94 38 209 94 38 209 94 38 209 94 38 209 94 38 209 94 38 209 94 38 209 94 38 209 94 38 209 94 38 209 94 38 209 94 38 209 94 38 209 94 38 209 94 38 209 94 38 209 94 38 209 94 38 209 94 38 209 94 38 209 94 38 209 94 38 209 94 38 209 94 38 209 94 38 209 94 38 209 94 38 209 94 38 209 94 38 209 94 38 209 94 38 209 94 38 209 94 38 209 94 38 209 94 38 209 94 38 209 94 38 209 94 38 209 94 38 209 94 38 209 94 38 209 94 38 209 94 38 209 94 38 209 94 38 209 94 38 209 94 38 209 94 38 209 94 38 209 94 38 209 94 38 209 94 38 209 94 38 209 94 38 209 94 38 209 94 38 209 94 38 209 94 38 209 94 38 209 94 38 209 94 38 209 94 38 209 94 38 209 94 38 209 94 38 209 94 38 209 94 38 209 94 38 209 94 38 209 94 38 209 94 38 209 94 38 209 94 38 209 94 38 209 94 38 209 94 38 209 94 38 209 94 38 209 94 38 209 94 38 209 94 38 209 94 38 209 94 38 209 94 38 209 94 38 209 94 38 209 94 38 209 94 38 209 94 38 209 94 38 209 94 38 209 94 38 209 94 38 209 94 38 209 94 38 209 94 38 209 94 38 209 94 38 209 94 38 209 94 38 209 94 38 209 94 38 209 94 38 209 94 38 209 94 38 209 94 38 209 94 38 209 94 38 209 94 38 209 94 38 209 94 38 209 94 38 209 94 38 209 94 38 209 94 38 209 94 38 209 94 38 209 94 38 209 94 38 209 94 38 209 94 38 209 94 38 209 94 38 209 94 38 209 94 38 209 255 255 255 255 255 255 94 38 209 94 38 209 94 38 209 94 38 209 94 38 209 94 38 209 94 38 209 94 38 209 94 38 209 94 38 209 94 38 209 94 38 209 94 38 209 94 38 209 94 38 209 94 38 209 94 38 209 94 38 209 94 38 209 94 38 209 94 38 209 94 38 209 94 38 209 94 38 209 94 38 209 94 38 209 
94 37 209 94 37 209 94 37 209 94 37 209 94 37 209 94 37 209 94 37 209 94 37 209 94 37 209 94 37 209 94 37 209 94 37 209 94 37 209 94 37 209 94 37 209 94 37 209 94 37 209 94 37 209 94 37 209 94 37 209 94 37 209 94 37 209 94 37 209 94 37 209 94 37 209 94 37 209 94 37 209 94 37 209 94 37 209 94 37 209 94 37 209 94 37 209 94 37 209 94 37 209 94 37 209 94 37 209 94 37 209 94 37 209 94 37 209 94 37 209 94 37 209 94 37 209 94 37 209 94 37 209 94 37 209 94 37 209 94 37 209 94 37 209 94 37 209 94 37 209 94 37 209 94 37 209 94 37 209 94 37 209 94 37 209 94 37 209 94 37 209 94 37 209 94 37 209 94 37 209 94 37 209 94 37 209 94 37 209 94 37 209 94 37 209 94 37 209 94 37 209 94 37 209 94 37 209 94 37 209 94 37 209 94 37 209 94 37 209 94 37 209 94 37 209 94 37 209 94 37 209 94 37 209 94 37 209 94 37 209 94 37 209 94 37 209 94 37 209 94 37 209 94 37 209 94 37 209 94 37 209 94 37 209 94 37 209 94 37 209 94 37 209 94 37 209 94 37 209 94 37 209 94 37 209 94 37 209 94 37 209 94 37 209 94 37 209 94 37 209 94 37 209 94 37 209 94 37 209 94 37 209 94 37 209 94 37 209 94 37 209 94 37 209 94 37 209 94 37 209 94 37 209 94 37 209 94 37 209 94 37 209 94 37 209 94 37 209 94 37 209 94 37 209 94 37 209 94 37 209 94 37 209 94 37 209 94 37 209 94 37 209 94 37 209 94 37 209 94 37 209 94 37 209 94 37 209 94 37 209 94 37 209 94 37 209 94 37 209 94 37 209 94 37 209 94 37 209 94 37 209 94 37 209 94 37 209 94 37 209 94 37 209 94 37 209 94 37 209 94 37 209 94 37 209 94 37 209 94 37 209 94 37 209 94 37 209 94 37 209 94 37 209 94 37 209 94 37 209 94 37 209 94 37 209 94 37 209 94 37 209 94 37 209 94 37 209 94 37 209 94 37 209 94 37 209 94 37 209 94 37 209 94 37 209 94 37 209 94 37 209 94 37 209 94 37 209 94 37 209 94 37 209 94 37 209 94 37 209 94 37 209 94 37 209 94 37 209 94 37 209 94 37 209 94 37 209 94 37 209 94 37 209 94 37 209 94 37 209 94 37 209 94 37 209 94 37 209 94 37 209 94 37 209 94 37 209 94 37 209 94 37 209 94 37 209 255 120 40 94 37 209 94 37 209 94 37 209 94 37 209 94 37 209 94 37 209 94 37 209 94 37 209 94 37 209 94 37 209 94 37 209 94 37 209 94 37 209 94 37 209 94 37 209 94 37 209 94 37 209 94 37 209 94 37 209 94 37 209 94 37 209 94 37 209 94 37 209 94 37 209 94 37 209 94 37 209 94 37 209 94 37 209 94 37 209 94 37 209 94 37 209 94 37 209 94 37 209 94 37 209 94 37 209 94 37 209 94 37 209 94 37 209 94 37 209 94 37 209 94 37 209 94 37 209 94 37 209 94 37 209 94 37 209 94 37 209 94 37 209 94 37 209 94 37 209 94 37 209 94 37 209 94 37 209 94 37 209 94 37 209 94 37 209 94 37 209 94 37 209 94 37 209 94 37 209 94 37 209 94 37 209 94 37 209 94 37 209 94 37 209 94 37 209 94 37 209 94 37 209 94 37 209 94 37 209 94 37 209 94 37 209 94 37 209 94 37 209 94 37 209 94 37 209 94 37 209 94 37 209 94 37 209 94 37 209 94 37 209 94 37 209 94 37 209 94 37 209 94 37 209 94 37 209 94 37 209 94 37 209 94 37 209 94 37 209 94 37 209 94 37 209 94 37 209 94 37 209 94 37 209 94 37 209 94 37 209 94 37 209 94 37 209 94 37 209 94 37 209 94 37 209 94 37 209 94 37 209 94 37 209 94 37 209 94 37 209 94 37 209 94 37 209 94 37 209 94 37 209 94 37 209 94 37 209 94 37 209 94 37 209 94 37 209 94 37 209 94 37 209 94 37 209 94 37 209 94 37 209 94 37 209 94 37 209 94 37 209 94 37 209 94 37 209 94 37 209 94 37 209 94 37 209 94 37 209 94 37 209 94 37 209 94 37 209 94 37 209 94 37 209 94 37 209 94 37 209 94 37 209 94 37 209 94 37 209 94 37 209 94 37 209 94 37 209 94 37 209 94 37 209 94 37 209 94 37 209 94 37 209 94 37 209 94 37 209 94 37 209 94 37 209 94 37 209 94 37 209 94 37 209 94 37 209 94 37 209 94 37 209 94 37 209 94 37 209 94 37 209 94 37 209 94 37 209 94 37 209 94 37 209 94 37 209 255 255 255 255 255 255 94 37 209 94 37 209 94 37 209 94 37 209 94 37 209 94 37 209 94 37 209 94 37 209 94 37 209 94 37 209 94 37 209 94 37 209 94 37 209 94 37 209 94 37 209 94 37 209 94 37 209 94 37 209 94 37 209 94 37 209 94 37 209 94 37 209 94 37 209 94 37 209 
95 37 209 95 37 209 95 37 209 95 37 209 95 37 209 95 37 209 95 37 209 95 37 209 95 37 209 95 37 209 95 37 209 95 37 209 95 37 209 95 37 209 95 37 209 95 37 209 95 37 209 95 37 209 95 37 209 95 37 209 95 37 209 95 37 209 95 37 209 95 37 209 95 37 209 95 37 209 95 37 209 95 37 209 95 37 209 95 37 209 95 37 209 95 37 209 95 37 209 95 37 209 95 37 209 95 37 209 95 37 209 95 37 209 95 37 209 95 37 209 95 37 209 95 37 209 95 37 209 95 37 209 95 37 209 95 37 209 95 37 209 95 37 209 95 37 209 95 37 209 95 37 209 95 37 209 95 37 209 95 37 209 95 37 209 95 37 209 95 37 209 95 37 209 95 37 209 95 37 209 95 37 209 95 37 209 95 37 209 95 37 209 95 37 209 95 37 209 95 37 209 95 37 209 95 37 209 95 37 209 95 37 209 95 37 209 95 37 209 95 37 209 95 37 209 95 37 209 95 37 209 95 37 209 95 37 209 95 37 209 95 37 209 95 37 209 95 37 209 95 37 209 95 37 209 95 37 209 95 37 209 95 37 209 95 37 209 95 37 209 95 37 209 95 37 209 95 37 209 95 37 209 95 37 209 95 37 209 95 37 209 95 37 209 95 37 209 95 37 209 95 37 209 95 37 209 95 37 209 95 37 209 95 37 209 95 37 209 95 37 209 95 37 209 95 37 209 95 37 209 95 37 209 95 37 209 95 37 209 95 37 209 95 37 209 95 37 209 95 37 209 95 37 209 95 37 209 95 37 209 95 37 209 95 37 209 95 37 209 95 37 209 95 37 209 95 37 209 95 37 209 95 37 209 95 37 209 95 37 209 95 37 209 95 37 209 95 37 209 95 37 209 95 37 209 95 37 209 95 37 209 95 37 209 95 37 209 95 37 209 95 37 209 95 37 209 95 37 209 95 37 209 95 37 209 95 37 209 95 37 209 95 37 209 95 37 209 95 37 209 95 37 209 95 37 209 95 37 209 95 37 209 95 37 209 95 37 209 95 37 209 95 37 209 95 37 209 95 37 209 95 37 209 95 37 209 95 37 209 95 37 209 95 37 209 95 37 209 95 37 209 95 37 209 95 37 209 95 37 209 95 37 209 95 37 209 95 37 209 95 37 209 95 37 209 95 37 209 95 37 209 95 37 209 95 37 209 95 37 209 95 37 209 95 37 209 95 37 209 95 37 209 95 37 209 95 37 209 95 37 209 95 37 209 95 37 209 95 37 209 95 37 209 95 37 209 255 120 40 95 37 209 95 37 209 95 37 209 95 37 209 95 37 209 95 37 209 95 37 209 95 37 209 95 37 209 95 37 209 95 37 209 95 37 209 95 37 209 95 37 209 95 37 209 95 37 209 95 37 209 95 37 209 95 37 209 95 37 209 95 37 209 95 37 209 95 37 209 95 37 209 95 37 209 95 37 209 95 37 209 95 37 209 95 37 209 95 37 209 95 37 209 95 37 209 95 37 209 95 37 209 95 37 209 95 37 209 95 37 209 95 37 209 95 37 209 95 37 209 95 37 209 95 37 209 95 37 209 95 37 209 95 37 209 95 37 209 95 37 209 95 37 209 95 37 209 95 37 209 95 37 209 95 37 209 95 37 209 95 37 209 95 37 209 95 37 209 95 37 209 95 37 209 95 37 209 95 37 209 95 37 209 95 37 209 95 37 209 95 37 209 95 37 209 95 37 209 95 37 209 95 37 209 95 37 209 95 37 209 95 37 209 95 37 209 95 37 209 95 37 209 95 37 209 95 37 209 95 37 209 95 37 209 95 37 209 95 37 209 95 37 209 95 37 209 95 37 209 95 37 209 95 37 209 95 37 209 95 37 209 95 37 209 95 37 209 95 37 209 95 37 209 95 37 209 95 37 209 95 37 209 95 37 209 95 37 209 95 37 209 95 37 209 95 37 209 95 37 209 95 37 209 95 37 209 95 37 209 95 37 209 95 37 209 95 37 209 95 37 209 95 37 209 95 37 209 95 37 209 95 37 209 95 37 209 95 37 209 95 37 209 95 37 209 95 37 209 95 37 209 95 37 209 95 37 209 95 37 209 95 37 209 95 37 209 95 37 209 95 37 209 95 37 209 95 37 209 95 37 209 95 37 209 95 37 209 95 37 209 95 37 209 95 37 209 95 37 209 95 37 209 95 37 209 95 37 209 95 37 209 95 37 209 95 37 209 95 37 209 95 37 209 95 37 209 95 37 209 95 37 209 95 37 209 95 37 209 95 37 209 95 37 209 95 37 209 95 37 209 95 37 209 95 37 209 95 37 209 95 37 209 95 37 209 95 37 209 95 37 209 95 37 209 95 37 209 95 37 209 95 37 209 95 37 209 95 37 209 95 37 209 95 37 209 95 37 209 95 37 209 255 255 255 95 37 209 95 37 209 95 37 209 95 37 209 95 37 209 95 37 209 95 37 209 95 37 209 95 37 209 95 37 209 95 37 209 95 37 209 95 37 209 95 37 209 95 37 209 95 37 209 95 37 209 95 37 209 95 37 209 95 37 209 95 37 209 95 37 209 95 37 209 
95 36 209 95 36 209 95 36 209 95 36 209 95 36 209 95 36 209 95 36 209 95 36 209 95 36 209 95 36 209 95 36 209 95 36 209 95 36 209 95 36 209 95 36 209 95 36 209 95 36 209 95 36 209 95 36 209 95 36 209 95 36 209 95 36 209 95 36 209 95 36 209 95 36 209 95 36 209 95 36 209 95 36 209 95 36 209 95 36 209 95 36 209 95 36 209 95 36 209 95 36 209 95 36 209 95 36 209 95 36 209 95 36 209 95 36 209 95 36 209 95 36 209 95 36 209 95 36 209 95 36 209 95 36 209 95 36 209 95 36 209 95 36 209 95 36 209 95 36 209 95 36 209 95 36 209 95 36 209 95 36 209 95 36 209 95 36 209 95 36 209 95 36 209 95 36 209 95 36 209 95 36 209 95 36 209 95 36 209 95 36 209 95 36 209 95 36 209 95 36 209 95 36 209 95 36 209 95 36 209 95 36 209 95 36 209 95 36 209 95 36 209 95 36 209 95 36 209 95 36 209 95 36 209 95 36 209 95 36 209 95 36 209 95 36 209 95 36 209 95 36 209 95 36 209 95 36 209 95 36 209 95 36 209 95 36 209 95 36 209 95 36 209 95 36 209 95 36 209 95 36 209 95 36 209 95 36 209 95 36 209 95 36 209 95 36 209 95 36 209 95 36 209 95 36 209 95 36 209 95 36 209 95 36 209 95 36 209 95 36 209 95 36 209 95 36 209 95 36 209 95 36 209 95 36 209 95 36 209 95 36 209 95 36 209 95 36 209 95 36 209 95 36 209 95 36 209 95 36 209 95 36 209 95 36 209 95 36 209 95 36 209 95 36 209 95 36 209 95 36 209 95 36 209 95 36 209 95 36 209 95 36 209 95 36 209 95 36 209 95 36 209 95 36 209 95 36 209 95 36 209 95 36 209 95 36 209 95 36 209 95 36 209 95 36 209 95 36 209 95 36 209 95 36 209 95 36 209 95 36 209 95 36 209 95 36 209 95 36 209 95 36 209 95 36 209 95 36 209 95 36 209 95 36 209 95 36 209 95 36 209 95 36 209 95 36 209 95 36 209 95 36 209 95 36 209 95 36 209 95 36 209 95 36 209 95 36 209 95 36 209 95 36 209 95 36 209 95 36 209 95 36 209 95 36 209 95 36 209 95 36 209 95 36 209 95 36 209 95 36 209 95 36 209 95 36 209 95 36 209 95 36 209 95 36 209 95 36 209 95 36 209 95 36 209 95 36 209 95 36 209 95 36 209 95 36 209 95 36 209 95 36 209 95 36 209 255 120 40 95 36 209 95 36 209 95 36 209 95 36 209 95 36 209 95 36 209 95 36 209 95 36 209 95 36 209 95 36 209 95 36 209 95 36 209 95 36 209 95 36 209 95 36 209 95 36 209 95 36 209 95 36 209 95 36 209 95 36 209 95 36 209 95 36 209 95 36 209 95 36 209 95 36 209 95 36 209 95 36 209 95 36 209 95 36 209 95 36 209 95 36 209 95 36 209 95 36 209 95 36 209 95 36 209 95 36 209 95 36 209 95 36 209 95 36 209 95 36 209 95 36 209 95 36 209 95 36 209 95 36 209 95 36 209 95 36 209 95 36 209 95 36 209 95 36 209 95 36 209 95 36 209 95 36 209 95 36 209 95 36 209 95 36 209 95 36 209 95 36 209 95 36 209 95 36 209 95 36 209 95 36 209 95 36 209 95 36 209 95 36 209 95 36 209 95 36 209 95 36 209 95 36 209 95 36 209 95 36 209 95 36 209 95 36 209 95 36 209 95 36 209 95 36 209 95 36 209 95 36 209 95 36 209 95 36 209 95 36 209 95 36 209 95 36 209 95 36 209 95 36 209 95 36 209 95 36 209 95 36 209 95 36 209 95 36 209 95 36 209 95 36 209 95 36 209 95 36 209 95 36 209 95 36 209 95 36 209 95 36 209 95 36 209 95 36 209 95 36 209 95 36 209 95 36 209 95 36 209 95 36 209 95 36 209 95 36 209 95 36 209 95 36 209 95 36 209 95 36 209 95 36 209 95 36 209 95 36 209 95 36 209 95 36 209 95 36 209 95 36 209 95 36 209 95 36 209 95 36 209 95 36 209 95 36 209 95 36 209 95 36 209 95 36 209 95 36 209 95 36 209 95 36 209 95 36 209 95 36 209 95 36 209 95 36 209 95 36 209 95 36 209 95 36 209 95 36 209 95 36 209 95 36 209 95 36 209 95 36 209 95 36 209 95 36 209 95 36 209 95 36 209 95 36 209 95 36 209 95 36 209 95 36 209 95 36 209 95 36 209 95 36 209 95 36 209 95 36 209 95 36 209 95 36 209 95 36 209 95 36 209 95 36 209 95 36 209 95 36 209 95 36 209 95 36 209 95 36 209 95 36 209 95 36 209 95 36 209 95 36 209 95 36 209 255 255 255 255 255 255 95 36 209 95 36 209 95 36 209 95 36 209 95 36 209 95 36 209 95 36 209 95 36 209 95 36 209 95 36 209 95 36 209 95 36 209 95 36 209 95 36 209 95 36 209 95 36 209 95 36 209 95 36 209 95 36 209 95 36 209 95 36 209 
95 36 209 95 36 209 95 36 209 95 36 209 95 36 209 95 36 209 95 36 209 95 36 209 95 36 209 95 36 209 95 36 209 95 36 209 95 36 209 95 36 209 95 36 209 95 36 209 95 36 209 95 36 209 95 36 209 95 36 209 95 36 209 95 36 209 95 36 209 95 36 209 95 36 209 95 36 209 95 36 209 95 36 209 95 36 209 95 36 209 95 36 209 95 36 209 95 36 209 95 36 209 95 36 209 95 36 209 95 36 209 95 36 209 95 36 209 95 36 209 95 36 209 95 36 209 95 36 209 95 36 209 95 36 209 95 36 209 95 36 209 95 36 209 95 36 209 95 36 209 95 36 209 95 36 209 95 36 209 95 36 209 95 36 209 95 36 209 95 36 209 95 36 209 95 36 209 95 36 209 95 36 209 95 36 209 95 36 209 95 36 209 95 36 209 95 36 209 95 36 209 95 36 209 95 36 209 95 36 209 95 36 209 95 36 209 95 36 209 95 36 209 95 36 209 95 36 209 95 36 209 95 36 209 95 36 209 95 36 209 95 36 209 95 36 209 95 36 209 95 36 209 95 36 209 95 36 209 95 36 209 95 36 209 95 36 209 95 36 209 95 36 209 95 36 209 95 36 209 95 36 209 95 36 209 95 36 209 95 36 209 95 36 209 95 36 209 95 36 209 95 36 209 95 36 209 95 36 209 95 36 209 95 36 209 95 36 209 95 36 209 95 36 209 95 36 209 95 36 209 95 36 209 95 36 209 95 36 209 95 36 209 95 36 209 95 36 209 95 36 209 95 36 209 95 36 209 95 36 209 95 36 209 95 36 209 95 36 209 95 36 209 95 36 209 95 36 209 95 36 209 95 36 209 95 36 209 95 36 209 95 36 209 95 36 209 95 36 209 95 36 209 95 36 209 95 36 209 95 36 209 95 36 209 95 36 209 95 36 209 95 36 209 95 36 209 95 36 209 95 36 209 95 36 209 95 36 209 95 36 209 95 36 209 95 36 209 95 36 209 95 36 209 95 36 209 95 36 209 95 36 209 95 36 209 95 36 209 95 36 209 95 36 209 95 36 209 95 36 209 95 36 209 95 36 209 95 36 209 95 36 209 95 36 209 95 36 209 95 36 209 95 36 209 95 36 209 95 36 209 95 36 209 95 36 209 95 36 209 95 36 209 95 36 209 95 36 209 95 36 209 95 36 209 95 36 209 95 36 209 95 36 209 95 36 209 95 36 209 95 36 209 95 36 209 95 36 209 95 36 209 95 36 209 95 36 209 95 36 209 95 36 209 95 36 209 255 120 40 95 36 209 95 36 209 95 36 209 95 36 209 95 36 209 95 36 209 95 36 209 95 36 209 95 36 209 95 36 209 95 36 209 95 36 209 95 36 209 95 36 209 95 36 209 95 36 209 95 36 209 95 36 209 95 36 209 95 36 209 95 36 209 95 36 209 95 36 209 95 36 209 95 36 209 95 36 209 95 36 209 95 36 209 95 36 209 95 36 209 95 36 209 95 36 209 95 36 209 95 36 209 95 36 209 95 36 209 95 36 209 95 36 209 95 36 209 95 36 209 95 36 209 95 36 209 95 36 209 95 36 209 95 36 209 95 36 209 95 36 209 95 36 209 95 36 209 95 36 209 95 36 209 95 36 209 95 36 209 95 36 209 95 36 209 95 36 209 95 36 209 95 36 209 95 36 209 95 36 209 95 36 209 95 36 209 95 36 209 95 36 209 95 36 209 95 36 209 95 36 209 95 36 209 95 36 209 95 36 209 95 36 209 95 36 209 95 36 209 95 36 209 95 36 209 95 36 209 95 36 209 95 36 209 95 36 209 95 36 209 95 36 209 95 36 209 95 36 209 95 36 209 95 36 209 95 36 209 95 36 209 95 36 209 95 36 209 95 36 209 95 36 209 95 36 209 95 36 209 95 36 209 95 36 209 95 36 209 95 36 209 95 36 209 95 36 209 95 36 209 95 36 209 95 36 209 95 36 209 95 36 209 95 36 209 95 36 209 95 36 209 95 36 209 95 36 209 95 36 209 95 36 209 95 36 209 95 36 209 95 36 209 95 36 209 95 36 209 95 36 209 95 36 209 95 36 209 95 36 209 95 36 209 95 36 209 95 36 209 95 36 209 95 36 209 95 36 209 95 36 209 95 36 209 95 36 209 95 36 209 95 36 209 95 36 209 95 36 209 95 36 209 95 36 209 95 36 209 95 36 209 95 36 209 95 36 209 95 36 209 95 36 209 95 36 209 95 36 209 95 36 209 95 36 209 95 36 209 95 36 209 95 36 209 95 36 209 95 36 209 95 36 209 95 36 209 95 36 209 95 36 209 95 36 209 95 36 209 95 36 209 95 36 209 95 36 209 95 36 209 95 36 209 95 36 209 95 36 209 95 36 209 95 36 209 95 36 209 95 36 209 95 36 209 95 36 209 95 36 209 255 255 255 255 255 255 95 36 209 95 36 209 95 36 209 95 36 209 95 36 209 95 36 209 95 36 209 95 36 209 95 36 209 95 36 209 95 36 209 95 36 209 95 36 209 95 36 209 95 36 209 95 36 209 95 36 209 95 36 209 95 36 209 
96 35 209 96 35 209 96 35 209 96 35 209 96 35 209 96 35 209 96 35 209 96 35 209 96 35 209 96 35 209 96 35 209 96 35 209 96 35 209 96 35 209 96 35 209 96 35 209 96 35 209 96 35 209 96 35 209 96 35 209 96 35 209 96 35 209 96 35 209 96 35 209 96 35 209 96 35 209 96 35 209 96 35 209 96 35 209 96 35 209 96 35 209 96 35 209 96 35 209 96 35 209 96 35 209 96 35 209 96 35 209 96 35 209 96 35 209 96 35 209 96 35 209 96 35 209 96 35 209 96 35 209 96 35 209 96 35 209 96 35 209 96 35 209 96 35 209 96 35 209 96 35 209 96 35 209 96 35 209 96 35 209 96 35 209 96 35 209 96 35 209 96 35 209 96 35 209 96 35 209 96 35 209 96 35 209 96 35 209 96 35 209 96 35 209 96 35 209 96 35 209 96 35 209 96 35 209 96 35 209 96 35 209 96 35 209 96 35 209 96 35 209 96 35 209 96 35 209 96 35 209 96 35 209 96 35 209 96 35 209 96 35 209 96 35 209 96 35 209 96 35 209 96 35 209 96 35 209 96 35 209 96 35 209 96 35 209 96 35 209 96 35 209 96 35 209 96 35 209 96 35 209 96 35 209 96 35 209 96 35 209 96 35 209 96 35 209 96 35 209 96 35 209 96 35 209 96 35 209 96 35 209 96 35 209 96 35 209 96 35 209 96 35 209 96 35 209 96 35 209 96 35 209 96 35 209 96 35 209 96 35 209 96 35 209 96 35 209 96 35 209 96 35 209 96 35 209 96 35 209 96 35 209 96 35 209 96 35 209 96 35 209 96 35 209 96 35 209 96 35 209 96 35 209 96 35 209 96 35 209 96 35 209 96 35 209 96 35 209 96 35 209 96 35 209 96 35 209 96 35 209 96 35 209 96 35 209 96 35 209 96 35 209 96 35 209 96 35 209 96 35 209 96 35 209 96 35 209 96 35 209 96 35 209 96 35 209 96 35 209 96 35 209 96 35 209 96 35 209 96 35 209 96 35 209 96 35 209 96 35 209 96 35 209 96 35 209 96 35 209 96 35 209 96 35 209 96 35 209 96 35 209 96 35 209 96 35 209 96 35 209 96 35 209 96 35 209 96 35 209 96 35 209 96 35 209 96 35 209 96 35 209 96 35 209 96 35 209 96 35 209 96 35 209 96 35 209 96 35 209 96 35 209 96 35 209 96 35 209 96 35 209 96 35 209 96 35 209 96 35 209 96 35 209 96 35 209 96 35 209 96 35 209 96 35 209 255 120 40 96 35 209 96 35 209 96 35 209 96 35 209 96 35 209 96 35 209 96 35 209 96 35 209 96 35 209 96 35 209 96 35 209 96 35 209 96 35 209 96 35 209 96 35 209 96 35 209 96 35 209 96 35 209 96 35 209 96 35 209 96 35 209 96 35 209 96 35 209 96 35 209 96 35 209 96 35 209 96 35 209 96 35 209 96 35 209 96 35 209 96 35 209 96 35 209 96 35 209 96 35 209 96 35 209 96 35 209 96 35 209 96 35 209 96 35 209 96 35 209 96 35 209 96 35 209 96 35 209 96 35 209 96 35 209 96 35 209 96 35 209 96 35 209 96 35 209 96 35 209 96 35 209 96 35 209 96 35 209 96 35 209 96 35 209 96 35 209 96 35 209 96 35 209 96 35 209 96 35 209 96 35 209 96 35 209 96 35 209 96 35 209 96 35 209 96 35 209 96 35 209 96 35 209 96 35 209 96 35 209 96 35 209 96 35 209 96 35 209 96 35 209 96 35 209 96 35 209 96 35 209 96 35 209 96 35 209 96 35 209 96 35 209 96 35 209 96 35 209 96 35 209 96 35 209 96 35 209 96 35 209 96 35 209 96 35 209 96 35 209 96 35 209 96 35 209 96 35 209 96 35 209 96 35 209 96 35 209 96 35 209 96 35 209 96 35 209 96 35 209 96 35 209 96 35 209 96 35 209 96 35 209 96 35 209 96 35 209 96 35 209 96 35 209 96 35 209 96 35 209 96 35 209 96 35 209 96 35 209 96 35 209 96 35 209 96 35 209 96 35 209 96 35 209 96 35 209 96 35 209 96 35 209 96 35 209 96 35 209 96 35 209 96 35 209 96 35 209 96 35 209 96 35 209 96 35 209 96 35 209 96 35 209 96 35 209 96 35 209 96 35 209 96 35 209 96 35 209 96 35 209 96 35 209 96 35 209 96 35 209 96 35 209 96 35 209 96 35 209 96 35 209 96 35 209 96 35 209 96 35 209 96 35 209 96 35 209 96 35 209 96 35 209 96 35 209 96 35 209 96 35 209 96 35 209 96 35 209 96 35 209 96 35 209 96 35 209 96 35 209 96 35 209 96 35 209 96 35 209 96 35 209 96 35 209 96 35 209 96 35 209 96 35 209 96 35 209 96 35 209 96 35 209 96 35 209 255 255 255 255 255 255 96 35 209 96 35 209 96 35 209 96 35 209 96 35 209 96 35 209 96 35 209 96 35 209 96 35 209 96 35 209 96 35 209 96 35 209 96 35 209 96 35 209 96 35 209 96 35 209 96 35 209 
96 35 209 96 35 209 96 35 209 96 35 209 96 35 209 96 35 209 96 35 209 96 35 209 96 35 209 96 35 209 96 35 209 96 35 209 96 35 209 96 35 209 96 35 209 96 35 209 96 35 209 96 35 209 96 35 209 96 35 209 96 35 209 96 35 209 96 35 209 96 35 209 96 35 209 96 35 209 96 35 209 96 35 209 96 35 209 96 35 209 96 35 209 96 35 209 96 35 209 96 35 209 96 35 209 96 35 209 96 35 209 96 35 209 96 35 209 96 35 209 96 35 209 96 35 209 96 35 209 96 35 209 96 35 209 96 35 209 96 35 209 96 35 209 96 35 209 96 35 209 96 35 209 96 35 209 96 35 209 96 35 209 96 35 209 96 35 209 96 35 209 96 35 209 96 35 209 96 35 209 96 35 209 96 35 209 96 35 209 96 35 209 96 35 209 96 35 209 96 35 209 96 35 209 96 35 209 96 35 209 96 35 209 96 35 209 96 35 209 96 35 209 96 35 209 96 35 209 96 35 209 96 35 209 96 35 209 96 35 209 96 35 209 96 35 209 96 35 209 96 35 209 96 35 209 96 35 209 96 35 209 96 35 209 96 35 209 96 35 209 96 35 209 96 35 209 96 35 209 96 35 209 96 35 209 96 35 209 96 35 209 96 35 209 96 35 209 96 35 209 96 35 209 96 35 209 96 35 209 96 35 209 96 35 209 96 35 209 96 35 209 96 35 209 96 35 209 96 35 209 96 35 209 96 35 209 96 35 209 96 35 209 96 35 209 96 35 209 96 35 209 96 35 209 96 35 209 96 35 209 96 35 209 96 35 209 96 35 209 96 35 209 96 35 209 96 35 209 96 35 209 96 35 209 96 35 209 96 35 209 96 35 209 96 35 209 96 35 209 96 35 209 96 35 209 96 35 209 96 35 209 96 35 209 96 35 209 96 35 209 96 35 209 96 35 209 96 35 209 96 35 209 96 35 209 96 35 209 96 35 209 96 35 209 96 35 209 96 35 209 96 35 209 96 35 209 96 35 209 96 35 209 96 35 209 96 35 209 96 35 209 96 35 209 96 35 209 96 35 209 96 35 209 96 35 209 96 35 209 96 35 209 96 35 209 96 35 209 96 35 209 96 35 209 96 35 209 96 35 209 96 35 209 96 35 209 96 35 209 96 35 209 96 35 209 96 35 209 96 35 209 96 35 209 96 35 209 96 35 209 96 35 209 96 35 209 96 35 209 96 35 209 96 35 209 96 35 209 96 35 209 96 35 209 96 35 209 96 35 209 96 35 209 96 35 209 255 120 40 96 35 209 96 35 209 96 35 209 96 35 209 96 35 209 96 35 209 96 35 209 96 35 209 96 35 209 96 35 209 96 35 209 96 35 209 96 35 209 96 35 209 96 35 209 96 35 209 96 35 209 96 35 209 96 35 209 96 35 209 96 35 209 96 35 209 96 35 209 96 35 209 96 35 209 96 35 209 96 35 209 96 35 209 96 35 209 96 35 209 96 35 209 96 35 209 96 35 209 96 35 209 96 35 209 96 35 209 96 35 209 96 35 209 96 35 209 96 35 209 96 35 209 96 35 209 96 35 209 96 35 209 96 35 209 96 35 209 96 35 209 96 35 209 96 35 209 96 35 209 96 35 209 96 35 209 96 35 209 96 35 209 96 35 209 96 35 209 96 35 209 96 35 209 96 35 209 96 35 209 96 35 209 96 35 209 96 35 209 96 35 209 96 35 209 96 35 209 96 35 209 96 35 209 96 35 209 96 35 209 96 35 209 96 35 209 96 35 209 96 35 209 96 35 209 96 35 209 96 35 209 96 35 209 96 35 209 96 35 209 96 35 209 96 35 209 96 35 209 96 35 209 96 35 209 96 35 209 96 35 209 96 35 209 96 35 209 96 35 209 96 35 209 96 35 209 96 35 209 96 35 209 96 35 209 96 35 209 96 35 209 96 35 209 96 35 209 96 35 209 96 35 209 96 35 209 96 35 209 96 35 209 96 35 209 96 35 209 96 35 209 96 35 209 96 35 209 96 35 209 96 35 209 96 35 209 96 35 209 96 35 209 96 35 209 96 35 209 96 35 209 96 35 209 96 35 209 96 35 209 96 35 209 96 35 209 96 35 209 96 35 209 96 35 209 96 35 209 96 35 209 96 35 209 96 35 209 96 35 209 96 35 209 96 35 209 96 35 209 96 35 209 96 35 209 96 35 209 96 35 209 96 35 209 96 35 209 96 35 209 96 35 209 96 35 209 96 35 209 96 35 209 96 35 209 96 35 209 96 35 209 96 35 209 96 35 209 96 35 209 96 35 209 96 35 209 96 35 209 96 35 209 96 35 209 96 35 209 96 35 209 96 35 209 96 35 209 96 35 209 96 35 209 96 35 209 96 35 209 96 35 209 96 35 209 96 35 209 96 35 209 96 35 209 96 35 209 96 35 209 96 35 209 96 35 209 96 35 209 96 35 209 255 255 255 96 35 209 96 35 209 96 35 209 96 35 209 96 35 209 96 35 209 96 35 209 96 35 209 96 35 209 96 35 209 96 35 209 96 35 209 96 35 209 96 35 209 96 35 209 96 35 209 
97 34 209 97 34 209 97 34 209 97 34 209 97 34 209 97 34 209 97 34 209 97 34 209 97 34 209 97 34 209 97 34 209 97 34 209 97 34 209 97 34 209 97 34 209 97 34 209 97 34 209 97 34 209 97 34 209 97 34 209 97 34 209 97 34 209 97 34 209 97 34 209 97 34 209 97 34 209 97 34 209 97 34 209 97 34 209 97 34 209 97 34 209 97 34 209 97 34 209 97 34 209 97 34 209 97 34 209 97 34 209 97 34 209 97 34 209 97 34 209 97 34 209 97 34 209 97 34 209 97 34 209 97 34 209 97 34 209 97 34 209 97 34 209 97 34 209 97 34 209 97 34 209 97 34 209 97 34 209 97 34 209 97 34 209 97 34 209 97 34 209 97 34 209 97 34 209 97 34 209 97 34 209 97 34 209 97 34 209 97 34 209 97 34 209 97 34 209 97 34 209 97 34 209 97 34 209 97 34 209 97 34 209 97 34 209 97 34 209 97 34 209 97 34 209 97 34 209 97 34 209 97 34 209 97 34 209 97 34 209 97 34 209 97 34 209 97 34 209 97 34 209 97 34 209 97 34 209 97 34 209 97 34 209 97 34 209 97 34 209 97 34 209 97 34 209 97 34 209 97 34 209 97 34 209 97 34 209 97 34 209 97 34 209 97 34 209 97 34 209 97 34 209 97 34 209 97 34 209 97 34 209 97 34 209 97 34 209 97 34 209 97 34 209 97 34 209 97 34 209 97 34 209 97 34 209 97 34 209 97 34 209 97 34 209 97 34 209 97 34 209 97 34 209 97 34 209 97 34 209 97 34 209 97 34 209 97 34 209 97 34 209 97 34 209 97 34 209 97 34 209 97 34 209 97 34 209 97 34 209 97 34 209 97 34 209 97 34 209 97 34 209 97 34 209 97 34 209 97 34 209 97 34 209 97 34 209 97 34 209 97 34 209 97 34 209 97 34 209 97 34 209 97 34 209 97 34 209 97 34 209 97 34 209 97 34 209 97 34 209 97 34 209 97 34 209 97 34 209 97 34 209 97 34 209 97 34 209 97 34 209 97 34 209 97 34 209 97 34 209 97 34 209 97 34 209 97 34 209 97 34 209 97 34 209 97 34 209 97 34 209 97 34 209 97 34 209 97 34 209 97 34 209 97 34 209 97 34 209 97 34 209 97 34 209 97 34 209 97 34 209 97 34 209 97 34 209 97 34 209 97 34 209 97 34 209 97 34 209 97 34 209 97 34 209 97 34 209 97 34 209 97 34 209 97 34 209 97 34 209 97 34 209 97 34 209 255 120 40 97 34 209 97 34 209 97 34 209 97 34 209 97 34 209 97 34 209 97 34 209 97 34 209 97 34 209 97 34 209 97 34 209 97 34 209 97 34 209 97 34 209 97 34 209 97 34 209 97 34 209 97 34 209 97 34 209 97 34 209 97 34 209 97 34 209 97 34 209 97 34 209 97 34 209 97 34 209 97 34 209 97 34 209 97 34 209 97 34 209 97 34 209 97 34 209 97 34 209 97 34 209 97 34 209 97 34 209 97 34 209 97 34 209 97 34 209 97 34 209 97 34 209 97 34 209 97 34 209 97 34 209 97 34 209 97 34 209 97 34 209 97 34 209 97 34 209 97 34 209 97 34 209 97 34 209 97 34 209 97 34 209 97 34 209 97 34 209 97 34 209 97 34 209 97 34 209 97 34 209 97 34 209 97 34 209 97 34 209 97 34 209 97 34 209 97 34 209 97 34 209 97 34 209 97 34 209 97 34 209 97 34 209 97 34 209 97 34 209 97 34 209 97 34 209 97 34 209 97 34 209 97 34 209 97 34 209 97 34 209 97 34 209 97 34 209 97 34 209 97 34 209 97 34 209 97 34 209 97 34 209 97 34 209 97 34 209 97 34 209 97 34 209 97 34 209 97 34 209 97 34 209 97 34 209 97 34 209 97 34 209 97 34 209 97 34 209 97 34 209 97 34 209 97 34 209 97 34 209 97 34 209 97 34 209 97 34 209 97 34 209 97 34 209 97 34 209 97 34 209 97 34 209 97 34 209 97 34 209 97 34 209 97 34 209 97 34 209 97 34 209 97 34 209 97 34 209 97 34 209 97 34 209 97 34 209 97 34 209 97 34 209 97 34 209 97 34 209 97 34 209 97 34 209 97 34 209 97 34 209 97 34 209 97 34 209 97 34 209 97 34 209 97 34 209 97 34 209 97 34 209 97 34 209 97 34 209 97 34 209 97 34 209 97 34 209 97 34 209 97 34 209 97 34 209 97 34 209 97 34 209 97 34 209 97 34 209 97 34 209 97 34 209 97 34 209 97 34 209 97 34 209 97 34 209 97 34 209 97 34 209 97 34 209 97 34 209 97 34 209 97 34 209 97 34 209 97 34 209 97 34 209 97 34 209 97 34 209 97 34 209 97 34 209 97 34 209 97 34 209 97 34 209 97 34 209 97 34 209 97 34 209 97 34 209 255 255 255 255 255 255 97 34 209 97 34 209 97 34 209 97 34 209 97 34 209 97 34 209 97 34 209 97 34 209 97 34 209 97 34 209 97 34 209 97 34 209 97 34 209 97 34 209 
97 33 209 97 33 209 97 33 209 97 33 209 97 33 209 97 33 209 97 33 209 97 33 209 97 33 209 97 33 209 97 33 209 97 33 209 97 33 209 97 33 209 97 33 209 97 33 209 97 33 209 97 33 209 97 33 209 97 33 209 97 33 209 97 33 209 97 33 209 97 33 209 97 33 209 97 33 209 97 33 209 97 33 209 97 33 209 97 33 209 97 33 209 97 33 209 97 33 209 97 33 209 97 33 209 97 33 209 97 33 209 97 33 209 97 33 209 97 33 209 97 33 209 97 33 209 97 33 209 97 33 209 97 33 209 97 33 209 97 33 209 97 33 209 97 33 209 97 33 209 97 33 209 97 33 209 97 33 209 97 33 209 97 33 209 97 33 209 97 33 209 97 33 209 97 33 209 97 33 209 97 33 209 97 33 209 97 33 209 97 33 209 97 33 209 97 33 209 97 33 209 97 33 209 97 33 209 97 33 209 97 33 209 97 33 209 97 33 209 97 33 209 97 33 209 97 33 209 97 33 209 97 33 209 97 33 209 97 33 209 97 33 209 97 33 209 97 33 209 97 33 209 97 33 209 97 33 209 97 33 209 97 33 209 97 33 209 97 33 209 97 33 209 97 33 209 97 33 209 97 33 209 97 33 209 97 33 209 97 33 209 97 33 209 97 33 209 97 33 209 97 33 209 97 33 209 97 33 209 97 33 209 97 33 209 97 33 209 97 33 209 97 33 209 97 33 209 97 33 209 97 33 209 97 33 209 97 33 209 97 33 209 97 33 209 97 33 209 97 33 209 97 33 209 97 33 209 97 33 209 97 33 209 97 33 209 97 33 209 97 33 209 97 33 209 97 33 209 97 33 209 97 33 209 97 33 209 97 33 209 97 33 209 97 33 209 97 33 209 97 33 209 97 33 209 97 33 209 97 33 209 97 33 209 97 33 209 97 33 209 97 33 209 97 33 209 97 33 209 97 33 209 97 33 209 97 33 209 97 33 209 97 33 209 97 33 209 97 33 209 97 33 209 97 33 209 97 33 209 97 33 209 97 33 209 97 33 209 97 33 209 97 33 209 97 33 209 97 33 209 97 33 209 97 33 209 97 33 209 97 33 209 97 33 209 97 33 209 97 33 209 97 33 209 97 33 209 97 33 209 97 33 209 97 33 209 97 33 209 97 33 209 97 33 209 97 33 209 97 33 209 97 33 209 97 33 209 97 33 209 97 33 209 97 33 209 97 33 209 97 33 209 97 33 209 97 33 209 97 33 209 97 33 209 97 33 209 97 33 209 97 33 209 97 33 209 255 120 40 97 33 209 97 33 209 97 33 209 97 33 209 97 33 209 97 33 209 97 33 209 97 33 209 97 33 209 97 33 209 97 33 209 97 33 209 97 33 209 97 33 209 97 33 209 97 33 209 97 33 209 97 33 209 97 33 209 97 33 209 97 33 209 97 33 209 97 33 209 97 33 209 97 33 209 97 33 209 97 33 209 97 33 209 97 33 209 97 33 209 97 33 209 97 33 209 97 33 209 97 33 209 97 33 209 97 33 209 97 33 209 97 33 209 97 33 209 97 33 209 97 33 209 97 33 209 97 33 209 97 33 209 97 33 209 97 33 209 97 33 209 97 33 209 97 33 209 97 33 209 97 33 209 97 33 209 97 33 209 97 33 209 97 33 209 97 33 209 97 33 209 97 33 209 97 33 209 97 33 209 97 33 209 97 33 209 97 33 209 97 33 209 97 33 209 97 33 209 97 33 209 97 33 209 97 33 209 97 33 209 97 33 209 97 33 209 97 33 209 97 33 209 97 33 209 97 33 209 97 33 209 97 33 209 97 33 209 97 33 209 97 33 209 97 33 209 97 33 209 97 33 209 97 33 209 97 33 209 97 33 209 97 33 209 97 33 209 97 33 209 97 33 209 97 33 209 97 33 209 97 33 209 97 33 209 97 33 209 97 33 209 97 33 209 97 33 209 97 33 209 97 33 209 97 33 209 97 33 209 97 33 209 97 33 209 97 33 209 97 33 209 97 33 209 97 33 209 97 33 209 97 33 209 97 33 209 97 33 209 97 33 209 97 33 209 97 33 209 97 33 209 97 33 209 97 33 209 97 33 209 97 33 209 97 33 209 97 33 209 97 33 209 97 33 209 97 33 209 97 33 209 97 33 209 97 33 209 97 33 209 97 33 209 97 33 209 97 33 209 97 33 209 97 33 209 97 33 209 97 33 209 97 33 209 97 33 209 97 33 209 97 33 209 97 33 209 97 33 209 97 33 209 97 33 209 97 33 209 97 33 209 97 33 209 97 33 209 97 33 209 97 33 209 97 33 209 97 33 209 97 33 209 97 33 209 97 33 209 97 33 209 97 33 209 97 33 209 97 33 209 97 33 209 97 33 209 97 33 209 97 33 209 97 33 209 97 33 209 97 33 209 97 33 209 97 33 209 97 33 209 97 33 209 97 33 209 97 33 209 97 33 209 97 33 209 97 33 209 97 33 209 255 255 255 255 255 255 97 33 209 97 33 209 97 33 209 97 33 209 97 33 209 97 33 209 97 33 209 97 33 209 97 33 209 97 33 209 97 33 209 97 33 209 
97 33 209 97 33 209 97 33 209 97 33 209 97 33 209 97 33 209 97 33 209 97 33 209 97 33 209 97 33 209 97 33 209 97 33 209 97 33 209 97 33 209 97 33 209 97 33 209 97 33 209 97 33 209 97 33 209 97 33 209 97 33 209 97 33 209 97 33 209 97 33 209 97 33 209 97 33 209 97 33 209 97 33 209 97 33 209 97 33 209 97 33 209 97 33 209 97 33 209 97 33 209 97 33 209 97 33 209 97 33 209 97 33 209 97 33 209 97 33 209 97 33 209 97 33 209 97 33 209 97 33 209 97 33 209 97 33 209 97 33 209 97 33 209 97 33 209 97 33 209 97 33 209 97 33 209 97 33 209 97 33 209 97 33 209 97 33 209 97 33 209 97 33 209 97 33 209 97 33 209 97 33 209 97 33 209 97 33 209 97 33 209 97 33 209 97 33 209 97 33 209 97 33 209 97 33 209 97 33 209 97 33 209 97 33 209 97 33 209 97 33 209 97 33 209 97 33 209 97 33 209 97 33 209 97 33 209 97 33 209 97 33 209 97 33 209 97 33 209 97 33 209 97 33 209 97 33 209 97 33 209 97 33 209 97 33 209 97 33 209 97 33 209 97 33 209 97 33 209 97 33 209 97 33 209 97 33 209 97 33 209 97 33 209 97 33 209 97 33 209 97 33 209 97 33 209 97 33 209 97 33 209 97 33 209 97 33 209 97 33 209 97 33 209 97 33 209 97 33 209 97 33 209 97 33 209 97 33 209 97 33 209 97 33 209 97 33 209 97 33 209 97 33 209 97 33 209 97 33 209 97 33 209 97 33 209 97 33 209 97 33 209 97 33 209 97 33 209 97 33 209 97 33 209 97 33 209 97 33 209 97 33 209 97 33 209 97 33 209 97 33 209 97 33 209 97 33 209 97 33 209 97 33 209 97 33 209 97 33 209 97 33 209 97 33 209 97 33 209 97 33 209 97 33 209 97 33 209 97 33 209 97 33 209 97 33 209 97 33 209 97 33 209 97 33 209 97 33 209 97 33 209 97 33 209 97 33 209 97 33 209 97 33 209 97 33 209 97 33 209 97 33 209 97 33 209 97 33 209 97 33 209 97 33 209 97 33 209 97 33 209 97 33 209 97 33 209 97 33 209 97 33 209 97 33 209 97 33 209 97 33 209 97 33 209 97 33 209 97 33 209 97 33 209 97 33 209 97 33 209 97 33 209 97 33 209 97 33 209 97 33 209 97 33 209 97 33 209 97 33 209 97 33 209 97 33 209 97 33 209 97 33 209 97 33 209 255 120 40 97 33 209 97 33 209 97 33 209 97 33 209 97 33 209 97 33 209 97 33 209 97 33 209 97 33 209 97 33 209 97 33 209 97 33 209 97 33 209 97 33 209 97 33 209 97 33 209 97 33 209 97 33 209 97 33 209 97 33 209 97 33 209 97 33 209 97 33 209 97 33 209 97 33 209 97 33 209 97 33 209 97 33 209 97 33 209 97 33 209 97 33 209 97 33 209 97 33 209 97 33 209 97 33 209 97 33 209 97 33 209 97 33 209 97 33 209 97 33 209 97 33 209 97 33 209 97 33 209 97 33 209 97 33 209 97 33 209 97 33 209 97 33 209 97 33 209 97 33 209 97 33 209 97 33 209 97 33 209 97 33 209 97 33 209 97 33 209 97 33 209 97 33 209 97 33 209 97 33 209 97 33 209 97 33 209 97 33 209 97 33 209 97 33 209 97 33 209 97 33 209 97 33 209 97 33 209 97 33 209 97 33 209 97 33 209 97 33 209 97 33 209 97 33 209 97 33 209 97 33 209 97 33 209 97 33 209 97 33 209 97 33 209 97 33 209 97 33 209 97 33 209 97 33 209 97 33 209 97 33 209 97 33 209 97 33 209 97 33 209 97 33 209 97 33 209 97 33 209 97 33 209 97 33 209 97 33 209 97 33 209 97 33 209 97 33 209 97 33 209 97 33 209 97 33 209 97 33 209 97 33 209 97 33 209 97 33 209 97 33 209 97 33 209 97 33 209 97 33 209 97 33 209 97 33 209 97 33 209 97 33 209 97 33 209 97 33 209 97 33 209 97 33 209 97 33 209 97 33 209 97 33 209 97 33 209 97 33 209 97 33 209 97 33 209 97 33 209 97 33 209 97 33 209 97 33 209 97 33 209 97 33 209 97 33 209 97 33 209 97 33 209 97 33 209 97 33 209 97 33 209 97 33 209 97 33 209 97 33 209 97 33 209 97 33 209 97 33 209 97 33 209 97 33 209 97 33 209 97 33 209 97 33 209 97 33 209 97 33 209 97 33 209 97 33 209 97 33 209 97 33 209 97 33 209 97 33 209 97 33 209 97 33 209 97 33 209 97 33 209 97 33 209 97 33 209 97 33 209 97 33 209 97 33 209 97 33 209 97 33 209 97 33 209 97 33 209 97 33 209 97 33 209 97 33 209 97 33 209 97 33 209 97 33 209 97 33 209 97 33 209 97 33 209 97 33 209 255 255 255 255 255 255 97 33 209 97 33 209 97 33 209 97 33 209 97 33 209 97 33 209 97 33 209 97 33 209 97 33 209 97 33 209 
98 32 209 98 32 209 98 32 209 98 32 209 98 32 209 98 32 209 98 32 209 98 32 209 98 32 209 98 32 209 98 32 209 98 32 209 98 32 209 98 32 209 98 32 209 98 32 209 98 32 209 98 32 209 98 32 209 98 32 209 98 32 209 98 32 209 98 32 209 98 32 209 98 32 209 98 32 209 98 32 209 98 32 209 98 32 209 98 32 209 98 32 209 98 32 209 98 32 209 98 32 209 98 32 209 98 32 209 98 32 209 98 32 209 98 32 209 98 32 209 98 32 209 98 32 209 98 32 209 98 32 209 98 32 209 98 32 209 98 32 209 98 32 209 98 32 209 98 32 209 98 32 209 98 32 209 98 32 209 98 32 209 98 32 209 98 32 209 98 32 209 98 32 209 98 32 209 98 32 209 98 32 209 98 32 209 98 32 209 98 32 209 98 32 209 98 32 209 98 32 209 98 32 209 98 32 209 98 32 209 98 32 209 98 32 209 98 32 209 98 32 209 98 32 209 98 32 209 98 32 209 98 32 209 98 32 209 98 32 209 98 32 209 98 32 209 98 32 209 98 32 209 98 32 209 98 32 209 98 32 209 98 32 209 98 32 209 98 32 209 98 32 209 98 32 209 98 32 209 98 32 209 98 32 209 98 32 209 98 32 209 98 32 209 98 32 209 98 32 209 98 32 209 98 32 209 98 32 209 98 32 209 98 32 209 98 32 209 98 32 209 98 32 209 98 32 209 98 32 209 98 32 209 98 32 209 98 32 209 98 32 209 98 32 209 98 32 209 98 32 209 98 32 209 98 32 209 98 32 209 98 32 209 98 32 209 98 32 209 98 32 209 98 32 209 98 32 209 98 32 209 98 32 209 98 32 209 98 32 209 98 32 209 98 32 209 98 32 209 98 32 209 98 32 209 98 32 209 98 32 209 98 32 209 98 32 209 98 32 209 98 32 209 98 32 209 98 32 209 98 32 209 98 32 209 98 32 209 98 32 209 98 32 209 98 32 209 98 32 209 98 32 209 98 32 209 98 32 209 98 32 209 98 32 209 98 32 209 98 32 209 98 32 209 98 32 209 98 32 209 98 32 209 98 32 209 98 32 209 98 32 209 98 32 209 98 32 209 98 32 209 98 32 209 98 32 209 98 32 209 98 32 209 98 32 209 98 32 209 98 32 209 98 32 209 98 32 209 98 32 209 98 32 209 98 32 209 98 32 209 98 32 209 98 32 209 98 32 209 98 32 209 98 32 209 98 32 209 98 32 209 98 32 209 98 32 209 98 32 209 98 32 209 98 32 209 255 120 40 98 32 209 98 32 209 98 32 209 98 32 209 98 32 209 98 32 209 98 32 209 98 32 209 98 32 209 98 32 209 98 32 209 98 32 209 98 32 209 98 32 209 98 32 209 98 32 209 98 32 209 98 32 209 98 32 209 98 32 209 98 32 209 98 32 209 98 32 209 98 32 209 98 32 209 98 32 209 98 32 209 98 32 209 98 32 209 98 32 209 98 32 209 98 32 209 98 32 209 98 32 209 98 32 209 98 32 209 98 32 209 98 32 209 98 32 209 98 32 209 98 32 209 98 32 209 98 32 209 98 32 209 98 32 209 98 32 209 98 32 209 98 32 209 98 32 209 98 32 209 98 32 209 98 32 209 98 32 209 98 32 209 98 32 209 98 32 209 98 32 209 98 32 209 98 32 209 98 32 209 98 32 209 98 32 209 98 32 209 98 32 209 98 32 209 98 32 209 98 32 209 98 32 209 98 32 209 98 32 209 98 32 209 98 32 209 98 32 209 98 32 209 98 32 209 98 32 209 98 32 209 98 32 209 98 32 209 98 32 209 98 32 209 98 32 209 98 32 209 98 32 209 98 32 209 98 32 209 98 32 209 98 32 209 98 32 209 98 32 209 98 32 209 98 32 209 98 32 209 98 32 209 98 32 209 98 32 209 98 32 209 98 32 209 98 32 209 98 32 209 98 32 209 98 32 209 98 32 209 98 32 209 98 32 209 98 32 209 98 32 209 98 32 209 98 32 209 98 32 209 98 32 209 98 32 209 98 32 209 98 32 209 98 32 209 98 32 209 98 32 209 98 32 209 98 32 209 98 32 209 98 32 209 98 32 209 98 32 209 98 32 209 98 32 209 98 32 209 98 32 209 98 32 209 98 32 209 98 32 209 98 32 209 98 32 209 98 32 209 98 32 209 98 32 209 98 32 209 98 32 209 98 32 209 98 32 209 98 32 209 98 32 209 98 32 209 98 32 209 98 32 209 98 32 209 98 32 209 98 32 209 98 32 209 98 32 209 98 32 209 98 32 209 98 32 209 98 32 209 98 32 209 98 32 209 98 32 209 98 32 209 98 32 209 98 32 209 98 32 209 98 32 209 98 32 209 98 32 209 98 32 209 98 32 209 98 32 209 98 32 209 98 32 209 98 32 209 98 32 209 98 32 209 98 32 209 98 32 209 98 32 209 98 32 209 98 32 209 98 32 209 98 32 209 98 32 209 98 32 209 98 32 209 255 255 255 255 255 255 98 32 209 98 32 209 98 32 209 98 32 209 98 32 209 98 32 209 98 32 209 98 32 209 
98 32 209 98 32 209 98 32 209 98 32 209 98 32 209 98 32 209 98 32 209 98 32 209 98 32 209 98 32 209 98 32 209 98 32 209 98 32 209 98 32 209 98 32 209 98 32 209 98 32 209 98 32 209 98 32 209 98 32 209 98 32 209 98 32 209 98 32 209 98 32 209 98 32 209 98 32 209 98 32 209 98 32 209 98 32 209 98 32 209 98 32 209 98 32 209 98 32 209 98 32 209 98 32 209 98 32 209 98 32 209 98 32 209 98 32 209 98 32 209 98 32 209 98 32 209 98 32 209 98 32 209 98 32 209 98 32 209 98 32 209 98 32 209 98 32 209 98 32 209 98 32 209 98 32 209 98 32 209 98 32 209 98 32 209 98 32 209 98 32 209 98 32 209 98 32 209 98 32 209 98 32 209 98 32 209 98 32 209 98 32 209 98 32 209 98 32 209 98 32 209 98 32 209 98 32 209 98 32 209 98 32 209 98 32 209 98 32 209 98 32 209 98 32 209 98 32 209 98 32 209 98 32 209 98 32 209 98 32 209 98 32 209 98 32 209 98 32 209 98 32 209 98 32 209 98 32 209 98 32 209 98 32 209 98 32 209 98 32 209 98 32 209 98 32 209 98 32 209 98 32 209 98 32 209 98 32 209 98 32 209 98 32 209 98 32 209 98 32 209 98 32 209 98 32 209 98 32 209 98 32 209 98 32 209 98 32 209 98 32 209 98 32 209 98 32 209 98 32 209 98 32 209 98 32 209 98 32 209 98 32 209 98 32 209 98 32 209 98 32 209 98 32 209 98 32 209 98 32 209 98 32 209 98 32 209 98 32 209 98 32 209 98 32 209 98 32 209 98 32 209 98 32 209 98 32 209 98 32 209 98 32 209 98 32 209 98 32 209 98 32 209 98 32 209 98 32 209 98 32 209 98 32 209 98 32 209 98 32 209 98 32 209 98 32 209 98 32 209 98 32 209 98 32 209 98 32 209 98 32 209 98 32 209 98 32 209 98 32 209 98 32 209 98 32 209 98 32 209 98 32 209 98 32 209 98 32 209 98 32 209 98 32 209 98 32 209 98 32 209 98 32 209 98 32 209 98 32 209 98 32 209 98 32 209 98 32 209 98 32 209 98 32 209 98 32 209 98 32 209 98 32 209 98 32 209 98 32 209 98 32 209 98 32 209 98 32 209 98 32 209 98 32 209 98 32 209 98 32 209 98 32 209 98 32 209 98 32 209 98 32 209 98 32 209 98 32 209 98 32 209 98 32 209 98 32 209 98 32 209 98 32 209 98 32 209 255 120 40 98 32 209 98 32 209 98 32 209 98 32 209 98 32 209 98 32 209 98 32 209 98 32 209 98 32 209 98 32 209 98 32 209 98 32 209 98 32 209 98 32 209 98 32 209 98 32 209 98 32 209 98 32 209 98 32 209 98 32 209 98 32 209 98 32 209 98 32 209 98 32 209 98 32 209 98 32 209 98 32 209 98 32 209 98 32 209 98 32 209 98 32 209 98 32 209 98 32 209 98 32 209 98 32 209 98 32 209 98 32 209 98 32 209 98 32 209 98 32 209 98 32 209 98 32 209 98 32 209 98 32 209 98 32 209 98 32 209 98 32 209 98 32 209 98 32 209 98 32 209 98 32 209 98 32 209 98 32 209 98 32 209 98 32 209 98 32 209 98 32 209 98 32 209 98 32 209 98 32 209 98 32 209 98 32 209 98 32 209 98 32 209 98 32 209 98 32 209 98 32 209 98 32 209 98 32 209 98 32 209 98 32 209 98 32 209 98 32 209 98 32 209 98 32 209 98 32 209 98 32 209 98 32 209 98 32 209 98 32 209 98 32 209 98 32 209 98 32 209 98 32 209 98 32 209 98 32 209 98 32 209 98 32 209 98 32 209 98 32 209 98 32 209 98 32 209 98 32 209 98 32 209 98 32 209 98 32 209 98 32 209 98 32 209 98 32 209 98 32 209 98 32 209 98 32 209 98 32 209 98 32 209 98 32 209 98 32 209 98 32 209 98 32 209 98 32 209 98 32 209 98 32 209 98 32 209 98 32 209 98 32 209 98 32 209 98 32 209 98 32 209 98 32 209 98 32 209 98 32 209 98 32 209 98 32 209 98 32 209 98 32 209 98 32 209 98 32 209 98 32 209 98 32 209 98 32 209 98 32 209 98 32 209 98 32 209 98 32 209 98 32 209 98 32 209 98 32 209 98 32 209 98 32 209 98 32 209 98 32 209 98 32 209 98 32 209 98 32 209 98 32 209 98 32 209 98 32 209 98 32 209 98 32 209 98 32 209 98 32 209 98 32 209 98 32 209 98 32 209 98 32 209 98 32 209 98 32 209 98 32 209 98 32 209 98 32 209 98 32 209 98 32 209 98 32 209 98 32 209 98 32 209 98 32 209 98 32 209 98 32 209 98 32 209 98 32 209 98 32 209 98 32 209 98 32 209 98 32 209 98 32 209 98 32 209 98 32 209 98 32 209 98 32 209 98 32 209 98 32 209 98 32 209 98 32 209 98 32 209 255 255 255 98 32 209 98 32 209 98 32 209 98 32 209 98 32 209 98 32 209 98 32 209 
98 31 209 98 31 209 98 31 209 98 31 209 98 31 209 98 31 209 98 31 209 98 31 209 98 31 209 98 31 209 98 31 209 98 31 209 98 31 209 98 31 209 98 31 209 98 31 209 98 31 209 98 31 209 98 31 209 98 31 209 98 31 209 98 31 209 98 31 209 98 31 209 98 31 209 98 31 209 98 31 209 98 31 209 98 31 209 98 31 209 98 31 209 98 31 209 98 31 209 98 31 209 98 31 209 98 31 209 98 31 209 98 31 209 98 31 209 98 31 209 98 31 209 98 31 209 98 31 209 98 31 209 98 31 209 98 31 209 98 31 209 98 31 209 98 31 209 98 31 209 98 31 209 98 31 209 98 31 209 98 31 209 98 31 209 98 31 209 98 31 209 98 31 209 98 31 209 98 31 209 98 31 209 98 31 209 98 31 209 98 31 209 98 31 209 98 31 209 98 31 209 98 31 209 98 31 209 98 31 209 98 31 209 98 31 209 98 31 209 98 31 209 98 31 209 98 31 209 98 31 209 98 31 209 98 31 209 98 31 209 98 31 209 98 31 209 98 31 209 98 31 209 98 31 209 98 31 209 98 31 209 98 31 209 98 31 209 98 31 209 98 31 209 98 31 209 98 31 209 98 31 209 98 31 209 98 31 209 98 31 209 98 31 209 98 31 209 98 31 209 98 31 209 98 31 209 98 31 209 98 31 209 98 31 209 98 31 209 98 31 209 98 31 209 98 31 209 98 31 209 98 31 209 98 31 209 98 31 209 98 31 209 98 31 209 98 31 209 98 31 209 98 31 209 98 31 209 98 31 209 98 31 209 98 31 209 98 31 209 98 31 209 98 31 209 98 31 209 98 31 209 98 31 209 98 31 209 98 31 209 98 31 209 98 31 209 98 31 209 98 31 209 98 31 209 98 31 209 98 31 209 98 31 209 98 31 209 98 31 209 98 31 209 98 31 209 98 31 209 98 31 209 98 31 209 98 31 209 98 31 209 98 31 209 98 31 209 98 31 209 98 31 209 98 31 209 98 31 209 98 31 209 98 31 209 98 31 209 98 31 209 98 31 209 98 31 209 98 31 209 98 31 209 98 31 209 98 31 209 98 31 209 98 31 209 98 31 209 98 31 209 98 31 209 98 31 209 98 31 209 98 31 209 98 31 209 98 31 209 98 31 209 98 31 209 98 31 209 98 31 209 98 31 209 98 31 209 98 31 209 98 31 209 98 31 209 98 31 209 98 31 209 98 31 209 98 31 209 98 31 209 98 31 209 98 31 209 98 31 209 98 31 209 98 31 209 255 120 40 98 31 209 98 31 209 98 31 209 98 31 209 98 31 209 98 31 209 98 31 209 98 31 209 98 31 209 98 31 209 98 31 209 98 31 209 98 31 209 98 31 209 98 31 209 98 31 209 98 31 209 98 31 209 98 31 209 98 31 209 98 31 209 98 31 209 98 31 209 98 31 209 98 31 209 98 31 209 98 31 209 98 31 209 98 31 209 98 31 209 98 31 209 98 31 209 98 31 209 98 31 209 98 31 209 98 31 209 98 31 209 98 31 209 98 31 209 98 31 209 98 31 209 98 31 209 98 31 209 98 31 209 98 31 209 98 31 209 98 31 209 98 31 209 98 31 209 98 31 209 98 31 209 98 31 209 98 31 209 98 31 209 98 31 209 98 31 209 98 31 209 98 31 209 98 31 209 98 31 209 98 31 209 98 31 209 98 31 209 98 31 209 98 31 209 98 31 209 98 31 209 98 31 209 98 31 209 98 31 209 98 31 209 98 31 209 98 31 209 98 31 209 98 31 209 98 31 209 98 31 209 98 31 209 98 31 209 98 31 209 98 31 209 98 31 209 98 31 209 98 31 209 98 31 209 98 31 209 98 31 209 98 31 209 98 31 209 98 31 209 98 31 209 98 31 209 98 31 209 98 31 209 98 31 209 98 31 209 98 31 209 98 31 209 98 31 209 98 31 209 98 31 209 98 31 209 98 31 209 98 31 209 98 31 209 98 31 209 98 31 209 98 31 209 98 31 209 98 31 209 98 31 209 98 31 209 98 31 209 98 31 209 98 31 209 98 31 209 98 31 209 98 31 209 98 31 209 98 31 209 98 31 209 98 31 209 98 31 209 98 31 209 98 31 209 98 31 209 98 31 209 98 31 209 98 31 209 98 31 209 98 31 209 98 31 209 98 31 209 98 31 209 98 31 209 98 31 209 98 31 209 98 31 209 98 31 209 98 31 209 98 31 209 98 31 209 98 31 209 98 31 209 98 31 209 98 31 209 98 31 209 98 31 209 98 31 209 98 31 209 98 31 209 98 31 209 98 31 209 98 31 209 98 31 209 98 31 209 98 31 209 98 31 209 98 31 209 98 31 209 98 31 209 98 31 209 98 31 209 98 31 209 98 31 209 98 31 209 98 31 209 98 31 209 98 31 209 98 31 209 98 31 209 98 31 209 98 31 209 98 31 209 98 31 209 98 31 209 98 31 209 98 31 209 98 31 209 98 31 209 98 31 209 98 31 209 98 31 209 98 31 209 255 255 255 255 255 255 98 31 209 98 31 209 98 31 209 98 31 209 98 31 209 
99 31 209 99 31 209 99 31 209 99 31 209 99 31 209 99 31 209 99 31 209 99 31 209 99 31 209 99 31 209 99 31 209 99 31 209 99 31 209 99 31 209 99 31 209 99 31 209 99 31 209 99 31 209 99 31 209 99 31 209 99 31 209 99 31 209 99 31 209 99 31 209 99 31 209 99 31 209 99 31 209 99 31 209 99 31 209 99 31 209 99 31 209 99 31 209 99 31 209 99 31 209 99 31 209 99 31 209 99 31 209 99 31 209 99 31 209 99 31 209 99 31 209 99 31 209 99 31 209 99 31 209 99 31 209 99 31 209 99 31 209 99 31 209 99 31 209 99 31 209 99 31 209 99 31 209 99 31 209 99 31 209 99 31 209 99 31 209 99 31 209 99 31 209 99 31 209 99 31 209 99 31 209 99 31 209 99 31 209 99 31 209 99 31 209 99 31 209 99 31 209 99 31 209 99 31 209 99 31 209 99 31 209 99 31 209 99 31 209 99 31 209 99 31 209 99 31 209 99 31 209 99 31 209 99 31 209 99 31 209 99 31 209 99 31 209 99 31 209 99 31 209 99 31 209 99 31 209 99 31 209 99 31 209 99 31 209 99 31 209 99 31 209 99 31 209 99 31 209 99 31 209 99 31 209 99 31 209 99 31 209 99 31 209 99 31 209 99 31 209 99 31 209 99 31 209 99 31 209 99 31 209 99 31 209 99 31 209 99 31 209 99 31 209 99 31 209 99 31 209 99 31 209 99 31 209 99 31 209 99 31 209 99 31 209 99 31 209 99 31 209 99 31 209 99 31 209 99 31 209 99 31 209 99 31 209 99 31 209 99 31 209 99 31 209 99 31 209 99 31 209 99 31 209 99 31 209 99 31 209 99 31 209 99 31 209 99 31 209 99 31 209 99 31 209 99 31 209 99 31 209 99 31 209 99 31 209 99 31 209 99 31 209 99 31 209 99 31 209 99 31 209 99 31 209 99 31 209 99 31 209 99 31 209 99 31 209 99 31 209 99 31 209 99 31 209 99 31 209 99 31 209 99 31 209 99 31 209 99 31 209 99 31 209 99 31 209 99 31 209 99 31 209 99 31 209 99 31 209 99 31 209 99 31 209 99 31 209 99 31 209 99 31 209 99 31 209 99 31 209 99 31 209 99 31 209 99 31 209 99 31 209 99 31 209 99 31 209 99 31 209 99 31 209 99 31 209 99 31 209 99 31 209 99 31 209 99 31 209 99 31 209 99 31 209 99 31 209 99 31 209 99 31 209 99 31 209 99 31 209 99 31 209 99 31 209 255 120 40 99 31 209 99 31 209 99 31 209 99 31 209 99 31 209 99 31 209 99 31 209 99 31 209 99 31 209 99 31 209 99 31 209 99 31 209 99 31 209 99 31 209 99 31 209 99 31 209 99 31 209 99 31 209 99 31 209 99 31 209 99 31 209 99 31 209 99 31 209 99 31 209 99 31 209 99 31 209 99 31 209 99 31 209 99 31 209 99 31 209 99 31 209 99 31 209 99 31 209 99 31 209 99 31 209 99 31 209 99 31 209 99 31 209 99 31 209 99 31 209 99 31 209 99 31 209 99 31 209 99 31 209 99 31 209 99 31 209 99 31 209 99 31 209 99 31 209 99 31 209 99 31 209 99 31 209 99 31 209 99 31 209 99 31 209 99 31 209 99 31 209 99 31 209 99 31 209 99 31 209 99 31 209 99 31 209 99 31 209 99 31 209 99 31 209 99 31 209 99 31 209 99 31 209 99 31 209 99 31 209 99 31 209 99 31 209 99 31 209 99 31 209 99 31 209 99 31 209 99 31 209 99 31 209 99 31 209 99 31 209 99 31 209 99 31 209 99 31 209 99 31 209 99 31 209 99 31 209 99 31 209 99 31 209 99 31 209 99 31 209 99 31 209 99 31 209 99 31 209 99 31 209 99 31 209 99 31 209 99 31 209 99 31 209 99 31 209 99 31 209 99 31 209 99 31 209 99 31 209 99 31 209 99 31 209 99 31 209 99 31 209 99 31 209 99 31 209 99 31 209 99 31 209 99 31 209 99 31 209 99 31 209 99 31 209 99 31 209 99 31 209 99 31 209 99 31 209 99 31 209 99 31 209 99 31 209 99 31 209 99 31 209 99 31 209 99 31 209 99 31 209 99 31 209 99 31 209 99 31 209 99 31 209 99 31 209 99 31 209 99 31 209 99 31 209 99 31 209 99 31 209 99 31 209 99 31 209 99 31 209 99 31 209 99 31 209 99 31 209 99 31 209 99 31 209 99 31 209 99 31 209 99 31 209 99 31 209 99 31 209 99 31 209 99 31 209 99 31 209 99 31 209 99 31 209 99 31 209 99 31 209 99 31 209 99 31 209 99 31 209 99 31 209 99 31 209 99 31 209 99 31 209 99 31 209 99 31 209 99 31 209 99 31 209 99 31 209 99 31 209 99 31 209 99 31 209 99 31 209 99 31 209 99 31 209 99 31 209 99 31 209 99 31 209 99 31 209 99 31 209 99 31 209 99 31 209 99 31 209 99 31 209 99 31 209 99 31 209 255 255 255 255 255 255 99 31 209 99 31 209 99 31 209 
99 30 209 99 30 209 99 30 209 99 30 209 99 30 209 99 30 209 99 30 209 99 30 209 99 30 209 99 30 209 99 30 209 99 30 209 99 30 209 99 30 209 99 30 209 99 30 209 99 30 209 99 30 209 99 30 209 99 30 209 99 30 209 99 30 209 99 30 209 99 30 209 99 30 209 99 30 209 99 30 209 99 30 209 99 30 209 99 30 209 99 30 209 99 30 209 99 30 209 99 30 209 99 30 209 99 30 209 99 30 209 99 30 209 99 30 209 99 30 209 99 30 209 99 30 209 99 30 209 99 30 209 99 30 209 99 30 209 99 30 209 99 30 209 99 30 209 99 30 209 99 30 209 99 30 209 99 30 209 99 30 209 99 30 209 99 30 209 99 30 209 99 30 209 99 30 209 99 30 209 99 30 209 99 30 209 99 30 209 99 30 209 99 30 209 99 30 209 99 30 209 99 30 209 99 30 209 99 30 209 99 30 209 99 30 209 99 30 209 99 30 209 99 30 209 99 30 209 99 30 209 99 30 209 99 30 209 99 30 209 99 30 209 99 30 209 99 30 209 99 30 209 99 30 209 99 30 209 99 30 209 99 30 209 99 30 209 99 30 209 99 30 209 99 30 209 99 30 209 99 30 209 99 30 209 99 30 209 99 30 209 99 30 209 99 30 209 99 30 209 99 30 209 99 30 209 99 30 209 99 30 209 99 30 209 99 30 209 99 30 209 99 30 209 99 30 209 99 30 209 99 30 209 99 30 209 99 30 209 99 30 209 99 30 209 99 30 209 99 30 209 99 30 209 99 30 209 99 30 209 99 30 209 99 30 209 99 30 209 99 30 209 99 30 209 99 30 209 99 30 209 99 30 209 99 30 209 99 30 209 99 30 209 99 30 209 99 30 209 99 30 209 99 30 209 99 30 209 99 30 209 99 30 209 99 30 209 99 30 209 99 30 209 99 30 209 99 30 209 99 30 209 99 30 209 99 30 209 99 30 209 99 30 209 99 30 209 99 30 209 99 30 209 99 30 209 99 30 209 99 30 209 99 30 209 99 30 209 99 30 209 99 30 209 99 30 209 99 30 209 99 30 209 99 30 209 99 30 209 99 30 209 99 30 209 99 30 209 99 30 209 99 30 209 99 30 209 99 30 209 99 30 209 99 30 209 99 30 209 99 30 209 99 30 209 99 30 209 99 30 209 99 30 209 99 30 209 99 30 209 99 30 209 99 30 209 99 30 209 99 30 209 99 30 209 99 30 209 99 30 209 99 30 209 99 30 209 99 30 209 99 30 209 99 30 209 255 120 40 99 30 209 99 30 209 99 30 209 99 30 209 99 30 209 99 30 209 99 30 209 99 30 209 99 30 209 99 30 209 99 30 209 99 30 209 99 30 209 99 30 209 99 30 209 99 30 209 99 30 209 99 30 209 99 30 209 99 30 209 99 30 209 99 30 209 99 30 209 99 30 209 99 30 209 99 30 209 99 30 209 99 30 209 99 30 209 99 30 209 99 30 209 99 30 209 99 30 209 99 30 209 99 30 209 99 30 209 99 30 209 99 30 209 99 30 209 99 30 209 99 30 209 99 30 209 99 30 209 99 30 209 99 30 209 99 30 209 99 30 209 99 30 209 99 30 209 99 30 209 99 30 209 99 30 209 99 30 209 99 30 209 99 30 209 99 30 209 99 30 209 99 30 209 99 30 209 99 30 209 99 30 209 99 30 209 99 30 209 99 30 209 99 30 209 99 30 209 99 30 209 99 30 209 99 30 209 99 30 209 99 30 209 99 30 209 99 30 209 99 30 209 99 30 209 99 30 209 99 30 209 99 30 209 99 30 209 99 30 209 99 30 209 99 30 209 99 30 209 99 30 209 99 30 209 99 30 209 99 30 209 99 30 209 99 30 209 99 30 209 99 30 209 99 30 209 99 30 209 99 30 209 99 30 209 99 30 209 99 30 209 99 30 209 99 30 209 99 30 209 99 30 209 99 30 209 99 30 209 99 30 209 99 30 209 99 30 209 99 30 209 99 30 209 99 30 209 99 30 209 99 30 209 99 30 209 99 30 209 99 30 209 99 30 209 99 30 209 99 30 209 99 30 209 99 30 209 99 30 209 99 30 209 99 30 209 99 30 209 99 30 209 99 30 209 99 30 209 99 30 209 99 30 209 99 30 209 99 30 209 99 30 209 99 30 209 99 30 209 99 30 209 99 30 209 99 30 209 99 30 209 99 30 209 99 30 209 99 30 209 99 30 209 99 30 209 99 30 209 99 30 209 99 30 209 99 30 209 99 30 209 99 30 209 99 30 209 99 30 209 99 30 209 99 30 209 99 30 209 99 30 209 99 30 209 99 30 209 99 30 209 99 30 209 99 30 209 99 30 209 99 30 209 99 30 209 99 30 209 99 30 209 99 30 209 99 30 209 99 30 209 99 30 209 99 30 209 99 30 209 99 30 209 99 30 209 99 30 209 99 30 209 99 30 209 99 30 209 99 30 209 99 30 209 99 30 209 99 30 209 99 30 209 99 30 209 99 30 209 99 30 209 99 30 209 99 30 209 99 30 209 99 30 209 255 255 255 255 255 255 99 30 209 
100 30 210 100 30 210 100 30 210 100 30 210 100 30 210 100 30 210 100 30 210 100 30 210 100 30 210 100 30 210 100 30 210 100 30 210 100 30 210 100 30 210 100 30 210 100 30 210 100 30 210 100 30 210 100 30 210 100 30 210 100 30 210 100 30 210 100 30 210 100 30 210 100 30 210 100 30 210 100 30 210 100 30 210 100 30 210 100 30 210 100 30 210 100 30 210 100 30 210 100 30 210 100 30 210 100 30 210 100 30 210 100 30 210 100 30 210 100 30 210 100 30 210 100 30 210 100 30 210 100 30 210 100 30 210 100 30 210 100 30 210 100 30 210 100 30 210 100 30 210 100 30 210 100 30 210 100 30 210 100 30 210 100 30 210 100 30 210 100 30 210 100 30 210 100 30 210 100 30 210 100 30 210 100 30 210 100 30 210 100 30 210 100 30 210 100 30 210 100 30 210 100 30 210 100 30 210 100 30 210 100 30 210 100 30 210 100 30 210 100 30 210 100 30 210 100 30 210 100 30 210 100 30 210 100 30 210 100 30 210 100 30 210 100 30 210 100 30 210 100 30 210 100 30 210 100 30 210 100 30 210 100 30 210 100 30 210 100 30 210 100 30 210 100 30 210 100 30 210 100 30 210 100 30 210 100 30 210 100 30 210 100 30 210 100 30 210 100 30 210 100 30 210 100 30 210 100 30 210 100 30 210 100 30 210 100 30 210 100 30 210 100 30 210 100 30 210 100 30 210 100 30 210 100 30 210 100 30 210 100 30 210 100 30 210 100 30 210 100 30 210 100 30 210 100 30 210 100 30 210 100 30 210 100 30 210 100 30 210 100 30 210 100 30 210 100 30 210 100 30 210 100 30 210 100 30 210 100 30 210 100 30 210 100 30 210 100 30 210 100 30 210 100 30 210 100 30 210 100 30 210 100 30 210 100 30 210 100 30 210 100 30 210 100 30 210 100 30 210 100 30 210 100 30 210 100 30 210 100 30 210 100 30 210 100 30 210 100 30 210 100 30 210 100 30 210 100 30 210 100 30 210 100 30 210 100 30 210 100 30 210 100 30 210 100 30 210 100 30 210 100 30 210 100 30 210 100 30 210 100 30 210 100 30 210 100 30 210 100 30 210 100 30 210 100 30 210 100 30 210 100 30 210 100 30 210 100 30 210 100 30 210 100 30 210 100 30 210 100 30 210 100 30 210 100 30 210 100 30 210 100 30 210 100 30 210 100 30 210 100 30 210 100 30 210 100 30 210 100 30 210 100 30 210 100 30 210 100 30 210 100 30 210 100 30 210 255 120 40 100 30 210 100 30 210 100 30 210 100 30 210 100 30 210 100 30 210 100 30 210 100 30 210 100 30 210 100 30 210 100 30 210 100 30 210 100 30 210 100 30 210 100 30 210 100 30 210 100 30 210 100 30 210 100 30 210 100 30 210 100 30 210 100 30 210 100 30 210 100 30 210 100 30 210 100 30 210 100 30 210 100 30 210 100 30 210 100 30 210 100 30 210 100 30 210 100 30 210 100 30 210 100 30 210 100 30 210 100 30 210 100 30 210 100 30 210 100 30 210 100 30 210 100 30 210 100 30 210 100 30 210 100 30 210 100 30 210 100 30 210 100 30 210 100 30 210 100 30 210 100 30 210 100 30 210 100 30 210 100 30 210 100 30 210 100 30 210 100 30 210 100 30 210 100 30 210 100 30 210 100 30 210 100 30 210 100 30 210 100 30 210 100 30 210 100 30 210 100 30 210 100 30 210 100 30 210 100 30 210 100 30 210 100 30 210 100 30 210 100 30 210 100 30 210 100 30 210 100 30 210 100 30 210 100 30 210 100 30 210 100 30 210 100 30 210 100 30 210 100 30 210 100 30 210 100 30 210 100 30 210 100 30 210 100 30 210 100 30 210 100 30 210 100 30 210 100 30 210 100 30 210 100 30 210 100 30 210 100 30 210 100 30 210 100 30 210 100 30 210 100 30 210 100 30 210 100 30 210 100 30 210 100 30 210 100 30 210 100 30 210 100 30 210 100 30 210 100 30 210 100 30 210 100 30 210 100 30 210 100 30 210 100 30 210 100 30 210 100 30 210 100 30 210 100 30 210 100 30 210 100 30 210 100 30 210 100 30 210 100 30 210 100 30 210 100 30 210 100 30 210 100 30 210 100 30 210 100 30 210 100 30 210 100 30 210 100 30 210 100 30 210 100 30 210 100 30 210 100 30 210 100 30 210 100 30 210 100 30 210 100 30 210 100 30 210 100 30 210 100 30 210 100 30 210 100 30 210 100 30 210 100 30 210 100 30 210 100 30 210 100 30 210 100 30 210 100 30 210 100 30 210 100 30 210 100 30 210 100 30 210 100 30 210 100 30 210 100 30 210 100 30 210 100 30 210 100 30 210 100 30 210 100 30 210 100 30 210 100 30 210 100 30 210 100 30 210 100 30 210 100 30 210 100 30 210 100 30 210 100 30 210 100 30 210 100 30 210 100 30 210 100 30 210 100 30 210 100 30 210 100 30 210 100 30 210 100 30 210 100 30 210 100 30 210 100 30 210 100 30 210 100 30 210 100 30 210 100 30 210 255 255 255 
