P3
160 120
255
78 49 159 77 50 153 76 50 147 76 51 141 77 52 134 78 52 128 80 53 121 82 54 115 85 55 109 89 56 103 93 56 97 97 57 92 102 58 87 107 59 82 112 60 78 117 60 75 123 61 72 128 62 69 132 63 68 137 64 67 141 65 66 145 65 66 148 66 67 151 67 69 154 68 71 155 69 74 157 69 78 157 70 82 157 71 87 157 71 92 156 72 98 155 73 104 153 73 110 151 74 117 148 74 124 146 75 131 143 76 138 140 76 145 137 76 153 134 77 160 130 77 167 127 78 174 125 78 180 122 78 186 120 79 192 117 79 197 116 79 202 114 80 206 113 80 210 112 80 213 111 80 216 111 80 218 111 81 219 112 81 219 113 81 219 114 81 218 115 82 216 117 82 214 119 82 211 121 83 208 123 83 204 125 84 199 128 84 194 130 85 189 133 86 183 136 86 177 138 87 171 141 88 164 144 89 157 146 90 151 149 92 144 151 93 137 153 95 131 156 96 124 158 98 118 160 100 113 161 102 107 163 104 102 165 106 98 166 108 94 167 111 91 169 113 88 170 116 86 171 119 84 171 121 83 172 124 83 173 127 83 173 130 85 174 133 86 174 136 89 174 139 92 174 142 95 174 145 99 174 147 104 174 150 109 174 153 114 174 155 120 173 157 126 173 160 133 172 162 139 172 163 146 171 165 152 170 166 159 170 167 165 169 168 172 168 169 178 167 169 184 166 169 189 165 169 194 163 168 199 162 167 203 161 166 207 159 165 210 157 163 212 156 161 214 154 159 215 152 156 216 150 154 215 148 151 214 146 147 213 143 144 211 141 141 208 138 137 204 136 133 200 133 129 196 130 125 190 127 121 185 125 117 179 122 113 172 119 109 166 116 104 159 113 100 152 110 96 144 107 92 137 104 89 130 102 85 122 99 81 115 97 78 109 94 75 102 92 72 96 90 69 90 88 66 85 87 64 80 86 62 75 85 60 71 84 59 68 83 57 66 83 56 64 83 55 63 84 55 62 84 55 62 86 55 63 87 55 64 88 56 66 90 56 69 92 57 72 95 59 76 97 60 81 100 62 85 103 64 91
78 50 164 77 51 158 76 51 152 77 52 146 78 53 140 79 54 133 81 54 127 84 55 120 88 56 114 92 57 108 96 58 102 101 59 96 106 60 91 111 61 86 116 62 82 121 62 78 126 63 74 131 64 72 136 65 70 141 66 68 144 67 67 148 68 67 151 69 67 154 70 69 155 70 70 157 71 73 158 72 76 158 73 80 158 74 84 157 74 89 155 75 94 154 76 100 152 76 106 149 77 113 146 77 120 143 78 127 140 78 134 137 79 141 134 79 148 131 80 156 128 80 163 125 80 170 122 81 176 120 81 183 118 81 189 116 82 195 114 82 200 113 82 204 112 82 209 112 82 212 112 83 215 112 83 217 113 83 219 114 83 220 115 83 220 117 83 220 119 83 219 121 84 217 123 84 214 125 84 211 128 84 208 131 85 204 134 85 199 136 86 194 139 86 188 142 87 182 145 88 176 148 88 170 150 89 163 153 90 156 156 91 150 158 93 143 160 94 136 162 95 130 165 97 124 166 99 118 168 101 112 170 103 107 171 105 102 173 107 98 174 109 94 175 112 91 176 114 88 176 117 86 177 120 85 178 123 84 178 126 84 179 129 85 179 132 86 179 135 88 179 138 90 179 141 93 179 143 97 179 146 101 179 149 106 179 152 111 178 154 117 178 157 123 178 159 129 177 161 135 177 163 142 176 165 148 175 166 155 175 168 161 174 169 168 173 169 174 172 170 180 171 170 186 170 170 191 169 169 196 167 169 201 166 168 205 165 166 208 163 165 211 162 163 213 160 161 215 158 158 216 156 155 216 154 153 216 152 149 214 150 146 213 147 143 210 145 139 207 142 135 204 139 131 199 137 127 194 134 123 189 131 119 183 128 115 177 125 110 171 122 106 164 119 102 157 116 98 150 113 94 142 110 90 135 107 86 128 104 83 121 101 79 114 98 76 107 96 73 100 93 70 94 91 68 89 89 65 83 87 63 79 86 61 74 85 59 71 84 58 68 83 57 65 83 56 63 83 56 62 83 55 62 84 55 62 85 55 63 86 56 65 88 57 67 89 58 70 91 59 73 94 60 77 96 62 82 99 64 87
77 51 169 77 52 163 77 53 157 77 53 151 79 54 145 81 55 138 83 56 132 87 57 126 90 58 119 95 59 113 99 60 107 104 61 101 109 62 95 115 63 90 120 64 86 125 65 81 130 66 78 135 67 74 140 68 72 144 69 70 147 70 69 151 71 68 153 72 68 155 72 69 157 73 70 158 74 72 158 75 75 158 76 78 157 77 82 156 77 86 154 78 91 152 79 97 150 79 103 147 80 109 144 81 116 141 81 123 138 82 130 134 82 137 131 83 144 128 83 151 125 83 159 123 84 166 120 84 173 118 84 179 116 84 186 115 85 192 114 85 197 113 85 202 113 85 207 113 85 211 113 85 214 114 85 217 115 85 219 116 85 220 118 85 221 120 85 221 123 85 220 125 86 219 128 86 217 131 86 215 134 86 211 137 86 208 140 86 203 143 87 199 146 87 193 149 88 188 152 88 182 155 89 175 157 90 169 160 90 162 162 91 156 165 92 149 167 94 142 169 95 135 171 96 129 173 98 123 174 100 117 176 102 111 177 104 106 178 106 102 179 108 97 180 111 94 181 113 91 182 116 88 182 118 86 183 121 85 183 124 85 183 127 85 183 130 86 183 133 87 183 136 89 183 139 92 183 142 95 183 145 99 183 148 103 182 151 108 182 154 113 182 156 119 181 159 125 181 161 131 180 163 138 180 165 144 179 167 151 178 168 157 178 169 164 177 170 170 176 171 176 175 171 182 174 171 188 173 171 193 172 170 198 171 169 202 170 168 206 168 166 209 167 164 212 165 162 214 163 160 216 162 157 216 160 155 216 158 151 216 156 148 214 153 145 212 151 141 210 148 137 207 146 133 203 143 129 198 140 125 193 137 121 188 134 117 182 131 112 176 128 108 169 125 104 162 122 100 155 118 96 148 115 92 141 112 88 133 109 84 126 106 81 119 103 77 112 100 74 105 97 71 99 94 69 93 92 66 87 90 64 82 88 62 77 86 60 73 85 59 70 84 58 67 83 57 65 83 56 63 82 56 62 83 56 62 83 56 63 84 56 64 85 57 66 87 58 68 89 59 71 91 60 75 93 62 79 95 64 83
77 52 173 77 53 168 77 54 162 78 55 156 80 56 150 82 57 144 85 58 137 89 59 131 93 60 124 98 61 118 103 62 112 108 63 106 113 64 100 118 65 95 124 66 90 129 67 85 134 69 81 139 70 77 143 71 74 147 72 72 150 73 70 153 74 69 155 75 69 157 76 69 158 77 70 159 77 71 158 78 74 158 79 76 157 80 80 155 81 84 153 81 89 150 82 94 148 83 99 145 83 105 142 84 112 138 85 119 135 85 125 132 86 133 129 86 140 126 86 147 123 87 154 121 87 162 118 87 169 117 88 176 115 88 182 114 88 188 113 88 194 113 88 200 113 88 205 114 88 209 115 88 213 116 88 216 118 88 218 120 88 220 122 88 222 124 88 222 127 88 222 130 88 221 133 88 220 136 88 218 139 88 215 143 88 211 146 88 208 149 88 203 152 88 198 155 89 193 158 89 187 161 90 181 164 90 175 167 91 168 169 92 161 171 93 155 173 94 148 175 95 141 177 96 135 179 98 128 180 99 122 181 101 116 182 103 111 183 105 106 184 107 101 185 109 97 185 112 94 186 114 91 186 117 89 187 120 87 187 123 86 187 126 86 187 129 86 187 132 87 187 135 88 186 138 91 186 141 93 186 144 97 186 147 101 185 150 105 185 153 110 184 156 116 184 158 121 184 161 127 183 163 134 183 165 140 182 167 147 181 168 153 181 170 160 180 171 166 179 171 172 179 172 179 178 172 184 177 172 190 176 171 195 175 170 200 174 169 204 172 168 208 171 166 211 170 164 213 168 162 215 167 159 216 165 156 217 163 153 217 161 150 216 159 147 214 157 143 212 154 139 209 152 135 206 149 131 202 146 127 197 144 123 192 141 118 187 137 114 181 134 110 174 131 106 167 128 101 161 124 97 153 121 93 146 118 89 139 114 86 131 111 82 124 108 79 117 104 76 110 101 73 104 98 70 97 96 67 91 93 65 86 91 63 81 89 61 76 87 60 72 85 58 69 84 57 66 83 57 64 82 56 63 82 56 62 82 56 62 83 57 63 83 57 64 85 58 66 86 59 69 88 61 72 90 62 76 92 64 80
77 54 177 77 55 172 78 56 167 79 57 161 82 58 155 84 59 149 88 60 143 92 61 136 96 62 130 101 63 123 106 65 117 111 66 111 117 67 105 122 68 99 127 69 94 133 70 89 137 71 85 142 73 81 146 74 77 150 75 74 153 76 72 155 77 71 157 78 70 158 79 69 159 80 70 159 81 71 158 82 73 157 83 75 156 84 78 154 84 82 151 85 86 149 86 91 146 87 96 142 87 102 139 88 108 136 88 115 133 89 121 129 89 128 126 90 136 124 90 143 121 91 150 119 91 157 117 91 165 116 91 172 115 91 178 114 92 185 114 92 191 114 92 197 115 92 202 116 92 207 117 92 211 119 91 215 121 91 218 124 91 220 126 91 222 129 91 223 132 91 223 135 90 223 139 90 222 142 90 220 146 90 218 149 90 215 152 90 211 156 90 207 159 90 203 162 90 198 165 90 192 168 91 186 171 91 180 173 91 174 175 92 167 177 93 160 179 94 154 181 95 147 183 96 140 184 97 134 185 99 127 186 100 121 187 102 116 188 104 110 188 106 105 189 108 101 189 111 97 189 113 94 189 116 91 189 119 89 189 122 87 189 125 87 189 128 86 189 131 87 189 134 88 188 137 90 188 140 92 188 143 95 187 146 99 187 150 103 187 152 107 186 155 112 186 158 118 185 161 124 185 163 130 184 165 136 184 167 142 183 169 149 183 170 156 182 171 162 182 172 169 181 173 175 180 173 181 179 173 187 179 172 192 178 172 197 177 171 202 176 169 206 175 168 209 173 166 212 172 163 214 171 161 216 169 158 217 168 155 217 166 152 217 164 148 216 162 145 214 160 141 212 157 137 209 155 133 205 152 129 201 149 125 196 147 120 191 144 116 185 140 112 179 137 107 173 134 103 166 130 99 159 127 95 152 124 91 144 120 87 137 116 83 130 113 80 122 110 77 115 106 74 109 103 71 102 100 68 96 97 66 90 94 64 85 92 62 80 89 60 75 87 59 72 85 58 68 84 57 66 83 57 64 82 57 63 82 57 62 82 57 62 82 58 63 83 59 65 84 60 67 85 61 70 87 63 73 89 64 77
77 55 181 78 56 176 79 58 171 81 59 166 83 60 160 86 61 154 90 62 148 95 64 141 99 65 135 104 66 129 110 67 122 115 69 116 120 70 110 126 71 104 131 72 98 136 73 93 141 75 89 145 76 84 149 77 80 152 78 77 155 79 75 157 80 73 158 82 71 159 83 70 159 84 70 159 85 71 158 86 72 157 87 74 155 87 77 152 88 80 150 89 84 147 90 88 143 91 93 140 91 99 137 92 105 133 93 111 130 93 117 127 94 124 124 94 131 122 94 139 119 95 146 118 95 153 116 95 161 115 95 168 114 95 175 114 96 181 115 96 188 115 96 194 116 95 199 118 95 205 120 95 209 122 95 213 125 95 217 128 95 220 131 94 222 134 94 223 138 94 224 141 93 224 145 93 224 148 93 223 152 93 221 156 92 218 159 92 215 162 92 211 166 92 207 169 92 202 171 92 197 174 92 192 177 92 186 179 92 179 181 93 173 183 93 166 185 94 160 186 95 153 187 96 146 188 97 139 189 98 133 190 100 127 191 101 121 191 103 115 191 105 110 192 107 105 192 110 101 192 112 97 192 115 94 191 117 91 191 120 89 191 123 88 191 126 87 190 129 87 190 133 88 189 136 89 189 139 91 189 142 94 188 146 97 188 149 101 187 152 105 187 155 109 186 158 115 186 160 120 185 163 126 185 165 132 185 167 138 184 169 145 184 170 151 183 172 158 183 173 164 182 173 171 182 174 177 181 174 183 180 173 189 180 173 194 179 172 199 178 171 203 177 169 207 176 167 210 175 165 213 174 163 215 173 160 217 171 157 217 170 154 218 168 150 217 166 147 216 164 143 214 162 139 211 160 135 208 158 131 204 155 126 200 152 122 195 149 118 190 146 113 184 143 109 178 140 105 171 137 100 164 133 96 157 129 92 150 126 88 142 122 85 135 119 81 128 115 78 121 111 75 114 108 72 107 104 69 100 101 67 94 98 65 88 95 63 83 92 61 78 90 60 74 88 59 71 86 58 68 84 57 65 83 57 64 82 57 63 82 57 62 81 58 63 82 59 64 82 60 65 83 61 68 85 63 71 87 64 74
77 57 184 78 58 180 80 60 175 82 61 170 85 62 165 89 64 159 93 65 153 97 66 147 102 68 140 108 69 134 113 70 128 118 72 121 124 73 115 129 74 109 134 76 103 139 77 98 144 78 93 148 79 88 151 81 84 154 82 80 157 83 77 158 84 75 159 85 73 160 87 72 159 88 71 159 89 71 157 90 72 156 91 74 153 92 76 151 92 79 148 93 82 144 94 86 141 95 91 138 96 96 134 96 101 131 97 107 128 97 114 125 98 120 122 98 127 120 99 134 118 99 142 117 99 149 116 99 156 115 100 164 115 100 171 115 100 178 116 100 184 117 100 191 119 100 196 121 99 202 123 99 207 126 99 211 129 99 215 133 98 219 136 98 221 140 98 223 143 97 225 147 97 225 151 96 225 155 96 225 158 95 223 162 95 221 165 95 218 169 94 215 172 94 211 175 94 207 177 94 202 180 94 197 182 94 191 184 94 185 186 94 179 188 94 172 189 95 165 190 95 159 191 96 152 192 97 145 193 98 139 193 100 132 193 101 126 193 103 120 194 105 114 193 107 109 193 109 105 193 111 101 193 114 97 192 116 94 192 119 91 191 122 90 191 125 88 190 128 88 190 132 88 189 135 89 189 138 90 188 141 93 188 145 95 187 148 99 187 151 102 186 154 107 186 157 112 186 160 117 185 162 122 185 165 128 184 167 135 184 169 141 184 171 147 183 172 154 183 173 160 182 174 167 182 175 173 182 175 179 181 175 185 181 174 191 180 173 196 180 172 201 179 171 205 178 169 208 177 167 212 176 164 214 175 162 216 174 159 217 173 156 218 172 152 218 170 149 217 168 145 216 166 141 214 164 137 211 162 132 207 160 128 203 157 124 199 155 119 194 152 115 188 149 111 182 146 106 176 142 102 169 139 98 162 135 94 155 132 90 148 128 86 141 124 82 133 121 79 126 117 76 119 113 73 112 109 70 105 106 68 99 102 65 93 99 63 87 96 62 82 93 60 77 90 59 73 88 58 70 86 58 67 84 58 65 83 58 63 82 58 63 81 58 62 81 59 63 81 60 64 82 62 66 83 63 68 84 65 72
78 59 188 79 61 184 81 62 179 84 63 175 87 65 169 91 66 164 95 68 158 100 69 152 105 71 146 111 72 139 116 73 133 122 75 126 127 76 120 133 78 114 138 79 108 142 80 102 147 82 97 150 83 92 154 84 88 156 86 84 158 87 80 159 88 77 160 89 75 160 91 73 159 92 72 158 93 72 156 94 72 154 95 74 152 96 75 149 97 78 146 98 81 142 99 84 139 99 88 135 100 93 132 101 98 129 101 104 126 102 110 123 102 117 121 103 123 119 103 130 117 104 138 116 104 145 116 104 152 115 104 159 116 104 167 117 104 174 118 104 181 120 104 187 122 104 193 124 104 199 127 104 204 131 103 209 134 103 214 138 102 217 141 102 220 145 101 223 149 101 225 153 100 226 157 100 226 161 99 226 165 99 225 168 98 224 172 98 222 175 97 219 178 97 215 181 96 211 183 96 207 185 96 202 187 95 196 189 95 190 191 95 184 192 96 178 193 96 171 194 96 165 194 97 158 195 98 151 195 99 144 195 100 138 195 101 131 195 102 125 195 104 119 194 106 114 194 108 109 193 110 104 193 113 100 192 115 97 192 118 94 191 121 92 190 124 90 190 127 89 189 130 89 188 134 89 188 137 90 187 140 92 187 144 94 186 147 97 186 150 100 185 154 104 185 157 109 184 159 114 184 162 119 183 165 125 183 167 131 183 169 137 183 171 143 182 173 150 182 174 156 182 175 163 182 175 169 181 176 175 181 176 181 181 175 187 180 175 193 180 173 198 180 172 202 179 170 206 178 168 210 178 166 213 177 163 215 176 160 217 175 157 218 174 154 218 173 150 218 171 146 217 170 142 215 168 138 213 166 134 210 164 130 207 162 125 203 160 121 198 157 117 193 154 112 187 151 108 181 148 103 174 145 99 168 141 95 161 138 91 153 134 87 146 130 84 139 126 80 131 122 77 124 118 74 117 115 71 110 111 69 103 107 66 97 103 64 91 100 63 86 97 61 81 94 60 76 91 59 72 88 58 69 86 58 66 84 58 64 83 58 63 82 59 62 81 60 63 81 61 63 81 62 65 82 63 67 83 65 69
79 62 191 80 63 187 83 65 183 86 66 179 89 68 174 94 69 169 98 71 163 103 72 157 109 74 151 114 75 145 120 77 138 125 78 132 131 80 125 136 81 119 141 83 113 145 84 107 149 86 102 153 87 96 156 88 92 158 90 87 159 91 84 160 92 80 160 94 78 160 95 75 159 96 74 157 97 73 155 98 73 153 99 74 150 100 75 147 101 77 144 102 79 140 103 82 137 104 86 133 105 91 130 105 95 127 106 101 124 107 107 122 107 113 120 108 119 118 108 126 117 108 133 116 109 141 116 109 148 116 109 155 117 109 163 119 109 170 120 109 177 123 109 183 125 109 190 128 108 196 132 108 202 135 108 207 139 107 212 143 107 216 147 106 219 151 106 222 155 105 225 159 104 226 163 104 227 167 103 228 171 102 227 174 102 226 178 101 224 181 100 222 183 100 219 186 99 215 188 98 211 190 98 206 192 98 201 193 97 196 194 97 190 195 97 183 196 97 177 196 97 170 196 98 164 197 98 157 196 99 150 196 100 143 196 101 137 195 102 130 195 104 124 194 106 119 193 108 113 193 110 108 192 112 104 191 114 100 190 117 97 189 120 94 189 123 92 188 126 91 187 129 90 186 133 90 186 136 90 185 139 91 184 143 93 184 146 95 183 150 98 183 153 102 182 156 106 182 159 111 182 162 116 181 165 121 181 167 127 181 169 133 181 171 139 180 173 146 180 174 152 180 175 159 180 176 165 180 177 171 180 177 178 180 176 184 180 176 189 179 175 195 179 173 199 179 172 204 179 170 208 178 168 211 178 165 214 177 162 216 177 159 218 176 156 218 175 152 219 174 148 218 173 144 217 171 140 215 170 136 213 168 131 210 166 127 206 164 123 202 161 118 197 159 114 191 156 109 185 153 105 179 150 101 173 147 96 166 143 92 159 140 88 151 136 85 144 132 81 137 128 78 129 124 75 122 120 72 115 116 69 108 112 67 102 108 65 95 104 63 90 101 62 84 97 61 79 94 60 75 91 59 71 89 59 68 86 59 66 84 59 64 83 59 63 82 60 62 81 61 63 81 62 64 81 64 65 81 65 67
80 64 193 82 66 190 84 68 187 88 69 183 92 71 178 96 72 173 101 74 168 106 76 162 112 77 156 117 79 150 123 80 144 129 82 137 134 84 131 139 85 124 144 87 118 148 88 112 152 90 106 155 91 101 157 93 96 159 94 91 160 95 87 161 97 83 161 98 80 160 99 78 158 101 76 156 102 75 154 103 74 151 104 74 148 105 75 145 106 76 141 107 78 138 108 81 134 109 84 131 110 88 128 110 93 125 111 98 123 112 103 120 112 109 119 113 116 117 113 122 117 113 129 117 114 136 117 114 144 118 114 151 119 114 158 121 114 166 123 114 173 126 114 180 129 114 186 133 113 193 136 113 199 140 112 204 144 112 209 149 111 214 153 111 218 157 110 221 161 109 224 165 109 226 169 108 228 173 107 228 177 106 229 180 105 228 183 104 227 186 104 225 188 103 222 190 102 219 192 101 215 194 101 211 195 100 206 196 99 201 197 99 195 198 99 189 198 99 183 198 99 176 198 99 169 197 99 163 197 100 156 196 100 149 196 101 142 195 102 136 194 104 130 193 105 124 192 107 118 191 109 113 190 111 108 189 114 104 188 116 100 187 119 97 186 122 94 185 125 92 184 128 91 184 132 90 183 135 90 182 139 91 181 142 92 181 146 94 180 149 97 180 152 100 179 156 104 179 159 108 179 162 113 178 165 118 178 167 123 178 169 129 178 172 135 178 173 142 178 175 148 178 176 155 178 177 161 178 177 167 178 178 174 178 177 180 178 177 186 178 176 191 178 175 196 178 173 201 178 171 205 178 169 209 178 167 212 177 164 215 177 161 217 177 157 218 176 154 219 175 150 219 174 146 218 173 142 217 172 137 215 171 133 212 169 129 209 167 124 205 165 120 200 163 115 195 160 111 190 158 106 184 155 102 178 152 98 171 148 94 164 145 90 157 141 86 150 137 82 142 134 79 135 130 76 127 126 73 120 121 70 113 117 68 106 113 66 100 109 64 94 105 63 88 102 61 83 98 60 78 95 60 74 92 59 71 89 59 68 87 59 65 84 60 64 83 61 63 82 61 62 81 63 63 80 64 64 80 66 66
81 67 196 83 69 193 86 71 190 90 72 186 94 74 182 99 76 177 104 77 172 109 79 167 115 81 161 121 82 155 126 84 149 132 86 143 137 87 136 142 89 130 146 91 123 150 92 117 154 94 111 157 95 106 159 97 100 160 98 95 161 100 91 161 101 87 161 103 83 159 104 80 158 105 78 155 107 76 153 108 75 150 109 75 146 110 75 143 111 76 139 112 78 136 113 80 132 114 83 129 115 86 126 115 91 124 116 95 121 117 100 119 117 106 118 118 112 117 118 119 117 119 125 117 119 132 118 119 140 120 119 147 121 119 154 124 119 161 127 119 169 130 119 176 133 119 183 137 118 189 141 118 196 146 117 201 150 117 207 154 116 212 159 116 216 163 115 220 167 114 223 171 113 226 175 112 228 179 111 229 182 110 230 185 109 230 188 108 229 191 107 227 193 106 225 194 105 222 196 104 219 197 104 215 198 103 211 199 102 206 199 101 200 199 101 194 199 100 188 199 100 182 198 100 175 197 100 169 197 101 162 196 101 155 195 102 148 194 103 142 192 104 135 191 105 129 190 107 123 189 109 117 188 111 112 187 113 108 185 116 103 184 118 100 183 121 97 182 124 94 181 127 93 180 131 92 179 134 91 179 138 91 178 141 92 177 145 94 177 148 96 176 152 98 176 155 102 175 158 106 175 161 110 175 164 115 175 167 120 174 170 126 174 172 132 174 174 138 174 175 144 175 177 150 175 178 157 175 178 163 175 179 170 175 179 176 175 178 182 176 177 188 176 176 193 176 175 198 176 173 203 177 171 207 177 168 211 177 165 214 177 162 216 176 159 218 176 155 219 176 151 219 175 147 219 175 143 218 174 139 217 173 135 214 171 130 212 170 126 208 168 121 204 166 116 199 164 112 194 162 107 188 159 103 182 156 99 176 153 95 169 150 91 162 147 87 155 143 83 148 139 80 140 135 77 133 131 74 126 127 71 118 123 69 111 118 67 105 114 65 98 110 63 92 106 62 87 102 61 82 99 60 77 95 60 73 92 60 70 89 60 67 87 60 65 84 61 63 83 62 63 81 63 63 81 65 63 80 66 64
82 70 198 85 72 196 88 74 193 92 76 190 96 77 186 101 79 182 107 81 177 112 83 172 118 84 166 124 86 160 129 88 154 135 90 148 140 91 142 145 93 135 149 95 129 153 97 123 156 98 116 158 100 111 160 101 105 161 103 100 161 104 95 161 106 91 160 107 87 159 109 83 157 110 81 154 111 79 151 113 77 148 114 76 145 115 76 141 116 76 137 117 78 134 118 79 131 119 82 127 120 85 125 121 89 122 121 93 120 122 98 119 122 103 118 123 109 118 123 115 118 124 122 119 124 128 120 124 135 122 124 143 124 125 150 127 124 157 130 124 165 134 124 172 138 124 179 142 124 186 147 123 192 151 123 198 156 122 204 160 121 209 165 121 214 169 120 218 173 119 222 177 118 225 181 117 228 184 116 229 187 115 230 190 114 231 193 112 230 195 111 229 196 110 228 198 109 225 199 108 222 200 107 219 200 106 215 200 105 210 200 104 205 200 103 200 199 103 194 198 102 187 198 102 181 197 102 174 195 102 168 194 102 161 193 103 154 191 103 147 190 104 141 189 105 134 187 107 128 186 108 122 185 110 117 183 113 112 182 115 107 181 118 103 180 120 100 178 123 97 177 127 95 176 130 93 175 133 92 175 137 92 174 140 92 173 144 93 173 148 95 172 151 97 172 155 100 171 158 103 171 161 107 171 164 112 171 167 117 170 170 122 170 172 128 171 174 134 171 176 140 171 177 146 171 178 153 171 179 159 172 180 166 172 180 172 172 179 178 173 179 184 173 177 190 174 176 195 174 174 200 174 172 204 175 170 208 175 167 212 175 164 215 176 160 217 176 157 218 176 153 219 175 149 220 175 145 219 174 140 218 174 136 216 173 131 214 172 127 211 171 122 207 169 118 203 167 113 198 165 109 193 163 104 187 160 100 181 158 96 174 155 92 167 151 88 160 148 84 153 144 81 146 140 78 138 136 75 131 132 72 124 128 69 116 124 67 110 119 65 103 115 64 97 111 63 91 107 62 85 103 61 80 99 60 76 95 60 72 92 60 69 89 61 66 87 61 64 84 62 63 83 64 63 81 65 63 80 67 63
83 73 200 86 75 198 90 77 196 94 79 193 99 81 189 104 83 185 110 85 181 115 86 176 121 88 171 127 90 165 132 92 159 138 94 153 143 96 147 147 97 141 151 99 134 155 101 128 158 103 122 160 104 116 161 106 110 162 107 104 162 109 99 161 110 95 160 112 90 158 113 87 156 115 84 153 116 81 150 117 79 146 119 78 143 120 77 139 121 77 135 122 78 132 123 79 129 124 81 126 125 84 123 126 87 121 126 91 120 127 95 119 128 100 118 128 106 118 129 112 119 129 118 120 129 125 122 130 131 124 130 139 127 130 146 131 130 153 134 130 160 138 130 168 143 129 175 147 129 182 152 129 189 156 128 195 161 127 201 166 127 207 170 126 212 175 125 217 179 124 221 182 123 224 186 122 227 189 121 229 192 120 231 194 118 232 196 117 232 198 116 231 199 114 230 200 113 228 201 112 226 201 110 223 201 109 219 201 108 215 200 107 210 200 106 205 199 105 199 198 104 193 196 104 187 195 103 180 193 103 173 192 103 167 190 103 160 189 104 153 187 105 146 185 106 140 184 107 133 182 108 127 181 110 122 179 112 116 178 115 111 177 117 107 175 120 103 174 123 100 173 126 97 172 129 95 171 133 94 170 136 93 170 140 93 169 143 93 168 147 94 168 151 96 167 154 99 167 158 102 167 161 105 166 164 109 166 167 114 166 170 119 166 172 124 166 175 130 166 176 136 167 178 142 167 179 149 167 180 155 168 181 161 168 181 168 169 180 174 169 180 180 170 179 186 170 177 192 171 176 197 172 173 202 172 171 206 173 168 210 173 165 213 174 162 216 174 158 218 174 154 219 175 150 220 175 146 220 174 142 219 174 137 218 174 133 216 173 128 213 172 124 210 171 119 206 170 114 202 168 110 197 166 105 191 164 101 185 161 97 179 159 93 172 156 89 166 152 85 158 149 82 151 145 78 144 141 75 136 137 73 129 133 70 122 129 68 115 125 66 108 120 65 101 116 63 95 111 62 89 107 61 84 103 61 79 99 61 75 96 61 71 92 61 68 89 62 66 87 63 64 84 64 63 82 65 63 81 67 63
85 77 201 88 79 200 92 81 198 96 83 196 102 85 193 107 87 189 113 88 185 118 90 180 124 92 175 130 94 170 135 96 164 141 98 158 145 100 152 150 102 146 154 103 140 157 105 133 159 107 127 161 109 121 162 110 115 162 112 109 162 114 104 161 115 99 159 117 94 157 118 90 154 120 87 151 121 84 148 122 81 144 124 80 141 125 78 137 126 78 134 127 78 130 128 79 127 129 80 125 130 83 122 131 86 121 132 89 119 132 93 119 133 98 119 134 103 119 134 108 121 135 114 122 135 121 125 135 128 127 135 134 131 135 142 135 135 149 139 135 156 143 135 164 148 135 171 152 135 178 157 134 185 162 133 192 167 133 198 171 132 204 176 131 209 180 130 214 184 129 219 187 128 223 191 127 226 193 126 229 196 124 231 198 123 232 200 122 233 201 120 233 202 119 232 202 117 231 202 116 229 202 114 226 202 113 223 201 111 219 200 110 214 199 109 209 197 108 204 196 107 198 194 106 192 193 105 186 191 105 179 189 105 173 187 105 166 185 105 159 184 105 152 182 106 145 180 107 139 179 109 132 177 110 127 175 112 121 174 114 116 173 117 111 171 119 107 170 122 103 169 125 100 168 128 97 167 132 95 166 135 94 165 139 93 165 143 93 164 147 94 163 150 95 163 154 97 163 157 100 162 161 103 162 164 107 162 167 111 162 170 116 162 173 121 162 175 126 162 177 132 162 179 138 163 180 145 163 181 151 164 181 157 164 182 164 165 181 170 165 181 176 166 180 182 167 179 188 168 177 194 168 175 199 169 172 203 170 170 207 171 167 211 171 163 214 172 160 217 173 156 218 173 152 220 173 148 220 174 143 220 174 139 219 174 134 218 173 130 216 173 125 213 172 120 209 171 116 205 170 111 201 168 106 196 167 102 190 165 98 184 162 94 177 160 90 171 157 86 164 153 83 156 150 79 149 146 76 142 142 73 134 138 71 127 134 69 120 130 67 113 125 65 106 121 64 99 116 63 93 112 62 88 108 62 83 103 61 78 99 61 74 96 62 70 92 62 67 89 63 65 86 65 64 84 66 63 82 68 63
86 80 202 90 82 202 94 84 200 99 86 198 104 88 196 110 90 192 115 92 189 121 94 184 127 96 180 133 98 175 138 100 169 143 102 163 148 104 157 152 106 151 155 108 145 158 110 139 160 112 132 162 113 126 162 115 120 162 117 114 162 118 109 160 120 103 158 121 98 156 123 94 153 124 90 150 126 87 146 127 84 143 129 82 139 130 80 135 131 79 132 132 79 129 133 79 126 134 80 124 135 82 122 136 84 120 137 87 119 138 91 119 138 95 120 139 100 121 139 105 122 140 111 125 140 117 127 141 124 131 141 131 135 141 138 139 141 145 143 141 152 148 141 159 153 140 167 158 140 174 163 140 181 167 139 188 172 138 194 177 138 201 181 137 207 185 136 212 189 135 217 192 134 221 195 132 225 197 131 228 199 130 231 201 128 232 202 127 233 203 125 234 203 123 234 203 122 233 203 120 231 202 118 229 201 117 226 200 115 223 199 114 219 197 112 214 195 111 209 194 110 203 192 108 198 190 108 191 188 107 185 186 106 178 184 106 172 182 106 165 180 106 158 178 107 151 176 108 144 174 109 138 173 110 132 171 112 126 170 114 120 168 116 115 167 119 110 166 122 106 165 125 103 164 128 100 163 131 97 162 135 96 161 138 94 160 142 94 160 146 94 159 150 95 159 154 97 158 157 99 158 161 101 158 164 105 158 167 109 158 170 113 158 173 118 158 175 123 158 177 129 158 179 134 158 181 141 159 182 147 159 182 153 160 183 160 161 183 166 161 182 172 162 181 178 163 180 184 164 178 190 165 176 195 165 174 200 166 171 205 167 168 209 168 165 212 169 161 215 170 157 217 171 153 219 171 149 220 172 144 220 172 140 220 173 135 219 173 131 217 173 126 215 172 121 212 172 117 208 171 112 204 170 107 199 169 103 194 167 99 188 165 95 182 163 91 176 160 87 169 157 83 162 154 80 155 151 77 147 147 74 140 143 72 132 139 69 125 135 67 118 130 66 111 126 64 104 121 63 98 117 63 92 112 62 86 108 62 81 104 62 77 99 62 73 96 63 69 92 64 67 89 65 65 86 66 63 84 68 63
88 84 203 92 86 203 96 88 202 101 90 200 107 92 198 112 94 195 118 96 192 124 98 188 130 100 184 135 103 179 141 105 174 146 107 168 150 108 163 154 110 157 157 112 150 160 114 144 162 116 138 163 118 131 163 120 125 163 121 119 161 123 113 160 125 108 158 126 103 155 128 98 152 129 94 148 131 90 145 132 87 141 133 84 137 135 82 134 136 81 130 137 80 127 138 80 125 139 81 123 140 82 121 141 84 120 142 86 120 143 89 120 144 93 121 144 98 122 145 103 125 145 108 127 146 114 131 146 120 134 146 127 139 146 134 143 146 141 148 146 148 153 146 155 158 146 163 163 146 170 168 145 177 173 145 184 177 144 191 182 143 197 186 142 203 190 141 209 193 140 214 196 139 219 199 138 223 201 136 227 202 135 230 203 133 232 204 132 234 204 130 235 204 128 235 204 126 235 203 125 234 202 123 232 200 121 229 199 119 226 197 117 223 195 116 218 193 114 214 191 113 208 189 111 203 186 110 197 184 109 191 182 108 184 180 108 177 178 107 171 176 107 164 174 108 157 172 108 150 170 109 143 169 110 137 167 112 131 166 114 125 164 116 120 163 118 115 162 121 110 161 124 106 160 127 103 159 131 100 158 134 97 157 138 96 157 142 95 156 146 95 156 149 95 155 153 96 155 157 98 154 161 100 154 164 103 154 167 106 154 170 110 154 173 115 154 176 120 154 178 125 154 180 131 154 181 137 155 183 143 155 183 149 156 184 155 156 184 162 157 183 168 158 182 174 159 181 181 160 179 186 161 177 192 162 175 197 163 172 202 164 169 206 165 166 210 166 162 213 167 158 216 168 154 218 169 150 220 170 146 220 171 141 221 171 137 220 172 132 219 172 127 217 172 122 214 172 118 211 172 113 207 171 108 203 170 104 198 169 100 193 167 95 187 165 91 181 163 88 174 161 84 167 158 81 160 155 78 153 151 75 145 148 72 138 144 70 130 140 68 123 135 66 116 131 65 109 126 64 102 122 63 96 117 63 90 112 63 85 108 63 80 104 63 75 99 64 72 96 64 69 92 66 66 89 67 64 86 69 63
89 87 203 94 90 204 98 92 203 104 94 202 109 96 201 115 98 198 121 100 195 127 103 192 133 105 188 138 107 183 143 109 178 148 111 173 152 113 168 156 115 162 159 117 156 161 119 149 162 121 143 163 122 137 163 124 131 162 126 124 161 128 119 159 129 113 157 131 107 154 132 102 150 134 98 147 135 94 143 137 90 139 138 87 136 140 85 132 141 83 129 142 82 126 143 81 124 144 81 122 145 82 121 146 83 120 147 85 120 148 88 121 149 92 122 149 96 124 150 100 127 151 105 130 151 111 134 151 117 138 152 123 143 152 130 147 152 137 153 152 144 158 152 151 163 152 158 168 151 166 173 151 173 178 150 180 182 150 187 187 149 194 191 148 200 194 147 206 197 146 212 200 145 217 202 143 221 203 142 225 204 141 229 205 139 232 205 137 234 205 135 235 204 133 236 203 131 236 202 129 235 200 127 234 199 125 232 197 123 230 194 121 226 192 119 222 190 118 218 188 116 213 185 114 208 183 113 202 180 111 196 178 110 190 176 110 183 174 109 176 172 109 170 170 109 163 168 109 156 167 110 149 165 111 142 163 112 136 162 114 130 161 116 124 160 118 119 159 121 114 158 124 110 157 127 106 156 130 102 155 134 100 154 137 98 154 141 96 153 145 95 152 149 95 152 153 96 151 157 97 151 161 99 151 164 101 150 168 104 150 171 108 150 174 112 150 176 117 150 179 122 150 181 127 151 182 133 151 183 139 151 184 145 152 185 151 152 185 158 153 184 164 154 183 170 154 182 177 155 181 183 156 179 188 157 176 194 159 174 199 160 170 204 161 167 208 162 164 211 163 160 214 165 156 217 166 151 219 167 147 220 168 142 221 169 138 221 170 133 220 171 128 219 171 123 216 171 119 214 171 114 210 171 109 206 171 105 202 170 100 197 169 96 191 167 92 185 166 88 179 164 85 172 161 81 165 158 78 158 155 76 151 152 73 143 148 71 136 144 69 128 140 67 121 136 66 114 131 65 107 126 64 101 122 63 94 117 63 89 112 63 83 108 64 79 103 64 74 99 65 71 95 66 68 92 68 65 88 69 64
91 91 203 96 93 204 101 96 204 106 98 204 112 100 203 118 102 201 124 105 198 129 107 195 135 109 192 141 111 187 146 113 183 150 115 178 154 117 172 158 119 167 160 121 161 162 123 155 163 125 148 164 127 142 163 129 136 162 130 130 161 132 124 158 134 118 155 135 112 152 137 107 149 139 102 145 140 98 141 142 94 138 143 90 134 144 87 131 146 85 128 147 83 125 148 82 123 149 82 122 150 82 121 151 83 121 152 85 121 153 87 122 154 90 124 154 94 127 155 98 130 156 103 134 156 108 138 157 113 142 157 120 147 157 126 152 157 133 157 157 140 163 157 147 168 157 154 173 157 162 178 156 169 183 156 176 187 155 183 191 155 190 195 154 197 198 153 203 200 152 209 203 151 214 204 149 219 205 148 224 206 146 228 206 144 231 206 143 233 205 141 235 204 139 237 202 137 237 201 134 237 199 132 236 196 130 235 194 128 233 192 126 230 189 123 226 187 121 222 184 119 218 182 117 213 179 116 207 177 114 201 174 113 195 172 112 189 170 111 182 168 110 175 166 110 168 165 110 162 163 111 155 162 111 148 160 113 141 159 114 135 158 116 129 157 118 123 156 121 118 155 123 113 154 126 109 153 130 105 152 133 102 152 137 100 151 141 98 150 145 97 150 149 96 149 153 96 149 157 97 148 160 98 148 164 100 148 168 103 148 171 106 147 174 110 147 177 114 147 179 119 147 181 124 147 183 129 147 184 135 148 185 141 148 186 147 148 186 153 149 185 160 150 185 166 150 183 172 151 182 179 152 180 185 153 177 190 154 175 196 156 172 200 157 168 205 158 165 209 160 161 213 161 157 215 162 152 218 164 148 220 165 143 221 166 139 221 167 134 221 169 129 220 169 124 218 170 119 216 170 115 213 171 110 209 171 106 205 170 101 201 170 97 195 169 93 190 167 89 183 166 85 177 164 82 170 161 79 163 159 76 156 156 74 148 152 71 141 148 69 134 145 68 126 140 66 119 136 65 112 131 64 105 127 64 99 122 64 93 117 64 87 112 64 82 108 65 77 103 66 73 99 67 70 95 68 67 91 70 65
93 95 203 98 97 204 103 100 205 108 102 205 114 104 204 120 106 203 126 109 201 132 111 198 138 113 195 143 115 191 148 117 187 152 119 182 156 121 177 159 123 172 161 125 166 163 127 160 164 129 154 164 131 148 163 133 141 162 135 135 160 137 129 157 138 123 154 140 117 151 142 112 147 143 106 144 145 102 140 146 97 136 148 94 133 149 90 130 150 88 127 151 85 125 153 84 123 154 83 122 155 83 121 156 84 122 157 85 123 158 87 124 159 89 126 159 92 129 160 96 133 161 100 137 161 105 141 162 110 146 162 116 151 162 122 157 162 129 162 163 136 167 163 143 173 162 150 178 162 157 183 162 165 187 162 172 192 161 179 195 160 186 198 159 193 201 159 200 203 157 206 205 156 212 206 155 217 207 153 222 207 152 226 206 150 230 206 148 233 204 146 235 203 144 237 201 142 238 199 140 238 196 137 238 194 135 237 191 133 235 189 130 233 186 128 230 183 125 226 180 123 222 178 121 217 175 119 212 173 117 207 171 115 201 169 114 194 167 113 188 165 112 181 163 112 174 162 111 167 160 112 161 159 112 154 158 113 147 156 114 140 155 116 134 154 118 128 154 120 123 153 123 118 152 126 113 151 129 109 151 133 105 150 137 102 149 141 100 149 145 98 148 149 97 148 153 97 147 157 97 147 161 98 146 164 99 146 168 101 146 171 104 145 174 107 145 177 111 145 180 116 145 182 120 145 184 126 145 185 131 145 186 137 145 187 143 145 187 149 146 186 156 146 186 162 147 185 168 148 183 175 148 181 181 149 179 186 150 176 192 152 173 197 153 169 202 154 166 206 156 162 210 157 158 214 159 153 216 160 149 219 162 144 220 163 140 221 165 135 221 166 130 221 167 125 220 168 120 218 169 116 215 170 111 212 170 106 208 170 102 204 170 98 199 169 94 194 169 90 188 167 86 182 166 83 175 164 80 168 161 77 161 159 74 154 156 72 146 152 70 139 149 68 132 145 67 124 140 66 117 136 65 110 131 64 103 126 64 97 122 64 91 117 65 86 112 65 81 107 66 76 103 67 72 98 69 69 94 70 66
95 99 203 100 101 204 105 103 205 111 106 206 117 108 206 123 110 205 129 113 203 134 115 201 140 117 198 145 119 195 150 121 191 154 124 186 158 126 182 161 128 177 163 130 171 164 132 165 164 134 159 164 136 153 163 137 147 161 139 140 159 141 134 156 143 128 153 144 122 150 146 117 146 147 111 142 149 106 139 150 101 135 152 97 132 153 94 129 155 91 126 156 88 124 157 86 123 158 85 122 159 84 122 160 84 123 161 85 124 162 86 126 163 88 129 164 91 132 165 94 136 165 98 140 166 103 145 166 108 150 167 113 156 167 119 161 167 125 167 168 132 172 168 139 178 168 146 183 168 153 187 167 161 192 167 168 196 166 175 199 166 182 202 165 189 204 164 196 206 163 203 207 162 209 208 161 214 208 159 219 207 158 224 206 156 228 205 154 232 203 152 235 201 150 237 199 147 238 196 145 239 194 143 239 191 140 239 188 137 237 185 135 236 182 132 233 180 130 230 177 127 226 174 125 222 172 122 217 170 120 212 167 118 206 165 117 200 164 115 194 162 114 187 160 113 180 159 113 173 158 113 166 157 113 159 156 114 153 155 115 146 154 116 139 153 118 133 152 120 127 152 123 122 151 126 117 151 129 112 150 133 108 149 136 105 149 140 102 148 144 100 148 148 98 147 152 97 147 157 97 146 161 98 145 164 99 145 168 100 144 172 103 144 175 106 144 178 109 143 180 113 143 183 117 143 185 122 142 186 128 142 187 133 142 188 139 143 188 145 143 188 151 143 187 158 144 186 164 144 184 170 145 182 177 146 180 183 147 177 188 148 174 194 149 171 199 150 167 204 152 163 208 153 159 212 155 154 215 156 150 217 158 145 219 160 140 221 161 136 221 163 131 221 164 126 221 166 121 219 167 116 217 168 112 215 169 107 211 169 103 207 169 98 203 169 94 198 169 90 192 168 87 186 167 83 180 166 80 173 164 77 166 161 75 159 159 72 152 156 70 144 152 69 137 149 67 129 145 66 122 140 66 115 136 65 108 131 65 101 126 65 95 121 65 89 116 66 84 111 67 79 107 68 75 102 70 71 98 71 68
96 103 202 102 105 204 107 107 205 113 110 206 119 112 206 125 114 206 131 117 205 137 119 203 142 121 201 147 123 198 152 126 195 156 128 190 159 130 186 162 132 181 164 134 176 164 136 170 165 138 164 164 140 158 163 141 152 161 143 146 158 145 140 155 147 133 152 148 127 149 150 122 145 152 116 141 153 111 137 155 106 134 156 101 131 157 97 128 159 94 125 160 91 124 161 88 123 162 87 122 164 86 123 165 85 124 166 85 126 167 86 128 167 88 131 168 90 135 169 93 139 170 96 144 170 100 149 171 105 155 172 110 160 172 116 166 172 122 171 172 128 177 173 135 182 173 142 187 173 149 192 172 156 196 172 164 199 172 171 202 171 178 205 170 185 206 170 192 208 169 199 208 168 205 208 166 211 208 165 217 207 163 222 206 162 226 204 160 230 202 158 234 199 155 236 197 153 238 194 151 240 191 148 240 188 145 240 185 143 239 182 140 238 179 137 236 176 134 233 174 131 230 171 129 226 169 126 221 167 124 216 165 121 211 163 119 205 161 118 199 160 116 193 159 115 186 157 114 179 156 114 172 156 114 165 155 114 158 154 115 152 153 117 145 153 118 138 152 120 132 152 123 127 151 126 121 151 129 116 150 132 112 150 136 108 149 140 105 149 144 102 148 148 100 148 152 99 147 157 98 146 161 98 146 165 98 145 169 100 144 172 101 144 175 104 143 178 107 143 181 111 142 183 115 142 185 119 141 187 124 141 188 130 141 189 135 141 189 141 141 189 147 141 188 154 141 187 160 141 185 166 142 183 172 142 181 179 143 178 184 144 175 190 145 172 196 147 168 200 148 164 205 149 160 209 151 155 213 153 151 216 154 146 218 156 141 220 158 136 221 160 131 221 161 127 221 163 122 220 164 117 219 166 112 217 167 108 214 168 103 210 168 99 206 169 95 202 169 91 196 169 87 191 168 84 185 167 81 178 165 78 171 164 75 164 161 73 157 159 71 150 156 69 142 152 68 135 148 67 127 144 66 120 140 66 113 135 66 106 131 66 100 126 66 94 121 67 88 116 68 83 111 69 78 106 70 74 101 72 70
98 106 200 104 109 203 109 111 205 115 114 206 121 116 207 127 118 207 133 121 207 139 123 205 144 125 203 149 127 201 154 130 198 158 132 194 161 134 190 163 136 186 164 138 181 165 140 175 165 142 169 164 144 164 163 145 158 160 147 151 158 149 145 155 151 139 151 152 133 147 154 127 143 156 121 140 157 115 136 158 110 133 160 105 130 161 101 127 163 97 125 164 94 124 165 91 123 166 89 123 167 87 124 169 86 125 170 86 127 171 87 130 172 88 134 172 89 138 173 92 143 174 95 148 175 99 153 175 103 159 176 108 165 176 113 170 177 119 176 177 125 181 177 131 186 177 138 191 177 145 195 177 152 199 177 160 202 177 167 205 176 174 207 176 181 208 175 189 209 174 195 209 173 202 209 172 208 208 170 214 206 169 219 205 167 224 202 165 229 200 163 232 197 161 235 194 159 238 191 156 240 188 153 241 185 151 241 182 148 241 179 145 240 176 142 238 173 139 236 170 136 233 168 133 230 166 130 226 164 127 221 162 125 216 161 122 210 160 120 204 158 119 198 157 117 192 157 116 185 156 115 178 155 115 171 155 115 164 154 116 157 154 117 150 154 119 144 153 121 137 153 123 131 153 126 126 152 129 121 152 132 116 151 136 111 151 140 108 150 144 105 150 148 102 149 153 100 148 157 99 148 161 98 147 165 98 146 169 99 145 173 101 145 176 103 144 179 105 143 182 108 142 184 112 142 186 116 141 188 121 140 189 126 140 190 131 140 190 137 139 190 143 139 189 149 139 188 156 139 186 162 139 184 168 140 182 174 140 179 181 141 176 186 142 173 192 143 169 197 144 165 202 146 161 206 147 156 210 149 151 214 150 147 217 152 142 219 154 137 220 156 132 221 158 127 222 160 122 221 161 117 220 163 113 218 164 108 216 166 104 213 167 99 209 168 95 205 168 91 200 168 88 195 168 84 189 168 81 183 167 78 176 165 76 169 163 73 162 161 72 155 159 70 148 155 69 140 152 67 133 148 67 125 144 66 118 140 66 111 135 66 104 130 67 98 125 67 92 120 68 86 115 70 81 110 71 77 105 73 73
100 110 199 105 113 202 111 115 204 117 117 206 123 120 207 130 122 208 136 125 208 141 127 207 147 129 206 151 131 204 156 133 201 159 136 198 162 138 194 164 140 190 165 142 185 165 144 180 165 146 174 164 147 169 162 149 163 160 151 157 157 153 151 154 154 144 150 156 138 146 158 132 142 159 126 139 161 120 135 162 115 132 164 110 129 165 105 127 166 101 125 168 97 124 169 94 123 170 91 124 171 89 125 172 88 127 173 87 130 174 87 133 175 88 137 176 89 141 177 91 146 178 94 152 179 97 157 179 101 163 180 105 169 180 110 175 181 116 180 181 121 185 182 128 190 182 134 195 182 141 199 182 148 202 182 155 205 182 163 207 181 170 209 181 177 210 180 185 210 179 192 210 178 198 209 177 205 207 176 211 205 175 217 203 173 222 200 171 227 197 169 231 194 167 234 191 164 237 188 162 240 185 159 241 181 156 242 178 153 242 175 150 242 173 147 241 170 144 239 168 140 236 166 137 233 164 134 230 162 131 225 161 128 221 160 126 215 159 123 210 158 121 204 157 119 197 157 118 191 156 117 184 156 117 177 156 116 170 156 117 163 156 118 156 155 119 149 155 121 143 155 123 136 155 126 131 155 129 125 154 132 120 154 136 115 154 140 111 153 144 107 152 148 104 152 153 102 151 157 100 150 161 99 149 165 99 149 169 99 148 173 100 147 177 102 146 180 104 145 183 106 144 185 110 143 187 114 142 189 118 141 190 123 140 191 128 139 191 133 139 191 139 138 190 145 138 189 151 138 187 158 138 185 164 138 183 170 138 180 176 138 177 182 139 173 188 140 170 194 141 166 199 142 161 203 143 157 208 145 152 212 147 147 215 148 142 217 150 138 219 152 133 221 154 128 222 156 123 222 158 118 221 160 113 220 162 108 218 163 104 215 165 100 212 166 96 208 167 92 204 167 88 199 168 85 193 168 82 187 167 79 181 166 76 174 165 74 167 163 72 160 161 70 153 158 69 145 155 68 138 152 67 130 148 67 123 144 67 116 139 67 109 134 67 102 129 68 96 124 69 90 119 70 85 114 72 80 109 73 75
102 114 197 107 116 200 113 119 203 119 121 206 126 124 207 132 126 208 138 128 209 143 131 208 148 133 207 153 135 206 157 137 204 160 139 201 163 141 198 165 143 194 166 145 189 166 147 184 165 149 179 164 151 174 162 153 168 159 154 162 156 156 156 153 158 150 149 159 143 145 161 137 141 163 131 137 164 125 134 165 120 131 167 114 128 168 109 126 170 105 125 171 101 124 172 97 124 173 94 125 174 92 126 175 90 129 177 89 132 178 88 135 179 88 140 179 89 145 180 91 150 181 93 155 182 96 161 183 99 167 183 103 173 184 108 179 185 113 184 185 118 189 185 124 194 186 131 199 186 137 202 186 144 205 186 151 208 186 159 209 186 166 210 185 173 211 185 181 211 184 188 210 183 195 208 182 201 206 181 208 204 180 214 201 178 219 198 177 224 195 175 229 192 172 233 188 170 236 185 167 239 182 165 241 178 162 242 175 159 243 172 155 243 170 152 243 168 149 241 166 145 239 164 142 237 162 138 233 161 135 229 160 132 225 159 129 220 159 126 215 158 124 209 158 122 203 158 120 196 158 119 189 158 118 183 158 118 176 158 118 169 158 118 162 158 120 155 159 121 148 159 123 142 158 126 135 158 129 130 158 132 124 158 136 119 157 140 115 157 144 111 156 148 107 156 153 104 155 157 102 154 162 101 153 166 100 152 170 99 151 174 100 150 177 101 148 181 103 147 184 105 146 186 108 145 188 111 144 190 115 142 191 120 141 192 124 140 192 130 139 192 135 138 191 141 138 190 147 137 188 153 137 186 160 136 184 166 136 181 172 137 178 178 137 174 184 137 170 190 138 166 195 139 162 200 140 157 205 142 153 209 143 148 213 145 143 216 147 138 218 149 133 220 151 128 221 153 123 222 155 118 222 157 113 221 159 109 219 161 104 217 162 100 214 164 96 211 165 92 207 166 88 202 167 85 197 167 82 192 167 79 186 167 77 179 166 74 172 165 73 165 163 71 158 160 70 151 158 69 143 155 68 136 151 68 128 147 67 121 143 68 114 138 68 107 134 69 100 129 70 94 123 71 88 118 73 83 113 74 78
104 118 194 109 120 198 115 122 202 121 125 205 128 127 207 134 130 208 140 132 209 145 134 209 150 136 209 155 139 208 159 141 206 162 143 204 164 145 201 165 147 197 166 149 193 166 151 189 165 152 184 164 154 179 161 156 173 158 158 167 155 159 161 152 161 155 148 163 149 144 164 143 140 166 137 136 167 131 133 168 125 130 170 119 128 171 114 126 172 109 125 174 105 124 175 101 125 176 97 126 177 95 128 178 92 131 179 91 134 180 90 138 181 89 143 182 90 148 183 91 153 184 92 159 185 95 165 186 98 171 187 101 177 187 105 183 188 110 188 188 115 193 189 121 198 189 127 202 190 133 205 190 140 208 190 147 210 190 154 211 190 162 212 190 169 211 189 176 211 189 184 209 188 191 207 187 198 205 186 204 202 185 210 199 184 216 196 182 222 192 180 227 189 178 231 185 176 235 182 173 238 179 170 241 176 167 243 173 164 244 170 161 244 168 157 244 166 154 243 164 150 242 163 147 239 161 143 237 161 139 233 160 136 229 160 133 224 160 130 219 160 127 214 160 124 208 160 122 202 160 121 195 161 120 188 161 119 181 162 119 174 162 119 167 162 120 160 163 122 154 163 124 147 163 126 141 163 129 134 163 132 129 163 136 123 162 140 118 162 144 114 161 149 110 160 153 107 160 158 104 159 162 102 157 166 101 156 171 100 155 174 100 154 178 100 152 181 102 151 184 104 149 187 106 148 189 109 146 191 113 145 192 117 143 193 121 142 193 126 141 193 132 140 192 137 138 191 143 137 189 149 137 187 155 136 185 162 136 182 168 135 179 174 135 175 180 135 171 186 136 167 192 137 163 197 137 158 202 139 153 206 140 148 210 141 143 214 143 138 216 145 133 219 147 128 220 149 123 221 151 118 222 153 114 221 155 109 220 157 105 219 159 100 216 161 96 213 163 92 210 164 89 206 165 85 201 166 82 196 167 80 190 167 77 184 166 75 177 165 73 170 164 71 163 162 70 156 160 69 149 157 69 141 154 68 134 151 68 126 147 68 119 142 69 112 138 70 105 133 71 99 128 72 92 122 73 87 117 75 82
105 121 192 111 124 196 117 126 200 123 128 203 130 131 206 136 133 208 142 135 209 147 138 210 152 140 210 156 142 210 160 144 208 163 146 206 165 148 204 166 150 201 167 152 197 166 154 193 165 156 188 163 157 183 161 159 178 158 161 172 154 162 167 151 164 160 147 165 154 143 167 148 139 168 142 136 170 136 132 171 130 130 172 124 127 174 119 126 175 114 125 176 109 125 177 105 126 179 101 127 180 98 130 181 95 133 182 93 136 183 91 141 184 91 146 185 90 151 186 91 157 187 92 163 188 94 169 189 97 175 189 100 181 190 103 187 191 108 192 191 113 197 192 118 201 193 124 205 193 130 208 193 136 210 194 143 211 194 150 212 194 158 212 194 165 212 194 172 210 193 179 209 193 187 206 192 194 203 191 201 200 190 207 197 189 213 193 187 219 190 185 224 186 183 229 183 181 233 179 179 237 176 176 240 173 173 242 170 170 244 168 166 245 166 163 245 164 159 245 163 155 244 162 151 242 161 148 240 161 144 237 161 140 233 161 136 229 162 133 224 162 130 219 163 127 213 163 125 207 164 123 201 165 121 194 166 120 187 166 120 180 167 120 173 168 121 166 168 122 159 168 124 152 169 127 146 169 129 139 169 133 133 168 136 128 168 140 122 168 145 118 167 149 113 166 153 110 165 158 107 164 163 104 163 167 102 162 171 101 160 175 100 159 179 100 157 182 101 155 185 103 154 188 105 152 190 107 150 192 110 148 193 114 147 194 118 145 194 123 143 194 128 142 193 133 140 192 139 139 190 145 137 188 151 136 186 157 136 183 164 135 179 170 134 176 176 134 172 182 134 167 188 135 163 193 135 158 198 136 154 203 137 149 207 138 144 211 140 139 215 141 134 217 143 129 219 145 124 221 147 119 222 150 114 222 152 109 221 154 105 220 156 101 218 158 96 216 160 93 213 162 89 209 164 86 204 165 83 199 166 80 194 166 77 188 166 75 182 166 73 175 165 72 168 164 71 161 162 70 154 159 69 146 157 69 139 153 69 131 150 69 124 146 70 117 141 70 110 136 71 103 132 73 97 126 74 91 121 76 85
107 125 189 113 127 194 119 130 198 125 132 202 132 134 205 138 137 207 143 139 209 149 141 210 153 143 211 158 145 211 161 147 210 164 149 209 166 151 207 167 153 204 167 155 201 166 157 197 165 158 193 163 160 188 160 162 183 157 163 177 154 165 172 150 166 166 146 168 160 142 169 154 138 171 147 135 172 141 132 173 135 129 175 129 127 176 124 126 177 118 125 178 113 126 179 109 127 181 105 129 182 101 131 183 98 135 184 95 139 185 93 144 186 92 149 187 92 154 188 92 160 189 92 166 190 94 173 191 96 179 192 98 185 192 102 190 193 106 195 194 110 200 195 115 204 195 121 207 196 127 210 196 133 212 197 139 213 197 146 213 197 153 213 197 161 212 197 168 210 197 175 208 197 183 205 196 190 202 195 197 198 195 203 195 193 210 191 192 216 187 191 221 183 189 227 180 187 231 177 184 235 174 181 239 171 179 242 168 175 244 166 172 245 165 168 246 164 164 246 163 160 246 162 156 244 162 152 242 162 148 240 163 144 236 164 140 233 164 136 228 165 133 223 166 130 218 167 127 212 169 125 206 170 123 200 171 122 193 172 121 186 173 121 179 173 122 172 174 123 165 175 125 158 175 127 151 175 130 145 175 133 138 175 137 132 175 141 127 174 145 122 173 149 117 173 154 113 172 159 109 170 163 106 169 168 104 168 172 102 166 176 101 164 180 101 163 183 101 161 186 102 159 189 103 157 191 106 155 193 108 153 194 112 151 195 115 148 195 120 146 195 125 144 194 130 143 193 135 141 191 141 139 189 147 138 186 153 136 183 159 135 180 166 134 176 172 134 172 178 133 168 184 133 163 189 133 159 195 134 154 200 135 149 204 136 144 209 137 139 212 138 134 215 140 129 218 142 124 220 144 119 221 146 114 222 148 109 222 151 105 221 153 101 220 155 97 218 158 93 215 160 89 211 161 86 208 163 83 203 164 80 198 165 78 192 166 76 186 166 74 180 165 72 173 164 71 166 163 70 159 161 70 152 159 69 144 156 70 137 153 70 129 149 70 122 145 71 115 140 72 108 135 74 101 130 75 95 125 77 89
109 128 186 115 130 191 121 133 196 127 135 200 133 137 203 139 140 206 145 142 209 150 144 210 155 146 211 159 148 212 162 150 212 165 152 211 166 154 209 167 156 207 167 158 204 166 159 201 165 161 197 163 163 192 160 164 187 157 166 182 153 167 177 149 169 171 145 170 165 141 171 159 138 173 153 134 174 147 131 175 140 129 176 134 127 178 129 126 179 123 126 180 118 127 181 113 128 182 109 130 183 105 133 184 101 137 185 98 141 186 96 146 187 94 152 188 93 158 189 93 164 190 93 170 191 94 176 192 95 182 193 98 188 194 100 194 195 104 198 196 108 203 197 113 207 197 118 210 198 123 212 199 129 213 199 136 214 200 142 214 200 149 213 200 157 211 200 164 209 200 171 206 200 178 203 200 186 200 199 193 196 199 200 192 198 206 188 197 213 185 195 219 181 194 224 177 192 229 174 189 233 172 187 237 169 184 241 167 181 243 166 177 245 164 174 246 164 170 247 163 166 247 164 161 246 164 157 245 165 153 242 166 148 240 167 144 236 168 140 232 170 136 228 171 133 223 172 130 217 174 127 211 175 125 205 177 123 198 178 123 192 179 122 185 180 123 178 181 124 171 181 125 164 182 127 157 182 130 150 182 133 143 182 137 137 182 141 131 181 145 126 181 150 121 180 155 116 179 159 112 177 164 109 176 169 106 174 173 104 173 177 102 171 181 101 169 184 101 167 188 102 165 190 103 162 193 104 160 194 107 158 195 110 155 196 113 153 196 117 151 196 121 148 195 126 146 194 131 144 192 137 142 190 143 140 187 149 138 184 155 136 180 161 135 177 167 134 173 174 133 168 180 133 164 186 132 159 191 132 154 196 133 149 201 133 144 206 134 139 210 135 134 213 137 129 216 139 124 219 141 119 220 143 114 221 145 109 222 147 105 222 150 101 221 152 97 219 155 93 217 157 89 214 159 86 210 161 83 206 162 81 202 164 78 196 165 76 191 165 74 185 165 73 178 165 72 171 164 71 164 163 70 157 161 70 149 158 70 142 155 71 134 152 71 127 148 72 120 144 73 113 139 75 106 134 76 99 129 78 93
110 131 182 116 134 188 123 136 193 129 138 198 135 141 202 141 143 205 147 145 208 152 147 210 156 149 212 160 151 212 163 153 213 166 155 212 167 156 211 168 158 209 167 160 207 166 162 204 165 163 200 162 165 196 159 166 192 156 168 187 152 169 182 148 170 176 144 172 170 141 173 164 137 174 158 134 175 152 131 177 146 129 178 140 127 179 134 127 180 128 127 181 123 127 182 118 129 183 113 132 184 108 135 185 105 139 186 101 144 187 99 149 188 96 155 189 95 161 190 94 167 191 94 173 192 94 180 193 95 186 194 97 191 195 99 197 196 102 201 197 106 206 198 110 209 199 115 212 200 120 213 200 126 214 201 132 214 202 139 214 202 145 213 203 152 211 203 160 208 203 167 205 203 174 202 203 182 198 203 189 194 203 196 190 202 203 186 201 209 182 200 215 179 198 221 175 196 226 172 194 231 170 192 236 168 189 239 166 186 242 165 183 245 165 179 247 165 175 248 165 171 248 165 167 248 166 162 247 168 157 245 169 153 243 171 148 240 173 144 236 175 140 232 176 136 227 178 132 222 180 129 216 182 127 210 183 125 204 185 124 197 186 123 190 187 123 183 188 124 176 189 126 169 189 128 162 190 131 155 190 134 149 190 137 142 189 141 136 189 146 130 188 150 125 187 155 120 186 160 116 185 165 112 183 169 108 182 174 106 180 178 104 178 182 102 176 186 102 174 189 101 171 192 102 169 194 103 166 195 105 164 197 108 161 197 111 158 197 114 155 197 118 153 196 123 150 195 128 148 193 133 145 190 139 143 188 145 140 184 151 138 181 157 137 177 163 135 173 169 134 169 175 133 164 181 132 159 187 132 154 193 131 149 198 132 144 203 132 139 207 133 134 211 134 129 214 136 124 217 138 119 219 139 114 221 142 109 222 144 105 222 146 101 221 149 97 220 151 93 218 154 90 216 156 86 213 158 83 209 160 81 205 162 78 200 163 76 195 164 75 189 165 73 183 165 72 176 164 72 169 163 71 162 162 71 155 160 71 147 157 71 140 154 72 132 151 73 125 147 74 118 142 75 111 138 77 104 133 79 97
112 134 179 118 137 185 124 139 190 130 141 195 137 143 200 143 145 203 148 148 207 153 150 209 158 152 211 161 153 213 164 155 213 166 157 213 168 159 213 168 160 211 168 162 210 166 164 207 164 165 204 162 167 200 159 168 196 155 169 191 152 171 186 148 172 181 144 173 175 140 174 170 136 175 164 133 177 157 131 178 151 129 179 145 127 180 139 127 181 133 127 182 128 128 183 122 130 184 117 133 185 113 137 186 108 141 187 105 146 188 102 152 189 99 158 190 97 164 191 96 170 192 95 177 193 95 183 194 95 189 195 97 195 196 99 200 197 101 204 198 104 208 199 108 211 200 113 213 201 118 215 201 123 215 202 129 215 203 135 214 204 142 212 204 148 210 205 155 207 205 163 204 206 170 200 206 177 196 206 185 192 206 192 188 205 199 184 205 205 180 204 212 177 203 218 174 201 224 171 199 229 169 197 233 167 194 238 166 191 241 166 188 244 166 185 246 166 181 248 167 176 249 168 172 249 170 167 248 172 162 247 174 157 245 176 153 243 178 148 239 180 143 236 182 139 231 185 135 226 187 132 221 189 129 215 190 127 209 192 125 203 193 125 196 195 124 189 196 125 182 196 126 175 197 128 168 197 131 161 197 134 154 197 138 147 197 142 141 196 146 135 196 151 129 195 156 124 193 161 119 192 166 115 191 171 111 189 175 108 187 179 105 185 183 104 183 187 102 180 190 102 178 193 102 175 195 103 173 197 104 170 198 106 167 198 109 164 198 112 161 198 116 158 197 120 155 195 124 152 194 130 149 191 135 146 188 141 144 185 147 141 181 153 139 177 159 137 173 165 135 169 171 134 164 177 132 159 183 131 154 189 131 149 194 131 144 199 131 139 204 131 134 208 132 129 212 133 124 215 135 119 218 136 114 220 138 109 221 141 105 222 143 101 222 146 97 221 148 93 220 151 90 218 153 86 215 156 84 212 158 81 208 160 79 203 162 77 198 163 75 193 164 74 187 164 73 181 164 72 174 164 72 167 163 72 160 161 72 152 159 72 145 156 73 137 153 74 130 150 75 123 145 76 115 141 78 108 136 80 102
113 137 175 119 139 181 126 142 187 132 144 192 138 146 197 144 148 201 150 150 205 154 152 208 159 154 211 162 156 213 165 157 214 167 159 214 168 161 214 168 162 213 168 164 212 166 165 210 164 167 207 162 168 204 158 169 200 155 171 196 151 172 191 147 173 186 143 174 180 139 175 175 136 176 169 133 177 163 131 178 157 129 179 151 128 180 144 127 181 138 128 182 133 130 183 127 132 184 122 135 185 117 139 186 112 144 187 108 149 188 105 154 189 102 161 190 99 167 191 98 173 192 96 180 193 96 186 194 96 192 195 97 197 196 98 202 197 100 207 198 103 210 199 107 213 200 110 215 201 115 216 202 120 216 203 126 215 204 132 214 205 138 212 206 145 209 206 151 206 207 159 202 208 166 198 208 173 194 208 180 190 208 188 186 208 195 182 208 202 178 207 208 175 206 215 172 205 221 170 204 226 168 202 231 167 199 236 167 196 240 167 193 243 167 190 246 168 186 248 170 182 249 172 177 250 174 172 250 176 167 249 179 162 247 181 157 245 184 152 243 187 147 239 189 142 235 192 138 231 194 134 226 196 131 220 198 129 214 200 127 208 201 126 202 202 125 195 203 126 188 204 127 181 205 129 174 205 132 166 205 135 159 205 139 153 204 143 146 204 147 140 203 152 134 202 157 128 201 162 123 200 167 118 198 172 114 196 176 111 194 181 108 192 185 105 190 188 104 188 191 102 185 194 102 182 196 102 179 198 103 176 199 105 173 200 107 170 200 110 167 199 113 164 198 117 160 196 121 157 194 126 154 192 131 151 189 137 148 185 142 145 182 148 142 178 154 139 173 161 137 169 167 135 164 173 133 159 179 132 154 185 131 149 190 130 144 196 130 138 201 130 133 205 130 128 209 131 123 213 132 118 216 134 114 218 136 109 220 138 105 221 140 101 222 142 97 221 145 93 221 148 90 219 150 87 217 153 84 214 155 81 211 157 79 207 159 77 202 161 76 197 163 74 191 163 73 185 164 73 179 164 72 172 163 72 165 162 73 158 160 73 150 158 74 143 155 75 135 152 76 128 148 78 120 144 79 113 139 81 106
114 140 171 121 142 177 127 144 184 133 146 189 140 148 194 145 150 199 151 152 203 156 154 207 160 156 210 163 158 212 166 159 214 168 161 215 169 162 215 169 164 215 168 165 214 166 167 212 164 168 210 161 169 207 158 170 204 154 171 200 151 173 195 147 174 191 143 175 185 139 176 180 136 177 174 133 178 168 131 179 162 129 179 156 128 180 150 128 181 144 129 182 138 131 183 132 133 184 127 137 185 121 141 186 117 146 187 112 151 187 108 157 188 105 163 189 102 170 190 100 176 191 98 183 192 97 189 193 97 195 194 97 200 195 98 205 196 100 209 197 102 212 198 105 214 200 109 216 201 113 217 202 117 216 203 123 215 204 128 213 205 134 211 206 141 208 207 147 204 208 154 200 209 162 196 210 169 192 210 176 188 210 183 184 211 191 180 211 198 176 210 204 174 210 211 171 209 217 169 208 223 168 206 228 168 204 233 168 201 238 168 198 241 169 195 245 171 191 247 173 187 249 176 182 250 178 177 250 181 172 250 184 167 249 187 161 248 190 156 245 193 151 242 196 146 239 199 141 235 201 137 230 203 133 225 205 131 219 207 128 213 209 127 207 210 127 200 211 127 193 211 128 186 212 130 179 212 132 172 212 135 165 212 139 158 212 143 151 211 148 145 210 153 138 209 158 133 208 163 127 207 168 122 205 173 117 203 178 113 202 182 110 199 186 107 197 190 105 195 193 103 192 196 103 189 198 102 186 199 103 183 200 104 180 201 106 177 201 108 173 200 111 170 199 114 166 197 118 163 195 123 159 192 128 156 189 133 152 186 138 149 182 144 146 178 150 143 173 156 140 169 162 137 164 169 135 159 175 133 154 181 132 149 186 130 143 192 130 138 197 129 133 202 129 128 206 130 123 210 130 118 214 131 113 216 133 109 219 135 104 220 137 100 221 139 97 222 142 93 221 144 90 220 147 87 218 150 84 216 152 81 213 155 79 209 157 78 205 159 76 200 161 75 195 162 74 189 163 73 183 164 73 177 163 73 170 163 73 163 161 74 155 160 75 148 157 76 140 154 77 133 151 79 126 147 80 118 142 82 111
116 142 167 122 145 173 128 147 180 135 149 186 141 151 191 147 153 197 152 154 201 157 156 205 161 158 209 164 159 211 167 161 213 168 162 215 169 164 216 169 165 216 168 166 215 166 168 214 164 169 212 161 170 210 158 171 207 154 172 204 150 173 199 146 174 195 142 175 190 139 176 185 135 177 179 133 178 173 131 178 167 129 179 161 129 180 155 129 181 149 130 182 143 132 182 137 135 183 131 138 184 126 143 185 121 148 186 116 153 186 112 160 187 108 166 188 105 173 189 102 179 190 100 186 191 99 192 192 98 197 193 98 203 194 98 207 195 100 211 196 101 214 197 104 216 199 107 217 200 111 217 201 115 217 202 120 215 203 125 213 205 131 210 206 137 207 207 144 203 208 150 199 209 157 194 210 165 190 211 172 186 212 179 182 212 186 178 213 194 175 213 201 172 213 207 170 212 214 169 211 220 168 210 226 168 208 231 169 206 235 170 203 240 172 200 243 174 196 246 177 192 248 180 187 250 183 182 251 187 177 251 190 171 251 194 166 250 197 160 248 200 154 245 203 149 242 206 144 239 208 140 234 211 136 229 213 132 224 214 130 218 216 128 212 217 128 206 218 128 199 218 129 192 219 130 185 219 133 178 219 136 171 219 140 164 218 144 157 218 149 150 217 154 143 216 159 137 215 164 131 213 169 126 212 174 121 210 179 117 208 184 113 206 188 109 204 191 107 202 194 105 199 197 103 196 199 103 193 201 103 190 201 103 187 202 104 183 202 106 180 201 109 176 199 112 172 198 115 169 195 120 165 192 124 161 189 129 157 186 134 153 182 140 150 178 146 146 173 152 143 168 158 140 163 164 137 158 170 135 153 176 133 148 182 131 143 188 130 138 193 129 132 198 128 127 203 128 122 207 129 118 211 130 113 214 131 108 217 132 104 219 134 100 220 136 96 221 139 93 221 141 90 221 144 87 220 147 84 218 149 82 215 152 80 212 155 78 208 157 76 204 159 75 199 161 75 193 162 74 188 163 74 181 163 74 175 163 74 168 162 75 160 161 76 153 159 77 146 156 78 138 153 80 131 149 81 123 145 83 116
117 145 162 123 147 169 130 149 176 136 151 182 142 153 188 148 154 194 153 156 199 158 158 203 162 159 207 165 161 210 167 162 213 169 164 215 169 165 216 169 166 217 168 167 217 166 168 216 164 169 215 161 170 213 157 171 210 154 172 207 150 173 203 146 174 199 142 175 195 138 176 190 135 176 184 133 177 179 131 178 173 129 178 167 129 179 161 129 180 154 131 181 148 133 181 142 136 182 137 140 183 131 145 183 126 150 184 121 156 185 116 162 186 112 168 187 108 175 187 105 182 188 103 188 189 101 194 190 100 200 191 99 205 192 99 209 193 100 213 194 101 215 196 103 217 197 106 218 198 109 218 199 113 217 201 117 215 202 122 213 204 128 209 205 134 206 206 140 202 208 146 197 209 153 193 210 160 188 211 168 184 212 175 180 213 182 177 214 189 174 214 196 172 215 203 170 215 210 169 214 216 169 213 222 170 212 228 171 210 233 173 207 238 175 204 242 178 201 245 182 197 248 185 192 250 189 187 251 193 182 252 196 176 252 200 170 251 204 164 250 207 158 248 210 153 245 213 147 242 215 142 238 218 138 234 220 134 229 221 132 223 222 130 217 223 129 211 224 129 204 225 129 198 225 131 191 225 134 183 225 137 176 225 141 169 224 145 162 223 150 155 223 155 148 222 160 142 221 166 136 219 171 130 218 176 125 216 181 120 214 185 116 212 189 112 210 193 109 208 196 106 205 199 105 203 201 103 200 202 103 197 203 103 193 203 104 190 203 105 186 202 107 182 200 110 179 198 113 175 196 117 171 193 121 167 189 126 162 186 131 158 182 136 154 177 142 151 173 147 147 168 154 144 163 160 140 158 166 137 153 172 135 148 178 133 142 184 131 137 189 129 132 195 128 127 200 128 122 204 128 117 208 128 112 212 129 108 215 130 104 217 132 100 219 133 96 221 136 93 221 138 90 221 141 87 220 144 84 219 146 82 217 149 80 214 152 78 211 155 77 207 157 76 202 159 75 197 161 75 192 162 75 186 163 75 179 163 75 173 162 76 165 161 77 158 160 78 151 158 79 143 155 81 136 152 83 128 148 85 121
118 147 158 125 149 165 131 151 172 137 153 178 143 154 185 149 156 191 154 158 196 159 159 201 163 161 205 166 162 209 168 163 212 169 164 214 170 166 216 169 167 217 168 168 218 166 169 217 164 170 217 161 170 215 157 171 213 153 172 210 149 173 207 146 174 203 142 174 199 138 175 194 135 176 189 133 176 184 131 177 178 130 177 172 130 178 166 130 178 160 132 179 154 134 180 148 137 180 142 142 181 136 146 182 130 152 182 125 158 183 120 164 184 116 171 184 112 178 185 109 184 186 106 191 187 103 197 188 102 202 189 100 207 190 100 211 191 100 214 192 101 217 193 103 218 195 105 219 196 108 218 197 111 217 199 115 215 200 120 212 202 125 209 203 130 205 205 136 200 206 143 196 208 149 191 209 156 187 211 163 183 212 171 179 214 178 176 215 185 173 215 192 172 216 199 170 216 206 170 216 213 171 216 219 172 215 225 174 213 230 176 211 235 179 209 240 183 206 243 187 202 247 191 197 249 195 192 251 199 187 252 203 181 253 207 175 253 211 169 252 214 162 250 217 156 248 220 150 245 222 145 242 224 140 237 226 136 233 227 133 228 228 131 222 229 130 216 230 130 210 230 130 203 230 132 196 230 135 189 230 138 182 229 142 175 229 146 168 228 151 160 227 157 154 226 162 147 225 167 141 224 173 135 223 178 129 221 183 124 220 187 119 218 191 115 216 195 111 214 198 108 211 200 106 209 202 104 206 203 103 203 204 103 200 204 103 196 203 104 193 202 106 189 201 108 185 199 111 181 196 114 177 193 118 172 189 122 168 186 127 164 181 132 160 177 138 155 172 143 151 167 149 147 162 155 144 157 161 140 152 167 137 147 174 135 142 180 132 136 185 130 131 191 129 126 196 128 121 201 127 117 205 127 112 209 127 108 213 128 103 216 129 100 218 131 96 220 133 93 221 135 89 221 138 87 221 141 84 220 143 82 218 146 80 216 149 79 213 152 77 210 155 76 205 157 76 201 159 75 196 160 75 190 162 76 184 162 76 177 162 77 170 162 78 163 161 79 156 159 80 149 157 82 141 154 84 134 150 86 126
119 149 153 126 151 161 132 152 168 138 154 175 144 156 181 150 157 187 155 159 193 160 160 198 164 161 203 166 163 207 169 164 210 170 165 213 170 166 216 170 167 217 168 168 218 166 169 219 164 169 218 161 170 217 157 171 215 153 172 213 149 172 210 145 173 207 142 173 203 138 174 199 135 174 194 133 175 188 131 175 183 130 176 177 130 176 171 131 177 165 133 177 159 135 178 153 139 178 147 143 179 141 148 179 135 154 180 130 160 180 125 166 181 120 173 182 116 180 183 112 186 183 109 193 184 106 199 185 104 204 186 102 209 187 101 213 188 101 216 189 101 218 190 102 219 192 104 219 193 107 219 195 110 217 196 113 215 198 117 211 199 122 208 201 127 204 203 133 199 204 139 195 206 146 190 208 152 186 210 159 182 211 166 178 213 174 175 214 181 173 216 188 172 217 195 171 218 202 171 218 209 172 218 215 174 218 222 176 217 227 180 215 233 183 213 237 187 210 242 192 206 245 196 202 248 201 197 251 205 192 252 209 186 253 213 179 253 217 173 253 221 166 252 223 160 250 226 153 248 228 148 245 230 142 241 231 138 237 232 135 232 233 132 227 234 131 221 234 130 215 234 131 208 234 133 202 234 136 195 233 139 187 233 143 180 232 148 173 232 153 166 231 158 159 230 164 152 229 169 145 228 175 139 227 180 133 226 185 128 224 189 123 222 193 118 221 197 114 219 199 111 216 202 108 214 204 106 211 205 104 209 205 103 206 205 103 202 204 104 199 203 105 195 201 106 191 199 109 187 196 112 183 193 115 178 189 119 174 185 123 169 181 128 165 177 134 160 172 139 156 167 145 152 162 151 148 157 157 144 151 163 140 146 169 137 141 175 134 136 181 132 130 187 130 125 192 128 121 197 127 116 202 126 111 206 126 107 210 127 103 213 128 99 216 129 96 218 131 92 220 133 89 221 135 87 221 138 84 220 140 82 219 143 80 218 146 79 215 149 78 212 152 77 208 155 76 204 157 76 199 159 76 194 160 77 188 161 77 182 162 78 175 162 79 168 161 80 161 160 82 154 158 83 146 155 85 139 152 87 131
120 150 149 127 152 156 133 154 163 139 156 170 145 157 177 151 158 183 156 160 190 161 161 195 164 162 200 167 163 205 169 164 209 170 165 212 171 166 215 170 167 217 169 168 218 167 168 219 164 169 219 161 170 219 157 170 218 153 171 216 149 171 213 145 172 210 141 172 207 138 172 203 135 173 198 133 173 193 131 174 188 131 174 182 131 174 177 132 175 171 134 175 165 136 175 158 140 176 152 145 176 146 150 177 140 156 177 135 162 178 129 168 178 124 175 179 120 182 179 116 189 180 112 195 181 109 201 182 106 206 183 104 211 184 103 214 185 102 217 186 102 219 187 103 220 188 104 220 190 106 219 191 108 217 193 112 214 194 115 211 196 120 207 198 124 203 200 130 198 202 136 193 204 142 189 206 148 185 208 155 181 210 162 177 212 169 175 213 176 173 215 184 172 217 191 172 218 198 172 219 205 174 219 212 177 220 218 180 219 224 183 218 230 188 216 235 192 214 239 197 211 243 202 207 247 207 202 250 211 197 252 216 190 253 220 184 254 223 177 254 227 170 254 229 163 252 232 156 250 233 150 248 235 145 244 236 140 240 237 136 236 237 133 231 237 132 226 237 131 220 237 132 213 237 134 207 236 137 200 236 140 193 235 144 186 235 149 179 234 154 171 233 160 164 233 166 157 232 171 150 231 177 144 230 182 138 229 187 132 227 191 126 226 195 122 224 198 117 223 201 113 221 203 110 219 205 107 216 206 105 214 206 104 211 206 103 208 205 103 204 204 104 201 202 105 197 199 107 193 196 109 189 193 113 184 189 116 180 185 120 175 181 125 170 176 130 166 171 135 161 166 141 156 161 146 152 156 152 148 150 159 144 145 165 140 140 171 137 135 177 134 130 183 131 125 188 129 120 194 127 115 199 126 111 203 126 106 207 126 102 211 126 99 214 127 95 217 128 92 219 130 89 220 132 87 221 135 84 221 138 82 220 141 81 219 144 79 217 147 78 214 149 78 211 152 77 207 155 77 202 157 77 197 159 78 192 160 78 186 161 79 180 162 80 173 161 81 166 160 83 159 159 85 151 157 87 144 154 89 136
121 152 144 127 154 151 134 155 159 140 157 166 146 158 173 152 159 180 157 160 186 161 162 192 165 163 197 168 164 202 170 164 207 171 165 211 171 166 214 170 167 216 169 167 218 167 168 220 164 168 220 161 169 220 157 169 219 153 169 218 149 170 216 145 170 213 141 170 210 138 171 207 135 171 202 133 171 198 132 171 193 131 172 187 131 172 182 132 172 176 135 172 170 138 173 164 141 173 158 146 173 152 151 174 146 157 174 140 164 174 134 170 175 129 177 175 124 184 176 120 191 177 116 197 177 112 203 178 109 208 179 107 212 180 105 216 181 104 218 182 103 220 183 103 221 184 104 220 186 105 219 187 107 217 189 110 214 190 113 210 192 117 206 194 122 202 196 127 197 198 132 192 200 138 188 202 145 184 205 151 180 207 158 177 209 165 174 211 172 173 214 179 172 216 187 173 217 194 174 219 201 176 220 208 179 221 214 183 221 221 187 220 226 192 219 232 197 217 237 202 215 241 208 211 245 213 206 248 217 201 251 222 195 253 226 188 254 229 181 255 232 174 255 234 167 254 236 159 252 238 153 250 239 147 247 239 142 244 240 138 240 240 135 235 239 133 230 239 132 224 239 133 218 238 135 212 238 138 205 237 141 198 236 146 191 236 151 184 235 156 177 234 162 170 234 168 163 233 173 156 232 179 149 231 184 142 231 189 136 230 193 131 228 197 125 227 200 120 226 203 116 224 205 112 222 207 109 220 207 107 218 207 105 215 207 104 212 206 103 209 204 103 206 202 104 202 199 106 198 196 108 194 192 110 190 189 113 185 184 117 181 180 121 176 175 126 171 170 131 166 165 137 161 160 142 157 155 148 152 149 154 148 144 160 143 139 166 140 134 172 136 129 178 133 124 184 131 119 190 128 114 195 127 110 200 126 106 204 125 102 208 125 98 212 126 95 215 127 92 217 128 89 219 130 87 220 132 85 220 135 83 220 138 81 219 141 80 218 144 79 216 147 78 213 150 78 209 153 78 205 155 78 201 157 79 196 159 79 190 160 80 184 161 81 178 161 83 171 161 84 164 160 86 156 158 88 149 155 90 142
122 153 139 128 155 147 135 156 154 141 157 162 147 159 169 153 160 176 158 161 182 162 162 188 166 163 194 168 164 200 170 164 204 171 165 209 171 165 212 171 166 215 169 166 218 167 167 220 164 167 221 161 168 221 157 168 221 153 168 220 149 168 218 145 168 216 142 168 213 138 169 210 136 169 206 133 169 202 132 169 197 132 169 192 132 169 187 133 169 181 135 169 175 139 169 169 143 170 163 147 170 157 153 170 151 159 170 145 165 171 139 172 171 134 179 172 129 186 172 124 192 173 119 199 173 116 204 174 112 209 175 109 214 176 107 217 176 105 220 177 104 221 179 104 221 180 104 221 181 105 219 183 107 217 184 109 214 186 112 210 188 115 206 190 120 201 192 124 196 194 129 192 196 135 187 198 141 183 201 147 179 203 154 176 206 161 174 209 168 173 211 175 173 214 182 174 216 189 176 218 197 179 220 204 182 221 210 187 222 217 192 222 223 197 222 229 202 220 234 208 218 239 213 215 243 218 211 247 223 206 250 227 200 252 231 193 254 234 186 255 237 178 255 239 170 255 240 163 254 241 155 252 241 149 250 241 143 247 241 139 243 241 136 239 240 134 234 240 133 229 239 134 223 238 136 217 237 139 211 236 143 204 236 147 197 235 153 190 235 158 182 234 164 175 233 170 168 233 176 161 232 181 154 232 187 147 231 191 141 230 196 135 230 199 129 229 203 124 228 205 119 226 207 115 225 208 112 223 209 109 221 208 106 219 208 105 217 206 104 214 204 103 211 202 104 207 199 105 204 196 106 200 192 108 195 188 111 191 184 114 186 179 118 181 174 123 177 169 127 171 164 133 166 159 138 161 153 144 157 148 150 152 143 156 147 138 162 143 132 168 139 127 174 135 123 180 132 118 185 130 113 191 128 109 196 126 105 201 125 101 205 125 98 209 125 95 212 125 92 215 126 89 217 128 87 219 130 85 220 132 83 220 135 81 220 138 80 219 141 80 217 144 79 215 147 79 212 150 79 208 153 79 204 155 80 199 158 80 194 159 81 188 160 83 182 161 84 175 161 86 169 160 88 161 159 89 154 157 92 147
123 154 134 129 156 142 136 157 150 142 158 157 148 159 164 153 160 171 158 161 178 163 162 185 166 163 191 169 163 197 171 164 202 172 164 206 172 165 211 171 165 214 169 165 217 167 166 219 164 166 221 161 166 222 157 166 222 153 166 222 149 166 220 145 166 219 142 166 216 138 166 213 136 166 210 134 166 206 133 166 202 132 166 197 133 166 192 134 166 186 136 166 180 140 166 174 144 166 168 148 166 162 154 166 156 160 167 150 167 167 144 174 167 139 180 167 133 187 168 128 194 168 124 200 169 119 206 169 115 211 170 112 215 171 110 218 172 107 221 173 106 222 174 105 222 175 105 221 176 105 220 178 107 217 179 108 214 181 111 210 183 114 205 185 117 200 187 122 196 189 126 191 191 132 186 194 137 182 196 143 179 199 150 176 202 157 175 205 164 174 208 171 174 211 178 176 214 185 178 216 192 181 219 199 186 221 206 190 222 213 196 223 219 201 223 225 207 223 231 213 221 236 219 219 241 224 215 245 229 210 248 233 204 251 236 197 253 239 190 255 241 182 255 242 174 255 243 165 255 243 158 254 243 151 252 242 145 250 241 140 246 241 137 243 240 135 238 238 134 233 237 135 228 236 137 222 235 140 216 235 144 209 234 149 202 233 155 195 233 160 188 232 166 181 232 172 173 231 178 166 231 184 159 231 189 152 230 194 146 230 198 139 230 202 133 229 205 128 228 207 123 228 209 118 226 209 114 225 210 111 224 209 108 222 208 106 220 207 104 217 205 103 215 202 103 212 199 104 208 195 105 204 191 107 200 187 109 196 183 112 192 178 115 187 173 119 182 168 124 177 163 129 172 157 134 166 152 139 161 147 145 156 141 151 151 136 157 147 131 163 142 126 169 138 121 175 135 117 181 131 112 187 129 108 192 127 104 197 125 101 202 124 97 206 124 94 210 124 91 213 125 89 216 126 87 218 128 85 219 130 83 220 133 82 220 135 81 219 138 80 218 141 80 216 145 80 214 148 80 211 151 80 207 153 81 202 156 82 197 158 83 192 159 84 186 160 86 180 160 87 173 160 89 166 159 91 159 158 93 152
123 155 130 130 156 137 136 157 145 142 158 152 148 159 160 154 160 167 159 161 174 163 162 181 167 162 187 169 163 193 171 163 199 172 163 204 172 164 208 171 164 212 170 164 216 167 164 218 164 164 221 161 164 222 157 164 223 153 164 223 149 164 222 146 164 221 142 164 219 139 164 217 136 163 213 134 163 210 133 163 206 133 163 201 133 163 196 135 163 191 137 163 185 140 163 180 145 162 174 150 162 168 155 163 162 161 163 155 168 163 149 175 163 144 182 163 138 189 163 133 195 164 128 201 164 123 207 165 119 212 165 115 216 166 112 219 167 110 221 168 108 223 169 107 223 170 106 222 171 106 220 172 107 217 174 108 214 176 110 209 177 112 205 179 116 200 181 119 195 184 124 190 186 129 186 188 134 182 191 140 179 194 146 176 197 153 175 200 159 175 204 166 175 207 174 177 210 181 180 213 188 184 217 195 189 219 202 194 222 209 200 223 216 206 224 222 212 225 228 218 224 233 224 222 238 229 218 243 233 214 247 237 208 250 240 201 252 242 194 254 243 186 255 244 177 255 244 168 255 244 160 255 243 153 254 242 146 252 240 141 249 239 138 246 237 135 242 236 135 237 235 136 232 233 138 227 232 142 221 231 146 214 231 151 207 230 157 201 229 163 193 229 169 186 229 175 179 229 181 172 229 187 164 229 192 157 229 197 151 229 201 144 228 204 138 228 207 132 228 209 126 228 210 121 227 211 117 226 211 113 225 210 110 224 209 107 222 207 105 220 205 104 218 202 103 215 198 103 212 195 104 209 190 105 205 186 107 201 181 110 197 177 113 192 172 116 187 166 120 182 161 125 177 156 130 171 150 135 166 145 141 161 140 147 155 135 153 150 130 159 146 125 165 141 120 171 137 116 177 134 111 183 130 107 188 128 104 193 126 100 198 124 97 203 124 94 207 123 91 210 124 89 214 125 87 216 126 85 218 128 83 219 130 82 220 133 81 220 136 81 219 139 81 217 142 81 215 145 81 213 148 81 209 151 82 205 154 83 201 156 84 196 158 85 190 159 87 184 160 89 178 160 91 171 159 93 164 158 95 157
124 156 125 130 157 133 137 158 140 143 159 148 149 159 155 155 160 163 159 161 170 164 161 177 167 162 183 170 162 190 172 162 196 172 162 201 172 162 206 172 162 210 170 162 214 168 162 217 165 162 220 161 162 222 157 162 223 154 162 224 150 162 223 146 161 223 142 161 221 139 161 219 136 160 217 135 160 213 133 160 210 133 160 205 134 159 201 135 159 196 138 159 190 141 159 185 146 159 179 151 158 173 156 158 167 163 158 161 169 158 155 176 159 149 183 159 143 190 159 137 197 159 132 203 160 127 208 160 123 213 161 119 217 161 115 220 162 113 222 163 110 223 164 108 223 165 107 222 166 107 220 167 107 217 168 108 214 170 109 209 172 111 205 173 114 200 175 118 195 178 122 190 180 126 186 183 131 182 185 137 179 188 142 177 192 149 176 195 155 176 199 162 177 202 169 179 206 176 182 210 183 187 213 191 192 217 198 198 220 205 204 222 211 210 224 218 217 225 224 223 225 230 229 224 235 233 222 240 238 218 244 241 212 248 243 206 251 245 198 254 245 189 255 245 180 255 244 171 255 243 162 255 241 154 255 240 148 254 238 142 252 236 138 249 234 136 245 232 136 241 231 137 236 229 139 231 228 143 225 227 148 219 226 153 213 226 159 206 225 166 199 225 172 192 225 178 184 225 184 177 225 190 170 225 195 163 226 199 156 226 203 149 226 206 142 226 209 136 227 211 130 227 212 125 227 212 120 226 212 116 226 211 112 225 209 109 224 207 107 222 204 105 220 201 104 218 198 103 215 194 103 212 189 104 209 185 106 205 180 108 201 175 110 197 170 114 192 165 117 187 159 122 182 154 126 176 149 131 171 144 137 165 138 142 160 133 148 155 128 154 149 124 160 145 119 166 140 115 172 136 110 178 132 107 184 129 103 189 127 99 195 125 96 199 124 94 204 123 91 208 123 89 211 123 87 214 124 85 216 126 84 218 128 83 219 130 82 219 133 82 219 136 81 218 140 81 217 143 82 214 146 82 211 149 83 208 152 84 204 154 85 199 157 87 194 158 89 188 159 90 182 160 92 176 160 94 169 159 96 162
124 156 120 131 157 128 137 158 135 143 158 143 149 159 150 155 160 158 160 160 165 164 160 172 168 161 179 170 161 186 172 161 192 173 161 198 173 161 203 172 161 208 170 161 212 168 160 216 165 160 219 162 160 221 158 160 223 154 159 224 150 159 224 146 158 224 143 158 223 139 158 222 137 157 219 135 157 217 134 156 213 134 156 209 134 156 205 136 155 200 139 155 195 142 155 190 146 155 184 151 154 178 157 154 172 163 154 166 170 154 160 177 154 154 184 154 148 191 154 142 198 154 137 204 155 132 209 155 127 214 156 123 218 156 119 221 157 116 223 157 113 224 158 111 224 159 109 223 160 108 221 161 108 218 163 108 214 164 109 209 166 111 205 167 113 200 169 116 195 171 119 190 174 124 186 176 128 182 179 133 179 182 139 177 185 145 176 189 151 176 193 158 178 197 165 181 201 172 184 205 179 189 209 186 195 213 193 201 217 200 208 221 207 215 223 214 221 226 220 227 227 226 233 226 232 238 224 237 241 221 242 244 216 246 246 210 250 246 202 252 246 193 255 245 183 255 243 174 255 241 164 255 239 156 255 236 149 255 234 143 254 232 139 251 229 137 248 227 137 244 225 138 240 224 141 235 223 145 230 222 150 224 221 156 218 220 162 211 220 169 204 220 175 197 220 182 190 220 188 182 221 193 175 221 198 168 222 202 161 222 206 154 223 209 147 224 211 141 224 212 135 225 213 129 225 213 124 225 212 119 225 211 115 225 209 111 224 207 108 223 204 106 222 200 104 220 197 103 218 192 103 215 188 103 212 183 104 209 178 106 205 173 108 201 168 111 196 163 114 191 158 118 186 152 123 181 147 127 175 142 133 170 137 138 164 132 144 159 127 150 153 122 156 148 118 162 143 113 168 139 109 174 135 106 179 131 102 185 128 99 191 126 96 196 124 93 200 123 91 205 122 89 208 122 87 212 123 85 214 124 84 217 126 83 218 128 83 219 131 82 219 134 82 219 137 83 218 140 83 216 144 84 213 147 85 210 150 86 207 153 87 202 155 88 197 157 90 192 158 92 186 159 94 180 159 96 173 159 98 167
124 156 116 131 157 123 138 158 131 144 158 138 150 159 146 155 159 153 160 159 161 165 159 168 168 159 175 171 159 182 172 159 188 173 159 195 173 159 200 172 159 205 171 159 210 168 158 214 165 158 218 162 157 221 158 157 223 154 156 224 150 156 225 147 155 225 143 155 225 140 154 224 137 154 222 136 153 220 134 153 217 134 152 213 135 152 209 137 151 205 139 151 200 143 151 195 147 150 189 152 150 183 158 150 177 164 150 171 171 150 165 178 150 159 185 150 153 192 150 147 198 150 142 205 150 136 210 150 131 215 151 127 219 151 122 222 152 119 224 152 116 225 153 113 225 154 111 223 155 109 221 156 109 218 157 109 214 158 109 210 160 110 205 161 112 200 163 115 195 165 118 190 167 121 186 170 126 182 173 130 179 175 136 177 179 141 177 182 147 177 186 154 179 190 161 182 194 168 186 199 175 192 204 182 198 208 189 204 213 196 211 218 203 218 221 210 225 225 216 231 227 223 237 227 229 241 227 234 244 224 239 246 220 244 247 213 248 247 206 251 246 196 254 244 186 255 241 176 255 238 166 255 235 157 255 232 149 255 229 144 255 226 140 254 224 138 251 221 138 248 219 139 244 218 143 239 216 147 234 215 153 228 215 159 222 214 166 216 214 172 209 214 179 202 214 185 195 215 191 188 215 197 181 216 201 173 217 205 166 218 209 159 219 211 152 220 213 145 221 214 139 222 214 133 223 214 127 223 213 122 224 211 118 224 209 114 224 206 110 223 203 108 223 199 105 221 195 104 220 191 103 218 186 103 215 182 103 212 177 105 209 171 106 205 166 109 200 161 112 196 156 115 191 150 119 185 145 124 180 140 129 174 135 134 169 130 139 163 125 145 157 121 151 152 116 157 147 112 163 142 108 169 137 105 175 133 101 181 130 98 186 127 95 192 125 93 197 123 91 201 122 89 205 122 87 209 122 86 212 123 85 215 124 84 217 126 84 218 129 83 219 132 83 219 135 84 218 138 84 217 141 85 215 145 86 212 148 87 209 151 89 205 153 90 201 156 92 196 157 94 190 159 96 184 159 98 178 159 100 171
125 156 111 131 157 119 138 157 126 144 158 133 150 158 141 156 158 148 161 158 156 165 158 163 168 158 171 171 158 178 173 158 185 174 157 191 174 157 197 173 157 203 171 156 208 169 156 212 166 155 216 162 155 219 159 154 222 155 153 224 151 153 225 147 152 226 144 152 226 140 151 225 138 150 224 136 150 222 135 149 220 135 149 217 135 148 213 137 148 209 140 147 204 143 147 199 148 146 194 153 146 188 159 146 183 165 145 177 172 145 171 179 145 164 186 145 158 193 145 152 199 145 147 205 145 141 211 145 136 216 146 131 220 146 126 223 147 122 225 147 119 225 148 116 225 149 113 224 149 111 222 150 110 219 151 109 215 153 110 210 154 110 205 155 112 200 157 114 195 159 116 190 161 119 186 163 123 182 166 128 180 169 133 178 172 138 178 175 144 178 179 150 180 183 156 184 187 163 188 192 170 194 197 177 200 203 184 207 208 192 215 213 199 222 218 206 229 223 212 235 226 219 240 228 225 244 228 231 246 227 236 248 223 241 248 217 245 246 209 249 244 200 252 241 189 255 238 178 255 234 168 255 230 158 255 226 150 255 223 144 255 220 140 255 217 138 253 215 139 250 213 141 247 211 145 243 210 150 238 209 156 233 208 163 227 208 169 221 208 176 214 208 183 207 208 189 200 209 195 193 210 200 186 211 205 179 212 208 171 213 211 164 214 214 157 216 215 150 217 215 143 218 215 137 220 215 131 221 213 126 222 211 121 222 208 116 223 205 113 223 202 109 222 198 107 222 194 105 221 189 104 219 185 103 217 180 103 215 175 104 212 169 105 208 164 107 204 159 109 200 153 112 195 148 116 190 143 120 184 138 125 179 133 130 173 128 135 167 124 141 161 119 146 156 115 152 150 111 158 145 107 164 140 104 170 136 101 176 132 98 182 128 95 188 126 93 193 124 91 198 122 89 202 121 87 206 121 86 210 122 85 213 123 85 215 125 84 217 127 84 218 129 84 218 132 85 218 136 85 217 139 86 216 142 87 214 146 89 211 149 90 208 152 92 204 154 94 199 156 95 194 158 97 188 159 100 182 159 102 176
125 156 107 131 156 114 138 157 121 144 157 129 150 157 136 156 157 144 161 157 151 165 157 159 169 157 166 171 156 174 173 156 180 174 155 187 174 155 193 173 154 199 172 154 205 169 153 210 166 153 214 163 152 218 159 151 221 155 150 223 151 150 225 148 149 226 144 148 227 141 147 227 138 147 226 137 146 225 136 145 222 135 145 220 136 144 217 138 144 213 140 143 208 144 142 204 148 142 199 153 142 193 159 141 188 165 141 182 172 141 176 179 141 170 186 141 164 193 141 158 200 141 152 206 141 146 212 141 140 216 141 135 220 141 130 223 142 126 225 142 122 226 143 119 226 144 116 225 144 113 222 145 112 219 146 111 215 147 110 211 148 110 206 150 111 201 151 113 196 153 115 191 155 118 187 157 121 183 159 125 180 162 130 179 165 135 178 168 140 179 171 146 181 175 152 185 180 159 190 185 166 196 190 173 202 196 180 210 202 187 217 208 194 225 214 201 232 219 208 238 224 215 243 227 221 246 229 227 248 229 233 249 226 238 247 220 243 245 213 247 242 203 250 238 192 253 233 180 255 229 169 255 224 159 255 220 150 255 217 144 255 213 140 255 210 139 255 208 140 253 206 143 250 205 147 246 203 153 242 203 159 237 202 167 231 202 174 225 202 181 219 202 187 213 202 194 206 203 199 199 204 204 191 205 208 184 206 211 177 208 214 169 209 216 162 211 216 155 213 217 148 214 216 142 216 215 135 217 213 130 219 211 124 220 208 119 221 204 115 221 201 112 222 196 108 222 192 106 221 187 104 220 182 103 218 177 103 216 172 103 214 167 104 211 162 105 207 156 107 203 151 110 199 146 113 194 141 117 189 136 121 183 131 126 177 126 131 171 122 136 165 118 142 160 114 148 154 110 154 148 106 160 143 103 166 138 100 172 134 97 178 130 95 183 127 93 189 124 91 194 122 89 199 121 88 203 121 87 207 121 86 210 122 85 213 123 85 215 125 85 217 127 86 218 130 86 218 133 87 218 137 88 217 140 89 215 143 90 213 147 92 210 150 94 206 152 95 202 155 97 197 157 99 192 158 101 186 158 104 180
125 155 103 131 156 110 138 156 117 144 156 124 150 156 131 156 156 139 161 155 147 165 155 154 169 155 162 172 154 169 173 154 176 174 153 183 174 153 190 174 152 196 172 151 202 170 150 207 167 150 212 164 149 216 160 148 220 156 147 223 152 146 225 148 146 227 145 145 228 142 144 228 139 143 228 137 142 227 136 142 225 136 141 223 136 140 220 138 140 216 141 139 212 144 138 208 148 138 203 154 138 198 159 137 193 166 137 187 172 137 181 179 136 175 186 136 169 193 136 163 200 136 157 206 136 151 212 137 145 217 137 140 221 137 135 224 137 130 226 138 126 227 138 122 227 139 119 225 140 116 223 140 114 220 141 112 216 142 111 212 143 111 207 144 111 202 146 112 196 147 114 192 149 117 187 151 119 184 153 123 181 155 127 179 158 132 179 160 137 180 164 143 182 168 149 186 172 155 191 177 162 197 182 168 204 188 175 212 194 183 220 201 190 227 208 197 234 214 204 240 221 211 245 225 217 248 229 223 249 230 229 249 228 235 246 223 240 243 216 244 238 206 248 233 194 252 228 182 255 223 170 255 218 159 255 214 150 255 210 144 255 206 140 255 204 140 255 201 141 255 200 145 252 198 150 249 197 157 245 196 164 240 196 171 235 196 178 230 196 186 224 196 192 217 197 198 211 197 203 204 198 208 197 199 212 189 201 214 182 202 216 174 204 217 167 206 218 160 208 217 153 210 216 146 212 215 140 213 212 134 215 210 128 217 206 123 218 203 118 219 199 114 220 194 110 221 190 108 221 185 105 220 180 104 219 175 103 218 170 102 216 164 103 213 159 104 210 154 105 206 149 108 202 144 110 197 139 114 192 134 118 187 129 122 181 124 127 175 120 132 169 116 137 163 112 143 157 109 149 152 105 155 146 102 161 141 99 167 136 97 173 132 94 179 128 92 185 125 91 190 123 89 195 121 88 200 120 87 204 120 87 207 121 86 211 122 86 213 123 86 215 125 87 217 128 87 218 131 88 218 134 89 217 138 91 216 141 92 214 145 94 212 148 95 208 151 97 205 153 99 200 155 101 195 157 103 190 158 106 184
125 155 99 131 155 106 138 155 112 144 155 119 150 154 127 156 154 134 161 154 142 165 153 149 169 153 157 172 152 164 174 152 172 175 151 179 175 150 186 174 149 192 173 148 198 170 148 204 168 147 209 164 146 214 161 145 218 157 144 221 153 143 224 149 142 226 145 141 228 142 140 228 140 139 229 138 139 228 137 138 227 136 137 225 137 136 223 138 136 220 141 135 216 144 134 212 149 134 208 154 134 203 159 133 197 166 133 192 172 133 186 179 132 180 186 132 174 193 132 168 200 132 162 206 132 156 212 133 150 217 133 145 221 133 139 224 133 134 226 134 130 227 134 125 227 135 122 226 136 119 224 136 116 221 137 114 217 138 113 213 139 112 208 140 112 203 141 112 197 142 114 193 144 116 188 145 118 184 147 121 182 149 125 180 151 129 180 154 134 181 157 139 183 160 145 187 164 151 192 168 157 198 173 164 206 179 171 214 186 178 222 193 185 230 201 192 237 208 199 243 216 206 247 222 213 249 227 219 250 230 226 248 230 231 245 226 237 240 219 242 234 209 246 228 197 250 222 183 253 216 170 255 211 159 255 207 150 255 203 143 255 200 140 255 197 140 255 195 143 255 194 148 254 193 154 251 192 161 248 191 168 244 191 176 239 191 184 234 191 191 228 191 197 222 191 203 216 192 208 209 193 212 202 194 215 195 195 217 187 197 218 180 199 219 172 201 219 165 203 218 158 205 216 151 207 214 144 209 212 138 211 208 132 213 205 126 215 201 121 217 197 117 218 192 113 219 187 109 220 182 107 220 177 104 219 172 103 218 167 102 217 162 102 215 156 103 212 151 104 209 146 106 205 141 108 201 136 111 196 131 115 191 127 119 185 123 123 179 118 128 173 114 133 167 111 139 161 107 144 155 104 150 149 101 156 144 99 162 139 96 168 134 94 174 130 92 180 127 91 186 124 90 191 122 89 196 120 88 200 120 87 204 120 87 208 120 87 211 122 88 214 124 88 215 126 89 217 129 90 217 132 91 217 136 92 216 139 94 215 143 96 213 146 97 210 149 99 207 152 101 203 154 103 199 156 105 194 157 108 188
125 154 95 131 154 101 138 154 108 144 153 115 150 153 122 156 153 129 161 152 137 166 151 145 169 151 152 172 150 160 174 149 167 175 148 175 175 148 182 175 147 188 173 146 195 171 145 201 168 144 206 165 143 211 161 142 216 158 141 220 154 140 223 150 139 226 146 138 227 143 137 229 140 136 229 138 135 229 137 134 229 137 133 227 137 132 225 139 132 223 141 131 220 145 131 216 149 130 212 154 130 207 159 129 202 166 129 197 172 129 191 179 129 185 186 129 179 193 129 173 200 129 167 206 129 161 212 129 155 217 129 149 221 130 144 225 130 139 227 130 134 228 131 129 228 132 125 227 132 122 225 133 119 222 134 116 218 134 114 214 135 113 209 136 113 204 137 113 199 138 113 194 139 115 189 141 117 185 142 120 183 144 123 181 145 127 180 148 131 181 150 136 184 153 141 187 156 147 193 160 153 199 165 160 207 170 167 215 177 173 223 184 180 231 192 188 238 201 195 244 209 202 248 218 208 250 225 215 250 229 222 247 231 228 243 229 233 236 222 238 230 212 243 223 198 247 216 184 251 210 170 254 204 158 255 200 149 255 197 143 255 194 141 255 192 142 255 190 145 255 189 151 255 188 158 254 188 166 251 187 174 247 187 182 243 186 189 238 186 196 232 187 202 227 187 208 220 187 212 214 188 215 207 189 218 200 190 219 192 192 220 185 194 220 178 196 219 170 198 218 163 200 216 156 202 213 149 205 210 142 207 207 136 209 203 130 212 199 125 214 194 120 215 189 115 217 184 111 218 179 108 219 174 106 219 169 104 218 164 102 217 159 102 216 153 102 214 148 103 211 143 104 207 139 106 203 134 109 199 129 112 194 125 115 189 121 119 183 117 124 177 113 129 171 109 134 165 106 140 159 103 146 153 101 152 147 98 158 141 96 164 136 94 170 132 92 176 128 91 181 125 90 187 122 89 192 121 89 197 119 88 201 119 88 205 119 89 209 121 89 211 122 90 214 124 91 215 127 92 217 130 93 217 133 94 217 137 96 216 141 97 214 144 99 212 147 101 209 150 103 206 153 105 202 155 107 197 156 110 192
124 153 92 131 153 98 138 152 104 144 152 111 150 151 118 156 151 125 161 150 132 166 149 140 169 149 147 172 148 155 174 147 163 175 146 170 176 145 177 175 144 184 174 143 191 172 142 197 169 140 203 166 139 208 162 138 213 158 137 218 155 136 221 151 135 224 147 134 227 144 133 229 141 132 230 139 131 230 138 130 230 137 130 229 138 129 228 139 128 225 142 128 223 145 127 219 149 127 216 154 126 211 159 126 207 165 126 201 172 125 196 179 125 190 186 125 184 193 125 178 200 126 172 206 126 166 212 126 160 217 126 154 222 127 149 225 127 143 227 128 138 229 128 133 229 129 129 228 130 125 226 130 121 223 131 119 220 132 116 215 133 115 210 133 114 205 134 113 200 135 113 195 136 114 191 137 116 187 138 118 184 140 121 182 141 124 181 143 128 182 144 133 184 147 138 188 149 144 193 153 149 199 157 156 207 161 162 215 167 169 224 174 176 232 182 183 240 191 190 246 201 197 250 211 204 251 220 211 250 227 217 246 231 224 240 230 230 232 225 235 224 214 240 216 200 245 209 184 249 203 169 252 198 157 255 195 147 255 192 142 255 190 141 255 188 144 255 187 149 255 186 156 255 186 164 255 185 172 253 185 180 250 184 188 246 184 196 241 184 202 236 183 208 231 184 212 225 184 216 218 184 219 212 185 220 205 186 221 198 187 221 190 189 221 183 191 219 175 193 217 168 195 215 161 198 212 154 200 208 147 203 204 140 205 200 134 208 196 128 210 191 123 212 186 118 214 181 114 216 176 110 217 171 107 218 166 105 218 161 103 217 156 102 216 150 101 215 145 102 212 141 103 209 136 104 206 131 106 202 127 109 197 123 112 192 119 116 186 115 120 180 111 125 174 108 130 168 105 135 162 102 141 156 100 147 150 98 153 144 96 159 139 94 165 134 93 171 130 91 177 126 91 182 123 90 188 121 90 193 119 89 198 119 90 202 119 90 206 119 90 209 121 91 212 123 92 214 125 93 215 128 95 216 131 96 217 135 98 216 139 99 215 142 101 213 145 103 211 149 105 208 151 107 204 154 109 200 156 112 195
124 152 88 131 151 94 137 151 100 144 150 106 150 150 113 156 149 120 161 148 127 165 147 135 169 146 143 172 145 150 174 144 158 176 143 165 176 142 173 176 141 180 174 140 187 172 138 193 170 137 200 167 136 205 163 135 211 159 134 215 156 133 220 152 132 223 148 130 226 145 129 228 142 128 230 140 128 231 139 127 231 138 126 231 138 125 230 140 125 228 142 124 226 145 124 223 149 123 219 154 123 215 159 123 211 165 122 206 172 122 201 179 122 195 186 122 189 193 123 184 199 123 177 206 123 171 212 124 165 217 124 159 222 124 153 225 125 148 228 126 142 229 126 137 230 127 133 229 128 128 227 128 125 225 129 121 221 130 119 217 131 116 212 132 115 207 133 114 202 133 114 197 134 114 192 135 115 188 136 117 185 137 120 183 138 123 182 139 126 182 140 130 184 142 135 187 144 140 193 146 146 199 149 152 207 153 158 215 158 165 224 164 171 233 172 178 240 181 185 246 191 192 250 203 199 251 214 206 249 224 213 244 230 220 237 232 226 228 227 231 219 216 237 210 201 242 203 184 246 197 168 250 193 155 253 190 146 255 189 142 255 187 143 255 187 147 255 186 153 255 186 161 255 185 170 255 185 179 255 184 188 252 183 195 249 183 202 245 182 208 240 182 213 235 182 217 229 181 220 223 182 221 217 182 222 210 183 223 203 184 222 195 185 221 188 187 219 181 188 216 173 191 213 166 193 210 159 196 206 151 198 202 145 201 197 138 204 193 132 207 188 126 209 183 121 211 178 117 213 173 113 215 168 109 216 162 106 217 157 104 217 152 102 217 147 101 215 142 101 214 138 102 211 133 103 208 129 104 204 125 107 200 121 109 195 117 113 189 113 117 184 110 121 178 107 126 171 104 131 165 102 137 159 99 142 153 97 148 147 96 154 141 94 160 136 93 166 131 92 172 127 91 178 124 91 184 121 91 189 120 91 194 118 91 198 118 91 203 119 92 206 120 93 209 121 94 212 124 95 214 126 97 215 130 98 216 133 100 216 137 102 215 140 103 214 144 105 212 147 107 210 150 109 206 153 112 203 155 114 198
124 150 85 130 150 91 137 149 96 143 148 102 150 148 109 155 147 116 161 146 123 165 145 130 169 144 138 172 143 145 175 142 153 176 140 161 177 139 168 176 138 176 175 137 183 173 135 189 171 134 196 168 133 202 164 132 208 160 130 213 157 129 217 153 128 221 149 127 225 146 126 227 143 125 230 141 124 231 139 123 232 139 123 232 139 122 231 140 121 230 142 121 228 145 120 226 149 120 223 153 120 219 159 120 215 165 120 210 171 120 205 178 120 200 185 120 194 192 120 189 199 121 183 205 121 177 211 122 170 217 122 164 221 123 158 225 124 153 228 124 147 230 125 142 230 126 137 230 127 132 228 128 128 226 129 124 223 130 121 219 130 119 214 131 117 209 132 115 204 133 115 199 134 115 194 135 115 190 135 116 186 136 118 184 137 121 182 138 124 182 138 128 184 139 132 187 140 137 192 142 142 198 144 148 206 146 154 214 150 160 223 155 167 232 161 174 240 170 181 247 180 188 251 192 195 252 205 202 249 218 209 243 228 215 234 232 222 224 229 228 213 218 233 204 202 239 197 183 243 193 165 248 190 152 251 188 144 254 188 142 255 188 145 255 188 151 255 188 160 255 187 169 255 187 178 255 186 187 255 186 195 254 185 203 251 184 209 248 183 214 243 182 218 239 181 221 233 180 223 227 180 224 221 180 224 215 180 223 208 181 222 201 182 220 193 183 217 186 184 214 178 186 211 171 189 207 163 191 203 156 194 198 149 197 194 143 200 189 136 203 184 130 206 179 125 208 174 120 211 169 115 213 164 111 214 159 108 216 154 105 216 149 103 216 144 102 216 139 101 214 135 101 212 131 101 210 126 103 206 122 104 202 119 107 198 115 110 192 112 114 187 109 118 181 106 122 175 103 127 168 101 132 162 99 138 156 97 144 149 96 149 144 94 155 138 93 161 133 93 167 129 92 173 125 92 179 122 92 185 120 92 190 118 92 195 118 93 199 118 94 203 119 95 207 120 96 210 122 97 212 125 99 214 128 100 215 131 102 216 135 104 216 138 106 215 142 108 213 145 110 211 148 112 208 151 114 205 153 116 201
123 149 83 130 148 87 136 147 93 143 147 99 149 146 105 155 145 111 160 144 118 165 142 126 169 141 133 172 140 141 175 139 148 176 137 156 177 136 163 177 135 171 176 133 178 174 132 185 172 131 192 169 130 198 165 128 204 162 127 210 158 126 215 154 125 219 150 124 223 147 123 226 144 122 229 142 121 231 140 120 232 139 119 233 139 119 232 140 118 232 142 118 230 145 118 228 148 117 226 153 117 222 158 117 219 164 117 214 170 117 210 177 118 205 184 118 199 191 118 194 198 119 188 204 120 182 211 120 176 216 121 169 221 122 163 225 123 157 228 124 152 230 125 146 231 126 141 231 127 136 230 128 132 227 129 128 224 130 124 221 131 121 216 132 119 211 133 117 206 134 116 201 135 115 196 136 115 192 137 116 188 137 118 185 138 120 183 138 122 183 139 126 184 139 129 187 140 134 191 140 139 197 141 144 204 142 150 212 144 156 221 147 163 231 152 169 239 158 176 247 168 183 251 180 190 252 194 197 249 210 204 242 224 211 231 232 217 219 231 224 208 220 230 199 201 235 193 180 240 190 161 245 189 149 249 189 143 252 190 144 255 191 150 255 192 158 255 192 168 255 192 178 255 191 187 255 190 196 255 189 204 255 188 210 254 186 215 250 185 219 246 183 222 242 182 224 237 181 225 232 180 225 226 179 224 219 179 223 213 179 221 206 179 218 198 180 215 191 181 211 183 183 208 176 185 204 169 187 199 161 190 195 154 193 190 147 196 185 140 199 180 134 202 175 128 205 170 123 208 165 118 210 160 114 212 155 110 214 150 107 215 145 104 215 141 102 215 136 101 215 132 100 213 128 100 211 124 101 208 120 103 204 117 105 200 113 107 195 110 110 190 108 114 184 105 118 178 103 123 171 101 128 165 99 133 158 97 139 152 96 145 146 95 151 140 94 157 135 93 163 130 93 169 126 93 175 123 93 180 120 93 186 119 94 191 117 95 196 117 95 200 118 97 204 119 98 207 121 99 210 123 101 212 126 102 214 129 104 215 133 106 215 136 108 215 140 110 214 144 112 212 147 114 210 150 116 207 152 118 204
123 147 80 129 146 85 136 145 89 142 145 95 149 143 101 154 142 107 160 141 114 165 140 121 169 139 128 172 137 136 175 136 143 177 135 151 177 133 159 177 132 166 176 130 174 175 129 181 172 128 188 170 126 195 166 125 201 163 124 207 159 123 212 155 121 217 151 120 221 148 119 225 145 119 228 143 118 230 141 117 232 140 116 233 140 116 233 140 115 233 142 115 232 145 115 230 148 115 228 152 115 225 157 115 222 163 115 218 169 116 214 176 116 209 183 117 204 190 117 198 197 118 193 203 119 187 210 120 181 215 121 175 220 122 168 225 123 162 228 124 156 230 125 151 231 127 145 232 128 140 231 129 135 229 131 131 226 132 127 223 133 124 219 134 121 214 136 119 209 137 117 204 138 116 199 139 116 194 140 116 190 140 117 187 141 119 185 141 121 184 142 124 184 142 127 186 142 131 190 142 136 195 141 141 201 141 146 209 142 152 219 143 158 228 145 165 237 149 171 246 156 178 251 166 185 253 181 192 250 199 199 241 217 206 229 230 213 215 232 219 203 221 225 194 200 231 190 176 237 189 156 242 191 146 246 193 144 250 196 148 253 197 157 255 198 167 255 199 178 255 199 188 255 198 197 255 196 205 255 195 212 255 193 217 255 191 221 253 188 224 249 186 225 245 184 226 241 182 226 235 180 225 230 179 223 224 178 221 217 177 219 210 177 215 203 178 212 196 178 208 189 180 204 181 181 200 174 184 195 166 186 190 159 189 185 152 192 181 145 195 176 138 198 171 132 201 166 126 204 161 121 207 156 116 210 151 112 212 147 108 213 142 105 214 138 103 215 133 101 214 129 100 213 125 100 212 122 100 209 118 101 206 115 103 202 112 105 197 109 108 192 106 111 187 104 115 181 102 119 174 100 124 168 99 129 161 97 134 155 96 140 149 95 146 143 95 152 137 94 158 132 94 164 128 94 170 124 94 176 121 95 181 119 96 187 117 96 192 117 97 196 117 99 201 118 100 204 119 101 208 122 103 210 124 105 212 128 106 214 131 108 215 135 110 215 138 112 214 142 114 213 145 116 211 149 118 209 151 120 206
122 145 78 128 145 82 135 144 86 142 142 92 148 141 97 154 140 103 159 139 110 164 137 116 169 136 124 172 135 131 175 133 138 177 132 146 178 130 154 178 129 161 177 127 169 176 126 176 173 124 184 171 123 191 167 122 197 164 121 203 160 119 209 156 118 214 153 117 219 149 116 223 146 116 226 144 115 229 142 114 231 141 114 233 140 113 234 141 113 234 142 113 234 145 113 232 148 113 231 152 113 228 157 113 225 162 114 222 168 114 218 175 115 213 182 116 208 189 117 203 195 118 198 202 119 192 209 120 186 214 121 180 220 122 174 224 124 167 228 125 161 230 127 156 232 128 150 232 130 144 232 132 139 231 133 135 228 135 131 225 136 127 221 138 124 217 139 121 212 141 119 207 142 117 202 143 116 197 145 116 193 145 117 189 146 118 186 147 120 185 147 122 184 147 125 185 147 129 188 147 133 192 146 137 198 145 143 206 144 148 215 143 154 224 143 160 234 144 167 243 147 174 250 154 181 253 166 188 251 184 195 242 206 201 227 226 208 211 233 215 198 222 221 191 197 227 190 169 233 193 151 238 198 144 243 202 147 247 205 156 251 207 167 254 208 179 255 208 190 255 208 200 255 206 208 255 204 215 255 202 220 255 199 223 255 196 226 255 193 227 252 190 227 248 188 227 244 185 226 239 182 224 234 180 222 228 179 219 222 177 215 215 177 212 208 176 208 201 177 204 194 177 199 186 179 195 179 180 190 171 183 185 164 185 181 156 188 176 149 191 171 143 195 166 136 198 161 130 201 157 124 204 152 119 207 147 115 210 143 111 212 139 107 213 134 104 214 130 102 214 127 101 213 123 100 212 119 99 210 116 100 207 113 101 204 110 103 199 108 105 194 106 108 189 104 112 183 102 115 177 100 120 171 99 125 164 98 130 157 97 135 151 96 141 145 96 147 139 95 153 134 95 159 129 96 165 125 96 171 122 97 177 119 97 182 117 98 188 116 99 192 116 101 197 117 102 201 118 104 205 120 105 208 123 107 210 126 109 212 129 111 214 133 113 214 137 114 214 140 116 214 144 118 212 147 120 210 150 122 208
121 144 76 128 143 80 134 141 84 141 140 88 147 139 94 153 138 99 159 136 106 164 135 112 168 133 119 172 132 126 175 130 134 177 129 141 178 127 149 178 126 157 178 124 164 176 123 172 174 121 179 172 120 186 169 119 193 165 118 200 162 116 206 158 115 211 154 114 216 151 114 221 147 113 225 145 112 228 143 112 231 141 111 233 141 111 234 141 111 235 142 111 235 144 111 234 147 111 233 151 111 231 156 112 228 161 113 225 167 113 221 173 114 217 180 115 213 187 116 208 194 118 202 201 119 197 207 120 191 213 122 185 219 124 179 223 125 172 227 127 166 230 129 160 232 131 155 233 133 149 233 135 144 232 137 139 230 139 134 227 141 130 224 143 126 220 144 123 215 146 121 210 148 119 205 150 118 200 151 117 196 152 117 192 154 117 188 154 119 186 155 121 185 155 123 185 155 126 187 155 130 190 154 134 195 153 139 202 151 144 210 149 150 219 147 156 229 145 163 239 144 169 248 145 176 253 151 183 252 166 190 244 190 197 227 218 204 208 233 210 194 222 217 190 191 223 194 161 229 202 146 235 209 146 240 214 155 244 218 168 248 219 182 252 220 194 255 219 204 255 218 212 255 216 218 255 213 223 255 210 226 255 207 228 255 203 229 255 200 228 254 196 228 251 192 226 247 189 224 242 186 221 237 183 218 232 180 215 226 178 211 220 177 207 213 176 203 206 175 199 199 175 194 191 176 190 184 178 185 176 180 180 169 182 176 161 185 171 154 188 166 147 191 161 140 194 157 134 198 152 128 201 148 122 204 143 117 207 139 113 209 135 109 211 131 106 213 127 103 213 124 101 213 121 100 212 117 99 211 114 99 208 112 100 205 109 101 201 107 103 196 105 105 191 103 108 186 101 112 179 100 116 173 99 121 167 98 126 160 97 131 153 97 136 147 97 142 141 97 148 136 97 154 131 97 160 126 98 166 123 98 172 120 99 178 118 100 183 116 102 188 116 103 193 116 104 198 117 106 202 119 108 205 121 109 208 124 111 210 128 113 212 131 115 213 135 117 214 139 119 214 142 121 213 146 123 211 149 125 209
120 142 74 127 141 77 133 139 81 140 138 85 146 137 90 152 135 96 158 134 102 163 132 108 168 131 115 172 129 122 175 127 129 177 126 136 178 124 144 179 123 152 178 121 159 177 120 167 175 118 175 173 117 182 170 116 189 167 115 196 163 114 202 159 113 208 156 112 213 152 111 218 149 110 223 146 110 226 144 109 229 142 109 232 142 109 234 142 109 235 143 109 235 144 109 235 147 110 234 151 110 233 155 111 231 160 112 228 166 113 225 172 114 221 178 115 217 185 117 212 192 118 207 199 120 201 205 122 196 212 124 190 217 126 184 222 128 178 226 130 171 230 132 165 232 134 159 234 137 154 234 139 148 233 141 143 232 144 138 230 146 133 226 148 129 223 151 126 218 153 123 214 155 121 209 157 119 204 159 118 199 161 117 195 162 117 191 164 118 188 165 120 186 166 122 186 167 124 186 167 128 188 166 132 192 166 136 197 164 141 204 162 146 212 159 152 222 155 158 232 150 165 242 146 171 251 144 178 254 150 185 248 169 192 229 203 199 206 232 206 191 221 212 194 180 219 205 150 225 217 145 231 225 156 236 229 171 241 232 186 246 232 199 249 232 209 253 231 217 255 229 223 255 226 226 255 223 229 255 219 230 255 215 230 255 211 229 255 206 228 255 202 226 253 198 223 249 193 220 245 189 217 241 186 214 236 182 210 230 180 206 224 177 202 217 176 197 211 175 193 204 174 189 196 175 184 189 175 179 181 177 175 174 179 170 166 182 166 159 184 161 152 188 156 145 191 152 138 195 148 132 198 144 126 201 140 121 205 136 116 207 132 111 210 128 108 211 125 104 212 122 102 213 118 100 212 116 99 211 113 98 209 110 99 206 108 99 202 106 101 198 104 103 193 103 106 188 102 109 182 100 113 175 99 117 169 99 122 162 98 127 156 98 132 149 98 138 143 98 143 137 98 149 132 99 155 127 100 161 123 100 167 120 101 173 118 103 179 116 104 184 115 105 189 116 107 194 116 108 198 118 110 202 120 112 206 123 114 208 126 116 211 130 117 212 133 119 213 137 121 213 141 123 213 144 125 212 148 127 210
119 140 73 126 138 76 132 137 79 139 136 83 145 134 87 151 133 92 157 131 98 163 129 104 167 128 110 171 126 117 174 125 124 177 123 132 178 121 139 179 120 147 179 118 155 178 117 162 176 115 170 174 114 177 171 113 184 168 112 191 164 111 198 161 110 204 157 109 210 154 108 215 150 108 220 147 107 224 145 107 228 143 107 231 142 107 233 142 107 235 143 108 236 144 108 236 147 109 236 150 110 235 154 111 233 159 112 231 164 113 228 170 114 224 177 116 220 183 118 216 190 120 211 197 122 206 203 124 200 210 126 195 216 128 189 221 131 183 225 133 176 229 136 170 232 138 164 234 141 158 235 144 153 235 146 147 234 149 142 232 152 137 229 155 133 226 158 129 222 160 126 217 163 123 213 165 121 208 168 119 203 170 118 199 173 118 195 175 118 191 177 119 189 178 121 187 180 123 186 181 126 187 181 129 189 181 133 193 181 138 198 179 143 204 177 148 213 174 154 222 169 160 233 162 167 244 153 173 252 146 180 253 148 187 236 178 194 205 227 201 191 217 208 206 162 214 225 145 221 236 158 227 242 178 232 244 195 238 245 208 242 244 217 247 243 224 250 241 228 254 238 230 255 235 231 255 232 231 255 228 230 255 223 229 255 218 227 255 214 224 255 209 222 255 204 219 252 199 215 248 194 212 244 189 208 239 185 204 234 182 200 228 179 195 222 176 191 215 175 187 208 174 182 201 173 178 194 174 173 186 175 169 179 176 165 171 179 160 164 181 156 156 185 152 149 188 148 142 191 143 136 195 140 130 199 136 124 202 132 119 205 129 114 208 125 110 210 122 106 211 119 103 212 117 101 212 114 99 211 112 98 209 109 98 207 108 98 204 106 99 200 104 101 195 103 103 190 102 106 184 101 109 178 100 113 171 100 118 165 99 122 158 99 127 151 99 133 145 100 139 139 100 144 133 101 150 129 102 156 124 103 162 121 104 168 118 105 174 116 106 180 115 108 185 115 109 190 116 111 195 117 113 199 119 114 203 122 116 206 125 118 208 128 120 211 132 122 212 136 124 213 139 125 213 143 127 212 146 129 211
118 138 72 125 136 74 131 135 77 138 133 81 144 132 85 150 130 89 156 128 94 162 127 100 167 125 106 171 123 113 174 122 120 177 120 127 179 118 134 179 117 142 180 115 150 179 114 157 177 113 165 175 111 173 173 110 180 169 109 187 166 108 194 162 107 201 159 107 207 155 106 212 152 106 217 149 106 222 146 105 226 144 105 230 143 106 232 143 106 234 143 107 236 144 107 237 146 108 237 149 109 236 153 111 235 158 112 233 163 114 231 168 115 228 175 117 224 181 119 220 188 121 215 195 124 210 201 126 205 208 129 199 214 131 194 219 134 188 224 137 181 228 140 175 231 143 169 234 146 163 235 149 157 236 152 151 235 155 146 234 159 141 232 162 136 229 165 132 225 168 128 221 171 125 217 174 123 212 177 120 208 180 119 203 183 118 199 186 118 195 188 119 192 191 120 189 193 121 188 195 124 187 197 127 188 198 130 189 199 135 192 199 139 197 199 144 203 198 150 210 196 156 219 191 162 230 184 169 242 171 175 253 154 182 250 147 189 210 210 196 197 201 203 232 145 210 248 167 216 252 193 222 253 211 228 253 221 234 252 227 239 251 230 244 250 232 248 248 232 251 246 232 254 243 231 255 239 229 255 235 227 255 231 224 255 226 222 255 221 219 255 215 215 255 210 212 254 204 208 250 199 204 247 194 201 242 189 197 237 185 192 232 181 188 226 178 184 220 175 180 213 174 176 206 173 171 199 173 167 191 173 163 184 174 159 176 176 155 169 179 151 161 182 147 154 185 143 147 188 139 140 192 136 134 196 132 127 199 129 122 203 126 117 205 123 112 208 120 108 210 117 105 211 115 102 211 113 100 211 111 98 210 109 97 207 107 97 205 106 98 201 104 99 196 103 101 191 102 103 186 102 106 180 101 110 173 101 114 167 101 118 160 101 123 153 101 128 147 102 134 141 102 140 135 103 146 130 104 152 125 105 158 121 106 164 118 107 170 116 109 175 115 110 181 115 112 186 115 114 191 116 115 195 118 117 200 120 119 203 123 121 206 127 122 209 130 124 210 134 126 212 138 128 212 142 130 212 145 131 211
117 136 72 123 134 73 130 133 76 136 131 79 143 129 82 149 128 86 155 126 91 161 124 97 166 122 102 170 121 109 174 119 115 177 117 122 179 116 130 180 114 137 180 113 145 180 111 152 178 110 160 176 109 168 174 108 175 171 107 183 168 106 190 164 105 196 160 105 203 157 104 209 153 104 214 150 104 219 148 104 224 146 104 228 144 105 231 143 105 234 143 106 236 144 107 237 146 108 237 149 109 237 152 111 237 156 113 235 161 114 233 167 116 230 173 119 227 179 121 223 185 123 219 192 126 215 199 129 209 205 132 204 211 135 198 217 138 192 222 141 186 227 145 180 230 148 174 233 151 168 235 155 162 236 158 156 236 162 150 236 166 145 234 169 140 232 173 136 229 177 131 225 180 128 221 184 125 217 187 122 213 190 120 208 194 119 204 197 118 200 200 118 196 203 119 193 206 120 191 208 122 189 211 125 188 213 128 188 215 132 189 217 136 191 219 141 194 220 146 198 221 152 204 221 158 210 221 164 219 219 171 229 213 177 245 193 184 245 146 191 239 145 198 253 202 205 250 224 211 250 231 218 251 233 224 252 233 230 252 233 235 253 232 240 253 231 245 252 229 249 250 227 252 248 225 255 245 222 255 241 219 255 237 216 255 232 213 255 227 210 255 221 207 255 216 203 255 210 200 252 204 196 249 198 192 245 193 189 241 188 185 235 183 181 230 180 177 224 176 173 217 174 169 211 173 165 203 172 161 196 172 157 189 173 153 181 174 150 174 176 146 166 179 142 159 182 139 151 186 135 144 189 132 138 193 129 131 197 126 125 200 123 120 203 121 115 206 118 110 208 116 107 210 114 103 210 112 101 210 110 99 210 108 97 208 107 97 205 106 97 202 105 98 198 104 99 193 103 101 187 103 103 182 102 107 175 102 110 169 102 114 162 103 119 155 103 124 148 104 129 142 104 135 136 105 141 131 106 147 126 107 153 122 109 159 119 110 165 116 111 171 115 113 176 114 115 182 114 116 187 115 118 192 117 120 196 119 121 200 122 123 203 125 125 206 129 127 209 133 128 210 137 130 211 140 132 212 144 133 212
116 133 71 122 132 73 128 130 74 135 128 77 142 127 80 148 125 84 154 123 88 160 121 93 165 120 99 169 118 105 173 116 111 176 115 118 178 113 125 180 111 132 180 110 140 180 109 147 179 107 155 178 106 163 175 105 170 172 104 178 169 104 185 166 103 192 162 103 199 159 102 205 155 102 211 152 102 217 149 103 221 147 103 226 145 104 229 144 105 232 144 106 235 144 107 237 146 108 238 148 110 238 151 112 238 155 114 237 160 116 235 165 118 233 170 121 230 176 123 227 183 126 223 189 129 218 196 132 214 203 135 208 209 139 203 215 142 197 220 146 191 225 150 185 229 153 179 232 157 173 235 161 167 236 165 161 237 169 155 237 173 149 236 177 144 235 181 139 232 185 135 229 189 131 226 192 127 222 196 124 218 200 122 214 203 120 210 207 119 205 210 119 202 213 119 198 216 120 195 219 121 193 222 123 191 225 126 190 227 129 189 229 133 189 231 138 190 232 142 191 233 148 192 233 153 194 233 160 195 231 166 195 224 173 192 202 179 206 145 186 200 146 193 200 193 200 216 213 207 226 219 213 234 221 219 240 221 226 245 221 231 248 220 236 251 219 241 252 217 246 252 215 249 251 213 253 249 211 255 246 208 255 242 206 255 238 203 255 233 200 255 227 197 255 221 194 255 215 190 254 209 187 251 203 184 248 197 180 243 191 177 239 186 173 234 182 169 228 178 166 222 175 162 215 173 158 208 171 155 201 171 151 194 171 148 186 172 145 179 174 141 171 177 138 163 179 135 156 183 132 149 186 129 142 190 126 135 194 123 129 198 121 123 201 119 118 204 116 113 207 114 109 208 113 105 209 111 102 210 109 99 209 108 98 208 107 97 206 106 96 203 105 96 199 105 97 194 104 99 189 104 101 183 104 104 177 104 107 170 104 111 164 105 115 157 105 120 150 106 125 144 107 130 138 108 136 132 109 142 127 110 148 123 111 154 119 113 160 117 114 166 115 116 172 114 117 177 114 119 183 114 121 188 116 122 192 118 124 197 121 126 200 124 128 204 128 129 207 131 131 209 135 133 210 139 134 211 143 136 211
115 131 71 121 130 72 127 128 73 134 126 76 140 124 78 147 122 82 153 121 86 158 119 90 164 117 95 168 115 101 173 114 107 176 112 114 178 110 120 180 109 128 181 107 135 181 106 142 180 105 150 179 104 158 177 103 166 174 102 173 171 102 181 168 101 188 164 101 195 160 101 201 157 101 208 154 101 213 151 102 219 148 102 223 146 103 227 145 104 231 145 106 234 145 107 236 146 109 238 148 111 238 150 113 239 154 115 238 158 117 237 163 120 235 168 123 233 174 126 230 180 129 226 187 132 222 193 136 218 200 139 213 206 143 207 212 147 202 217 151 196 223 155 190 227 159 184 231 163 178 234 167 172 236 171 165 237 176 159 238 180 154 238 184 148 237 188 143 235 192 138 233 197 134 230 201 130 227 204 127 223 208 124 220 212 122 216 215 120 212 219 119 208 222 119 205 224 119 201 227 120 198 229 122 196 231 124 194 232 127 193 232 130 192 232 134 191 230 139 191 227 144 191 221 149 191 211 155 192 193 161 197 167 168 213 145 174 248 201 181 235 210 188 195 147 195 192 154 202 202 171 208 214 184 215 224 191 221 233 196 227 240 198 233 245 199 238 248 199 242 250 199 247 251 198 250 251 197 253 249 195 255 246 193 255 242 191 255 237 188 255 232 186 255 226 183 255 220 180 255 213 177 253 207 174 250 201 171 246 195 168 242 189 165 237 184 162 232 180 159 226 176 155 219 173 152 213 171 149 206 170 146 198 170 143 191 171 140 183 172 137 176 174 134 168 177 131 161 180 129 153 184 126 146 188 124 139 192 121 133 195 119 127 199 117 121 202 115 116 205 114 111 207 112 107 208 111 103 209 109 101 209 108 98 208 107 97 206 107 96 203 106 95 200 106 96 195 105 97 190 105 99 185 106 101 178 106 104 172 106 107 165 107 111 158 107 116 152 108 121 145 109 126 139 110 131 133 111 137 128 113 143 124 114 149 120 115 155 117 117 161 115 118 167 114 120 173 113 122 178 114 123 184 115 125 188 117 127 193 120 128 197 123 130 201 126 132 204 130 133 207 134 135 209 138 136 210 142 138 211
113 129 72 119 127 72 126 125 73 132 124 74 139 122 77 145 120 80 151 118 83 157 116 87 163 114 92 167 113 97 172 111 103 175 109 109 178 108 116 180 106 123 181 105 130 181 104 138 181 103 145 180 102 153 178 101 161 176 100 168 173 100 176 169 99 183 166 99 190 162 99 197 159 100 204 156 100 210 153 101 215 150 102 220 148 103 225 146 104 229 145 106 232 145 108 235 146 109 237 147 112 238 150 114 239 153 117 239 156 119 238 161 122 237 166 125 235 171 129 233 177 132 229 184 136 226 190 140 222 196 143 217 203 148 212 209 152 206 215 156 201 220 160 195 225 165 189 229 169 183 232 173 176 235 178 170 237 182 164 238 187 158 239 191 153 239 195 147 238 200 142 236 204 137 234 208 133 232 212 129 229 215 126 225 219 124 222 222 122 219 224 120 215 227 119 212 229 119 209 230 120 206 231 121 204 231 123 201 230 125 200 228 128 199 224 132 198 217 136 198 208 140 199 195 146 202 178 151 208 158 157 220 145 163 239 162 170 254 217 176 240 227 183 208 178 190 192 148 197 192 146 203 200 153 210 210 162 216 221 169 223 230 174 228 237 177 234 243 179 239 247 181 243 249 181 247 250 181 251 250 181 254 248 180 255 245 178 255 241 177 255 236 175 255 230 173 255 224 170 255 218 168 254 211 165 252 204 163 248 198 160 245 192 158 240 186 155 235 181 152 229 177 149 223 174 146 217 172 144 210 170 141 203 169 138 196 170 136 188 171 133 181 173 131 173 175 128 166 178 126 158 182 124 151 185 122 144 189 120 137 193 118 130 197 116 124 200 114 119 203 113 114 206 112 109 207 111 105 208 110 102 209 109 99 208 108 97 206 108 96 204 107 95 200 107 95 196 107 95 191 107 97 186 107 99 180 108 101 173 108 104 167 109 108 160 110 112 153 111 116 146 112 121 140 113 127 134 114 132 129 115 138 124 117 144 120 118 150 117 120 156 115 121 162 113 123 168 113 125 174 113 126 179 114 128 184 116 129 189 119 131 194 122 133 198 125 134 201 129 136 204 133 137 207 137 138 209 140 140 210
112 127 73 118 125 72 124 123 73 130 121 74 137 119 76 143 117 78 150 116 81 156 114 85 161 112 89 166 110 94 171 108 99 175 107 105 178 105 112 180 104 118 181 103 125 182 101 133 182 100 140 181 100 148 179 99 156 177 98 163 174 98 171 171 98 179 168 98 186 165 98 193 161 99 200 158 99 206 154 100 212 152 102 217 149 103 222 147 104 227 146 106 231 146 108 234 146 110 236 147 113 238 149 116 239 152 118 240 155 122 239 159 125 239 164 128 237 169 132 235 174 136 232 180 140 229 187 144 225 193 148 221 199 152 216 205 156 211 211 161 205 217 166 200 222 170 194 226 175 187 230 179 181 234 184 175 236 189 169 238 193 163 239 197 157 240 202 151 240 206 146 239 210 141 238 214 136 236 217 132 234 220 129 231 223 126 228 226 123 225 228 121 222 229 120 220 230 119 217 230 119 215 229 120 213 226 121 211 223 123 210 217 126 209 209 129 209 199 133 211 186 137 214 171 142 219 156 147 227 145 153 239 150 159 251 180 165 253 221 171 239 232 178 215 203 185 197 169 192 190 150 198 193 144 205 201 146 212 210 150 218 220 155 224 229 159 230 236 162 235 242 164 240 246 166 244 249 166 248 250 167 251 249 167 254 247 166 255 244 165 255 239 164 255 234 162 255 228 161 255 221 159 255 215 157 253 208 155 250 201 153 247 195 151 243 189 148 238 183 146 233 179 144 227 175 141 221 172 139 215 170 137 208 169 134 201 169 132 193 169 130 186 171 128 178 173 126 170 176 124 163 179 122 155 183 120 148 187 118 141 191 117 134 195 115 128 198 114 122 201 113 117 204 112 112 206 111 107 207 110 104 208 110 100 208 109 98 206 109 96 204 109 95 201 109 94 197 109 94 192 109 95 187 110 97 181 110 99 175 111 101 168 112 104 161 113 108 154 114 112 148 115 117 141 116 122 135 117 127 130 118 133 125 120 139 121 121 145 117 123 151 115 124 157 113 126 163 113 127 169 113 129 175 114 131 180 115 132 185 118 134 190 121 135 194 124 137 198 128 138 202 132 139 204 136 141 207 139 142 208
111 125 74 116 123 73 122 121 73 129 119 73 135 117 75 142 115 77 148 113 79 154 111 83 160 109 86 165 108 91 170 106 96 174 104 102 177 103 108 180 102 114 181 100 121 182 99 128 182 98 135 182 98 143 180 97 151 179 97 158 176 97 166 173 97 174 170 97 181 167 97 188 163 98 195 160 99 202 156 100 208 154 101 214 151 103 219 149 105 224 147 107 228 147 109 232 147 112 235 147 114 237 149 117 239 151 121 240 154 124 240 157 127 240 161 131 239 166 135 237 172 139 235 177 143 232 183 148 228 189 152 224 195 157 220 202 161 215 208 166 210 213 171 204 219 176 198 223 180 192 228 185 186 232 190 180 235 194 174 237 199 168 239 203 161 240 207 156 241 211 150 241 215 145 240 218 140 239 221 136 238 224 132 236 226 128 234 228 125 232 228 123 230 229 121 227 228 120 225 226 119 224 223 120 222 218 120 221 212 122 221 204 124 221 194 127 222 182 130 225 168 134 229 155 138 234 146 143 242 146 149 249 161 154 254 191 160 250 222 167 236 233 173 217 218 180 200 190 187 191 166 193 190 151 200 195 145 207 203 144 213 212 145 219 222 147 225 230 149 231 237 151 236 243 153 241 247 154 245 249 155 249 249 155 252 248 155 254 245 155 255 241 154 255 237 154 255 231 152 255 225 151 255 218 150 254 211 148 252 204 146 249 197 144 245 191 143 241 185 141 236 180 139 231 176 137 225 172 135 219 170 133 212 168 131 205 168 129 198 168 127 190 169 125 183 171 124 175 174 122 168 177 120 160 181 119 153 185 118 146 189 116 139 193 115 132 196 114 126 200 113 120 203 113 115 205 112 110 207 111 106 207 111 102 207 111 99 206 111 97 204 111 95 201 111 94 198 111 93 193 112 94 188 112 95 182 113 96 176 114 99 169 114 101 163 115 105 156 116 109 149 118 113 142 119 118 136 120 123 130 121 128 125 123 134 121 124 140 118 126 146 115 127 152 113 129 158 112 130 164 112 132 170 113 133 176 115 135 181 117 136 186 120 138 191 123 139 195 127 140 199 131 141 202 135 143 205 138 144 207
109 122 75 115 120 74 121 118 73 127 116 73 133 114 74 140 113 76 146 111 78 152 109 81 158 107 84 164 105 88 168 104 93 173 102 98 176 101 104 179 99 110 181 98 116 182 97 123 183 97 131 183 96 138 182 96 146 180 95 153 178 95 161 175 96 169 172 96 176 169 97 184 165 98 191 162 99 198 159 100 204 156 102 210 153 104 216 151 106 221 149 108 226 148 110 230 147 113 233 147 116 236 148 119 238 150 123 240 152 127 241 156 130 241 159 134 240 164 139 239 169 143 237 174 147 234 180 152 231 186 157 228 192 161 224 198 166 219 204 171 214 209 176 209 215 181 203 220 185 197 225 190 191 229 195 185 232 199 178 235 204 172 238 208 166 240 212 160 241 215 154 242 219 149 242 222 144 242 224 139 241 226 135 240 227 131 239 227 127 237 227 125 236 226 122 234 223 121 233 220 120 232 215 120 231 208 120 231 200 121 231 190 122 232 179 125 234 167 128 237 156 131 240 147 135 245 144 140 250 151 145 253 169 150 253 197 156 246 222 162 233 233 168 216 226 175 202 206 181 192 184 188 189 166 195 192 154 202 198 147 208 207 144 215 216 143 221 225 143 227 232 144 232 239 145 237 244 146 242 247 147 246 248 147 249 248 147 252 246 147 254 243 147 255 239 146 255 233 145 255 227 145 255 221 143 255 214 142 253 207 141 251 200 139 247 193 138 244 187 136 239 182 135 234 177 133 229 173 132 223 170 130 216 168 128 210 167 127 202 167 125 195 168 124 188 170 122 180 172 121 172 175 120 165 179 119 157 183 118 150 187 117 143 191 116 136 195 115 129 198 114 123 201 114 118 204 113 112 206 113 108 206 113 104 207 113 100 206 113 97 204 113 95 202 113 94 198 114 93 194 114 93 189 115 93 183 116 94 177 116 96 170 117 99 164 118 102 157 119 105 150 121 109 143 122 114 137 123 118 131 124 124 126 126 129 121 127 135 118 129 141 115 130 147 113 132 153 112 133 159 112 135 165 112 136 171 114 137 176 116 139 182 119 140 187 122 141 191 126 142 195 130 144 199 133 145 202 137 145 205
108 120 77 113 118 75 119 116 74 125 114 74 131 112 74 138 110 75 144 108 77 150 106 79 156 105 82 162 103 86 167 101 90 172 100 95 175 99 100 178 97 106 181 96 112 182 96 119 183 95 126 183 94 133 183 94 141 181 94 148 179 94 156 177 95 164 174 95 171 171 96 179 168 97 186 164 99 193 161 100 200 158 102 207 155 104 213 152 106 218 150 109 223 149 112 228 148 115 231 148 118 235 148 122 237 150 125 239 152 129 241 154 133 241 158 138 241 161 142 240 166 147 239 171 151 237 176 156 234 182 161 231 188 166 227 193 171 223 199 176 218 205 181 213 211 185 207 216 190 202 221 195 196 225 200 189 229 204 183 233 208 177 236 212 171 238 215 165 240 219 159 242 221 153 243 223 148 243 225 142 243 226 138 243 226 134 243 225 130 242 224 127 241 221 124 240 217 122 240 212 121 239 205 120 239 197 120 239 188 120 240 178 121 241 167 123 243 157 125 245 148 128 248 144 132 251 146 136 253 156 141 253 176 146 249 200 151 240 221 157 228 232 163 214 230 170 201 217 176 193 199 183 189 181 190 190 166 197 195 156 203 203 149 210 211 145 216 220 143 222 228 142 228 235 141 233 241 141 238 245 142 242 247 142 246 248 142 250 247 142 252 244 141 254 240 141 255 235 140 255 229 140 255 223 139 255 216 138 254 209 137 252 202 136 249 195 134 246 189 133 242 183 132 237 178 131 232 174 129 226 170 128 220 168 127 214 167 125 207 166 124 200 167 123 192 169 122 185 171 121 177 174 120 170 177 119 162 181 118 155 185 117 147 189 117 140 193 116 133 197 116 127 200 115 121 203 115 115 205 115 110 206 115 106 206 115 102 206 115 99 204 115 96 202 116 94 198 116 93 194 117 92 189 118 92 184 119 93 178 119 94 171 120 96 165 121 99 158 123 102 151 124 105 144 125 110 138 126 114 132 128 119 126 129 125 122 130 130 118 132 136 115 133 142 113 135 148 112 136 154 111 137 160 112 139 166 113 140 172 115 141 177 118 142 183 121 143 187 125 145 192 129 145 196 133 146 199 136 147 202
106 118 79 111 116 77 117 114 75 123 112 74 129 110 74 136 108 75 142 106 76 148 104 78 154 102 80 160 101 83 165 99 87 170 98 92 174 97 97 178 95 102 180 95 108 182 94 115 183 93 121 184 93 128 184 93 136 183 93 143 181 93 151 179 94 159 176 95 166 173 96 174 170 97 181 167 99 189 163 101 196 160 103 202 157 105 209 154 108 215 152 110 220 150 113 225 149 117 229 149 120 233 149 124 236 149 128 238 151 132 240 153 136 241 156 141 242 159 145 241 163 150 240 168 155 239 173 160 236 178 165 234 183 170 230 189 175 226 195 180 222 200 185 217 206 190 212 211 195 206 217 199 200 221 204 194 226 208 188 230 211 182 233 215 175 236 218 169 239 221 163 241 223 157 242 224 152 243 225 146 244 225 141 245 224 137 245 222 133 245 219 129 245 215 126 245 210 123 244 204 122 245 196 120 245 187 120 245 178 120 246 168 120 247 158 122 249 150 124 250 144 126 252 143 129 252 149 133 252 161 137 249 180 142 243 201 147 234 220 153 223 231 159 211 232 165 200 224 171 192 210 178 189 194 185 189 180 191 194 168 198 200 158 205 208 152 211 217 147 217 225 144 223 232 142 229 238 141 234 243 140 239 246 140 243 247 139 247 247 139 250 245 138 252 241 138 254 237 137 255 231 137 255 225 136 255 218 135 255 211 134 253 204 133 251 197 132 248 190 131 244 184 130 240 179 129 235 174 128 230 171 127 224 168 126 218 166 125 211 166 124 204 166 123 197 167 122 190 169 121 182 172 120 174 176 120 167 179 119 159 183 118 152 187 118 145 191 118 138 195 117 131 198 117 125 201 117 119 203 117 113 205 117 108 205 118 104 205 118 100 204 118 97 202 119 95 199 119 93 195 120 92 190 121 91 184 122 92 178 123 92 172 124 94 165 125 96 158 126 99 152 127 102 145 128 106 138 130 110 132 131 115 127 132 120 122 133 125 118 135 131 115 136 137 113 137 143 111 139 149 111 140 155 111 141 161 112 142 167 114 144 173 117 145 178 120 146 183 124 147 188 128 147 192 132 148 196 136 149 200
105 116 81 110 114 79 115 112 77 121 110 75 127 108 75 133 106 75 140 104 75 146 102 77 152 100 79 158 99 82 164 97 85 169 96 89 173 95 93 177 94 99 180 93 104 182 92 110 184 92 117 184 92 124 184 92 131 184 92 138 182 93 146 180 93 154 178 94 161 175 96 169 172 97 177 169 99 184 166 101 191 163 103 198 159 106 205 157 109 211 154 112 217 152 115 222 151 119 227 150 122 231 149 126 234 150 131 237 151 135 239 152 139 241 154 144 242 157 149 242 161 154 241 165 159 240 169 164 238 174 169 236 179 174 233 185 179 229 190 184 225 196 189 221 201 194 216 207 198 210 212 203 205 217 207 199 221 211 193 225 214 186 229 217 180 233 220 174 236 222 168 238 223 162 240 224 156 242 224 150 244 223 145 245 221 140 245 218 136 246 214 132 246 209 128 247 203 125 247 195 123 248 187 121 248 178 120 249 169 120 249 160 120 250 151 121 251 145 122 251 142 124 252 144 127 251 152 130 248 165 134 244 183 138 237 202 143 228 218 149 218 229 154 207 232 160 198 228 166 192 218 173 188 205 180 189 192 186 192 180 193 198 170 200 206 161 206 214 155 213 222 150 219 230 146 225 236 144 230 241 142 235 244 140 240 246 139 244 246 138 247 245 138 250 242 137 252 238 136 254 232 135 255 226 135 255 219 134 255 212 133 254 205 132 252 198 131 249 191 130 246 185 130 242 179 129 238 175 128 233 171 127 228 168 126 222 166 125 215 165 124 209 165 124 202 166 123 194 168 122 187 171 122 179 174 121 172 178 121 164 182 120 156 186 120 149 190 120 142 194 120 135 197 120 128 200 120 122 202 120 116 204 120 111 205 120 106 205 121 102 204 121 99 202 122 96 199 123 93 195 123 92 190 124 91 185 125 91 179 126 91 173 127 92 166 128 94 159 129 96 152 130 99 145 132 102 139 133 106 133 134 111 127 135 116 122 137 121 118 138 126 115 139 132 113 140 138 111 142 144 110 143 150 111 144 156 112 145 162 114 146 168 116 147 174 119 148 179 123 148 184 127 149 189 131 150 193 135 150 197
104 114 84 108 112 81 113 109 78 119 107 77 125 105 75 131 103 75 138 102 75 144 100 76 150 98 78 156 97 80 162 95 83 167 94 86 171 93 91 175 92 95 179 91 101 181 91 106 183 91 113 184 91 119 185 91 126 185 91 133 184 92 141 182 93 148 180 94 156 178 96 164 175 97 172 172 99 179 168 102 186 165 104 194 162 107 200 159 110 207 156 113 213 154 117 219 152 121 224 151 125 228 150 129 232 150 133 236 150 138 238 152 142 240 153 147 242 156 152 242 159 157 242 162 162 242 166 168 240 171 173 238 175 178 236 180 183 232 186 188 229 191 193 224 196 197 220 201 202 215 207 206 209 212 210 203 216 213 197 221 216 191 225 219 185 228 221 179 232 222 172 235 223 166 237 222 160 240 221 154 241 220 149 243 217 144 244 213 139 245 208 134 246 202 131 247 195 127 248 188 124 248 179 122 249 170 121 249 161 120 250 153 119 250 147 120 250 143 121 250 142 122 248 146 125 246 155 128 242 168 131 237 184 135 230 201 139 221 216 144 212 227 150 203 232 156 196 230 162 190 224 168 188 214 174 188 203 181 192 191 188 197 181 195 204 172 201 212 164 208 220 158 214 228 153 220 234 149 226 239 146 231 243 144 236 245 142 240 246 140 244 245 139 248 242 138 250 238 137 252 233 136 254 227 135 254 221 134 255 214 133 254 206 133 253 199 132 251 192 131 248 186 130 244 180 129 241 175 128 236 171 128 231 168 127 225 166 126 219 164 126 213 164 125 206 165 124 199 167 124 191 169 124 184 173 123 176 176 123 169 180 123 161 184 122 153 188 122 146 192 122 139 196 122 132 199 123 126 202 123 120 203 123 114 204 124 109 204 124 104 203 125 100 201 125 97 199 126 94 195 127 92 190 128 91 185 128 90 179 129 90 173 130 90 166 132 92 160 133 94 153 134 96 146 135 99 139 136 103 133 137 107 128 138 111 123 140 116 118 141 122 115 142 127 112 143 133 111 144 139 110 145 145 110 146 151 111 147 157 113 148 163 116 149 169 119 150 175 122 150 180 126 151 185 130 151 189 134 152 194
102 112 87 107 109 83 111 107 80 117 105 78 123 103 77 129 101 76 135 99 75 141 98 76 148 96 77 154 95 79 160 93 81 165 92 84 170 91 88 174 90 92 178 90 97 181 90 103 183 89 109 184 90 115 185 90 122 185 91 129 185 91 136 184 93 143 182 94 151 180 96 159 177 98 166 174 100 174 171 102 182 168 105 189 165 108 196 162 111 203 159 115 209 156 119 215 154 123 221 153 127 225 151 131 230 151 136 234 151 141 237 151 145 239 153 150 241 155 156 242 157 161 243 160 166 242 163 171 242 167 176 240 172 181 238 176 186 235 181 191 232 186 196 228 191 200 223 196 204 218 201 208 213 206 212 208 211 215 202 215 217 196 219 219 190 223 221 183 227 221 177 230 221 171 233 220 165 236 219 159 238 216 153 240 212 147 242 208 142 243 202 138 244 196 133 245 188 130 246 180 126 247 172 124 247 164 122 248 156 120 248 149 119 247 144 119 247 141 120 245 142 121 243 147 123 240 157 125 235 169 128 230 184 132 223 200 136 215 214 141 207 225 146 199 230 151 193 231 157 189 227 163 187 220 169 188 211 176 192 201 183 197 191 189 204 182 196 211 174 203 219 167 209 226 161 215 233 157 221 238 153 227 242 149 232 244 147 237 245 144 241 244 143 245 242 141 248 238 140 250 233 138 252 228 137 253 221 136 254 214 135 254 207 134 253 200 133 251 193 133 249 186 132 246 180 131 243 175 130 239 171 130 234 167 129 229 165 128 223 164 128 217 164 127 210 164 127 203 166 126 196 168 126 189 171 126 181 175 126 173 179 125 166 183 125 158 187 125 151 191 125 143 195 126 136 198 126 130 201 126 123 202 127 117 203 127 112 204 128 107 203 128 102 201 129 98 199 130 95 195 130 93 191 131 91 185 132 90 180 133 89 173 134 89 167 135 90 160 136 91 153 137 93 146 138 96 140 139 99 133 140 103 128 142 107 123 143 112 118 144 117 115 145 122 112 146 128 111 147 134 110 148 140 110 149 146 111 149 152 113 150 158 115 151 164 118 151 170 121 152 175 125 152 181 129 153 186 133 153 190
101 110 90 105 107 86 110 105 83 115 103 80 120 101 78 126 99 77 133 97 76 139 96 76 145 94 76 151 93 78 157 92 80 163 91 82 168 90 86 172 89 90 176 89 94 180 88 99 182 88 105 184 89 111 185 89 117 186 90 124 186 91 131 185 92 138 184 94 146 182 96 154 179 98 161 177 101 169 174 103 177 171 106 184 167 109 191 164 113 198 161 117 205 159 121 211 156 125 217 154 129 222 153 134 227 152 139 231 152 143 235 152 148 238 152 153 240 154 159 242 156 164 243 158 169 243 161 174 243 164 179 241 168 184 240 172 189 237 177 194 234 181 199 231 186 203 227 191 207 222 195 210 217 200 213 212 205 216 206 209 218 200 214 219 194 218 220 188 221 220 182 225 219 175 228 218 169 231 215 163 233 212 157 236 208 151 237 202 146 239 196 141 240 189 136 242 182 132 243 174 129 243 166 125 244 158 123 244 151 121 243 145 120 243 142 119 241 141 119 239 143 120 236 149 121 233 158 123 228 170 126 222 184 129 215 198 133 208 212 137 201 222 142 195 229 147 190 231 152 188 229 158 187 225 164 188 218 171 192 209 177 197 201 184 203 192 191 211 184 197 218 177 204 225 170 210 232 165 216 237 160 222 241 156 228 243 153 233 244 150 237 244 148 241 242 145 245 238 144 248 234 142 250 228 141 252 222 139 253 215 138 253 207 137 253 200 136 252 193 135 250 187 134 248 180 134 245 175 133 241 171 132 237 167 132 232 165 131 226 163 130 220 163 130 214 163 130 207 165 129 200 167 129 193 170 129 186 174 129 178 178 129 170 182 129 163 186 129 155 190 129 148 194 129 140 197 129 134 200 130 127 202 130 121 203 131 115 203 131 109 202 132 105 201 132 100 198 133 97 195 134 94 191 135 91 186 136 90 180 137 89 174 138 88 167 139 89 160 140 89 153 141 91 146 142 93 140 143 96 134 144 100 128 145 103 123 146 108 118 147 113 115 148 118 112 148 123 110 149 129 109 150 135 109 151 141 110 151 147 112 152 153 114 153 159 117 153 165 121 153 171 125 154 176 129 154 181 133 154 186
100 108 93 103 105 89 108 103 85 113 101 82 118 99 80 124 97 78 130 96 77 136 94 76 143 92 76 149 91 77 155 90 79 160 89 81 166 88 84 171 88 87 175 87 91 178 87 96 181 87 101 184 88 107 185 89 113 186 90 119 186 91 126 186 92 134 185 94 141 183 96 149 181 99 156 179 101 164 176 104 172 173 107 179 170 111 187 167 114 194 164 118 201 161 123 207 159 127 213 157 131 219 155 136 224 154 141 229 153 146 233 152 151 236 153 156 239 153 162 241 155 167 242 156 172 243 159 177 243 162 182 243 165 187 241 168 192 239 172 197 237 177 201 234 181 205 230 185 208 226 190 212 221 194 214 216 199 216 210 203 218 205 207 219 199 211 219 193 215 218 186 219 217 180 222 215 174 225 212 167 228 208 161 230 203 155 232 197 150 234 191 144 235 184 139 236 176 135 237 168 131 238 161 128 238 154 125 238 148 122 237 143 120 236 140 119 234 140 119 232 143 119 229 150 120 225 159 121 220 170 124 214 183 126 208 197 130 202 209 133 197 219 138 192 226 143 188 230 148 186 230 154 186 227 160 188 222 166 192 216 172 197 208 179 204 201 185 211 193 192 218 186 199 225 179 205 231 173 211 236 168 217 240 164 223 243 160 228 244 157 233 243 154 238 241 151 242 238 149 245 233 147 248 228 145 250 222 144 252 215 142 252 208 141 252 200 140 252 193 139 251 187 138 249 180 137 246 175 136 243 170 136 239 167 135 234 164 134 229 163 134 224 162 133 218 163 133 211 164 133 205 166 133 198 169 132 190 173 132 183 177 132 175 181 132 167 185 132 160 189 133 152 193 133 145 196 133 138 199 134 131 201 134 124 202 134 118 203 135 112 202 136 107 200 136 103 198 137 98 195 138 95 190 139 92 185 139 90 180 140 88 174 141 88 167 142 87 160 143 88 153 144 89 146 145 91 140 146 93 134 147 96 128 148 100 123 148 104 118 149 108 115 150 113 112 151 119 110 152 124 109 152 130 109 153 136 110 153 142 112 154 148 114 154 154 117 154 160 120 155 166 124 155 172 128 155 177 132 155 182
99 106 97 102 103 92 106 101 88 111 99 85 116 97 82 122 95 80 127 94 78 134 92 77 140 91 77 146 89 77 152 88 78 158 87 80 163 87 82 168 86 85 173 86 89 177 86 93 180 87 98 183 87 103 185 88 109 186 89 115 187 91 122 187 92 129 186 94 136 185 97 143 183 99 151 181 102 159 179 105 166 176 109 174 173 112 182 170 116 189 167 120 196 164 124 203 162 129 209 159 134 215 157 139 221 155 144 226 154 149 230 153 154 234 153 159 237 153 164 240 154 170 242 155 175 243 157 180 243 159 185 243 162 190 242 165 194 241 169 199 239 172 203 236 176 206 233 180 210 229 184 212 225 189 215 220 193 216 215 197 217 209 201 218 203 205 217 197 209 216 191 212 214 184 215 212 178 218 208 172 221 203 166 223 198 160 225 192 154 227 186 148 229 178 143 230 171 138 231 164 134 231 157 130 231 150 126 231 145 124 230 141 121 228 140 120 226 140 119 224 144 119 220 150 119 216 159 120 212 170 122 207 182 124 202 194 127 197 206 130 192 216 134 189 223 139 186 228 144 185 230 149 186 229 155 189 225 161 193 221 167 198 214 173 204 208 180 211 201 187 218 194 193 225 188 200 231 182 206 236 177 212 240 172 218 242 168 224 243 164 229 243 160 234 241 158 238 237 155 242 233 153 245 227 151 248 221 149 250 214 147 251 207 146 252 200 144 252 193 143 251 186 142 249 180 141 247 175 140 244 170 140 241 166 139 237 164 138 232 162 138 227 162 137 221 162 137 215 163 137 209 165 137 202 168 136 195 172 136 187 176 136 180 180 136 172 184 136 164 188 137 157 192 137 149 195 137 142 198 138 135 200 138 128 202 138 122 202 139 116 201 140 110 200 140 105 198 141 101 194 142 97 190 142 93 185 143 91 180 144 89 174 145 87 167 146 87 160 146 87 153 147 87 146 148 89 140 149 91 133 150 93 128 150 96 122 151 100 118 152 104 114 153 109 112 153 114 110 154 119 109 154 125 109 155 131 109 155 137 111 155 143 113 156 149 116 156 155 120 156 161 124 156 167 128 156 173 132 155 178
98 104 101 101 101 96 104 99 92 109 97 88 114 95 84 119 94 82 125 92 80 131 90 78 137 89 77 143 88 77 149 87 78 155 86 79 161 86 81 166 85 83 171 85 86 175 85 90 179 86 94 182 87 99 184 88 105 186 89 111 187 91 117 188 93 124 187 95 131 187 97 138 185 100 146 183 103 154 181 106 161 179 110 169 176 114 177 173 118 184 170 122 191 167 126 198 165 131 205 162 136 211 160 141 217 158 146 222 156 151 227 155 156 232 154 162 235 154 167 238 154 172 241 155 177 242 156 182 243 158 187 244 160 192 243 163 196 242 165 201 241 168 204 238 172 208 235 175 211 232 179 213 228 183 215 223 187 216 218 191 217 213 195 216 207 198 216 201 202 214 195 205 211 189 208 208 183 211 204 176 214 199 170 216 194 164 218 187 158 220 181 152 221 174 146 222 167 141 223 159 137 223 153 132 223 147 129 223 143 125 222 140 123 220 139 121 218 140 119 215 144 119 212 150 118 208 159 119 204 169 120 200 180 122 196 192 124 192 203 127 189 213 131 186 220 135 185 226 140 185 229 145 187 229 150 190 227 156 194 224 162 199 219 168 206 214 175 212 208 181 219 202 188 225 196 195 231 190 201 236 185 207 239 180 214 242 175 219 242 171 225 242 168 230 240 165 235 237 162 239 232 159 242 227 157 245 221 155 248 214 153 249 207 151 251 200 150 251 193 148 251 186 147 250 180 146 248 174 145 246 170 144 243 166 144 239 163 143 235 162 142 230 161 142 225 161 141 219 163 141 213 165 141 206 168 141 199 171 141 192 175 141 184 179 141 177 183 141 169 187 141 161 191 141 154 195 141 146 197 142 139 200 142 132 201 142 125 201 143 119 201 144 113 200 144 108 197 145 103 194 145 98 190 146 95 185 147 92 180 147 89 173 148 87 167 149 86 160 150 86 153 150 86 146 151 87 140 152 88 133 153 91 127 153 93 122 154 97 118 154 101 114 155 105 111 155 110 109 156 115 108 156 120 108 157 126 109 157 132 111 157 138 113 157 144 116 157 150 119 157 156 123 157 162 127 156 168 131 156 174
97 102 105 99 100 100 103 97 95 107 95 91 111 94 87 117 92 84 122 90 81 128 89 79 134 87 78 140 86 77 146 85 77 152 85 78 158 84 79 163 84 82 169 84 84 173 85 88 177 85 92 181 86 96 183 87 101 186 89 107 187 91 113 188 93 119 188 95 126 188 98 133 187 101 141 185 104 148 184 107 156 181 111 164 179 115 171 176 119 179 173 124 186 171 128 194 168 133 200 165 138 207 163 143 213 160 148 219 158 153 224 157 159 229 156 164 233 155 169 236 155 175 239 155 180 241 156 185 243 157 189 244 158 194 244 160 198 243 163 202 242 165 205 240 168 208 238 171 211 235 174 213 231 178 215 227 181 215 222 185 215 217 188 215 212 192 214 206 195 211 200 198 208 194 201 205 187 204 200 181 206 195 174 208 189 168 210 183 162 212 176 156 213 169 150 214 163 145 215 156 140 215 150 135 215 145 131 214 141 127 213 139 124 212 138 122 210 140 120 207 144 119 204 150 118 201 158 118 198 168 119 194 178 120 191 189 122 188 200 125 186 209 128 184 217 132 184 223 136 185 227 140 187 228 146 191 228 151 195 226 157 201 223 163 207 218 170 213 213 176 220 208 183 226 203 189 231 197 196 236 192 202 239 187 208 241 183 215 242 179 220 241 175 226 239 172 231 236 169 235 231 166 239 226 163 242 220 161 245 213 159 248 206 157 249 199 155 250 192 154 250 185 153 250 179 151 249 173 150 247 169 149 244 165 149 241 162 148 237 161 147 233 160 147 228 161 146 222 162 146 216 164 145 210 167 145 203 170 145 196 174 145 189 178 145 181 182 145 174 187 145 166 190 145 158 194 146 151 197 146 143 199 146 136 200 147 129 201 147 123 200 148 116 199 148 111 197 149 105 194 149 101 190 150 97 185 150 93 179 151 90 173 152 88 167 152 86 160 153 85 153 153 85 146 154 85 139 155 86 133 155 88 127 156 91 122 156 93 117 157 97 114 157 101 111 157 105 109 158 110 108 158 116 108 158 121 109 158 127 110 158 133 113 158 139 115 158 145 119 158 151 123 157 157 127 157 163 131 156 169
96 100 109 98 98 104 101 96 99 105 94 94 109 92 90 114 90 86 119 89 83 125 87 81 131 86 79 137 85 78 143 84 78 149 84 78 155 83 79 161 83 80 166 84 83 171 84 85 175 85 89 179 86 93 182 87 98 185 89 103 187 91 109 188 93 115 189 95 122 189 98 129 188 101 136 187 105 143 186 108 151 184 112 158 182 116 166 179 121 174 176 125 181 174 130 189 171 135 196 168 140 203 166 145 209 163 150 215 161 156 221 159 161 226 158 166 230 157 171 234 156 177 237 156 182 240 156 186 242 157 191 243 158 195 244 159 199 244 161 203 243 163 206 242 165 209 240 168 211 237 170 213 234 173 214 230 176 214 225 179 214 221 182 213 216 185 211 210 188 209 204 191 205 198 194 201 192 196 197 185 199 191 179 201 185 173 203 179 166 204 172 160 205 166 154 206 159 149 207 153 143 207 147 138 207 143 134 206 139 130 205 138 126 204 138 123 202 140 121 200 144 119 197 149 118 194 157 118 192 166 118 189 176 119 187 186 120 185 196 122 184 206 125 183 213 128 184 220 132 186 224 136 189 227 141 192 227 147 197 227 152 203 225 158 209 221 164 215 218 171 221 213 177 227 208 184 232 204 190 236 199 197 239 194 203 241 190 210 241 186 215 240 182 221 238 179 226 234 175 231 230 173 235 224 170 239 218 167 243 212 165 245 205 163 247 198 161 249 191 160 249 184 158 249 178 157 249 173 156 247 168 155 245 164 154 242 162 153 239 160 152 235 160 152 230 160 151 225 161 151 220 163 150 214 166 150 207 170 150 200 174 150 193 178 150 186 182 150 178 186 150 171 190 150 163 193 150 155 196 150 148 198 150 140 200 151 133 200 151 126 200 151 120 199 152 114 196 152 108 193 153 103 189 153 99 184 154 95 179 154 91 173 155 88 166 155 86 159 156 85 152 156 84 146 157 84 139 157 85 133 158 86 127 158 88 122 159 90 117 159 94 113 159 97 111 159 101 109 159 106 108 159 111 108 159 116 108 159 122 110 159 128 112 159 134 115 159 140 119 158 146 122 158 152 126 157 158 130 156 164
95 98 113 97 96 108 100 94 103 103 92 98 107 90 93 112 88 89 117 87 86 122 86 83 128 85 81 134 84 79 140 83 78 146 83 78 152 82 78 158 82 79 163 83 81 168 83 84 173 84 87 177 85 90 181 87 95 184 89 100 186 91 105 188 93 111 189 96 117 189 99 124 189 102 131 189 106 138 188 109 146 186 113 153 184 118 161 182 122 169 180 127 176 177 132 184 174 137 191 172 142 198 169 147 205 166 152 211 164 158 217 162 163 222 160 168 227 159 173 232 158 178 235 157 183 238 157 188 241 157 192 243 157 197 244 158 200 244 159 204 244 161 207 243 163 209 241 165 211 239 167 212 236 169 213 233 172 213 229 174 212 224 177 211 219 180 209 214 182 206 208 185 202 202 187 198 196 190 193 190 192 188 183 194 182 177 195 175 171 197 169 164 198 162 158 198 156 152 199 150 147 199 145 142 199 141 137 198 138 132 197 137 128 196 137 125 195 139 122 193 143 120 191 149 118 189 156 118 187 164 117 185 174 118 184 183 119 183 193 120 182 202 122 183 210 125 184 216 129 187 221 133 190 224 137 194 226 142 199 227 148 205 226 153 211 223 159 217 221 165 223 217 172 228 213 178 232 209 185 236 205 192 239 201 198 240 197 204 240 193 210 239 189 216 237 185 222 233 182 227 228 179 232 223 176 236 217 174 239 210 171 243 203 169 245 196 167 247 189 166 248 183 164 248 177 163 248 172 161 247 167 160 246 164 159 244 161 158 241 159 157 237 159 157 233 159 156 228 161 156 223 163 155 217 166 155 211 169 154 204 173 154 197 177 154 190 181 154 183 185 154 175 189 154 168 193 154 160 196 154 152 198 155 145 199 155 138 200 155 130 199 155 124 198 156 117 196 156 111 193 156 106 188 157 101 184 157 97 178 158 93 172 158 90 166 158 87 159 159 85 152 159 84 145 160 83 138 160 83 132 160 84 126 160 86 121 161 88 117 161 91 113 161 94 110 161 98 108 161 102 107 161 107 107 161 112 108 160 117 110 160 123 112 160 129 115 159 135 118 158 141 122 158 147 126 157 153 130 156 159
95 96 118 96 94 112 99 92 107 102 90 101 105 89 97 109 87 92 114 85 89 119 84 85 125 83 83 131 82 81 137 82 79 143 81 78 149 81 78 154 82 79 160 82 80 165 83 82 170 84 85 175 85 88 179 87 92 182 89 96 185 91 101 187 94 107 189 96 113 190 99 119 190 103 126 190 107 133 189 110 140 188 115 148 187 119 156 185 124 163 182 128 171 180 133 179 178 138 186 175 144 193 172 149 200 170 154 207 167 159 213 165 165 219 163 170 224 162 175 229 160 180 233 159 185 236 158 189 239 158 194 241 158 198 243 158 201 244 159 204 244 160 207 244 161 209 242 163 211 241 164 212 238 166 212 235 168 212 232 170 211 227 173 209 223 175 206 218 177 203 212 179 199 207 181 195 201 183 190 194 185 184 188 187 178 181 188 172 175 190 166 169 191 159 162 191 153 156 192 148 150 192 143 145 192 139 140 191 137 135 191 136 131 190 136 127 188 138 124 187 142 121 186 148 119 184 154 118 183 162 117 182 171 117 182 180 117 182 189 118 182 198 120 183 206 123 186 212 126 189 218 129 192 222 133 197 224 138 202 225 143 207 225 148 213 224 154 219 222 160 224 220 167 229 217 173 233 213 180 236 210 186 239 206 193 240 202 199 239 199 205 238 195 211 235 192 217 231 188 222 227 185 227 221 183 232 215 180 236 208 178 240 201 175 242 194 173 245 188 172 246 181 170 247 175 168 248 170 167 247 166 166 246 163 165 244 160 164 242 159 163 239 158 162 235 159 161 231 160 161 226 162 160 220 165 160 215 169 159 208 173 159 201 177 159 194 181 159 187 185 158 180 189 158 172 192 158 164 195 158 157 197 159 149 199 159 142 199 159 135 199 159 128 197 159 121 195 160 115 192 160 109 188 160 104 183 160 99 177 161 95 171 161 91 165 161 88 158 162 86 151 162 84 144 162 83 138 162 82 132 162 83 126 162 84 121 162 85 116 162 88 112 162 91 110 162 94 108 162 98 107 162 102 107 162 107 108 161 112 109 161 118 112 160 124 115 159 130 118 159 136 122 158 142 126 157 148 130 156 154
95 95 122 96 93 116 98 91 111 100 89 105 103 87 100 107 85 96 112 84 92 117 83 88 122 82 85 127 81 82 133 81 80 139 81 79 145 81 79 151 81 79 157 81 80 162 82 81 167 83 83 172 85 86 176 87 89 180 89 93 183 91 98 186 94 103 188 97 109 189 100 115 190 104 121 191 107 128 190 111 135 190 116 143 189 120 150 187 125 158 185 130 166 183 135 173 181 140 181 178 145 188 176 150 195 173 156 202 171 161 209 169 166 215 167 172 220 165 177 225 163 181 230 162 186 234 160 190 237 160 195 240 159 198 242 159 202 243 159 205 244 160 207 244 160 209 243 161 210 242 163 211 240 164 211 237 166 210 234 167 209 230 169 207 226 171 204 221 173 201 216 175 197 211 176 192 205 178 187 199 180 181 192 181 175 186 182 169 179 183 163 173 184 157 167 185 151 160 185 146 154 186 142 149 186 138 143 185 136 138 185 135 133 184 135 129 183 138 126 183 141 123 182 146 120 181 153 118 181 160 117 180 168 116 181 177 116 181 186 117 183 194 118 185 201 120 187 208 123 191 214 126 195 218 130 200 222 134 205 224 139 210 225 144 216 224 149 221 223 155 226 222 161 230 219 168 234 217 174 237 213 181 238 210 187 239 207 194 238 204 200 236 200 206 234 197 212 230 194 218 225 191 223 219 188 228 213 186 232 206 184 236 199 181 240 193 179 242 186 177 244 180 176 246 174 174 247 169 172 247 165 171 246 161 170 245 159 169 243 158 168 240 158 167 237 158 166 233 160 165 228 162 165 223 165 164 218 169 164 212 172 163 205 177 163 199 181 163 192 185 163 184 189 163 177 192 163 169 195 162 161 197 162 154 198 163 146 199 163 139 198 163 132 197 163 125 194 163 118 191 163 112 187 163 106 182 163 101 177 164 97 170 164 93 164 164 89 157 164 86 150 164 84 144 164 83 137 164 82 131 164 82 125 164 82 120 164 83 116 164 85 112 164 88 109 163 91 107 163 94 106 163 98 106 162 103 107 162 108 109 161 113 111 160 119 114 159 125 118 158 131 122 157 137 126 156 143 130 155 149
95 93 127 95 91 121 97 89 115 99 87 109 102 86 104 105 84 99 109 83 95 114 82 91 119 81 87 124 80 84 130 80 82 136 80 80 142 80 79 147 80 79 153 81 79 159 82 80 164 83 82 169 85 84 174 87 87 178 89 91 181 91 95 184 94 100 187 97 105 189 101 111 190 104 117 191 108 124 191 112 130 191 117 138 190 121 145 189 126 153 188 131 160 186 136 168 184 141 176 182 147 183 179 152 190 177 157 197 175 163 204 172 168 211 170 173 216 168 178 222 166 183 227 164 187 231 163 191 235 162 195 238 161 199 241 161 202 243 160 205 244 160 207 244 161 208 244 161 209 243 162 210 241 163 209 239 164 209 236 165 207 233 166 205 229 168 202 225 169 198 220 171 194 214 172 189 209 174 184 203 175 178 197 176 172 190 177 166 184 178 160 177 179 155 171 180 149 165 180 144 158 180 140 152 181 137 147 180 135 141 180 134 136 180 135 132 180 137 128 179 140 124 179 145 121 179 151 119 179 158 117 180 165 116 181 174 116 182 182 116 184 190 117 187 197 118 190 204 120 194 210 123 198 215 126 203 219 130 208 221 135 213 223 139 218 223 145 223 223 150 228 222 156 231 221 162 235 219 169 237 216 175 238 214 182 238 211 188 237 208 195 235 205 201 232 202 207 227 199 213 222 196 218 217 194 224 210 191 228 204 189 233 197 187 236 190 185 239 184 183 242 178 181 244 172 179 245 167 178 246 163 176 246 160 175 245 158 174 243 157 173 241 157 172 238 158 171 235 159 170 231 162 169 226 165 169 221 168 168 215 172 168 209 176 167 203 181 167 196 185 167 189 188 167 181 192 166 174 194 166 166 196 166 158 198 166 151 198 166 143 198 166 136 196 166 129 194 166 122 190 166 116 186 166 110 181 166 104 176 166 99 170 166 95 163 166 91 156 166 87 149 166 85 143 166 83 136 166 81 130 166 81 124 166 81 119 165 82 115 165 83 111 165 85 109 164 88 107 164 91 106 163 95 106 163 99 107 162 104 109 161 109 111 160 114 114 159 120 118 158 126 122 157 132 126 156 138 130 154 144
95 92 132 95 89 126 96 88 120 98 86 114 100 84 108 103 83 103 107 81 98 111 80 94 116 80 90 121 79 87 126 79 84 132 79 82 138 79 80 144 80 79 150 80 79 155 81 80 161 83 81 166 85 83 171 87 85 175 89 88 179 92 92 183 95 96 186 98 101 188 101 107 190 105 113 191 109 119 192 113 126 192 118 133 192 123 140 191 127 147 190 132 155 189 138 163 187 143 170 185 148 178 183 153 185 181 159 193 178 164 199 176 169 206 174 174 212 172 179 218 170 184 223 168 188 228 166 192 232 165 196 236 164 199 239 163 202 241 162 204 243 162 206 244 162 208 244 162 208 244 162 209 243 162 208 241 163 207 238 164 205 235 165 203 232 166 199 228 167 196 223 168 191 218 169 187 213 171 181 207 172 176 201 173 170 195 174 164 188 174 158 182 175 153 175 176 147 169 176 143 162 177 139 156 177 136 150 177 134 145 177 133 139 177 134 135 177 136 130 177 139 126 178 143 123 178 149 120 179 155 118 180 163 116 182 170 115 184 178 115 186 186 116 189 193 117 193 200 118 197 206 120 201 211 123 206 215 127 211 218 131 216 220 135 221 222 140 225 222 145 229 222 151 232 221 157 235 220 163 237 218 170 237 216 176 237 214 183 236 211 189 233 209 196 230 206 202 225 203 208 220 201 214 214 198 219 208 196 224 201 194 229 195 192 233 188 190 236 182 188 239 176 186 242 170 184 243 166 183 244 162 181 245 159 180 245 157 179 244 156 177 242 156 176 240 157 176 236 159 175 233 162 174 229 165 173 224 168 173 218 172 172 213 176 172 206 181 171 200 185 171 193 188 170 186 192 170 178 194 170 171 196 170 163 197 169 155 198 169 148 197 169 140 195 169 133 193 169 126 189 169 119 185 169 113 180 169 107 175 169 102 168 168 97 162 168 93 155 168 89 148 168 86 142 168 83 135 168 81 129 167 80 123 167 80 118 166 80 114 166 81 111 165 83 108 165 85 106 164 88 106 164 91 106 163 95 107 162 99 109 161 104 111 160 109 114 159 115 118 157 121 121 156 127 126 155 133 130 153 139
95 90 136 95 88 130 96 86 124 97 84 118 99 83 112 102 81 107 105 80 102 109 79 97 113 79 93 118 78 89 123 78 86 129 78 84 134 78 82 140 79 80 146 80 79 151 81 79 157 83 80 162 85 81 167 87 83 172 89 86 176 92 89 180 95 93 184 98 98 186 102 103 189 106 109 191 110 115 192 114 121 192 119 128 193 124 135 192 129 142 192 134 150 191 139 157 189 144 165 188 149 173 186 155 180 184 160 187 182 165 195 180 170 201 178 175 208 175 180 214 173 184 220 172 189 225 170 192 229 168 196 234 167 199 237 166 202 240 165 204 242 164 206 243 163 207 244 163 207 244 163 207 243 163 207 242 163 205 240 164 203 238 164 200 234 165 197 231 166 193 226 167 189 222 168 184 216 169 179 211 169 173 205 170 168 199 171 162 193 172 156 186 172 151 180 173 146 173 174 141 167 174 138 160 175 135 154 175 133 148 175 132 143 176 133 138 176 135 133 177 138 129 178 142 125 179 147 122 180 153 119 182 159 117 184 167 115 186 174 115 189 181 115 192 188 115 196 195 116 200 201 118 205 206 121 209 211 124 214 215 127 219 217 131 223 219 136 227 220 141 230 221 146 233 221 152 235 220 158 236 219 164 237 217 171 236 216 177 234 214 184 231 211 190 227 209 197 222 207 203 217 205 209 211 202 214 205 200 220 198 198 225 192 196 229 185 194 233 179 192 236 174 190 239 168 189 241 164 187 243 161 186 244 158 184 244 156 183 243 156 182 242 156 181 240 157 180 238 159 179 235 161 178 231 165 177 226 168 177 221 172 176 216 177 175 210 181 175 204 185 174 197 188 174 190 191 174 182 194 173 175 196 173 167 197 173 160 197 172 152 196 172 145 194 172 137 192 172 130 188 171 123 184 171 117 179 171 110 173 171 105 167 170 99 161 170 95 154 170 91 147 169 87 141 169 84 134 169 82 128 168 80 123 168 79 118 167 79 113 167 80 110 166 81 108 165 82 106 164 85 105 164 88 106 163 91 107 162 95 108 160 100 111 159 105 114 158 110 118 157 116 122 155 122 126 154 128 130 152 134
96 89 141 96 87 135 96 85 129 97 83 123 98 81 117 100 80 111 103 79 106 107 78 101 111 78 96 115 77 92 120 77 89 125 77 86 130 78 83 136 78 81 142 79 80 147 81 80 153 82 80 159 84 81 164 87 82 169 89 84 173 92 87 178 95 91 181 99 95 185 102 99 187 106 105 190 111 110 191 115 117 192 120 123 193 125 130 193 130 137 193 135 144 193 140 152 192 145 160 191 150 167 189 156 175 187 161 182 185 166 190 183 171 197 181 176 203 179 181 210 177 185 216 175 189 221 174 193 226 172 196 231 170 199 235 169 202 238 168 204 240 167 205 242 166 206 243 165 206 244 165 206 244 165 205 243 165 203 241 165 201 239 165 198 237 165 195 233 166 191 229 167 187 225 167 182 220 168 177 215 168 171 209 169 166 203 170 160 197 171 154 190 171 149 184 172 144 177 172 140 171 173 137 164 174 134 158 174 132 152 175 131 146 176 132 141 177 133 136 178 136 131 179 140 127 180 145 123 182 150 120 184 156 118 187 163 116 189 170 115 193 177 114 196 184 114 200 190 115 204 197 116 208 202 118 213 207 121 217 211 124 221 214 127 225 216 132 229 218 136 232 219 142 234 220 147 235 219 153 236 219 159 235 218 165 234 217 172 232 215 178 228 213 185 224 212 191 220 210 197 214 208 204 208 206 209 202 204 215 195 202 220 189 200 225 183 198 229 177 196 233 171 194 236 166 193 239 162 191 241 159 190 242 157 188 243 155 187 243 155 186 242 155 185 241 157 184 239 159 183 236 161 182 233 165 181 229 169 180 224 173 179 219 177 179 213 181 178 207 185 178 201 188 177 194 191 177 187 194 176 179 195 176 172 196 175 164 196 175 157 195 175 149 194 174 142 191 174 134 187 174 127 183 173 120 178 173 114 172 172 108 166 172 102 159 172 97 153 171 93 146 171 89 139 170 85 133 170 83 127 169 80 122 168 79 117 168 78 113 167 78 109 166 79 107 165 80 106 164 82 105 163 85 105 162 88 106 161 92 108 160 96 111 158 101 114 157 106 118 156 111 122 154 117 126 152 123 130 150 129
97 87 146 96 85 140 96 83 133 96 82 127 97 80 121 99 79 115 102 78 110 105 77 105 108 77 100 112 76 95 117 76 91 122 76 88 127 77 85 132 78 83 138 79 81 143 80 80 149 82 80 155 84 80 160 87 81 165 89 83 170 92 85 174 96 88 178 99 92 182 103 96 185 107 101 188 111 106 190 116 112 192 121 118 193 125 125 194 130 132 194 136 139 194 141 147 194 146 154 193 151 162 192 157 169 190 162 177 189 167 184 187 172 192 185 177 199 183 181 205 181 185 211 179 189 217 178 193 223 176 196 228 174 199 232 173 201 235 171 203 238 170 204 241 169 205 243 168 205 244 168 205 244 167 204 243 167 202 242 167 199 241 167 197 238 167 193 235 167 189 232 167 185 228 168 180 223 168 175 218 169 169 213 169 164 207 170 158 201 171 153 195 171 148 188 172 143 182 173 139 175 173 136 169 174 133 162 175 131 156 176 130 150 177 131 144 178 132 139 179 135 134 181 138 129 183 142 125 185 148 122 187 153 119 190 160 117 193 166 115 196 173 114 200 179 113 204 186 113 208 192 114 212 197 116 216 202 118 220 206 121 224 210 124 227 213 128 230 215 132 233 217 137 234 218 142 235 218 148 235 218 154 234 218 160 232 217 166 229 216 173 226 214 179 221 213 186 216 211 192 211 210 198 205 208 204 198 206 210 192 204 215 186 203 221 180 201 225 174 199 229 169 198 233 164 196 236 161 195 238 158 193 240 156 192 241 154 190 242 154 189 242 155 188 241 156 187 239 159 186 237 162 185 234 165 184 230 169 183 226 173 183 222 177 182 216 181 181 211 185 180 204 188 180 198 191 179 191 194 179 184 195 178 176 196 178 169 196 177 161 195 177 154 193 176 146 190 176 138 186 175 131 182 175 124 177 174 117 171 174 111 165 173 105 158 173 100 151 172 95 145 172 90 138 171 87 132 170 84 126 169 81 120 169 79 116 168 78 112 167 77 109 166 78 106 165 79 105 164 80 105 163 82 105 161 85 106 160 88 108 159 92 111 157 96 114 156 101 118 154 106 122 152 112 126 151 118 130 149 124
98 86 151 97 84 144 96 82 138 96 80 132 97 79 126 98 78 120 100 77 114 103 76 109 106 76 103 110 75 99 114 75 94 118 76 91 123 76 87 128 77 85 134 79 82 139 80 81 145 82 80 150 84 80 156 87 81 161 89 82 166 93 84 171 96 86 175 100 89 179 103 93 183 108 98 186 112 103 189 117 108 191 121 114 192 126 120 194 131 127 195 136 134 195 142 141 195 147 149 195 152 156 194 157 164 193 162 172 192 167 179 190 172 186 189 177 194 187 181 200 185 186 207 184 189 213 182 193 219 180 196 224 178 199 229 177 201 233 175 202 236 174 203 239 173 204 241 172 204 243 171 203 244 170 202 244 170 200 243 170 198 242 169 195 240 169 191 237 169 187 234 169 183 231 170 178 226 170 173 222 170 167 216 171 162 211 171 157 205 172 151 199 172 146 193 173 142 186 174 138 179 175 135 173 176 132 166 177 130 160 178 130 154 179 130 148 181 131 142 182 133 137 184 136 132 186 140 128 189 145 124 191 150 120 194 156 117 197 162 115 201 169 114 204 175 113 208 181 113 212 187 113 216 192 114 219 197 116 223 202 118 226 206 121 229 209 124 231 211 128 233 213 133 234 215 138 234 216 143 234 216 149 232 216 155 230 216 161 227 215 167 223 215 173 218 214 180 213 212 186 207 211 193 201 209 199 195 208 205 189 206 211 183 205 216 177 203 221 171 202 225 166 200 229 162 199 233 159 197 236 156 196 238 154 195 240 154 193 241 154 192 241 155 191 240 156 190 239 159 189 238 162 188 235 165 187 232 169 186 228 173 185 224 177 184 219 181 184 214 185 183 208 188 182 202 191 182 195 193 181 188 195 180 181 195 180 173 195 179 166 194 178 158 192 178 150 189 177 143 185 177 135 180 176 128 175 176 121 169 175 115 163 174 109 156 174 103 150 173 97 143 172 93 137 171 88 130 170 85 124 170 82 119 169 80 115 168 78 111 167 77 108 166 77 106 164 77 105 163 78 104 162 80 105 161 82 106 159 85 108 158 89 111 156 93 114 154 97 118 153 102 122 151 107 126 149 113 130 147 119
100 85 155 98 83 149 97 81 143 97 79 137 97 78 130 98 77 124 99 76 118 101 75 113 104 75 107 107 75 102 111 75 98 115 75 93 120 76 90 125 77 87 130 78 84 135 80 82 141 82 81 146 84 80 152 87 80 157 90 81 162 93 82 167 96 85 172 100 87 176 104 91 180 108 95 183 112 99 186 117 104 189 122 110 191 127 116 193 132 122 194 137 129 195 142 136 196 148 144 196 153 151 196 158 159 195 163 166 194 168 174 193 173 181 192 177 189 190 182 196 189 186 202 187 189 209 186 193 215 184 196 220 183 198 225 181 200 230 180 202 234 178 203 237 177 203 240 176 203 242 175 202 243 174 201 243 174 199 243 173 196 243 173 193 241 172 189 239 172 185 236 172 181 233 172 176 229 172 171 225 173 166 220 173 160 215 174 155 209 174 150 203 175 145 197 175 141 190 176 137 184 177 134 177 178 131 171 179 129 164 181 129 158 182 129 152 184 130 146 186 132 140 188 134 135 190 138 130 193 142 126 195 147 122 198 153 119 202 158 116 205 164 114 208 170 113 212 176 112 215 182 112 219 187 112 222 192 114 225 197 115 228 201 118 230 204 121 232 207 124 233 210 129 233 212 133 233 213 138 232 214 144 230 215 149 227 215 155 223 214 162 219 214 168 214 213 174 209 212 181 203 211 187 197 210 194 191 209 200 185 208 206 179 206 211 174 205 216 168 204 221 164 202 226 160 201 229 157 199 233 155 198 235 153 197 238 153 196 239 153 194 240 154 193 240 156 192 239 159 191 238 162 190 236 166 189 233 170 188 230 174 187 226 178 187 222 182 186 217 185 185 211 189 184 205 191 183 199 193 183 192 194 182 185 195 181 178 194 181 170 193 180 163 191 179 155 187 178 147 184 178 140 179 177 132 173 176 125 168 176 119 161 175 112 155 174 106 148 173 100 141 172 95 135 171 91 129 170 86 123 169 83 118 168 80 114 167 78 110 166 77 107 165 76 105 164 76 104 162 76 104 161 78 105 159 80 106 158 82 108 156 85 111 154 89 114 153 93 118 151 98 122 149 103 126 147 108 130 145 114
101 83 160 99 81 154 98 80 147 97 78 141 97 77 135 97 76 129 98 75 123 100 74 117 102 74 111 105 74 106 108 74 101 112 75 97 116 75 93 121 76 89 126 78 86 131 80 84 136 82 82 142 84 81 147 87 80 153 90 81 158 93 81 163 96 83 168 100 85 172 104 88 176 108 92 180 113 96 184 118 101 187 122 106 190 127 112 192 132 118 193 138 124 195 143 131 196 148 138 196 153 146 197 158 153 197 163 161 196 168 168 196 173 176 195 178 183 194 182 190 192 186 197 191 189 204 190 192 210 188 195 216 187 198 222 185 199 227 184 201 231 183 202 235 182 202 238 180 201 240 179 201 242 179 199 243 178 197 243 177 194 243 177 191 242 176 188 240 176 184 238 176 179 235 176 174 232 176 169 228 176 164 223 176 159 218 177 154 213 177 149 207 178 144 201 179 140 194 180 136 188 181 133 181 182 130 175 183 129 168 185 128 162 186 128 155 188 128 149 190 130 143 192 132 138 195 136 133 197 140 128 200 144 124 203 149 120 206 154 117 209 160 115 212 166 113 216 171 112 219 177 111 222 182 111 225 187 112 227 192 113 229 196 115 231 200 118 232 203 121 232 206 125 232 208 129 231 210 134 229 211 139 227 212 144 224 213 150 220 213 156 215 213 162 210 212 169 205 212 175 199 211 182 193 210 188 187 209 194 181 208 200 176 207 206 170 206 212 166 205 217 161 203 221 158 202 226 155 201 229 153 200 233 152 199 235 152 197 237 153 196 238 154 195 239 157 194 239 159 193 238 163 192 236 166 191 234 170 190 231 174 189 228 178 188 224 182 187 219 186 186 214 189 186 208 191 185 202 193 184 196 194 183 189 194 182 182 194 182 175 192 181 167 189 180 159 186 179 152 182 178 144 177 178 137 172 177 129 166 176 122 159 175 116 153 174 109 146 173 103 140 172 98 133 171 93 127 170 88 122 169 85 117 168 81 112 166 79 109 165 77 106 164 76 105 162 75 104 161 75 104 159 76 104 158 77 106 156 79 108 154 82 111 153 85 115 151 89 119 149 94 123 147 98 127 145 103 131 142 109
103 82 164 101 80 158 99 79 152 98 77 146 97 76 140 97 75 133 98 74 127 99 73 121 101 73 115 103 73 110 106 73 105 109 74 100 113 75 96 117 76 92 122 78 88 127 79 85 132 81 83 137 84 82 143 87 81 148 90 80 153 93 81 158 97 82 163 100 84 168 104 86 173 109 89 177 113 93 181 118 97 184 123 102 187 128 107 190 133 113 192 138 120 194 143 126 195 149 133 196 154 140 197 159 148 197 164 155 198 169 163 197 173 170 197 178 178 196 182 185 195 186 192 194 189 199 193 192 206 192 195 212 191 197 218 190 199 223 188 200 228 187 201 232 186 201 235 185 200 238 184 199 240 183 198 242 182 196 243 182 193 243 181 190 242 181 186 241 180 182 239 180 178 237 180 173 234 180 168 230 180 163 226 181 158 221 181 153 216 181 148 211 182 143 205 183 139 199 184 135 192 185 132 186 186 130 179 187 128 172 189 127 166 191 127 159 193 127 153 195 128 147 197 131 141 199 133 136 202 137 131 204 141 126 207 146 122 210 151 119 213 156 116 216 161 113 219 167 112 222 172 111 224 177 110 227 182 110 228 187 111 230 191 113 231 195 115 231 198 118 231 201 121 230 204 125 229 206 129 227 208 134 224 209 139 220 210 145 216 210 151 211 211 157 206 211 163 201 210 170 195 210 176 189 210 182 183 209 189 178 208 195 172 207 201 167 206 207 163 205 212 159 204 217 156 203 222 154 202 226 152 201 229 152 200 232 152 198 235 153 197 236 155 196 237 157 195 238 160 194 237 163 193 236 167 192 235 171 191 232 175 190 229 179 189 226 183 188 222 186 187 217 189 187 212 191 186 206 193 185 200 194 184 193 194 183 186 193 182 179 191 181 171 188 180 164 185 179 156 180 179 149 175 178 141 170 177 134 164 176 127 158 175 120 151 174 113 144 173 107 138 171 101 132 170 96 126 169 91 120 168 86 115 167 83 111 165 80 108 164 77 106 162 76 104 161 75 103 159 74 103 158 74 104 156 75 106 154 77 109 152 79 112 150 82 115 148 86 119 146 90 123 144 94 127 142 99 131 140 104
105 81 168 103 79 163 101 78 157 99 76 151 98 75 144 98 74 138 98 73 132 99 73 126 100 72 120 102 72 114 104 73 109 107 73 103 110 74 99 114 76 95 118 77 91 123 79 88 128 81 85 133 84 83 138 87 81 143 90 81 149 93 81 154 97 81 159 101 83 164 105 84 168 109 87 173 114 90 177 118 94 181 123 99 184 128 104 187 133 109 190 138 115 192 144 121 194 149 128 196 154 135 197 159 142 198 164 150 198 169 157 198 173 165 198 178 172 198 182 180 198 185 187 197 189 194 196 192 201 195 194 207 195 196 213 193 198 219 192 199 224 191 200 229 190 200 233 189 199 236 189 198 239 188 196 241 187 194 242 186 191 243 186 188 243 185 185 242 185 181 241 185 176 238 185 172 236 185 167 233 185 162 229 185 157 224 185 152 219 186 147 214 187 143 208 187 139 202 188 135 196 190 132 190 191 129 183 192 127 177 194 126 170 195 125 163 197 126 157 199 127 151 202 129 145 204 131 139 206 134 134 209 138 129 211 142 124 214 147 120 217 152 117 219 157 114 222 162 112 224 167 111 226 172 110 228 177 109 229 182 110 230 186 111 231 190 113 230 193 115 230 196 118 228 199 121 226 202 125 223 204 130 220 205 135 216 206 140 212 207 146 207 208 152 202 208 158 196 208 164 190 208 170 185 208 177 179 208 183 174 207 190 169 206 196 164 206 202 160 205 207 157 204 213 154 203 217 152 202 222 151 201 226 151 200 229 151 199 232 153 198 234 155 197 236 157 196 236 161 195 237 164 194 236 168 193 235 172 192 233 176 191 231 180 190 227 183 189 224 187 188 219 189 187 214 191 186 209 193 185 203 193 184 197 193 183 190 192 182 183 190 181 176 187 180 168 183 179 161 179 178 153 174 177 146 168 176 138 162 175 131 155 174 124 149 173 117 142 172 110 136 171 104 130 169 98 124 168 93 119 167 89 114 165 84 110 164 81 107 162 78 105 161 76 103 159 74 103 157 74 103 156 73 104 154 74 106 152 75 109 150 77 112 148 79 115 146 82 119 144 86 123 142 90 128 139 95 132 137 100
108 80 172 105 78 167 103 76 161 101 75 155 99 74 149 98 73 143 98 72 136 98 72 130 99 72 124 100 72 118 102 72 113 105 73 107 108 74 102 111 75 98 115 77 94 119 79 90 124 81 87 129 84 84 134 86 83 139 90 81 144 93 81 149 97 81 154 101 82 159 105 83 164 109 85 168 114 88 173 119 91 177 124 95 181 129 100 184 134 105 187 139 111 190 144 117 192 149 123 194 154 130 196 159 137 197 164 144 198 169 152 199 173 159 199 177 167 200 181 174 200 185 182 199 188 189 199 191 196 198 194 203 198 195 209 197 197 215 196 198 220 195 198 225 194 198 230 194 198 233 193 197 237 192 195 239 191 193 241 191 190 242 190 187 242 190 183 242 190 179 241 189 175 240 189 171 237 189 166 235 190 161 231 190 156 227 190 151 223 191 146 218 192 142 212 192 138 206 193 134 200 194 131 194 196 128 187 197 126 181 199 125 174 200 124 167 202 125 161 204 125 155 206 127 148 208 129 142 211 132 137 213 135 132 215 139 127 218 143 122 220 148 119 222 153 115 224 157 113 226 162 111 227 167 109 228 172 109 229 176 109 230 181 109 229 185 110 229 188 112 227 191 115 225 194 118 223 197 121 220 199 125 216 201 130 212 203 135 207 204 140 202 205 146 197 205 152 191 206 158 186 206 165 180 206 171 175 206 178 170 205 184 165 205 190 161 204 196 157 204 202 155 203 208 152 202 213 151 201 218 150 201 222 150 200 226 151 199 229 153 198 232 155 197 234 158 196 235 161 195 236 165 194 236 169 193 235 173 192 234 177 191 231 181 190 229 184 189 225 187 188 221 189 187 217 191 186 212 192 185 206 193 184 200 192 183 194 191 182 187 188 181 180 185 180 173 181 179 165 177 178 158 172 177 150 166 175 143 160 174 135 153 173 128 147 172 121 140 171 114 134 169 108 128 168 102 122 167 96 117 165 91 113 164 86 109 162 83 106 160 79 104 159 77 103 157 75 102 155 73 103 153 73 104 152 73 106 150 73 109 148 75 112 145 77 116 143 79 120 141 83 124 139 86 128 137 91 132 134 95
110 79 176 107 77 171 105 75 165 103 74 160 101 73 154 100 72 147 99 71 141 98 71 135 99 71 129 100 71 123 101 72 117 103 72 111 106 73 106 109 75 101 112 76 97 116 78 93 120 81 89 124 83 86 129 86 84 134 90 82 139 93 81 144 97 81 149 101 81 154 105 82 159 109 84 164 114 86 168 119 89 173 124 92 177 129 97 180 134 101 184 139 107 187 144 112 190 149 119 192 154 125 194 159 132 196 164 139 197 169 146 199 173 154 200 177 161 200 181 169 201 184 176 201 188 184 201 190 191 200 193 198 200 195 204 200 196 211 199 197 216 199 197 222 198 197 226 198 197 230 197 195 234 196 194 237 196 192 239 195 189 241 195 186 242 195 182 242 194 178 242 194 174 240 194 169 239 194 165 236 194 160 233 195 155 230 195 150 225 196 146 221 196 141 216 197 137 210 198 134 204 199 131 198 201 128 192 202 126 185 203 124 178 205 123 172 207 123 165 208 124 158 210 125 152 212 127 146 214 129 140 216 132 135 218 136 129 220 140 125 222 144 121 224 148 117 225 153 114 227 157 111 228 162 110 228 167 108 228 171 108 228 175 108 227 179 109 226 183 110 224 186 112 222 189 115 219 192 118 215 194 121 211 196 126 207 198 130 202 200 136 197 201 141 192 202 147 186 203 153 181 203 159 176 203 166 171 203 172 166 203 178 162 203 185 158 203 191 155 202 197 152 202 203 151 201 208 150 200 213 150 200 218 150 199 222 151 198 226 153 197 229 156 196 231 159 195 233 162 194 234 166 193 235 170 192 234 174 191 233 178 190 232 181 189 230 185 188 227 187 187 223 190 186 219 191 185 215 192 184 209 192 183 204 191 182 197 190 181 191 187 180 184 184 179 177 180 178 170 175 177 162 169 175 155 164 174 147 157 173 139 151 172 132 145 170 125 138 169 118 132 168 111 126 166 105 120 165 99 116 163 94 111 162 89 108 160 84 105 158 81 103 156 78 102 155 75 102 153 73 103 151 72 104 149 72 107 147 72 109 145 73 113 143 75 116 141 77 120 138 80 125 136 83 129 134 87 133 131 91
113 78 180 110 76 175 107 75 170 105 73 164 103 72 158 101 71 152 100 71 146 99 70 140 99 70 133 99 70 127 100 71 121 102 72 115 104 73 110 106 74 105 109 76 100 113 78 96 116 81 92 120 83 88 125 86 86 129 89 83 134 93 82 139 97 81 144 101 81 149 105 81 154 109 82 159 114 84 163 119 87 168 124 90 172 129 94 176 134 98 180 139 103 183 144 108 186 149 114 189 154 120 192 159 127 194 164 134 196 168 141 198 173 148 199 177 156 200 180 163 201 184 171 201 187 178 202 190 186 202 192 193 202 194 199 202 195 206 202 196 212 201 196 218 201 196 223 201 195 227 200 194 231 200 193 235 200 190 237 199 188 239 199 184 241 199 181 242 199 177 242 199 173 241 199 169 240 199 164 238 199 159 235 199 155 232 200 150 228 200 145 224 201 141 219 202 137 213 203 133 208 204 130 202 205 127 196 206 125 189 208 124 182 209 123 176 211 122 169 212 123 162 214 123 156 216 125 150 218 127 144 219 130 138 221 133 132 222 136 127 224 140 123 225 144 119 226 148 115 227 153 112 227 157 110 227 161 108 227 166 107 226 170 107 225 174 107 223 177 108 221 181 109 218 184 112 214 187 114 211 189 118 206 192 122 202 194 126 197 195 131 192 197 136 187 198 142 182 199 148 176 199 154 171 200 160 167 200 166 162 200 173 159 200 179 155 200 185 153 200 192 151 200 198 149 199 203 149 199 209 149 198 213 150 197 218 152 197 222 154 196 225 157 195 228 160 194 231 163 193 232 167 192 233 171 191 233 175 190 233 179 189 232 182 188 230 185 187 228 188 186 225 190 185 221 191 184 217 192 183 212 191 182 207 190 181 201 188 180 195 185 179 188 182 178 181 178 176 174 173 175 167 167 174 159 161 173 151 155 171 144 149 170 136 142 169 129 136 167 122 130 166 115 124 164 108 119 163 102 114 161 97 110 159 91 107 158 87 104 156 82 103 154 79 102 152 76 102 150 74 103 148 72 105 146 71 107 144 71 110 142 71 113 140 73 117 137 74 121 135 77 125 133 80 129 130 83 133 128 87
116 77 184 113 75 179 110 74 174 107 72 168 105 71 162 103 70 156 101 70 150 100 70 144 99 69 138 99 70 132 100 70 126 101 71 120 102 72 114 104 74 108 107 76 103 110 78 99 113 80 94 117 83 91 121 86 88 125 89 85 130 93 83 134 97 82 139 101 81 144 105 81 149 109 82 153 114 83 158 119 85 163 124 88 167 129 91 171 134 95 175 139 99 179 144 104 183 149 110 186 154 116 189 159 122 191 163 129 194 168 136 196 172 143 197 176 150 199 180 158 200 183 165 201 186 173 202 189 180 203 191 187 203 193 194 203 194 201 203 195 207 203 195 213 203 195 219 203 194 224 203 193 228 203 191 232 203 189 235 203 186 238 203 183 240 203 180 241 203 176 241 203 172 241 203 168 240 203 163 239 203 159 236 204 154 234 204 149 230 205 145 226 205 141 222 206 137 217 207 133 211 208 130 206 209 127 199 210 125 193 212 123 187 213 122 180 214 121 173 216 121 167 217 122 160 219 123 153 220 125 147 221 127 141 223 130 135 224 133 130 225 136 125 225 140 121 226 144 117 226 148 113 226 152 111 225 156 109 225 160 107 223 164 106 221 168 106 219 172 106 216 175 107 213 179 109 210 181 111 206 184 114 201 187 118 197 189 122 192 191 126 187 192 131 182 193 137 177 195 142 172 195 148 167 196 154 163 197 161 159 197 167 156 197 173 153 197 180 151 197 186 149 197 192 148 197 198 148 196 204 149 196 209 150 195 214 152 195 218 155 194 222 158 193 225 161 192 228 165 192 230 168 191 231 172 190 232 176 189 232 180 188 232 183 187 231 186 186 229 188 185 226 190 184 223 191 183 219 191 182 215 190 181 210 189 179 204 187 178 198 184 177 192 180 176 185 175 175 178 170 173 171 165 172 163 159 171 156 153 169 148 146 168 141 140 166 133 133 165 126 127 163 119 122 162 112 117 160 106 112 158 100 109 157 94 106 155 89 103 153 85 102 151 81 101 149 77 102 147 74 103 145 72 105 143 71 107 141 70 110 139 70 114 137 71 118 134 72 122 132 74 126 130 77 130 127 80 134 125 84
119 76 187 115 74 182 112 73 178 110 71 172 107 70 167 105 70 161 103 69 155 101 69 149 100 69 142 100 69 136 100 70 130 100 71 124 101 72 118 103 73 112 105 75 107 107 77 102 110 80 98 113 83 93 117 86 90 121 89 87 125 93 84 129 96 83 134 101 81 139 105 81 143 109 81 148 114 82 153 119 83 157 124 86 162 129 88 166 134 92 170 139 96 174 144 100 178 149 106 182 154 111 185 158 117 188 163 124 191 167 131 193 172 138 195 176 145 197 179 152 199 183 160 200 186 167 201 188 175 202 190 182 203 192 189 204 193 196 204 194 203 205 194 209 205 194 215 205 193 220 205 192 225 205 190 229 205 188 233 206 185 236 206 182 238 206 179 240 206 175 241 206 171 241 206 167 240 207 163 239 207 158 238 207 153 235 208 149 232 208 145 229 209 140 224 210 136 220 211 133 215 212 129 209 213 127 203 214 124 197 215 122 191 216 121 184 217 120 177 218 120 171 219 120 164 220 121 157 221 123 151 222 125 145 223 127 139 224 130 133 224 133 128 225 136 123 225 140 119 224 144 115 224 148 112 223 151 109 221 155 107 220 159 106 217 163 105 215 166 105 212 170 106 208 173 107 204 176 109 200 179 111 196 181 114 191 183 118 186 185 122 181 187 127 176 189 132 172 190 137 167 191 143 163 192 149 159 193 155 156 193 161 153 194 168 150 194 174 149 194 181 148 194 187 147 194 193 148 193 199 149 193 204 150 193 209 153 192 214 155 191 218 159 191 222 162 190 225 166 189 227 170 189 229 174 188 231 177 187 231 181 186 231 184 185 230 186 184 229 188 183 227 190 182 224 190 181 221 190 180 217 189 179 212 188 177 207 185 176 201 182 175 195 178 174 189 173 172 182 168 171 175 162 170 168 156 168 160 150 167 153 144 165 145 137 164 138 131 162 130 125 161 123 120 159 116 115 157 109 111 156 103 107 154 97 104 152 92 102 150 87 101 148 83 101 146 79 102 144 76 103 142 73 105 140 71 108 138 70 111 135 69 115 133 70 119 131 71 123 128 72 127 126 74 131 124 77 134 121 80
122 75 190 118 73 186 115 72 181 112 71 176 110 70 171 107 69 165 105 68 159 103 68 153 102 68 147 101 69 141 100 69 135 100 70 128 101 71 122 102 73 117 103 75 111 105 77 106 108 80 101 110 82 96 113 85 92 117 89 89 121 92 86 125 96 84 129 100 82 134 105 81 138 109 81 143 114 81 147 118 82 152 123 84 156 128 86 161 133 89 165 138 93 169 143 97 173 148 102 177 153 107 180 158 113 184 163 119 187 167 126 189 171 132 192 175 139 194 179 147 196 182 154 198 185 162 200 187 169 201 189 177 202 191 184 203 192 191 204 193 198 205 193 204 205 193 210 206 192 216 206 191 221 207 189 226 207 187 230 207 184 233 208 181 236 208 178 238 208 174 239 209 171 240 209 166 240 209 162 240 210 158 238 210 153 236 211 149 234 211 144 231 212 140 227 213 136 223 213 132 218 214 129 213 215 126 207 216 124 201 217 122 195 218 120 188 219 119 181 220 119 175 220 119 168 221 120 161 222 121 155 223 122 148 223 124 142 223 127 136 223 130 131 223 133 126 223 136 121 222 139 117 221 143 113 219 147 110 217 150 108 215 154 106 213 157 105 210 161 104 206 164 104 203 167 105 199 170 106 194 173 108 190 176 111 185 178 114 181 180 118 176 182 122 171 184 127 167 185 132 163 186 138 159 187 143 156 188 149 153 189 156 150 189 162 148 190 168 147 190 175 147 190 181 147 190 187 148 190 193 149 190 199 151 189 204 154 189 209 157 188 214 160 188 218 164 187 222 167 187 225 171 186 227 175 185 229 178 184 230 182 183 230 185 182 230 187 181 229 189 180 227 190 179 225 190 178 222 190 177 219 188 176 214 186 175 210 183 174 205 180 172 199 176 171 193 171 170 186 165 168 179 160 167 172 153 166 165 147 164 157 141 163 150 135 161 142 129 159 135 123 158 127 118 156 120 113 154 113 109 152 107 106 151 101 103 149 95 102 147 90 101 145 85 101 143 81 102 141 77 103 139 74 105 136 72 108 134 70 112 132 69 115 130 69 119 127 69 123 125 70 128 122 72 131 120 74 135 118 77
125 74 193 121 73 189 118 71 185 115 70 180 112 69 175 110 68 169 107 68 164 105 67 158 103 68 152 102 68 145 101 69 139 101 70 133 101 71 127 101 73 121 102 74 115 104 77 109 105 79 104 108 82 100 110 85 95 114 88 91 117 92 88 121 96 85 125 100 83 129 104 82 133 109 81 137 113 81 142 118 81 146 123 83 151 128 84 155 133 87 160 138 90 164 143 94 168 148 98 172 153 103 175 157 109 179 162 114 182 166 121 185 170 127 188 174 134 191 178 141 193 181 149 195 184 156 197 186 164 199 188 171 200 190 178 202 191 186 203 192 193 204 192 199 205 192 206 206 191 211 206 190 217 207 188 222 208 186 226 208 184 230 209 181 233 209 177 236 210 174 238 210 170 239 211 166 240 211 162 240 211 157 239 212 153 237 213 148 235 213 144 232 214 140 229 214 136 225 215 132 221 216 129 216 217 126 210 217 123 205 218 121 198 219 120 192 219 118 186 220 118 179 221 118 172 221 118 165 221 119 159 222 120 152 222 122 146 222 124 140 221 126 134 221 129 128 220 132 123 218 135 119 217 138 115 215 142 111 213 145 108 210 149 106 207 152 104 204 155 103 201 159 103 197 162 103 193 165 104 188 167 106 184 170 108 179 172 111 175 175 114 171 177 118 166 178 122 162 180 127 159 181 133 155 182 138 152 183 144 150 184 150 148 185 156 147 185 163 146 186 169 146 186 176 147 186 182 148 186 188 150 186 194 152 186 200 155 185 205 158 185 210 161 185 214 165 184 218 169 183 221 173 183 224 176 182 226 180 181 228 183 180 229 185 179 229 187 179 229 189 178 228 189 177 226 189 175 223 189 174 220 187 173 216 185 172 212 181 171 207 178 170 202 173 168 196 168 167 190 163 165 183 157 164 176 151 163 169 144 161 162 138 159 154 132 158 147 126 156 139 121 154 132 116 153 124 111 151 117 108 149 111 105 147 104 102 145 98 101 143 92 100 141 87 101 139 83 102 137 79 104 135 75 106 133 72 109 131 70 112 128 69 116 126 68 120 124 68 124 121 69 128 119 70 132 116 72 136 114 74
127 73 195 124 72 192 121 70 188 118 69 183 115 68 179 112 67 173 110 67 168 107 67 162 105 67 156 104 67 150 102 68 144 101 69 137 101 70 131 101 72 125 102 74 119 102 76 113 104 79 108 106 82 103 108 85 98 111 88 94 114 92 90 117 96 87 120 100 85 124 104 83 128 108 82 132 113 81 136 118 81 141 123 82 145 128 83 150 133 85 154 138 88 158 142 91 162 147 95 166 152 99 170 157 104 174 161 110 177 166 116 180 170 122 183 173 129 186 177 136 189 180 143 191 183 151 194 185 158 196 187 165 198 189 173 199 190 180 201 191 187 202 191 194 203 191 201 205 190 207 206 189 213 206 187 218 207 185 223 208 183 227 209 180 231 209 177 234 210 173 236 211 169 238 211 165 239 212 161 239 212 157 239 213 153 238 213 148 236 214 144 234 215 140 231 215 136 227 216 132 223 216 129 219 217 126 214 218 123 208 218 121 202 219 119 196 219 118 190 219 117 183 220 116 176 220 117 169 220 117 163 220 118 156 219 119 149 219 121 143 218 123 137 217 126 131 216 128 126 214 131 121 212 134 117 210 137 113 207 140 109 205 144 107 202 147 105 198 150 103 194 153 102 191 156 102 186 159 102 182 162 104 178 164 105 174 167 108 170 169 111 165 171 114 162 173 118 158 175 123 155 176 128 152 177 133 149 178 139 148 179 145 146 180 151 145 181 157 145 181 163 146 182 170 147 182 176 148 182 182 151 182 189 153 182 194 156 182 200 159 181 205 163 181 210 167 180 214 170 180 218 174 179 221 178 179 224 181 178 226 184 177 227 186 176 228 188 175 228 189 174 227 189 173 226 189 172 224 187 171 221 185 170 218 183 169 214 179 168 210 175 166 205 171 165 199 165 164 193 160 162 187 154 161 180 148 159 173 141 158 166 135 156 159 129 154 151 124 153 144 118 151 136 114 149 129 109 147 122 106 146 115 103 144 108 101 142 102 100 140 96 100 138 90 101 136 85 102 133 81 104 131 77 107 129 74 110 127 71 113 125 69 117 122 68 121 120 67 125 117 67 129 115 68 133 113 70 137 110 72
130 73 197 127 71 194 124 70 191 121 68 187 118 67 182 115 67 177 113 66 172 110 66 166 108 66 161 106 67 154 104 67 148 103 69 142 102 70 136 102 72 130 102 73 123 102 76 118 103 78 112 104 81 107 106 84 102 108 88 97 111 91 93 113 95 89 116 99 86 120 104 84 123 108 82 127 113 81 131 117 81 135 122 81 140 127 82 144 132 83 148 137 86 152 142 88 156 147 92 160 151 96 164 156 101 168 161 106 172 165 111 175 169 117 178 173 124 181 176 131 184 179 138 187 182 145 189 184 152 192 186 160 194 188 167 196 189 175 198 190 182 199 190 189 201 190 196 202 189 202 204 188 208 205 186 214 206 184 219 207 182 224 208 179 228 208 176 231 209 173 234 210 169 236 211 165 238 211 161 239 212 157 239 213 153 238 213 148 237 214 144 235 214 140 233 215 136 229 215 132 226 216 129 221 216 126 217 217 123 211 217 121 206 217 119 200 218 117 193 218 116 187 218 115 180 217 115 173 217 115 167 217 116 160 216 117 153 215 119 147 214 120 141 213 122 135 211 125 129 209 127 124 207 130 119 204 133 115 202 136 111 199 139 108 195 142 105 192 145 103 188 148 102 184 151 101 180 153 101 176 156 102 172 159 103 168 161 105 164 163 107 161 165 111 157 167 114 154 169 118 151 170 123 149 172 128 147 173 133 146 174 139 145 175 145 145 176 151 145 176 158 146 177 164 147 177 171 149 177 177 152 177 183 155 177 189 158 177 195 161 177 200 165 177 205 168 176 210 172 176 214 176 175 218 179 175 221 182 174 223 184 173 225 186 172 226 188 172 227 188 171 227 188 170 226 187 169 225 186 167 222 184 166 220 181 165 216 177 164 212 173 163 207 168 161 202 162 160 197 157 158 191 151 157 184 144 156 177 138 154 170 132 152 163 126 151 156 121 149 148 116 147 141 111 145 133 108 144 126 105 142 119 102 140 112 101 138 105 100 136 99 100 134 93 101 132 88 102 130 83 104 127 79 107 125 75 111 123 72 114 121 70 118 118 68 122 116 67 126 114 67 130 111 67 134 109 68 137 106 69
133 72 199 130 70 196 127 69 193 124 68 190 121 67 186 119 66 181 116 66 176 113 66 171 110 66 165 108 66 159 106 67 153 105 68 147 103 69 140 102 71 134 102 73 128 102 75 122 102 78 116 103 81 110 104 84 105 106 87 100 108 91 96 110 95 92 113 99 89 116 103 86 119 108 83 123 112 82 126 117 81 130 122 81 134 127 81 138 131 82 142 136 84 146 141 86 150 146 89 154 151 93 158 155 97 162 160 102 166 164 107 169 168 113 173 172 119 176 175 126 179 178 132 182 181 139 185 183 147 187 185 154 189 187 162 192 188 169 194 189 176 196 189 183 197 189 190 199 188 197 201 187 203 202 185 209 203 183 215 204 181 220 205 178 224 206 175 228 207 172 232 208 169 234 209 165 236 210 161 238 210 157 238 211 152 238 212 148 237 212 144 236 213 140 234 213 136 231 214 132 228 214 129 224 214 126 219 215 123 214 215 120 209 215 118 203 215 117 197 215 115 191 214 114 184 214 114 178 213 114 171 213 114 164 212 115 157 210 116 151 209 118 144 207 119 138 205 121 132 203 124 126 201 126 121 198 129 117 195 131 113 192 134 109 189 137 106 185 140 103 182 143 102 178 145 100 174 148 100 170 151 100 166 153 101 163 155 102 159 158 104 156 160 107 153 162 110 150 163 114 148 165 119 146 166 123 145 168 128 144 169 134 144 170 140 144 170 146 145 171 152 146 172 158 148 172 165 150 172 171 153 173 178 156 173 184 159 173 190 163 172 195 167 172 201 170 172 206 174 172 210 177 171 214 180 170 218 183 170 221 185 169 223 187 168 225 188 167 226 188 167 226 187 166 226 186 165 225 184 164 223 182 162 221 178 161 218 174 160 214 170 159 210 165 157 205 159 156 200 153 155 194 147 153 188 141 152 181 135 150 174 129 148 167 124 147 160 118 145 153 114 143 145 109 141 138 106 140 130 103 138 123 101 136 116 100 134 109 99 132 103 100 130 96 101 128 91 103 126 86 105 123 81 108 121 77 112 119 73 115 117 71 119 114 68 123 112 67 127 110 66 131 107 66 135 105 66 138 103 68
136 71 200 133 70 198 130 68 196 128 67 192 125 66 189 122 65 184 119 65 180 116 65 174 113 65 169 111 66 163 109 66 157 107 67 151 105 69 145 104 70 139 103 72 132 103 75 126 102 77 120 103 80 114 103 83 109 105 87 104 106 90 99 108 94 95 110 98 91 113 103 88 115 107 85 119 112 83 122 116 81 125 121 81 129 126 81 133 131 81 136 136 82 140 140 84 144 145 87 148 150 90 152 154 94 156 159 98 159 163 103 163 167 108 166 171 114 170 174 121 173 177 127 176 180 134 179 182 141 182 184 148 184 186 156 187 187 163 189 188 171 191 188 178 193 188 185 195 187 192 197 186 199 198 185 205 200 183 211 201 180 216 202 178 221 203 175 225 204 172 229 205 168 232 206 164 234 207 161 236 208 157 237 208 152 238 209 148 237 210 144 236 210 140 235 211 136 232 211 133 230 211 129 226 211 126 222 211 123 217 211 120 212 211 118 207 211 116 201 211 115 195 210 114 188 210 113 182 209 113 175 208 113 168 206 113 161 205 114 154 203 115 148 201 117 141 199 118 135 197 120 129 194 122 124 192 125 119 189 127 114 185 130 110 182 132 107 179 135 104 175 137 102 172 140 100 168 143 99 164 145 99 161 147 99 158 150 100 155 152 102 152 154 104 149 156 107 147 158 110 145 159 114 144 161 119 143 162 124 143 163 129 143 164 134 144 165 140 145 166 146 147 166 153 149 167 159 152 167 166 155 168 172 158 168 178 161 168 184 165 168 190 169 167 196 172 167 201 175 167 206 179 166 210 181 166 214 184 165 217 185 165 220 187 164 222 187 163 224 187 162 225 186 161 225 185 160 224 183 159 223 180 158 221 176 157 219 172 156 216 167 155 212 162 153 208 156 152 203 150 150 197 144 149 191 138 147 185 132 146 178 126 144 171 121 143 164 116 141 157 111 139 150 108 137 142 104 136 135 102 134 127 100 132 120 99 130 113 99 128 106 100 126 100 101 124 94 103 121 88 106 119 83 109 117 79 113 115 75 116 113 72 120 110 69 124 108 67 128 106 66 132 103 65 136 101 65 139 99 66
138 70 202 136 69 200 133 67 198 131 66 195 128 65 191 125 65 188 122 64 183 119 64 178 116 64 173 114 65 167 111 66 162 109 67 156 107 68 149 106 70 143 105 72 137 104 74 130 103 77 124 103 80 118 103 83 113 104 86 107 105 90 102 106 94 98 108 98 93 110 102 90 112 106 87 115 111 84 118 116 82 121 120 81 124 125 80 127 130 81 131 135 81 135 140 83 138 144 85 142 149 87 146 153 91 149 158 95 153 162 99 157 166 104 160 169 110 163 173 116 167 176 122 170 179 129 173 181 136 176 183 143 178 185 150 181 186 158 183 186 165 186 187 172 188 187 180 190 186 187 192 185 193 193 184 200 195 182 206 196 180 212 198 177 217 199 174 222 200 171 226 201 168 229 202 164 232 203 161 234 204 157 236 205 153 237 205 149 237 206 145 237 206 141 235 207 137 234 207 133 231 207 129 228 207 126 224 207 123 220 207 120 215 207 118 210 206 116 204 206 114 198 205 113 192 204 112 186 203 112 179 202 111 172 201 112 165 199 112 158 197 113 152 195 114 145 193 115 139 190 117 133 188 119 127 185 121 122 182 123 117 179 125 112 175 128 108 172 130 105 169 133 102 165 135 100 162 137 99 159 140 98 156 142 98 153 144 98 150 146 100 148 148 101 146 150 104 144 152 107 143 153 110 142 155 114 142 156 119 142 157 124 143 159 129 144 159 135 146 160 141 148 161 147 151 162 153 153 162 160 157 162 166 160 162 173 163 163 179 167 163 185 170 162 191 174 162 196 177 162 201 180 162 206 182 161 210 184 161 214 186 160 217 187 159 220 187 159 222 186 158 223 185 157 224 183 156 224 180 155 223 177 154 222 173 153 220 169 151 217 164 150 214 158 149 210 153 148 205 147 146 200 141 145 195 135 143 189 129 142 182 123 140 176 118 138 169 113 137 161 109 135 154 106 133 147 103 131 139 101 129 132 99 127 124 99 125 117 99 123 110 100 121 104 102 119 97 104 117 92 107 115 86 110 113 81 114 111 77 118 109 73 122 106 70 126 104 68 130 102 66 133 100 65 137 97 64 139 95 65
140 70 202 138 68 201 136 67 199 134 66 197 131 65 194 128 64 190 125 64 186 123 64 182 120 64 177 117 64 171 115 65 166 112 66 160 110 68 154 108 69 148 106 71 141 105 74 135 104 76 129 104 79 123 103 82 117 104 85 111 104 89 106 105 93 101 106 97 96 108 101 92 110 106 89 112 110 86 114 115 84 117 119 82 120 124 81 123 129 80 126 134 80 129 139 81 133 143 83 136 148 85 140 152 88 143 157 92 147 161 96 150 165 100 154 168 106 157 172 111 160 175 117 163 177 124 166 180 130 169 182 137 172 183 145 175 185 152 177 185 159 180 186 167 182 186 174 184 185 181 186 184 188 188 183 195 190 181 201 191 179 207 193 177 213 194 174 218 195 171 222 196 168 226 197 164 230 198 160 232 199 157 234 200 153 236 201 149 236 201 145 236 202 141 236 202 137 234 202 133 232 202 130 229 202 126 226 202 123 222 202 121 218 201 118 213 201 116 208 200 114 202 199 113 196 198 111 189 197 111 183 196 110 176 194 110 169 192 110 162 190 111 156 188 112 149 186 113 142 183 114 136 181 116 130 178 117 124 175 119 119 172 121 114 169 123 110 166 126 106 163 128 103 160 130 101 157 132 99 154 134 98 151 137 97 149 139 97 147 141 98 145 143 99 143 144 101 142 146 103 142 148 107 141 149 110 142 151 115 142 152 119 143 153 124 145 154 130 147 155 136 150 155 142 152 156 148 155 156 154 159 157 161 162 157 167 166 157 173 169 157 179 172 157 185 176 157 191 178 157 197 181 157 202 183 156 206 185 156 210 186 155 214 186 154 217 186 154 219 185 153 221 183 152 222 181 151 223 178 150 223 174 149 222 170 148 220 166 147 218 160 146 215 155 144 212 149 143 207 143 142 203 137 140 198 131 139 192 126 137 186 120 135 179 115 134 173 111 132 166 107 130 158 104 129 151 101 127 144 100 125 136 99 123 129 98 121 121 99 119 114 100 117 108 102 115 101 105 113 95 108 111 89 111 109 84 115 107 79 119 105 75 123 102 72 127 100 69 131 98 66 134 96 65 137 93 64 140 91 64
142 69 203 140 68 202 138 66 201 136 65 199 134 64 196 131 64 193 129 63 189 126 63 185 123 63 180 120 64 175 118 65 170 115 66 164 113 67 158 111 69 152 109 71 146 107 73 139 106 76 133 105 78 127 104 81 121 104 85 115 104 88 110 104 92 104 105 96 99 106 100 95 108 105 91 109 109 88 111 114 85 113 119 83 116 123 81 119 128 80 121 133 80 124 138 81 127 142 82 131 147 83 134 151 86 137 156 89 140 160 92 144 164 97 147 167 101 150 170 107 153 174 113 157 176 119 160 179 125 163 181 132 165 182 139 168 183 146 171 184 154 173 185 161 175 185 168 178 184 176 180 183 183 182 182 190 183 181 196 185 179 202 187 176 208 188 174 214 189 171 218 191 168 223 192 164 227 193 161 230 194 157 232 194 153 234 195 149 235 195 145 236 196 141 235 196 137 235 196 134 233 196 130 231 196 127 228 196 124 224 196 121 220 195 118 216 194 116 211 194 114 205 193 112 199 191 111 193 190 110 187 189 109 180 187 109 173 185 109 166 183 109 160 181 110 153 179 110 146 176 111 140 174 113 133 171 114 128 168 116 122 165 118 117 163 119 112 160 121 108 157 123 104 154 125 101 152 127 99 149 129 97 147 131 96 145 133 96 143 135 96 142 137 97 141 139 98 141 141 100 141 142 103 141 143 107 142 145 110 143 146 115 144 147 119 146 148 125 149 149 130 151 150 136 154 150 142 157 151 148 161 151 155 164 152 161 168 152 168 171 152 174 174 152 180 177 152 186 180 152 192 182 151 197 184 151 202 185 151 206 186 150 210 186 149 214 185 149 217 184 148 219 181 147 220 179 146 221 175 145 222 172 144 221 167 143 220 162 142 219 157 141 216 151 140 213 145 138 209 140 137 205 134 135 200 128 134 195 123 132 189 117 131 183 113 129 177 109 128 170 105 126 163 102 124 155 100 122 148 99 121 141 98 119 133 98 117 126 99 115 119 101 113 112 103 111 105 106 109 98 109 107 93 112 105 87 116 103 82 120 100 77 124 98 73 128 96 70 132 94 67 135 92 65 138 90 64 141 87 63
143 69 203 142 67 203 140 66 202 139 64 200 137 64 198 134 63 195 132 63 192 129 63 188 127 63 184 124 63 179 121 64 174 119 65 168 116 66 162 114 68 156 112 70 150 110 72 144 108 75 138 107 78 131 106 81 125 105 84 119 105 88 113 105 91 108 105 95 103 105 100 98 106 104 94 107 108 90 109 113 87 111 118 84 113 122 82 115 127 81 117 132 80 120 137 80 123 141 81 125 146 82 128 150 84 131 154 86 135 158 90 138 162 93 141 166 98 144 169 103 147 172 108 150 175 114 153 177 120 156 179 127 158 181 134 161 182 141 164 183 148 166 184 155 169 184 163 171 183 170 173 183 177 175 181 184 177 180 191 179 178 197 180 176 204 182 173 209 183 170 214 184 167 219 185 164 223 186 161 227 187 157 230 188 153 232 189 149 234 189 146 235 189 142 235 190 138 235 190 134 233 190 131 232 190 127 229 189 124 226 189 121 223 188 118 218 188 116 214 187 114 208 186 112 203 184 110 197 183 109 191 181 108 184 180 108 177 178 107 170 176 107 164 174 108 157 172 108 150 169 109 143 167 110 137 164 111 131 162 113 125 159 114 119 157 116 114 154 117 110 152 119 106 149 121 103 147 123 100 145 125 97 144 126 96 142 128 95 141 130 95 140 132 95 140 133 96 140 135 98 140 136 100 141 138 103 142 139 106 144 140 110 146 141 115 148 142 120 151 143 125 153 144 131 157 145 137 160 145 143 163 146 149 166 146 155 170 146 162 173 146 168 176 146 175 179 146 181 181 146 186 183 146 192 184 146 197 185 145 202 185 145 206 185 144 210 183 144 213 182 143 216 179 142 218 176 141 220 173 140 220 168 139 221 164 138 220 159 137 219 153 136 217 148 135 214 142 133 211 136 132 207 130 131 203 125 129 198 119 128 193 115 126 187 110 125 180 106 123 174 103 121 167 101 120 160 99 118 152 98 116 145 98 114 138 98 112 130 99 110 123 101 108 116 104 107 109 107 105 102 110 103 96 114 100 90 118 98 85 122 96 80 126 94 75 129 92 72 133 90 69 136 88 66 139 86 64 141 84 63
144 68 203 143 66 203 142 65 203 141 64 202 139 63 200 137 62 197 135 62 195 132 62 191 130 62 187 127 63 183 125 63 178 122 64 172 119 66 167 117 67 161 115 69 155 113 72 148 111 74 142 109 77 136 108 80 130 107 83 123 106 87 117 105 91 112 105 95 106 105 99 101 106 103 97 106 107 93 107 112 89 109 117 86 110 121 83 112 126 82 114 131 80 116 135 80 118 140 80 121 144 81 124 149 82 126 153 84 129 157 87 132 161 90 135 165 94 138 168 99 140 171 104 143 174 109 146 176 115 149 178 122 152 180 128 154 181 135 157 182 142 159 183 150 162 183 157 164 182 164 166 182 172 168 181 179 170 179 186 171 177 192 173 175 199 175 173 205 176 170 210 177 167 215 178 164 220 179 161 224 180 157 227 181 154 230 182 150 232 182 146 233 182 142 234 183 138 234 183 135 234 183 131 232 182 128 230 182 125 228 182 122 224 181 119 221 180 116 216 179 114 211 178 112 206 177 110 200 176 109 194 174 108 188 172 107 181 171 106 175 169 106 168 167 106 161 165 106 154 162 107 147 160 108 141 158 108 134 155 110 128 153 111 122 151 112 117 149 114 112 147 115 108 145 117 104 143 118 101 142 120 98 141 122 96 140 123 95 139 125 94 139 127 94 139 128 94 139 130 95 140 131 97 141 132 100 143 134 103 145 135 106 147 136 111 150 137 115 153 138 120 156 138 126 159 139 131 162 140 137 165 140 143 169 140 150 172 141 156 175 141 163 178 141 169 180 141 175 182 141 181 183 141 187 184 140 192 184 140 197 184 139 202 183 139 206 182 138 210 180 138 213 177 137 216 173 136 218 169 135 219 165 134 220 160 133 219 155 132 219 149 131 217 144 130 215 138 129 213 132 127 209 127 126 205 121 124 201 116 123 196 112 121 190 108 120 184 104 118 178 102 117 171 99 115 164 98 113 157 97 112 150 98 110 142 98 108 135 100 106 127 102 104 120 105 102 113 108 100 106 111 98 100 115 96 94 119 94 88 123 92 83 127 90 78 131 88 74 134 86 70 137 84 67 140 82 65 142 80 63
144 68 202 144 66 203 144 65 203 143 63 202 141 62 201 140 62 199 138 61 197 135 61 194 133 62 190 131 62 186 128 63 181 126 64 176 123 65 171 121 67 165 118 69 159 116 71 153 114 73 147 112 76 140 110 79 134 109 83 128 108 86 122 107 90 116 106 94 110 106 98 105 106 102 100 106 106 95 107 111 91 107 116 88 108 120 85 110 125 83 111 130 81 113 134 80 115 139 79 117 143 80 119 148 81 122 152 82 124 156 85 127 160 87 129 163 91 132 167 95 134 170 100 137 172 105 140 175 111 142 177 117 145 179 123 147 180 130 150 181 137 152 181 144 154 182 151 157 181 159 159 181 166 161 180 173 162 179 180 164 177 187 166 175 194 167 173 200 169 170 206 170 167 211 171 164 216 172 161 220 173 157 224 174 154 227 174 150 230 175 147 232 175 143 233 175 139 234 175 135 233 175 132 233 175 128 231 175 125 229 174 122 226 174 119 223 173 117 219 172 114 214 171 112 209 170 110 204 168 109 198 167 107 192 165 106 185 163 105 178 162 105 172 160 105 165 158 105 158 156 105 151 154 105 144 152 106 138 150 107 131 148 108 125 146 109 120 144 110 115 143 111 110 141 113 106 140 114 102 139 116 99 138 117 96 138 119 94 138 120 93 138 122 93 139 123 93 140 124 93 141 126 95 143 127 97 145 128 99 147 129 103 149 130 106 152 131 111 155 132 115 158 133 121 161 133 126 165 134 132 168 135 138 171 135 144 174 135 150 177 135 157 179 135 163 181 135 170 182 135 176 183 135 182 184 135 187 184 135 193 183 134 198 182 134 202 180 133 206 177 132 210 174 132 213 170 131 215 166 130 217 161 129 218 156 128 219 151 127 218 145 126 217 140 125 216 134 124 214 129 122 211 123 121 207 118 120 203 113 118 198 109 117 193 105 115 188 102 114 181 100 112 175 98 110 168 97 109 161 97 107 154 98 105 147 99 103 139 101 102 132 103 100 124 106 98 117 109 96 110 113 94 104 117 92 97 121 90 91 125 88 86 128 87 80 132 85 76 135 83 72 138 81 68 140 79 66 142 77 64
144 67 201 145 65 203 145 64 203 144 63 203 143 62 202 142 61 201 140 61 199 138 61 196 136 61 193 134 61 189 132 62 185 129 63 180 127 65 175 124 66 169 122 68 163 119 70 157 117 73 151 115 75 145 113 78 138 111 82 132 110 85 126 109 89 120 108 93 114 107 97 108 107 101 103 106 105 98 106 110 94 107 114 90 107 119 87 108 124 84 109 128 82 111 133 80 112 137 79 114 142 79 116 146 80 118 150 81 120 154 83 122 158 85 124 162 88 127 165 92 129 168 96 131 171 101 134 173 106 136 176 112 138 177 118 141 179 125 143 180 131 145 180 138 147 181 146 150 181 153 152 180 160 153 179 167 155 178 175 157 176 182 158 175 188 160 172 195 161 170 201 163 167 207 164 164 212 165 161 217 165 158 221 166 154 225 167 151 228 167 147 230 168 143 232 168 140 233 168 136 233 168 133 233 167 129 231 167 126 230 167 123 227 166 120 224 165 117 221 164 115 217 163 112 212 162 110 207 161 108 201 160 107 195 158 106 189 157 105 182 155 104 176 153 103 169 152 103 162 150 103 155 148 103 148 146 104 141 145 104 135 143 105 129 142 106 123 141 107 117 139 108 112 138 109 108 138 110 103 137 112 100 137 113 97 137 114 95 137 116 93 138 117 92 139 118 91 141 120 92 142 121 93 144 122 94 146 123 96 149 124 99 152 125 103 155 126 106 158 127 111 161 127 116 164 128 121 167 129 127 170 129 132 173 129 139 176 130 145 178 130 151 180 130 158 182 130 164 183 130 170 183 130 176 183 129 182 183 129 188 182 129 193 180 128 198 177 128 202 174 127 206 171 126 210 167 126 213 162 125 215 158 124 216 152 123 217 147 122 218 141 121 217 136 120 216 130 119 214 125 117 212 120 116 209 115 115 205 110 113 201 107 112 196 103 110 191 101 109 185 99 107 179 97 106 172 97 104 165 97 103 158 98 101 151 99 99 144 101 97 136 104 96 129 107 94 122 111 92 115 114 90 108 118 88 101 122 86 95 126 85 89 130 83 83 133 81 78 136 79 74 139 77 70 141 75 67 142 73 64
144 67 200 145 65 202 145 64 203 145 62 203 144 61 203 143 61 202 142 60 200 141 60 198 139 60 195 137 61 192 135 62 188 133 63 183 130 64 178 128 65 173 125 67 167 123 69 162 121 72 155 118 75 149 116 78 143 114 81 137 113 84 130 111 88 124 110 92 118 109 96 112 108 100 107 107 104 102 107 109 97 107 113 93 107 118 89 108 122 86 108 127 83 109 131 81 110 136 80 112 140 79 113 145 79 115 149 80 116 153 81 118 157 83 120 160 86 122 164 89 124 167 93 126 170 97 128 172 102 130 174 107 133 176 113 135 177 119 137 179 126 139 179 133 141 180 140 143 180 147 145 179 154 146 178 162 148 177 169 150 176 176 151 174 183 153 172 190 154 170 196 155 167 202 156 164 208 157 161 213 158 158 217 159 155 221 159 151 225 160 148 228 160 144 230 160 140 231 160 137 232 160 133 232 160 130 232 160 127 230 159 123 228 159 120 226 158 118 223 157 115 219 156 113 214 155 110 210 154 108 204 153 107 199 152 105 193 150 104 186 149 103 180 147 103 173 146 102 166 145 102 159 143 102 152 142 102 145 141 102 139 139 103 132 138 103 126 137 104 120 137 105 115 136 106 110 136 107 105 136 108 101 136 109 98 137 110 95 138 111 93 139 112 91 140 114 91 142 115 90 144 116 91 146 117 92 149 118 94 151 119 96 154 120 99 157 121 102 160 121 107 163 122 111 166 123 116 169 123 121 172 124 127 175 124 133 177 124 139 179 124 145 181 124 152 182 125 158 183 124 165 183 124 171 182 124 177 181 124 183 180 123 188 177 123 194 175 122 198 171 122 203 168 121 206 163 121 210 159 120 212 154 119 214 148 118 216 143 117 216 137 116 217 132 115 216 126 114 215 121 113 213 116 111 210 112 110 207 108 109 203 104 107 199 101 106 194 99 104 188 97 103 182 97 101 176 96 100 169 97 98 163 98 97 155 100 95 148 102 93 141 105 91 133 108 90 126 112 88 119 116 86 112 120 84 105 124 83 98 128 81 92 131 79 87 134 77 81 137 76 76 140 74 72 141 72 69 142 70 66
143 66 198 144 65 201 145 63 202 145 62 203 145 61 203 145 60 203 144 60 201 143 60 200 141 60 197 140 60 194 138 61 190 136 62 186 134 63 182 131 65 177 129 67 171 127 69 166 124 71 160 122 74 154 120 77 147 118 80 141 116 83 135 114 87 128 113 91 122 111 95 116 110 99 111 109 103 105 108 107 100 108 112 96 108 116 91 108 121 88 108 126 85 108 130 82 109 135 80 110 139 79 111 143 79 112 147 79 113 151 80 115 155 81 116 159 83 118 162 86 120 165 89 122 168 93 124 171 98 125 173 103 127 175 109 129 176 114 131 177 121 133 178 127 135 179 134 137 179 141 138 178 149 140 178 156 141 177 163 143 175 170 144 174 177 146 172 184 147 170 191 148 167 197 149 164 203 150 161 208 151 158 213 151 155 218 152 152 222 152 148 225 153 145 228 153 141 229 153 138 231 153 134 231 153 131 231 153 127 230 152 124 229 152 121 227 151 118 224 150 116 221 149 113 217 149 111 212 148 109 207 147 107 202 146 105 196 144 104 190 143 103 183 142 102 177 141 101 170 140 101 163 139 100 156 138 100 149 137 100 142 136 100 136 136 101 129 135 101 123 135 102 118 135 103 112 135 104 107 136 104 103 136 105 99 137 106 96 139 107 93 140 108 91 142 109 90 144 110 89 146 111 89 149 112 90 151 113 91 154 114 93 157 115 96 160 116 99 163 116 102 166 117 107 169 117 111 172 118 116 174 118 122 177 119 128 179 119 134 180 119 140 181 119 146 182 119 153 182 119 159 182 119 165 181 119 172 179 119 178 177 118 183 175 118 189 172 117 194 168 117 198 164 116 203 159 115 206 154 115 209 149 114 212 144 113 214 139 112 215 133 111 216 128 110 215 122 109 215 118 108 213 113 107 211 109 105 208 105 104 205 102 103 201 99 101 196 98 100 191 97 98 186 96 97 180 96 95 173 97 94 167 99 92 160 101 91 153 104 89 145 107 87 138 110 86 131 114 84 123 118 82 116 122 81 109 125 79 102 129 77 96 133 76 90 136 74 84 138 72 79 140 71 75 142 69 70 142 67 67
142 66 197 143 64 199 144 63 201 145 61 202 146 61 203 146 60 203 145 59 202 144 59 201 143 59 199 142 60 196 141 60 193 139 61 189 137 63 185 135 64 180 133 66 175 130 68 170 128 70 164 126 73 158 123 76 152 121 79 145 119 82 139 117 86 133 116 90 126 114 94 120 113 98 114 111 102 109 110 106 103 110 111 99 109 115 94 109 120 90 109 124 87 109 129 84 109 133 81 109 137 80 110 142 79 111 146 78 112 150 79 113 154 80 114 157 81 115 161 84 117 164 87 118 167 90 120 169 94 121 171 99 123 173 104 124 175 110 126 176 116 128 177 122 129 177 129 131 178 136 132 177 143 134 177 150 135 176 157 137 175 165 138 173 172 139 172 179 140 169 186 141 167 192 142 165 198 143 162 204 144 159 209 145 156 214 145 152 218 146 149 222 146 146 225 146 142 227 146 139 229 146 135 230 146 132 231 146 128 230 146 125 229 145 122 228 145 119 225 144 116 222 143 114 219 143 111 215 142 109 210 141 107 205 140 105 199 139 104 193 139 102 187 138 101 181 137 100 174 136 100 167 135 99 160 135 99 153 134 99 146 134 99 140 134 99 133 134 99 127 134 99 121 134 100 115 135 101 110 136 101 105 137 102 101 138 103 97 140 104 94 142 104 92 144 105 90 146 106 89 149 107 88 151 108 88 154 109 89 157 109 91 160 110 93 163 111 95 166 111 99 169 112 103 171 112 107 174 113 112 176 113 117 178 114 122 180 114 128 181 114 134 181 114 141 182 114 147 181 114 153 181 114 160 179 114 166 177 113 172 175 113 178 172 113 184 168 112 189 164 112 194 160 111 199 155 110 203 150 110 206 145 109 209 140 108 211 134 107 213 129 106 214 124 105 215 119 104 214 114 103 213 110 102 212 106 101 209 103 99 207 100 98 203 98 97 199 97 95 194 96 94 189 96 93 183 96 91 177 98 90 171 100 88 164 102 87 157 105 85 150 108 84 142 112 82 135 115 80 128 119 79 121 123 77 113 127 76 106 131 74 100 134 72 94 137 71 88 139 69 82 141 68 77 142 66 73 142 64 69
140 65 194 142 64 197 143 62 200 145 61 201 145 60 203 146 59 203 146 59 203 146 59 202 145 59 200 144 59 198 143 60 195 141 61 192 140 62 188 138 63 184 136 65 179 134 67 174 132 69 168 129 72 162 127 75 156 125 78 150 123 81 144 121 85 137 119 88 131 117 92 125 116 96 118 114 101 113 113 105 107 112 109 102 111 114 97 110 118 93 110 123 89 109 127 86 109 131 83 109 136 81 110 140 79 110 144 78 111 148 78 111 152 79 112 156 80 113 159 82 114 162 84 115 165 87 116 168 91 118 170 95 119 172 100 120 173 105 122 175 111 123 176 117 125 176 124 126 177 130 127 177 137 129 176 144 130 175 152 131 174 159 132 173 166 133 171 173 134 169 180 135 167 187 136 165 193 137 162 199 138 159 205 138 156 210 139 153 215 139 150 219 140 146 222 140 143 225 140 139 227 140 136 229 140 133 230 140 129 230 140 126 229 139 123 228 139 120 226 139 117 224 138 114 221 138 112 217 137 110 213 136 108 208 136 106 203 135 104 197 135 102 191 134 101 184 134 100 178 133 99 171 133 98 164 133 98 157 133 97 150 133 97 143 133 97 137 133 97 130 134 97 124 135 98 118 136 98 113 137 98 107 138 99 103 140 100 99 142 100 95 144 101 92 146 102 90 149 102 88 151 103 87 154 104 87 157 104 87 160 105 88 163 106 90 166 106 92 168 107 95 171 107 99 173 108 103 176 108 107 177 108 112 179 109 117 180 109 123 181 109 129 181 109 135 181 109 141 180 109 148 179 109 154 177 109 160 175 108 167 172 108 173 168 108 179 165 107 184 160 107 190 156 106 194 151 105 199 146 105 203 140 104 206 135 103 209 130 102 211 125 101 213 120 100 213 115 99 214 111 98 213 107 97 212 103 96 210 100 95 208 98 94 205 97 92 201 96 91 197 95 90 192 96 88 187 97 87 181 98 86 175 101 84 168 103 83 161 106 81 154 110 80 147 113 78 140 117 77 132 121 75 125 125 74 118 129 72 111 132 71 104 135 69 97 138 68 91 140 66 85 141 65 80 142 63 75 142 62 71
137 65 192 140 63 195 142 62 198 143 61 200 145 60 202 146 59 203 146 58 203 146 58 203 146 58 201 146 58 200 145 59 197 144 60 194 142 61 191 141 63 187 139 64 182 137 66 177 135 69 172 133 71 166 131 74 160 129 77 154 127 80 148 125 84 142 123 87 135 121 91 129 119 95 123 118 99 117 116 103 111 115 108 105 114 112 100 113 117 96 112 121 91 111 125 88 111 130 84 110 134 82 110 138 80 110 142 79 110 146 78 111 150 78 111 154 78 112 157 80 113 160 82 113 163 84 114 166 88 115 168 92 116 170 96 117 172 101 118 173 106 120 175 112 121 175 118 122 176 125 123 176 132 124 175 139 125 175 146 126 174 153 127 173 160 128 171 167 129 169 175 130 167 181 131 165 188 132 162 194 132 159 200 133 157 206 133 154 211 134 150 215 134 147 219 134 144 222 135 140 225 135 137 227 135 134 228 135 130 229 135 127 229 134 124 228 134 121 227 134 118 225 134 115 222 133 113 219 133 110 215 133 108 210 132 106 205 132 104 200 132 102 194 132 101 188 131 100 182 131 99 175 131 98 168 132 97 161 132 96 154 132 96 147 133 96 140 134 95 134 135 95 127 136 95 121 137 96 115 139 96 110 140 96 105 142 97 101 144 97 97 147 98 93 149 98 91 152 99 89 154 99 87 157 100 86 160 100 86 163 101 87 166 101 88 168 102 90 171 102 92 173 103 95 175 103 99 177 104 103 178 104 107 179 104 112 180 104 118 180 104 123 180 104 129 179 104 136 178 104 142 176 104 148 174 104 155 171 104 161 168 103 167 165 103 174 160 102 179 156 102 185 151 101 190 146 101 195 141 100 199 136 99 203 131 99 206 126 98 209 121 97 211 116 96 212 112 95 213 108 94 213 104 93 212 101 92 211 99 91 209 97 89 206 96 88 203 95 87 199 95 86 195 96 84 190 97 83 184 99 82 178 102 80 172 105 79 165 108 78 159 112 76 151 115 75 144 119 73 137 123 72 130 127 71 122 130 69 115 134 68 108 136 66 101 139 65 95 140 63 89 141 62 83 142 61 78 142 59 73
134 65 189 137 63 193 140 62 196 142 60 199 143 59 201 145 58 202 146 58 203 146 58 203 147 58 202 147 58 201 146 58 199 145 59 196 144 60 193 143 62 190 142 63 185 140 65 181 139 68 176 137 70 170 135 73 165 133 76 159 131 79 152 129 82 146 127 86 140 125 90 133 123 94 127 121 98 121 120 102 115 118 106 109 117 111 104 115 115 99 114 119 94 113 124 90 113 128 86 112 132 83 112 137 81 111 141 79 111 145 78 111 149 77 111 152 78 112 156 78 112 159 80 112 162 82 113 164 85 114 167 88 114 169 92 115 171 97 116 172 102 117 173 107 118 174 113 119 175 120 120 175 126 121 175 133 122 174 140 122 173 147 123 172 155 124 171 162 125 169 169 126 167 176 127 165 183 127 162 189 128 160 195 128 157 201 129 154 206 129 151 211 130 148 215 130 145 219 130 141 222 130 138 225 130 135 227 130 132 228 130 128 228 130 125 228 130 122 227 130 119 225 130 116 223 130 114 220 130 111 217 130 109 213 130 107 208 130 105 203 130 103 198 130 101 192 130 100 185 130 98 179 131 97 172 131 96 165 132 95 158 133 95 151 134 94 144 135 94 138 136 94 131 137 94 125 139 94 119 141 94 113 143 94 108 145 94 103 147 94 98 150 95 95 152 95 91 155 95 89 158 96 87 160 96 86 163 97 85 166 97 85 168 98 86 171 98 87 173 98 89 175 99 92 177 99 95 178 99 99 179 99 103 180 100 108 180 100 113 180 100 118 179 100 124 178 100 130 176 100 136 174 99 143 171 99 149 168 99 156 164 99 162 160 98 168 156 98 174 152 97 180 147 97 185 142 96 190 137 96 195 131 95 199 126 94 203 121 93 206 117 92 208 112 92 210 108 91 211 105 90 212 101 89 212 99 88 211 97 87 209 96 85 207 95 84 204 95 83 201 95 82 197 96 81 192 98 79 187 101 78 182 103 77 176 106 76 169 110 74 163 114 73 156 117 72 149 121 70 141 125 69 134 129 68 127 132 66 120 135 65 112 137 64 106 139 62 99 141 61 93 142 60 87 142 58 81 141 57 76
131 64 186 134 63 190 137 61 194 139 60 197 141 59 199 143 58 201 145 57 202 146 57 203 147 57 203 147 57 202 147 58 200 147 59 198 146 60 196 145 61 192 144 63 188 143 65 184 142 67 179 140 69 174 138 72 169 136 75 163 134 78 157 133 81 150 131 85 144 129 88 138 127 92 131 125 96 125 123 100 119 122 105 113 120 109 107 119 113 102 117 118 97 116 122 93 115 126 89 114 131 85 114 135 82 113 139 80 113 143 78 112 147 77 112 150 77 112 154 77 112 157 78 112 160 80 113 163 82 113 165 85 114 167 89 114 169 93 115 171 98 115 172 103 116 173 109 117 173 115 117 174 121 118 174 128 119 173 135 120 173 142 120 172 149 121 170 156 122 169 163 122 167 170 123 165 177 124 163 184 124 160 190 125 158 196 125 155 202 126 152 207 126 149 212 126 146 216 127 142 219 127 139 222 127 136 225 127 133 226 127 129 227 127 126 227 128 123 227 128 120 226 128 117 224 128 115 222 128 112 219 128 110 215 128 107 211 129 105 206 129 103 201 129 101 195 130 100 189 130 98 183 131 97 176 132 96 169 133 95 162 134 94 155 135 93 148 137 93 141 138 92 135 140 92 128 142 92 122 144 92 116 146 92 110 148 92 105 151 92 100 153 92 96 156 92 93 158 93 90 161 93 87 163 93 85 166 93 84 168 94 84 171 94 84 173 94 85 175 95 87 176 95 89 177 95 91 178 95 95 179 95 99 179 95 103 179 96 108 178 96 113 177 96 119 175 95 125 173 95 131 171 95 137 168 95 143 164 95 150 160 94 156 156 94 163 152 94 169 147 93 175 142 93 180 137 92 186 132 91 191 127 91 195 122 90 199 117 89 203 113 88 206 109 87 208 105 87 210 102 86 211 99 85 211 97 84 211 96 83 210 95 82 208 94 80 206 95 79 203 96 78 199 97 77 195 99 76 190 102 75 185 105 73 179 108 72 173 112 71 167 116 70 160 119 69 153 123 67 146 127 66 139 130 65 131 133 64 124 136 62 117 138 61 110 140 60 103 141 59 96 142 58 90 141 56 84 140 55 79
127 64 182 130 63 187 134 61 191 137 60 195 139 59 197 141 58 200 143 57 201 145 57 202 146 57 203 147 57 202 147 57 201 147 58 200 147 59 197 147 60 195 146 62 191 145 64 187 144 66 183 143 68 178 141 71 172 140 74 167 138 77 161 136 80 155 134 83 148 133 87 142 131 91 136 129 95 129 127 99 123 126 103 117 124 107 111 122 112 105 121 116 100 120 120 95 118 125 91 117 129 87 116 133 84 116 137 81 115 141 79 114 145 78 114 148 77 114 152 77 113 155 77 113 158 78 113 161 80 113 163 83 114 166 86 114 168 90 114 169 94 115 171 99 115 172 104 116 172 110 116 173 116 117 173 122 117 173 129 118 172 136 118 171 143 119 170 150 120 169 157 120 167 165 121 165 172 121 163 178 122 161 185 122 158 191 123 155 197 123 152 203 123 150 208 124 146 212 124 143 216 124 140 220 125 137 222 125 134 224 125 131 226 126 128 226 126 125 227 126 122 226 126 119 225 127 116 223 127 113 220 127 111 217 128 108 213 128 106 208 129 104 204 130 102 198 130 100 192 131 99 186 132 97 180 133 96 173 134 95 166 136 94 159 137 93 152 139 92 145 141 91 139 143 91 132 145 91 125 147 90 119 149 90 113 151 90 108 154 90 103 156 90 98 159 90 94 161 90 91 164 90 88 166 90 86 169 90 84 171 91 83 173 91 83 174 91 83 176 91 84 177 91 86 178 91 88 178 92 91 179 92 95 178 92 99 178 92 103 176 92 108 175 92 114 173 91 119 170 91 125 167 91 132 164 91 138 160 91 144 156 90 151 151 90 157 147 89 163 142 89 170 137 88 175 132 88 181 127 87 186 122 87 191 118 86 195 113 85 199 109 84 203 105 84 205 102 83 208 99 82 209 97 81 210 96 80 210 94 79 210 94 78 208 94 77 207 95 76 204 96 75 201 98 74 197 101 73 193 103 71 188 107 70 183 110 69 177 114 68 171 118 67 164 121 66 157 125 65 150 129 63 143 132 62 136 135 61 129 137 60 121 139 59 114 140 58 107 141 57 100 141 56 94 141 55 88 139 54 82
123 64 178 127 62 184 130 61 188 133 59 192 136 58 195 139 57 198 141 57 200 143 56 202 145 56 203 146 56 203 147 57 202 147 57 201 148 58 199 148 60 197 147 61 194 147 63 190 146 65 186 145 67 181 144 70 176 143 73 171 141 76 165 140 79 159 138 82 153 136 86 146 135 89 140 133 93 134 131 97 127 130 101 121 128 106 115 126 110 109 125 114 104 123 118 99 122 123 94 121 127 90 120 131 86 119 135 83 118 139 80 117 143 78 116 147 77 116 150 76 115 153 76 115 156 77 115 159 78 115 162 80 115 164 83 115 166 86 115 168 90 115 169 95 115 170 100 116 171 105 116 172 111 116 172 117 117 172 124 117 171 130 118 171 137 118 170 144 118 168 152 119 167 159 119 165 166 120 163 173 120 161 180 121 158 186 121 156 192 122 153 198 122 150 203 122 147 208 123 144 213 123 141 216 123 138 220 124 135 222 124 132 224 125 129 225 125 126 226 125 123 226 126 120 225 126 117 223 127 114 221 128 112 218 128 109 215 129 107 211 130 105 206 131 103 201 132 101 196 133 99 190 134 98 184 135 96 177 137 95 170 138 94 163 140 93 156 142 92 149 144 91 142 146 90 136 148 90 129 150 89 123 153 89 116 155 88 111 157 88 105 160 88 100 162 88 96 164 88 92 167 88 89 169 88 86 171 88 84 173 88 83 174 88 82 176 88 82 177 88 82 177 88 84 178 88 86 178 88 88 178 88 91 177 88 95 176 88 99 174 88 104 172 88 109 169 88 114 166 88 120 163 87 126 159 87 132 155 87 139 151 86 145 147 86 152 142 86 158 137 85 164 132 85 170 127 84 176 123 83 182 118 83 187 114 82 191 109 81 196 106 81 199 102 80 203 100 79 205 97 78 207 95 77 208 94 77 209 94 76 209 94 75 208 94 74 207 96 73 205 97 72 202 100 71 199 102 70 195 105 69 191 109 67 186 112 66 180 116 65 174 120 64 168 123 63 162 127 62 155 130 61 148 133 60 140 136 59 133 138 58 126 140 57 119 141 56 112 141 55 105 141 54 98 140 53 92 138 52 86
119 64 175 122 62 180 126 60 185 130 59 189 133 58 193 136 57 196 138 56 199 141 56 201 143 56 202 144 56 203 146 56 202 147 57 202 147 58 200 148 59 198 148 60 196 148 62 192 148 64 189 147 66 184 146 69 180 145 71 175 144 74 169 143 77 163 141 81 157 140 84 151 138 88 144 137 92 138 135 96 132 134 100 125 132 104 119 130 108 113 129 112 107 127 117 102 126 121 97 125 125 92 124 129 88 122 133 85 121 137 82 120 141 79 120 145 78 119 148 76 118 151 76 118 155 76 117 157 77 117 160 79 117 162 81 116 164 84 116 166 87 116 168 91 116 169 95 116 170 101 117 171 106 117 171 112 117 171 118 117 171 125 118 170 132 118 169 139 118 168 146 119 167 153 119 165 160 119 163 167 120 161 174 120 159 181 121 156 187 121 154 193 122 151 199 122 148 204 122 145 209 123 142 213 123 139 217 124 136 220 124 133 222 125 130 224 125 127 225 126 124 225 127 121 225 127 118 224 128 116 222 129 113 219 130 111 216 131 108 213 132 106 209 133 104 204 134 102 199 135 100 193 137 98 187 138 96 181 140 95 174 141 94 167 143 92 160 145 91 153 147 90 146 149 90 140 151 89 133 154 88 126 156 88 120 158 87 114 161 87 108 163 86 103 165 86 98 167 86 94 169 86 90 171 86 87 173 86 84 174 85 83 175 85 81 176 85 81 177 85 81 177 85 82 177 85 83 177 85 85 176 85 88 175 85 91 173 85 95 171 85 99 168 85 104 166 84 109 162 84 115 159 84 121 155 84 127 151 83 133 146 83 139 142 83 146 137 82 152 132 82 159 127 81 165 123 81 171 118 80 177 114 79 182 110 79 187 106 78 192 103 77 196 100 77 199 97 76 202 95 75 205 94 74 207 93 73 208 93 72 208 94 72 208 95 71 207 96 70 206 99 69 204 101 68 201 104 67 197 107 66 193 111 65 189 114 64 184 118 63 178 122 62 172 125 61 166 129 60 159 132 59 152 135 58 145 137 57 138 139 56 130 140 55 123 141 54 116 141 53 109 140 53 102 139 52 96 137 51 89
114 64 170 118 62 176 122 60 181 125 59 186 129 58 190 132 57 194 135 56 197 138 55 199 140 55 201 142 55 202 144 56 202 145 56 202 147 57 201 148 58 200 148 59 198 148 61 195 148 63 191 148 65 187 148 68 183 147 70 178 146 73 173 146 76 167 144 79 161 143 83 155 142 86 149 140 90 142 139 94 136 138 98 130 136 102 123 135 106 117 133 110 111 132 115 106 130 119 100 129 123 95 128 127 91 126 131 87 125 135 83 124 139 81 123 143 78 122 146 77 122 149 76 121 153 76 120 155 76 120 158 77 119 161 79 119 163 81 119 165 84 118 166 88 118 168 92 118 169 96 118 169 102 118 170 107 118 170 113 119 170 120 119 169 126 119 169 133 119 168 140 120 166 147 120 165 154 120 163 161 121 161 168 121 159 175 121 157 182 122 154 188 122 152 194 123 149 200 123 146 205 124 143 209 124 141 213 125 138 217 125 135 220 126 132 222 127 129 223 127 126 224 128 123 224 129 120 223 130 117 222 131 114 220 132 112 218 133 109 215 134 107 211 135 105 206 137 103 202 138 101 196 140 99 190 141 97 184 143 95 178 145 94 171 147 93 164 149 91 158 151 90 151 153 89 144 155 88 137 157 88 130 159 87 123 162 86 117 164 86 111 166 85 106 168 85 100 170 84 96 171 84 92 173 84 88 174 84 85 175 83 83 176 83 81 176 83 80 177 83 80 176 83 80 176 83 81 175 83 83 174 82 85 172 82 88 170 82 91 167 82 95 165 82 100 161 81 104 158 81 110 154 81 115 150 80 121 146 80 128 141 80 134 136 79 140 132 79 147 127 78 153 122 78 160 118 77 166 114 77 172 110 76 177 106 76 183 103 75 188 100 74 192 97 74 196 95 73 199 94 72 202 93 71 205 93 70 206 93 70 207 94 69 207 96 68 207 98 67 206 100 66 204 103 65 202 106 64 199 109 63 195 113 62 191 117 62 187 120 61 181 124 60 176 128 59 170 131 58 163 134 57 156 136 56 149 138 55 142 140 54 135 140 54 128 141 53 121 140 52 113 139 51 106 137 51 100 135 50 93
109 64 166 113 62 172 117 60 177 121 59 183 125 57 187 128 56 191 131 56 195 134 55 198 137 55 200 139 55 201 142 55 202 144 55 202 145 56 202 146 57 201 147 59 199 148 60 197 149 62 194 149 64 190 149 66 186 149 69 181 148 72 176 148 75 171 147 78 165 146 81 159 145 85 153 144 89 147 142 92 140 141 96 134 140 100 128 138 104 121 137 109 115 136 113 109 134 117 104 133 121 98 132 125 94 130 129 89 129 133 86 128 137 82 127 141 80 126 144 77 125 147 76 124 151 75 124 154 75 123 156 76 123 159 77 122 161 79 122 163 81 121 165 84 121 166 88 121 167 92 121 168 97 121 169 103 121 169 108 121 169 114 121 169 121 121 168 128 121 167 134 121 166 141 122 165 149 122 163 156 122 162 163 123 160 170 123 157 176 123 155 183 124 153 189 124 150 195 125 147 200 125 145 205 126 142 210 127 139 214 127 136 217 128 133 219 129 130 221 130 127 223 130 124 223 131 121 223 132 119 222 133 116 221 135 113 219 136 111 216 137 108 213 139 106 209 140 104 204 142 102 199 143 100 194 145 98 188 147 96 182 149 95 175 150 93 168 152 92 162 154 90 155 157 89 148 159 88 141 161 87 134 163 86 127 165 86 121 166 85 114 168 84 108 170 84 103 171 83 98 173 83 94 174 82 90 175 82 86 176 82 83 176 81 81 176 81 80 176 81 79 175 81 79 174 80 79 173 80 80 171 80 82 169 80 85 166 80 88 164 79 91 160 79 95 157 79 100 153 78 105 149 78 110 145 78 116 140 77 122 136 77 128 131 76 135 127 76 141 122 76 148 118 75 154 113 74 160 110 74 166 106 73 172 103 73 178 100 72 183 97 71 188 95 71 192 94 70 196 93 69 199 93 69 202 93 68 204 94 67 206 95 66 207 97 65 207 99 65 206 102 64 205 105 63 203 108 62 200 112 61 197 115 60 194 119 60 189 123 59 184 126 58 179 129 57 173 132 56 167 135 56 161 137 55 154 139 54 147 140 53 140 140 52 132 140 52 125 140 51 118 138 50 111 136 50 104 133 49 97
