P3
128 96
255
255 220 80
255 220 80
76 51 144
76 52 136
78 52 128
80 53 120
84 54 112
88 55 104
93 56 97
99 57 90
105 58 84
111 59 79
118 60 74
124 62 71
130 63 68
136 64 67
141 65 66
146 66 67
150 67 68
153 68 71
155 69 74
157 70 79
157 70 84
157 71 91
156 72 98
154 73 106
152 74 114
149 74 122
146 75 131
142 76 140
138 76 149
134 77 158
130 77 167
127 78 176
123 78 184
120 79 191
117 79 198
115 79 204
113 80 209
112 80 213
111 80 216
111 81 218
112 81 219
113 81 219
114 82 218
116 82 216
118 82 213
120 83 208
123 83 203
126 84 198
129 85 191
133 86 184
136 87 176
139 88 168
143 89 160
146 90 152
149 92 143
152 94 135
155 96 127
157 98 119
160 100 112
162 102 105
164 105 99
166 108 94
40 255 220
169 114 87
170 118 85
171 121 83
172 125 83
173 128 84
173 132 86
174 136 88
174 139 92
174 143 97
174 146 102
174 150 108
174 153 115
173 156 123
173 159 130
172 161 138
172 164 147
171 165 155
170 167 163
169 168 171
168 169 179
166 169 186
165 169 193
163 168 199
162 167 204
160 166 208
158 164 211
156 161 214
153 158 215
151 155 216
148 152 215
146 148 213
143 143 210
140 139 206
136 134 201
133 129 196
130 124 189
126 119 182
123 114 174
119 109 166
115 104 157
112 99 148
108 94 139
104 89 130
101 84 121
98 80 112
95 76 104
92 72 96
90 68 89
88 65 82
86 63 76
85 60 72
84 58 68
83 57 65
83 56 63
84 55 62
85 55 62
86 55 63
88 55 66
90 56 69
93 58 73
96 59 78
99 61 84
103 64 91
78 50 165
76 51 158
255 220 80
77 53 143
80 54 134
83 55 126
87 56 118
91 57 110
97 58 103
103 60 96
109 61 89
116 62 84
122 63 79
129 64 74
135 65 71
140 67 69
145 68 67
150 69 67
153 70 68
156 71 70
157 72 73
158 73 77
158 74 82
157 75 87
155 76 94
153 77 101
150 77 109
146 78 117
143 79 126
139 79 135
135 80 144
131 80 153
127 81 162
123 81 171
120 82 179
118 82 187
115 82 194
114 83 201
113 83 206
112 83 211
112 83 215
113 83 218
114 83 220
116 84 220
118 84 220
120 84 219
123 84 216
126 85 213
130 85 208
133 85 203
137 86 197
140 86 190
144 87 183
148 88 175
151 89 167
154 90 159
158 92 150
161 93 142
163 95 134
166 97 126
168 99 118
170 101 111
172 104 105
174 106 99
40 255 220
177 112 90
178 116 87
178 119 85
179 123 84
180 126 84
180 130 85
180 134 87
180 138 90
180 141 94
180 145 99
180 149 105
180 152 111
179 155 118
179 158 126
178 161 133
177 164 142
177 166 150
176 167 158
175 169 166
174 170 174
173 170 182
171 170 189
170 170 195
168 169 201
167 167 206
165 166 210
163 163 213
161 161 215
159 157 216
156 154 216
153 150 215
151 146 213
148 142 210
145 137 205
141 132 200
138 127 194
134 122 188
130 116 180
127 111 172
123 106 164
119 101 155
115 96 146
111 91 137
107 86 128
104 82 119
100 77 110
97 73 102
94 70 94
91 67 87
88 64 81
86 61 75
85 59 71
84 58 67
83 56 64
83 56 63
83 55 62
84 55 63
85 56 64
87 57 67
89 58 70
92 60 75
95 62 80
98 64 86
77 52 171
77 53 164
77 54 157
255 220 80
82 56 141
85 57 133
90 58 125
95 60 117
101 61 109
107 62 102
114 64 95
121 65 89
127 66 83
133 67 78
139 69 74
144 70 71
149 71 69
153 72 68
155 74 68
157 75 70
158 76 72
158 77 75
157 78 79
156 79 84
154 80 90
151 81 97
147 81 104
143 82 112
139 83 121
135 84 130
131 84 139
128 85 148
124 85 157
121 85 166
118 86 175
116 86 183
114 86 190
113 86 197
113 87 204
113 87 209
114 87 214
115 87 217
117 87 220
120 87 221
123 87 222
126 87 221
129 87 219
133 87 217
137 87 213
141 87 208
145 87 203
149 88 197
152 88 190
156 89 182
160 90 174
163 90 166
166 92 158
169 93 149
172 94 141
174 96 133
176 98 125
178 100 117
180 102 111
181 105 104
40 255 220
183 111 94
184 114 90
184 117 88
185 121 86
185 125 85
185 128 85
185 132 87
185 136 89
185 140 92
185 144 97
184 148 102
184 151 107
184 155 114
183 158 121
182 161 129
182 163 137
181 166 145
180 168 153
179 169 161
179 170 169
178 171 177
176 171 184
175 171 191
174 170 197
172 169 203
171 168 208
169 165 211
167 163 214
165 160 216
163 156 217
161 153 216
158 148 215
155 144 212
152 139 209
149 134 205
146 129 199
142 124 193
138 119 186
135 113 179
131 108 170
127 103 162
122 98 153
118 93 144
114 88 135
110 83 125
106 79 117
102 75 108
99 71 100
95 68 92
92 65 85
89 62 79
87 60 74
85 59 70
84 57 66
83 56 64
82 56 62
82 56 62
83 56 63
84 57 65
86 58 68
88 60 71
91 62 76
94 64 82
77 53 176
77 54 170
78 56 163
81 57 155
255 220 80
255 220 80
93 61 132
99 63 123
105 64 116
112 65 108
119 67 101
125 68 94
132 70 88
138 71 83
143 72 78
148 74 74
152 75 72
155 76 70
157 78 69
159 79 70
159 80 71
158 81 74
157 82 77
155 83 82
152 84 87
148 85 93
144 86 100
140 87 108
136 88 116
132 88 125
128 89 133
125 89 143
121 90 152
119 90 161
116 90 170
115 91 178
114 91 186
114 91 194
114 91 201
115 91 207
117 91 212
119 91 216
122 90 219
125 90 222
128 90 223
132 90 223
136 90 222
140 90 220
144 89 217
149 89 213
153 89 208
157 90 202
161 90 196
165 90 189
168 91 181
171 91 173
174 92 165
177 93 157
179 94 148
181 96 140
183 97 132
184 99 124
186 101 117
187 104 110
40 255 220
188 109 99
188 113 94
189 116 91
189 119 88
189 123 87
189 127 86
189 131 87
188 135 88
188 139 91
188 143 94
187 146 99
187 150 104
186 154 110
186 157 117
185 160 124
184 163 132
184 166 140
183 168 148
182 170 156
182 171 164
181 172 172
180 173 180
179 172 187
178 172 194
177 171 200
175 169 205
174 167 209
172 165 213
171 162 215
169 159 217
167 155 217
164 151 216
162 146 215
159 142 212
156 137 208
153 132 204
150 126 198
146 121 192
142 116 184
138 110 177
134 105 168
130 100 160
126 95 151
121 90 141
117 85 132
113 81 123
108 77 114
104 73 106
100 69 98
97 66 90
93 64 84
90 61 78
88 59 73
85 58 69
84 57 65
83 57 63
82 57 62
82 57 62
82 58 63
84 59 66
85 60 69
87 62 73
90 64 78
77 55 181
78 57 175
80 58 169
83 60 161
87 61 154
91 63 146
255 220 80
103 66 130
110 67 122
116 69 114
123 70 107
130 72 100
136 74 93
142 75 87
147 77 82
151 78 78
155 79 75
157 81 72
159 82 71
159 84 70
159 85 71
158 86 73
156 87 76
153 88 79
149 89 84
146 90 90
142 91 96
137 92 103
133 93 111
129 93 120
125 94 128
122 94 137
119 95 146
117 95 155
115 95 165
115 95 173
114 96 182
115 96 190
116 96 197
118 95 204
120 95 209
123 95 214
127 95 218
130 94 221
135 94 223
139 94 224
143 93 224
148 93 223
152 93 221
157 92 217
161 92 213
165 92 208
169 92 202
173 92 195
176 92 188
179 92 180
181 93 172
184 94 164
186 95 155
187 96 147
189 97 139
190 99 131
190 101 123
191 103 116
40 255 220
192 108 103
192 111 98
192 114 94
191 118 91
191 121 89
191 125 87
190 129 87
190 133 88
189 137 90
189 141 93
188 145 96
188 149 101
187 153 107
187 157 113
186 160 120
185 163 127
185 166 135
184 168 143
184 170 151
183 172 159
183 173 167
182 174 175
181 174 183
180 173 190
179 173 196
178 171 202
177 169 207
176 167 211
175 164 214
173 161 216
171 157 217
169 153 218
167 149 217
165 144 215
162 139 212
160 134 207
156 129 202
153 123 197
150 118 190
146 112 183
142 107 175
138 102 166
133 97 157
129 92 148
124 87 139
120 82 130
115 78 121
111 74 112
106 71 104
102 67 96
98 65 89
94 62 82
91 60 76
88 59 72
86 58 68
84 57 65
82 57 63
82 57 62
81 58 63
82 59 64
83 61 66
84 62 70
87 64 74
78 58 185
79 59 180
81 61 174
85 63 167
89 64 160
95 66 153
101 68 145
255 220 80
114 71 129
121 73 121
128 74 113
134 76 106
140 78 99
146 79 92
150 81 87
154 83 82
157 84 78
159 86 75
160 87 73
160 88 72
159 90 72
157 91 73
154 92 75
151 93 78
147 95 82
143 96 87
139 96 93
134 97 99
130 98 107
126 99 115
123 99 123
120 100 132
118 100 141
116 101 150
115 101 159
115 101 168
116 101 177
117 101 185
119 101 193
121 101 200
125 100 207
128 100 212
132 100 217
137 99 221
141 99 223
146 98 225
151 97 226
156 97 225
160 96 224
165 96 221
169 95 217
173 95 213
177 94 208
180 94 201
183 94 195
185 94 187
188 94 179
189 95 171
191 95 163
192 96 154
193 97 146
193 99 138
194 100 130
194 102 122
40 255 220
194 107 109
193 110 103
193 113 98
192 116 94
192 120 91
191 124 89
190 128 88
190 132 88
189 136 89
188 140 92
188 144 95
187 148 99
186 152 103
186 156 109
185 159 115
185 163 122
184 166 130
184 168 138
183 171 146
183 172 154
183 174 162
182 175 170
182 175 178
181 175 185
181 174 192
180 173 198
179 171 204
178 169 209
177 166 212
176 163 215
175 159 217
173 155 218
172 151 218
170 146 217
168 141 214
165 136 211
162 131 207
159 126 201
156 120 195
153 114 188
149 109 181
145 104 173
141 98 164
136 93 155
132 88 146
127 84 137
122 79 128
117 75 119
113 72 110
108 69 102
104 66 94
99 63 87
95 61 81
92 60 75
89 59 71
86 58 67
84 58 64
82 58 63
81 59 62
81 60 63
81 61 65
82 63 67
84 65 71
78 61 189
80 62 185
83 64 179
87 66 173
92 68 166
98 70 159
105 71 151
111 73 144
255 220 80
255 220 80
132 79 120
138 81 112
144 82 105
149 84 98
153 86 92
157 88 86
159 89 82
160 91 78
160 92 75
159 94 73
158 95 73
155 97 73
152 98 74
148 99 77
144 100 80
140 101 84
136 102 90
132 103 96
128 104 103
124 105 110
121 105 118
119 106 127
117 106 136
116 106 145
116 107 154
116 107 163
118 107 172
120 107 181
123 106 189
126 106 197
130 106 203
134 105 210
139 105 215
144 104 219
149 104 223
154 103 225
159 102 227
164 101 227
168 100 226
173 100 224
177 99 221
180 98 218
184 98 213
186 97 207
189 97 201
191 96 194
193 96 186
194 96 178
195 97 170
196 97 162
196 98 153
196 99 145
196 100 137
195 102 129
40 255 220
194 106 114
193 109 108
193 112 103
192 115 98
191 119 94
190 122 92
189 126 90
188 130 89
187 134 90
186 139 91
186 143 93
185 147 97
184 151 101
184 155 106
183 159 112
183 163 118
182 166 125
182 169 133
182 171 141
181 173 149
181 175 157
181 176 165
181 176 173
180 176 181
180 176 188
180 175 194
180 173 200
179 171 206
178 168 210
178 165 214
177 161 216
176 158 218
175 153 219
173 149 218
171 144 216
169 138 214
167 133 210
165 128 206
162 122 200
159 116 194
155 111 187
152 105 179
148 100 170
143 95 162
139 90 153
134 85 144
129 81 134
124 77 125
119 73 116
115 70 108
110 67 100
105 64 92
101 62 85
96 61 79
93 59 74
89 59 70
86 58 66
84 59 64
82 59 63
81 60 63
81 61 63
81 63 65
82 65 68
79 64 193
82 66 189
86 68 184
90 70 178
96 72 172
102 74 165
108 76 158
115 78 150
122 80 142
129 82 134
255 220 80
142 85 118
147 87 111
152 89 104
156 91 97
158 93 91
160 94 86
161 96 82
160 98 78
159 99 76
157 101 74
154 102 74
150 104 74
146 105 76
142 106 79
137 107 82
133 108 87
129 109 93
125 110 99
122 111 106
120 111 114
118 112 122
117 112 131
116 113 140
117 113 149
118 113 158
121 113 167
123 113 176
127 113 184
131 112 192
136 112 200
140 111 207
146 111 213
151 110 218
156 109 222
161 108 225
166 107 227
171 106 228
176 105 228
180 104 227
184 103 225
187 102 222
190 101 218
192 100 213
194 100 207
195 99 200
197 99 193
197 98 185
198 98 177
198 98 169
197 99 161
197 100 152
196 101 144
195 102 135
40 255 220
193 106 120
192 108 114
191 111 108
190 114 102
188 118 98
187 121 95
186 125 92
185 129 91
184 133 90
183 138 91
182 142 92
181 146 95
181 150 99
180 155 103
180 159 108
179 162 114
179 166 121
179 169 128
178 171 136
178 174 144
178 175 152
178 177 160
178 177 168
178 177 176
178 177 183
178 176 190
178 175 197
178 173 203
178 170 208
178 167 212
177 164 215
177 160 217
176 155 219
175 151 219
174 146 218
173 140 216
171 135 213
169 130 209
167 124 204
164 118 199
161 113 192
158 107 185
154 102 177
150 96 168
146 91 159
141 87 150
136 82 141
131 78 132
126 74 123
121 71 114
116 68 105
111 65 98
106 63 90
102 61 83
97 60 78
93 59 73
90 59 69
87 59 66
84 60 64
82 61 63
81 62 63
80 64 64
81 66 66
81 67 196
84 69 193
88 72 188
93 74 183
99 76 177
105 78 171
112 80 164
119 82 157
126 84 149
133 86 141
140 88 133
255 220 80
151 92 117
155 94 110
158 96 103
160 98 97
161 100 91
161 102 86
160 103 82
158 105 79
155 107 76
152 108 75
148 110 75
144 111 76
139 112 78
135 113 81
131 114 85
127 115 90
123 116 96
121 117 102
119 118 109
117 118 117
117 119 126
118 119 135
119 119 144
121 119 153
124 119 162
128 119 171
132 119 180
137 118 188
142 118 196
147 117 203
153 117 210
158 116 216
164 115 220
169 114 224
174 113 227
178 112 229
183 110 230
186 109 229
190 108 228
192 107 226
195 105 222
196 104 218
198 103 212
199 102 206
199 101 200
199 101 192
199 100 184
198 100 176
197 100 168
196 101 159
195 102 151
194 103 142
40 255 220
191 106 127
189 108 120
188 111 113
186 113 107
185 117 102
183 120 98
182 124 95
181 128 93
180 132 91
179 136 91
178 141 92
177 145 94
176 150 97
176 154 101
175 158 105
175 162 111
175 166 117
174 169 124
174 172 131
174 174 139
174 176 147
175 177 155
175 178 163
175 179 171
175 178 178
176 178 186
176 176 193
176 174 199
176 172 205
177 169 209
177 165 213
177 162 216
176 157 218
176 153 219
175 148 219
174 142 218
173 137 216
172 131 213
170 126 208
168 120 203
165 114 197
163 109 190
159 103 183
156 98 175
152 93 166
148 88 157
143 83 148
138 79 139
133 75 130
128 72 120
123 69 112
118 66 103
112 64 95
107 62 88
102 61 82
98 60 76
94 60 71
90 60 68
87 60 65
84 61 63
82 62 63
81 64 63
80 66 64
82 71 198
86 73 196
90 76 192
96 78 188
102 80 183
109 82 177
116 85 170
123 87 163
130 89 155
137 91 148
143 93 140
149 96 132
255 220 80
255 220 80
160 102 109
161 104 102
162 106 96
161 108 91
159 109 86
157 111 82
154 113 79
150 114 77
146 116 76
141 117 76
137 118 78
132 120 80
128 121 83
125 122 87
122 123 93
120 124 99
118 124 105
118 125 113
118 125 121
119 126 129
122 126 138
125 126 147
128 126 157
133 126 166
137 126 175
143 125 183
148 125 192
154 124 199
160 123 207
165 122 213
171 121 218
176 120 223
181 119 227
185 117 229
189 116 231
192 114 231
195 113 230
197 111 229
199 110 226
200 108 222
200 107 218
200 106 212
200 105 206
200 104 199
199 103 191
197 102 183
196 102 175
194 102 167
193 103 158
191 103 150
40 255 220
187 106 133
186 108 126
184 110 119
182 113 112
180 116 107
179 119 102
177 123 98
176 127 95
175 131 93
174 135 92
173 140 92
172 144 93
171 149 95
171 153 99
170 158 103
170 162 107
169 165 113
169 169 119
169 172 126
169 175 134
170 177 142
170 178 149
170 179 158
171 180 166
171 180 174
172 179 181
172 178 188
173 176 195
173 174 201
174 171 207
175 167 211
175 163 215
175 159 217
175 155 219
175 150 220
175 144 219
174 139 218
173 133 215
172 128 212
171 122 207
169 116 202
167 110 195
164 105 188
161 99 181
157 94 172
154 89 164
149 85 155
145 80 146
140 76 136
135 73 127
130 70 118
124 67 109
119 65 101
113 63 93
108 62 86
103 61 80
98 60 75
94 60 70
90 61 67
87 62 64
84 63 63
82 65 63
80 67 63
84 75 201
88 78 199
93 80 196
99 82 192
106 85 187
113 87 182
120 89 176
127 92 169
134 94 162
141 96 154
147 99 146
152 101 138
156 103 131
159 105 123
255 220 80
162 109 108
162 111 102
161 113 96
158 115 90
155 117 86
152 119 82
148 120 80
143 122 78
139 123 77
134 125 78
130 126 79
126 127 82
123 128 85
121 129 90
119 130 95
118 131 102
119 131 109
120 132 116
122 132 125
125 133 133
129 133 142
133 133 151
138 133 161
143 132 170
149 132 179
155 131 187
161 131 195
167 130 203
172 129 210
178 128 216
183 126 221
187 125 225
191 124 229
194 122 231
197 120 232
199 119 232
201 117 231
201 115 229
202 113 226
202 112 222
201 110 217
200 108 212
199 107 205
197 106 198
196 105 190
194 104 182
192 104 174
189 104 165
187 104 157
40 255 220
183 106 140
181 108 132
179 110 125
177 112 118
175 115 112
174 118 106
172 122 102
171 126 98
170 130 95
168 135 94
167 139 93
167 144 93
166 148 95
165 153 97
165 157 100
164 161 105
164 165 110
164 169 116
164 172 122
164 175 129
164 177 137
165 179 144
165 180 152
166 181 160
166 181 168
167 181 176
168 179 184
169 178 191
170 175 197
170 172 203
171 169 208
172 165 213
173 161 216
173 156 218
174 151 220
174 146 220
174 141 219
174 135 217
173 129 215
172 123 211
171 118 206
169 112 200
167 106 194
165 101 187
162 95 179
159 90 170
155 86 161
151 81 152
146 77 143
141 74 134
136 71 125
131 68 116
125 66 107
120 64 99
114 62 91
109 62 85
103 61 79
99 61 73
94 62 69
90 62 66
87 64 64
84 65 63
82 67 63
86 79 202
90 82 201
96 84 199
102 87 196
109 90 192
116 92 187
124 95 181
131 97 175
138 99 168
144 102 161
150 104 153
154 106 145
158 109 137
161 111 129
162 113 122
255 220 80
162 117 107
160 119 101
157 121 95
154 123 90
150 125 86
146 127 83
141 128 80
137 130 79
132 131 79
128 132 79
125 134 81
122 135 84
120 136 88
119 137 93
119 138 98
120 138 105
122 139 112
125 139 120
129 140 128
133 140 137
138 140 146
144 140 155
149 139 165
156 139 174
162 138 182
168 138 191
174 137 199
179 136 206
184 135 213
189 133 219
193 132 224
196 130 228
199 128 231
201 126 233
202 125 234
203 123 233
203 121 232
203 118 230
202 116 227
201 114 222
199 113 217
197 111 211
195 109 205
193 108 197
190 107 189
188 106 181
185 106 173
183 106 164
40 255 220
178 107 147
176 108 139
174 110 131
172 112 124
170 115 117
168 118 111
167 121 106
166 125 102
164 129 98
163 134 96
162 138 94
161 143 94
161 148 94
160 152 96
159 157 99
159 161 102
159 165 107
159 169 112
159 173 118
159 176 125
159 178 132
159 180 139
160 181 147
160 182 155
161 182 163
162 182 171
163 181 179
164 179 186
165 177 193
166 174 199
167 171 205
168 167 210
169 163 214
170 158 217
171 153 219
172 148 220
173 142 220
173 136 219
173 131 217
173 125 214
172 119 210
171 113 205
170 107 199
168 102 192
166 97 185
163 92 176
160 87 168
156 82 159
152 78 150
147 75 141
142 72 131
137 69 122
132 66 113
126 65 105
120 63 97
115 62 90
109 62 83
104 62 77
99 62 72
94 63 68
90 64 65
86 66 63
83 68 63
88 84 203
93 87 203
99 89 201
105 92 199
112 94 196
120 97 191
127 100 186
134 102 180
141 105 174
147 107 167
152 110 160
157 112 152
160 114 144
162 117 136
163 119 128
163 121 121
255 220 80
255 220 80
156 127 100
152 129 95
148 131 90
144 133 86
139 134 83
134 136 81
130 137 80
127 139 80
124 140 81
121 141 83
120 142 86
120 143 91
120 144 96
122 145 102
125 145 108
128 146 116
133 146 124
138 147 132
143 147 141
149 147 150
156 146 159
162 146 168
168 145 178
174 145 186
180 144 195
185 143 202
190 142 210
194 140 216
198 139 222
200 137 226
202 135 230
204 133 233
204 131 234
204 129 235
204 126 235
202 124 233
201 122 230
199 119 227
197 117 222
194 115 217
191 113 211
189 111 204
186 110 196
183 109 188
181 108 180
178 108 172
40 255 220
173 108 154
171 109 146
169 110 138
167 112 130
165 115 123
164 118 116
162 121 111
161 125 106
159 129 101
158 133 98
157 138 96
157 142 95
156 147 95
155 152 96
155 157 98
154 161 100
154 165 104
154 169 109
154 173 114
154 176 121
154 179 127
154 181 135
155 183 142
155 183 150
156 184 158
157 183 166
158 182 174
159 181 181
160 179 189
161 176 195
162 172 202
164 169 207
165 164 212
167 160 215
168 155 218
169 149 220
170 144 221
171 138 220
172 132 219
172 126 217
172 120 213
172 114 209
171 109 203
170 103 197
168 98 190
166 93 182
163 88 174
160 83 166
157 79 157
153 76 147
148 72 138
143 70 129
138 67 120
132 65 111
127 64 103
121 63 95
115 63 88
109 63 81
104 63 76
99 64 71
94 65 67
90 67 65
86 69 63
90 88 203
95 91 204
102 94 203
108 97 202
116 99 199
123 102 195
131 105 191
138 107 186
144 110 180
150 113 173
155 115 166
159 118 159
161 120 151
163 122 143
163 125 135
163 127 127
161 129 120
158 131 113
255 220 80
151 135 100
146 137 95
141 139 90
137 140 86
132 142 84
129 143 82
125 145 81
123 146 82
121 147 83
120 149 85
121 150 89
122 151 93
125 151 99
128 152 105
132 153 112
137 153 119
143 153 127
149 153 136
156 153 145
162 153 154
169 153 163
175 152 172
181 152 181
186 151 190
191 150 198
195 149 206
199 147 213
202 146 219
204 144 224
205 142 229
205 140 232
205 138 235
204 135 236
203 133 236
201 130 236
199 128 234
196 125 231
193 122 227
191 120 222
188 117 216
184 115 210
181 113 203
179 112 195
176 111 187
173 110 179
40 255 220
168 109 162
166 110 153
164 111 145
162 112 137
161 115 129
159 117 122
158 120 116
157 124 110
155 128 105
154 132 101
153 137 98
153 142 97
152 147 96
151 152 96
151 156 97
150 161 99
150 166 102
149 170 106
149 173 111
149 177 117
149 180 123
149 182 130
150 184 137
150 185 145
151 185 153
152 185 161
152 184 169
153 182 177
155 180 184
156 177 191
157 174 198
159 170 204
160 166 209
162 161 213
164 156 216
165 151 219
167 145 220
168 139 221
169 133 220
170 127 219
171 121 216
171 116 212
171 110 207
171 104 202
170 99 195
168 94 188
166 89 180
164 84 172
161 80 163
157 76 154
153 73 145
149 70 135
144 68 126
138 66 117
133 65 109
127 64 100
121 63 93
115 63 86
109 64 80
103 65 74
98 66 70
93 67 66
89 69 64
92 93 203
98 96 205
104 99 205
112 102 204
119 105 202
126 107 199
134 110 195
141 113 190
147 115 185
152 118 179
157 121 172
160 123 165
163 125 157
164 128 150
164 130 142
162 132 134
160 135 126
157 137 119
153 139 112
255 220 80
144 143 100
140 144 95
135 146 90
131 148 87
127 149 84
124 151 83
122 152 83
121 154 83
121 155 85
122 156 88
124 157 91
128 158 96
132 158 102
137 159 108
142 160 115
148 160 123
155 160 131
162 160 140
168 160 149
175 160 158
181 159 167
187 159 176
192 158 185
196 157 194
200 156 202
203 154 209
205 153 216
206 151 222
206 149 227
206 147 231
205 144 234
204 142 237
201 139 238
199 136 238
196 134 236
193 131 234
190 128 231
186 125 227
183 122 222
180 120 216
177 117 209
174 115 202
171 113 194
169 112 186
40 255 220
164 111 169
162 111 160
160 112 152
159 113 144
157 115 136
156 117 128
155 120 121
153 124 115
152 128 110
152 132 105
151 136 101
150 141 99
149 146 97
149 151 96
148 156 97
147 161 98
147 166 101
146 170 104
146 174 108
146 177 113
146 180 119
146 183 125
146 185 132
146 186 140
146 186 148
147 186 156
148 185 163
149 184 171
150 182 179
151 179 186
152 176 193
154 172 200
155 167 205
157 163 210
159 158 214
161 152 218
163 146 220
164 141 221
166 135 221
167 129 220
169 123 218
170 117 215
170 111 211
170 105 206
170 100 200
169 94 194
168 90 186
166 85 178
164 81 170
161 77 161
157 74 152
153 71 142
149 69 133
144 67 124
138 65 115
133 65 106
127 64 98
121 64 91
115 64 84
109 65 78
103 67 73
98 68 69
93 70 66
94 98 203
100 101 205
107 104 206
115 107 205
122 110 204
130 112 202
137 115 199
144 118 195
150 121 190
155 123 184
159 126 178
162 128 171
164 131 164
164 133 156
164 136 149
162 138 141
159 140 133
156 142 125
152 144 118
147 146 111
255 220 80
255 220 80
133 152 94
129 153 90
126 155 87
124 156 85
122 158 84
122 159 84
122 160 85
124 162 87
127 163 90
131 164 94
136 164 99
141 165 105
147 166 111
154 166 119
161 166 127
168 167 135
174 167 144
181 166 153
187 166 162
192 166 171
197 165 180
201 164 189
204 163 197
206 162 205
207 160 213
208 158 219
207 156 225
206 154 230
204 152 234
202 149 236
199 146 238
196 143 239
193 140 239
189 137 237
186 134 235
182 130 231
179 127 227
175 124 222
172 121 215
169 119 209
167 117 201
164 115 193
40 255 220
160 113 176
159 112 168
157 113 159
156 114 151
155 115 142
154 117 134
153 120 127
152 123 120
151 127 114
150 131 109
149 136 105
149 141 101
148 146 99
147 151 97
147 156 97
146 161 98
145 166 99
145 170 102
144 175 106
144 178 110
143 181 115
143 184 121
143 186 128
143 187 135
143 188 143
143 187 150
144 187 158
144 185 166
145 183 174
146 180 182
147 177 189
149 173 196
150 169 202
152 164 207
154 159 212
156 153 216
158 148 219
160 142 220
162 136 221
164 130 221
166 123 220
167 117 218
168 112 214
169 106 210
170 100 205
170 95 198
169 90 192
168 86 184
166 82 176
164 78 167
161 75 158
158 72 149
153 69 140
149 68 130
144 66 121
138 65 112
133 65 104
126 65 96
120 65 89
114 66 82
108 67 76
102 69 72
97 71 68
97 103 201
103 106 204
110 109 206
118 112 207
125 115 206
133 117 205
140 120 202
146 123 199
152 126 195
157 128 190
161 131 184
163 134 177
165 136 170
165 138 163
164 141 155
161 143 148
158 145 140
155 147 132
150 149 124
146 151 117
141 153 111
136 155 105
255 220 80
128 159 95
125 160 91
123 162 88
122 163 86
123 165 85
124 166 85
126 167 87
130 168 89
134 169 92
140 170 97
146 171 102
152 171 108
159 172 115
166 172 122
173 173 130
180 173 139
186 173 148
192 173 157
197 172 166
201 172 175
204 171 184
207 170 193
208 169 201
209 167 209
208 165 216
207 163 222
205 161 228
203 159 232
200 156 236
196 153 238
193 150 240
189 147 240
185 143 240
181 140 238
178 136 235
174 133 231
171 129 227
168 126 221
166 123 215
163 120 208
161 118 200
40 255 220
158 115 184
157 114 175
156 114 166
155 115 158
154 116 149
153 118 141
152 120 133
152 123 126
151 127 119
151 131 114
150 136 109
149 141 105
149 146 101
148 151 99
147 156 98
146 161 98
145 166 99
145 171 101
144 175 104
143 179 107
142 182 112
142 185 118
141 187 124
141 188 130
141 189 138
141 189 145
141 188 153
141 187 161
141 184 169
142 182 176
143 178 184
144 174 191
146 170 198
147 165 204
149 160 209
151 154 213
153 149 217
155 143 219
158 137 221
160 130 221
162 124 221
164 118 219
166 112 217
167 107 213
168 101 209
169 96 203
169 91 197
168 86 190
168 82 182
166 79 173
164 75 165
161 73 156
157 70 146
153 68 137
149 67 128
144 66 119
138 66 110
132 66 101
126 66 94
120 67 87
113 68 80
107 70 75
102 72 70
99 107 200
106 111 203
113 114 206
120 117 207
128 120 207
135 122 207
143 125 205
149 128 202
154 131 199
159 133 194
162 136 189
164 139 183
165 141 176
165 143 169
163 146 162
161 148 154
157 150 146
153 152 139
149 154 131
144 156 124
139 158 117
135 160 110
131 162 104
255 220 80
125 165 95
123 167 91
123 168 89
124 169 87
126 171 86
129 172 87
133 173 89
138 174 91
144 175 95
151 176 99
158 177 105
165 177 111
172 178 118
179 178 126
185 179 134
192 179 143
197 179 152
201 178 161
205 178 170
207 177 179
209 176 188
210 175 197
209 174 205
208 172 212
206 170 219
203 168 225
200 166 230
197 163 235
193 160 238
189 157 240
185 153 241
181 150 242
177 146 241
174 142 238
170 138 235
168 135 231
165 131 226
163 127 221
161 124 214
159 121 207
40 255 220
157 117 191
156 116 182
156 116 174
155 116 165
155 117 156
154 118 148
154 120 140
153 123 132
153 127 125
153 131 119
152 136 113
151 141 108
151 146 104
150 151 101
149 156 99
148 162 99
147 167 99
146 172 100
145 176 102
144 180 105
143 183 109
142 186 114
141 188 120
140 189 126
140 190 133
139 190 140
139 189 148
139 188 156
139 186 163
139 183 171
140 180 179
140 176 186
141 171 193
143 166 200
144 161 205
146 155 210
148 150 214
151 144 218
153 137 220
155 131 221
158 125 222
160 119 221
162 113 219
164 107 216
166 102 212
167 96 207
168 92 201
168 87 195
168 83 187
167 79 180
166 76 171
163 73 162
161 71 153
157 69 144
153 68 134
148 67 125
143 66 116
137 66 107
131 67 99
125 68 92
119 69 85
113 71 79
106 73 73
101 112 198
108 115 202
115 118 205
123 121 207
131 124 208
138 127 208
145 130 207
151 133 205
156 136 202
161 138 199
164 141 194
165 143 188
166 146 182
165 148 176
163 150 168
160 153 161
156 155 153
152 157 145
147 159 138
142 161 130
138 163 123
133 164 116
130 166 110
127 168 104
255 220 80
255 220 80
124 172 92
125 174 89
128 175 88
132 176 88
136 178 89
142 179 91
149 180 93
155 181 97
163 182 102
170 182 108
177 183 114
184 184 122
191 184 129
196 184 138
201 184 147
205 184 156
208 184 165
210 183 174
210 183 183
210 182 192
209 181 200
207 179 208
204 177 216
201 175 222
197 173 228
193 170 233
189 167 237
185 164 240
181 160 242
177 157 243
173 153 243
170 149 241
167 144 239
165 140 236
163 136 231
161 132 226
160 128 220
159 125 213
40 255 220
157 120 198
157 118 189
157 117 181
157 117 172
157 118 163
157 119 155
157 121 146
157 124 138
157 127 131
156 131 124
156 136 118
155 141 112
155 146 108
154 151 104
153 157 101
152 162 100
151 167 99
150 172 100
148 177 101
147 181 103
145 184 107
144 187 111
143 189 116
141 191 122
140 191 128
139 191 135
138 191 143
138 189 150
137 187 158
137 184 166
137 181 174
137 177 181
138 172 189
139 167 195
140 162 201
142 156 207
144 150 212
146 144 216
148 138 219
151 132 221
153 126 222
156 119 222
158 113 220
160 108 218
163 102 215
164 97 211
166 92 206
167 88 200
167 83 193
167 80 185
167 77 177
165 74 169
163 71 160
160 70 150
157 68 141
153 68 132
148 67 122
142 67 113
137 68 105
130 69 97
124 70 89
118 72 83
111 74 77
103 117 195
110 120 200
118 123 204
126 126 206
133 129 208
141 132 209
147 135 209
153 137 208
158 140 206
162 143 202
165 145 198
166 148 194
166 150 188
165 152 182
162 155 175
159 157 168
155 159 160
151 161 152
146 163 144
141 165 137
137 167 129
132 168 122
129 170 115
126 172 109
125 173 104
124 175 99
255 220 80
127 178 92
130 179 90
135 180 89
140 181 89
146 183 90
153 184 93
160 185 96
168 186 100
175 187 105
182 187 111
189 188 118
195 189 125
200 189 133
205 189 142
208 189 150
210 189 159
211 189 169
211 189 178
210 188 187
208 187 196
206 186 204
202 184 212
199 182 219
194 180 225
190 177 231
186 174 236
181 171 239
177 167 242
174 164 244
170 159 244
167 155 244
165 151 242
163 146 239
161 142 236
160 137 231
160 133 225
159 129 219
40 255 220
159 123 205
160 121 196
160 119 188
161 119 179
161 119 171
162 120 162
162 121 153
162 124 145
162 127 137
162 131 130
162 136 123
161 141 117
160 146 112
160 152 107
159 157 104
157 163 102
156 168 100
155 173 100
153 178 100
151 182 102
149 185 105
148 188 108
146 191 113
144 192 118
142 193 124
141 193 131
139 192 138
138 190 145
137 188 153
136 185 161
136 182 168
136 178 176
136 173 184
136 168 191
137 163 197
138 157 203
140 151 209
142 145 213
144 139 217
146 132 219
149 126 221
151 120 222
154 114 221
157 108 220
159 103 217
161 97 214
163 92 209
165 88 204
166 84 198
167 80 191
167 77 183
166 74 175
165 72 166
163 70 157
160 69 148
156 68 138
152 68 129
147 68 120
141 69 111
136 70 103
129 71 95
123 73 87
116 75 81
105 121 192
113 124 197
120 127 202
128 130 205
136 133 208
143 136 210
150 139 210
155 142 210
160 144 208
163 147 206
166 149 202
167 152 198
166 154 193
165 156 187
162 158 181
158 160 174
154 162 167
150 164 159
145 166 151
140 168 144
135 170 136
132 172 129
128 173 121
126 175 115
125 176 109
125 178 104
127 179 99
255 220 80
133 182 93
138 183 91
144 185 91
150 186 91
157 187 92
165 188 95
173 189 98
180 190 103
187 191 108
194 192 114
199 192 121
204 193 129
208 194 137
211 194 145
212 194 154
212 194 163
212 194 173
210 193 182
207 193 191
204 191 199
200 190 207
196 188 215
191 186 222
187 184 228
182 181 234
178 178 238
174 174 241
171 171 244
168 166 245
165 162 245
163 157 244
162 152 242
161 147 239
161 142 235
161 138 231
162 133 225
40 255 220
163 126 211
164 123 203
165 121 195
166 120 187
167 120 178
168 121 169
168 122 160
169 124 152
169 128 144
169 131 136
169 136 128
168 141 122
168 146 116
167 152 111
166 158 107
164 163 104
163 169 102
161 174 100
159 179 100
157 183 101
155 187 103
153 190 106
150 192 110
148 193 115
146 194 120
144 194 126
142 193 133
140 192 140
138 189 147
137 186 155
136 183 163
135 179 171
134 174 178
134 169 186
134 163 193
135 157 199
136 151 205
138 145 210
140 139 214
142 133 218
144 126 220
147 120 221
149 114 222
152 108 221
155 103 219
158 98 217
160 93 213
162 88 208
164 84 202
165 81 196
166 78 189
166 75 181
165 73 172
164 71 163
162 70 154
159 69 145
155 69 136
151 69 126
146 70 117
140 71 108
134 72 100
128 74 92
121 76 85
107 126 188
115 129 194
123 132 199
131 135 204
138 138 207
145 140 210
152 143 211
157 146 211
161 148 211
165 151 209
166 153 206
167 155 202
166 158 198
164 160 193
161 162 187
158 164 180
153 166 173
149 168 166
144 169 158
139 171 150
135 173 143
131 174 135
128 176 128
126 177 121
126 179 114
126 180 109
128 182 104
131 183 99
255 220 80
255 220 80
147 187 92
154 188 92
162 189 93
170 191 94
177 192 97
185 193 101
192 194 105
198 195 111
203 196 117
207 196 124
211 197 132
213 198 141
213 198 149
213 198 158
211 198 167
209 198 177
206 198 186
202 197 194
197 196 203
193 194 211
188 193 218
183 190 225
179 188 231
175 185 236
171 181 240
168 177 243
166 173 245
164 169 246
163 164 246
163 158 245
163 153 243
163 148 240
164 143 235
165 138 230
40 255 220
168 130 217
170 126 210
171 124 202
173 122 194
174 121 185
175 122 176
176 123 167
177 125 159
177 128 150
177 132 142
177 136 134
177 141 127
176 147 121
175 153 115
174 158 110
172 164 107
171 170 104
169 175 102
167 180 101
164 184 101
162 188 102
159 191 104
156 193 108
154 195 112
151 196 116
148 195 122
146 195 128
143 193 135
141 190 142
139 187 150
137 184 158
135 179 165
134 175 173
133 169 181
133 164 188
133 158 195
134 152 201
135 145 207
136 139 211
138 133 215
140 126 218
142 120 221
145 114 222
148 108 222
151 103 221
154 98 219
157 93 216
159 89 211
162 85 206
163 81 200
165 78 194
165 75 186
166 73 178
165 72 170
163 71 161
161 70 151
158 70 142
154 70 133
150 71 124
145 72 114
139 73 106
133 75 98
126 77 90
109 130 184
117 133 191
125 136 197
133 139 202
140 141 206
147 144 209
154 147 211
159 149 212
163 152 212
166 154 211
167 156 209
167 159 206
166 161 202
164 163 198
161 165 192
157 166 186
152 168 179
148 170 172
143 172 165
138 173 157
134 175 149
130 176 142
128 178 134
126 179 127
126 181 120
127 182 114
130 183 109
133 185 104
138 186 100
144 187 97
255 220 80
158 190 93
166 191 93
174 192 94
182 193 96
189 195 99
196 196 103
202 197 108
206 198 114
210 199 121
213 200 128
214 200 136
214 201 144
213 202 153
211 202 162
208 202 171
204 202 180
199 202 189
195 201 198
190 200 207
185 198 214
180 197 222
176 194 228
172 191 234
169 188 239
167 184 242
165 180 245
164 175 247
164 170 248
164 165 247
165 159 246
167 154 243
168 148 239
170 143 235
40 255 220
175 133 223
177 129 216
179 126 209
181 124 201
182 123 192
184 123 183
185 124 175
186 126 166
186 129 157
186 132 149
186 137 141
186 142 133
185 147 126
184 153 120
183 159 114
181 165 110
179 171 106
177 176 104
175 181 102
172 186 101
170 189 102
167 193 103
164 195 106
160 196 109
157 197 113
154 197 118
151 196 124
148 194 130
145 191 137
142 188 145
139 184 152
137 180 160
135 175 168
134 170 175
133 164 183
132 158 190
132 152 197
132 146 203
133 139 208
134 133 213
136 126 216
138 120 219
141 114 221
144 108 222
147 103 221
150 98 220
153 93 218
156 89 214
158 85 210
161 81 205
163 78 199
164 76 192
165 74 184
165 72 176
164 71 167
163 71 158
160 71 149
157 71 139
153 72 130
149 73 121
143 74 112
137 76 103
131 78 95
111 134 179
119 137 187
127 140 193
135 142 199
142 145 204
149 148 208
155 150 211
160 153 212
164 155 213
167 157 213
168 159 212
168 161 210
166 163 206
164 165 202
160 167 197
156 169 192
152 170 185
147 172 179
142 174 171
137 175 164
133 176 156
130 178 148
128 179 141
127 181 133
127 182 126
129 183 120
132 184 114
136 186 108
141 187 104
147 188 100
155 189 97
255 220 80
170 192 95
178 193 95
186 194 96
193 196 98
199 197 102
205 198 106
209 199 111
213 200 117
214 201 124
215 202 131
214 203 139
213 204 148
210 205 157
206 205 166
202 205 175
197 205 184
192 205 193
187 205 202
182 203 210
177 202 218
174 200 225
170 198 231
168 194 236
166 191 241
165 187 244
165 182 247
166 177 248
167 171 249
169 166 248
171 160 246
174 154 243
177 148 239
40 255 220
182 137 229
185 133 222
187 129 215
189 126 207
191 125 199
193 124 191
194 125 182
195 127 173
196 129 164
196 133 155
196 137 147
195 143 139
195 148 132
194 154 125
192 160 119
191 166 114
189 172 109
186 178 106
184 183 103
181 187 102
178 191 102
175 194 102
172 196 104
168 198 107
164 198 110
161 198 115
157 197 120
153 195 126
150 192 133
146 189 140
143 185 147
140 181 155
138 175 162
135 170 170
133 164 178
132 158 185
131 152 192
131 145 198
131 139 204
132 133 209
133 126 214
135 120 217
137 114 220
140 108 221
142 103 222
145 98 221
149 93 220
152 89 217
155 85 213
158 82 209
160 79 203
162 76 197
164 74 189
164 73 182
164 72 173
164 72 164
162 71 155
159 72 146
156 73 137
152 74 127
147 76 118
141 77 109
135 80 101
113 137 175
121 140 182
129 143 189
137 146 196
144 148 201
151 151 206
157 153 210
162 155 212
165 158 214
167 160 214
168 162 214
168 164 212
166 165 210
164 167 206
160 169 202
156 170 197
151 172 191
146 173 185
141 175 178
137 176 170
133 177 163
130 179 155
128 180 148
128 181 140
128 182 133
130 184 126
134 185 119
138 186 113
144 187 108
151 188 104
158 189 101
166 191 98
255 220 80
255 220 80
190 194 96
197 196 98
203 197 101
208 198 104
212 200 109
215 201 114
216 202 120
216 203 127
214 204 135
212 206 143
209 207 152
204 207 161
200 208 170
194 208 179
189 209 188
184 208 197
179 208 205
175 207 213
172 205 221
169 203 228
167 201 234
167 197 239
167 193 243
168 189 246
169 184 249
171 178 250
174 172 250
177 166 249
181 159 246
184 153 243
40 255 220
190 141 234
193 136 228
196 132 221
199 129 214
201 126 206
202 126 198
204 126 189
205 127 180
205 130 171
205 134 162
205 138 154
205 143 145
204 149 138
203 155 130
202 162 124
200 168 118
198 174 113
196 179 109
193 184 106
190 189 103
187 193 102
184 196 102
180 198 103
176 199 105
172 200 108
168 199 112
164 198 116
160 196 122
156 193 128
152 190 135
148 186 142
144 181 149
141 176 157
138 170 165
135 164 172
133 158 180
131 152 187
130 145 194
130 139 200
130 132 206
131 126 211
132 120 215
134 114 218
136 108 220
138 103 221
141 98 222
145 93 221
148 89 219
151 85 216
154 82 212
157 79 207
160 77 201
162 75 194
163 74 187
164 73 179
164 72 171
163 72 162
161 73 152
158 74 143
155 75 134
150 77 124
145 79 115
140 81 107
115 141 170
123 143 178
131 146 185
139 149 192
146 151 198
153 153 204
158 156 208
163 158 211
166 160 214
168 162 215
169 164 215
168 165 215
166 167 213
163 169 210
160 170 206
155 171 202
150 173 197
145 174 191
141 175 184
136 177 177
133 178 170
130 179 162
128 180 154
128 181 147
129 182 139
132 183 132
136 184 125
141 185 119
147 186 113
154 187 108
161 189 104
169 190 101
178 191 99
186 192 97
255 220 80
200 195 98
206 196 100
211 197 103
214 199 107
216 200 111
217 202 117
216 203 123
214 205 131
211 206 138
207 207 147
203 208 156
197 210 164
192 210 174
187 211 183
182 211 192
177 211 201
174 211 209
171 210 217
169 208 224
168 206 231
168 203 236
169 199 241
171 195 245
173 190 248
177 184 250
180 178 251
184 172 250
188 165 249
192 158 247
40 255 220
199 145 239
203 139 233
205 135 227
208 131 220
210 128 212
212 127 204
213 127 196
214 128 187
214 131 178
214 134 169
214 139 160
214 144 152
213 150 144
212 157 136
210 163 129
209 169 122
207 175 117
204 181 112
202 186 108
199 191 105
196 195 103
192 197 102
189 200 103
185 201 104
181 201 106
176 200 109
172 199 113
167 197 118
163 194 124
158 190 130
154 186 137
150 181 144
145 176 151
142 170 159
138 164 167
135 158 174
133 151 182
131 145 189
130 138 196
129 132 202
129 125 207
130 119 212
131 113 216
133 108 219
135 102 220
138 98 221
141 93 221
144 89 220
147 85 218
151 82 215
154 79 210
157 77 205
159 76 199
161 74 192
163 74 185
163 73 177
163 73 168
162 74 159
160 75 150
157 76 140
153 78 131
149 80 122
143 83 113
116 144 164
124 146 173
132 149 181
140 151 188
148 154 195
154 156 201
160 158 206
164 160 210
167 162 213
169 163 215
169 165 216
168 167 216
166 168 215
163 169 213
159 171 210
155 172 206
150 173 202
145 174 196
140 175 190
136 176 183
133 177 176
130 178 169
129 179 161
129 180 153
130 181 146
133 182 138
137 183 131
143 184 125
149 185 119
157 186 113
165 187 108
173 188 105
181 189 102
189 190 100
196 192 99
255 220 80
209 194 100
213 196 102
216 197 105
217 199 109
218 200 114
216 202 120
214 204 127
210 205 134
206 207 142
201 208 150
195 210 159
190 211 168
185 212 177
180 213 186
176 214 195
172 214 204
170 213 212
169 212 220
169 211 227
170 208 233
172 205 239
175 201 244
178 196 247
182 191 250
187 185 251
191 178 252
196 171 251
200 163 249
40 255 220
208 149 243
212 143 238
214 137 232
217 133 226
219 130 219
220 128 211
221 128 203
222 129 194
222 132 185
222 135 176
222 140 167
222 146 159
221 152 150
220 158 142
218 165 134
217 171 127
215 177 121
212 183 116
210 188 111
207 193 108
204 196 105
201 199 103
197 201 103
193 202 103
189 202 105
185 202 107
180 200 110
175 198 115
170 194 120
165 190 125
160 186 132
155 181 139
151 175 146
146 170 154
142 163 161
138 157 169
135 151 177
132 144 184
130 138 191
129 131 197
128 125 203
128 119 208
129 113 213
130 107 216
132 102 219
134 97 221
137 93 221
140 89 221
143 85 219
147 82 217
150 80 213
154 78 209
157 76 203
159 75 197
161 74 190
162 74 182
163 75 174
162 75 165
161 76 156
159 78 147
156 80 137
152 82 128
147 84 119
118 147 159
126 149 168
134 151 176
142 154 184
149 156 191
155 158 198
161 160 203
165 161 208
168 163 212
169 165 215
170 166 217
169 167 217
166 169 217
163 170 216
159 171 214
154 172 210
149 173 206
144 174 201
140 175 196
136 176 189
133 176 183
130 177 175
129 178 168
130 179 160
132 179 153
135 180 145
139 181 138
145 182 131
152 183 124
159 184 118
168 184 113
176 185 109
184 187 105
192 188 102
199 189 101
206 190 100
255 220 80
255 220 80
217 195 104
219 196 107
218 198 112
216 200 117
213 202 123
209 203 130
204 205 138
199 207 146
193 209 154
188 211 163
183 213 172
178 214 181
174 215 190
172 216 199
170 216 208
170 216 216
171 215 223
173 213 230
176 210 236
180 207 241
184 202 246
189 197 249
194 191 251
199 184 252
204 176 253
209 169 252
40 255 220
217 153 246
220 146 242
223 140 237
225 135 231
227 132 225
228 130 217
229 129 209
229 130 201
229 133 192
229 137 183
229 141 174
228 147 165
227 153 157
226 160 148
225 167 140
223 173 133
221 179 126
219 185 120
217 190 115
215 195 110
212 199 107
209 201 105
205 203 103
201 204 103
197 204 104
193 203 105
188 201 108
183 198 112
178 195 116
173 191 121
167 186 127
162 181 134
157 175 141
152 169 148
147 163 156
142 156 163
138 150 171
135 143 179
132 137 186
130 130 193
128 124 199
127 118 205
127 112 210
128 107 214
129 102 217
131 97 219
133 93 221
136 89 221
140 85 220
143 83 219
147 80 216
150 78 212
154 77 207
157 76 201
159 75 195
161 75 188
162 76 180
162 76 171
162 78 162
160 79 153
158 81 144
154 83 134
150 86 125
119 149 153
127 151 162
135 153 171
143 155 179
150 157 187
157 159 194
162 161 200
166 162 206
169 164 210
170 165 214
170 167 217
169 168 218
166 169 219
163 170 218
159 171 216
154 171 214
149 172 210
144 173 206
140 173 201
136 174 195
133 175 189
131 175 182
130 176 174
131 176 167
133 177 159
136 178 152
141 178 144
147 179 137
154 180 130
162 180 124
170 181 118
179 182 113
187 183 109
195 184 105
202 185 103
208 187 102
213 188 101
217 189 102
255 220 80
219 193 106
219 194 110
216 196 114
213 198 120
208 200 126
203 203 133
197 205 141
192 207 149
186 209 158
181 211 167
177 213 176
174 215 185
172 217 194
171 218 203
171 218 211
173 218 219
176 217 226
180 215 233
185 212 239
190 208 244
196 203 248
202 197 251
207 190 253
212 182 253
217 174 253
40 255 220
225 157 250
228 150 246
230 143 242
232 138 236
233 134 230
234 131 223
234 131 216
234 131 208
234 134 199
234 138 190
233 143 181
233 149 172
232 155 163
231 162 155
230 169 146
228 176 139
227 182 131
225 188 125
223 193 119
221 197 114
218 201 110
215 203 106
212 205 104
208 205 103
205 205 103
200 204 104
196 201 106
191 198 109
186 195 113
180 190 118
175 186 123
169 180 129
163 174 136
158 168 143
152 162 150
147 155 158
143 149 165
138 142 173
135 136 180
131 129 188
129 123 194
127 117 200
126 111 206
126 106 211
127 101 215
128 97 218
130 92 220
133 89 221
136 86 221
139 83 220
143 81 218
147 79 215
150 77 210
154 77 205
157 76 199
159 76 193
161 77 185
162 78 177
162 79 169
161 81 160
159 83 150
156 85 141
152 87 132
120 151 147
129 153 156
137 155 165
144 157 174
151 159 182
158 160 190
163 162 197
167 163 203
169 164 208
171 165 212
170 166 216
169 167 218
167 168 219
163 169 220
159 170 219
154 170 217
149 171 214
144 171 210
140 172 206
136 172 201
133 173 195
131 173 188
131 173 181
132 174 174
134 174 166
138 175 158
143 175 151
149 176 143
156 176 136
164 177 129
173 177 123
181 178 118
190 179 113
197 180 109
204 181 106
210 182 104
215 183 103
218 185 102
220 186 103
255 220 80
219 190 108
216 192 112
212 194 117
207 196 123
202 199 129
196 201 137
190 204 144
185 206 153
180 209 161
176 212 170
173 214 179
172 216 188
172 218 197
174 219 206
176 220 214
180 220 222
185 219 229
191 217 236
197 213 241
203 209 246
209 203 250
215 196 252
220 188 254
225 179 254
40 255 220
232 162 252
234 153 249
236 146 246
237 140 241
238 135 235
238 133 229
238 132 222
238 133 214
237 135 206
237 139 197
236 144 188
235 150 179
234 157 170
233 164 161
232 171 153
231 178 145
230 185 137
229 190 130
227 195 123
225 200 117
223 203 113
221 205 109
218 206 106
215 207 104
211 206 103
207 204 103
203 202 105
198 199 107
193 195 110
188 190 114
182 185 119
176 179 125
170 173 131
164 167 138
158 161 145
153 154 152
147 148 160
142 141 167
138 135 175
134 128 182
131 122 189
128 116 196
127 111 202
126 105 207
126 101 212
126 96 215
128 92 218
130 89 220
133 86 221
136 83 220
140 81 219
143 79 217
147 78 213
151 78 209
154 77 204
157 78 197
159 78 190
161 79 183
161 81 175
161 82 166
160 84 157
158 87 147
154 89 138
121 153 141
130 155 151
138 156 160
145 158 169
152 160 177
159 161 185
164 162 193
168 163 200
170 164 205
171 165 210
171 166 215
169 167 218
167 167 220
163 168 221
159 168 221
154 169 219
149 169 217
144 169 214
140 169 210
136 170 206
133 170 200
132 170 194
131 170 187
133 170 180
135 171 173
139 171 165
145 171 157
151 172 150
158 172 142
167 172 135
175 173 129
184 174 123
192 174 118
200 175 113
207 176 109
212 177 106
217 178 105
220 180 104
221 181 104
221 183 105
255 220 80
255 220 80
212 189 115
207 191 120
201 194 126
195 196 132
189 199 140
184 202 148
179 205 156
176 208 165
174 211 174
173 214 183
174 217 192
176 219 201
180 221 209
185 222 218
190 222 225
197 220 232
204 218 238
210 214 243
217 208 248
222 202 251
228 194 254
232 185 255
40 255 220
238 166 254
239 157 252
240 149 249
241 142 245
241 137 240
240 134 234
240 133 228
239 134 220
238 136 212
237 141 204
236 146 195
235 153 186
235 160 177
234 167 168
233 174 159
232 181 151
231 188 143
230 193 135
229 198 128
228 202 122
226 205 116
224 207 112
222 208 108
220 208 105
216 207 104
213 205 103
209 202 104
205 199 105
200 194 108
195 190 111
189 184 115
183 178 120
177 172 126
171 166 133
165 159 139
158 153 147
153 146 154
147 140 162
142 133 169
137 127 177
133 121 184
130 115 191
127 110 197
126 105 203
125 100 208
125 96 213
126 92 216
127 89 218
130 86 220
133 83 220
136 81 220
140 80 218
144 79 215
148 78 212
151 78 207
154 79 202
157 80 195
159 81 188
161 82 180
161 84 172
160 86 163
159 88 154
156 91 145
122 154 135
131 156 145
139 157 154
146 159 163
153 160 172
159 161 181
164 162 189
168 163 196
171 164 202
172 165 208
171 165 213
170 166 217
167 166 219
163 166 221
159 166 222
154 166 221
149 167 220
144 167 218
140 167 214
136 167 210
134 167 205
132 167 200
132 167 193
133 167 186
136 167 179
140 167 172
146 167 164
153 167 156
160 167 149
169 168 142
177 168 135
186 169 128
194 169 123
202 170 117
208 171 113
214 172 110
218 173 107
221 174 105
222 175 105
221 177 105
219 179 107
216 181 109
255 220 80
206 185 117
200 188 122
194 191 129
188 194 136
183 197 143
179 200 151
176 204 160
174 207 169
174 211 178
176 214 187
179 217 196
183 220 204
189 222 213
196 223 221
203 223 228
210 221 235
217 218 241
224 214 246
229 207 250
234 199 253
238 190 255
40 255 220
242 170 255
243 160 254
243 151 252
242 144 249
241 138 244
240 135 239
239 134 233
238 135 226
236 138 219
235 142 211
234 148 202
234 155 193
233 162 184
232 170 175
232 177 166
231 184 157
231 191 149
230 196 141
230 201 133
229 205 126
228 207 120
227 209 115
225 210 111
223 209 107
221 208 105
218 205 104
214 202 103
210 198 104
206 194 106
201 189 108
196 183 112
190 177 117
184 171 122
177 164 128
171 158 134
165 151 141
158 145 149
152 138 156
146 132 164
141 125 171
136 120 179
132 114 186
129 109 193
126 104 199
125 99 204
124 95 209
124 92 213
125 88 216
127 86 219
130 84 220
133 82 220
136 81 219
140 80 217
144 79 214
148 80 210
152 80 205
155 81 200
158 82 193
159 84 186
160 86 178
160 88 169
159 90 160
157 93 151
123 155 129
131 157 139
139 158 148
147 159 158
154 160 167
160 161 175
165 162 184
169 162 192
171 163 199
172 163 205
172 164 210
170 164 215
167 164 218
163 164 221
159 164 222
154 164 223
149 164 222
144 164 221
140 163 218
137 163 214
134 163 210
133 163 205
133 163 199
134 162 193
137 162 186
142 162 178
147 162 171
154 162 163
162 162 156
170 162 148
179 163 141
188 163 134
196 163 128
203 164 122
210 165 117
216 166 113
220 167 110
222 168 108
223 169 106
222 170 106
220 172 107
216 174 108
211 176 111
255 220 80
200 181 120
193 184 125
188 187 132
183 190 139
179 194 146
176 198 155
175 202 163
175 206 172
178 210 181
182 214 190
187 218 199
194 221 208
201 223 216
209 225 224
216 224 231
223 222 237
230 218 243
235 212 248
239 205 251
242 195 254
40 255 220
244 174 255
244 163 255
243 154 255
241 146 252
240 140 248
238 136 244
236 135 238
234 136 232
233 139 225
231 144 217
230 151 209
230 158 200
229 166 191
229 173 182
228 181 173
228 188 164
228 194 155
228 200 147
228 204 139
228 207 131
228 210 125
227 211 119
226 211 114
225 210 110
223 208 107
221 205 104
218 202 103
215 198 103
211 193 104
207 187 106
202 182 109
196 175 113
190 169 118
184 163 123
177 156 129
171 149 136
164 143 143
157 136 150
151 130 158
145 124 166
140 118 173
135 113 180
131 108 188
128 103 194
125 99 200
124 95 206
123 91 210
124 88 214
125 86 217
127 84 219
130 82 220
133 81 219
137 81 218
141 81 216
145 81 213
149 81 209
152 83 203
155 84 197
158 86 191
159 88 183
160 90 175
160 92 166
158 95 157
124 156 124
132 157 133
140 158 142
148 159 152
155 160 161
161 161 170
166 161 179
169 161 187
172 162 195
173 162 201
172 162 208
170 162 213
168 162 217
164 162 220
159 161 223
155 161 224
150 161 224
145 160 223
141 160 221
137 159 218
135 159 214
133 159 210
134 158 204
135 158 198
138 158 192
143 157 185
148 157 177
155 157 170
163 157 162
172 157 155
180 157 147
189 157 140
197 158 134
205 158 127
212 159 122
217 159 117
221 160 113
223 161 110
224 162 108
223 164 107
220 165 107
216 167 108
211 169 110
205 171 113
255 220 80
255 220 80
187 179 128
182 183 135
179 187 142
176 191 150
176 195 158
177 200 167
180 205 176
185 210 185
191 214 194
198 219 202
206 222 211
214 225 219
222 226 227
229 225 233
235 222 240
240 217 245
243 210 250
245 200 253
40 255 220
245 178 255
243 166 255
241 156 255
238 147 254
236 141 252
233 137 248
231 136 243
229 138 237
227 141 230
226 147 223
225 154 215
224 161 207
223 169 198
223 177 189
223 185 180
224 192 170
224 198 161
225 203 153
225 207 144
226 210 137
226 212 129
226 212 123
226 212 117
225 211 112
224 208 109
223 205 106
221 201 104
218 197 103
215 191 103
211 186 105
207 180 107
202 174 110
196 167 114
190 160 119
183 154 125
177 147 131
170 141 138
163 134 145
156 128 152
150 122 160
144 117 167
138 111 175
133 106 182
129 102 189
126 98 196
124 94 201
123 91 207
123 88 211
123 86 214
125 84 217
127 83 219
130 82 219
134 82 219
138 82 217
142 82 215
146 83 211
150 84 207
153 86 201
156 87 195
158 89 188
159 92 180
160 94 172
159 97 163
124 156 118
132 157 127
141 158 136
148 159 146
155 159 155
161 160 165
166 160 173
170 160 182
172 160 190
173 160 198
173 160 204
171 159 210
168 159 215
164 159 219
160 158 222
155 158 224
150 157 225
145 157 225
141 156 224
138 155 221
135 155 218
134 154 214
134 154 209
136 153 204
139 153 198
144 152 191
149 152 184
156 152 176
164 152 169
173 151 161
182 151 154
190 152 146
199 152 139
206 152 133
213 152 127
218 153 122
222 154 117
224 155 114
224 156 111
223 157 109
221 158 108
217 160 108
211 162 110
206 164 112
199 166 115
193 169 120
255 220 80
183 175 131
179 179 138
177 183 145
177 187 153
178 192 161
182 198 170
187 203 179
194 209 188
202 214 197
211 219 206
219 223 214
227 226 222
234 227 229
240 226 236
244 221 242
246 214 247
247 205 251
40 255 220
243 181 255
241 169 255
237 158 255
234 148 255
230 142 254
227 138 251
224 137 247
222 139 241
220 144 235
218 150 229
217 157 221
217 165 213
217 174 204
217 182 195
217 189 186
218 196 177
219 202 168
220 207 159
221 210 150
222 212 142
223 214 135
224 214 128
224 213 121
224 211 116
224 208 111
224 204 108
222 200 105
221 195 104
218 190 103
215 184 104
211 178 105
206 171 108
201 165 111
196 158 115
189 151 120
183 145 126
176 138 132
169 132 139
161 126 147
155 120 154
148 115 162
142 110 169
136 105 177
132 101 184
128 97 191
125 94 197
123 91 203
122 88 207
122 86 212
123 85 215
125 84 217
128 83 219
131 83 219
135 83 218
139 84 216
143 85 214
147 86 210
151 88 205
154 89 199
157 92 193
158 94 186
159 96 178
159 99 169
125 156 112
133 157 121
141 157 130
149 158 140
156 158 149
162 158 159
167 158 168
170 158 177
173 158 185
174 158 193
173 157 200
171 157 207
169 156 213
165 156 217
160 155 221
156 154 224
151 153 225
146 153 226
142 152 226
138 151 224
136 150 222
135 150 218
135 149 214
137 148 209
140 148 203
144 147 197
150 147 190
157 146 183
165 146 175
174 146 168
182 146 160
191 146 153
199 146 146
207 146 139
214 146 132
219 147 127
223 147 121
225 148 117
225 149 114
224 150 111
221 151 110
217 153 109
212 154 110
206 156 111
200 158 114
193 161 117
188 163 122
255 220 80
179 170 134
178 174 141
178 178 148
180 183 156
184 189 165
190 195 173
197 202 182
206 208 191
215 215 200
224 220 209
232 225 217
239 228 225
244 228 232
247 225 238
248 219 244
247 210 249
40 255 220
240 185 255
236 171 255
231 159 255
227 149 255
223 142 255
219 138 254
216 138 250
214 141 246
212 146 240
210 153 234
209 161 227
209 170 219
209 178 211
209 187 202
210 194 193
211 201 184
212 206 175
214 210 166
215 213 157
217 215 148
218 215 140
220 215 132
221 213 126
222 211 120
223 207 114
223 203 110
223 199 107
222 193 104
220 188 103
218 181 103
214 175 104
210 169 105
206 162 108
200 155 112
195 149 116
188 142 122
181 136 128
174 130 134
167 124 141
160 119 148
153 113 156
146 108 163
140 104 171
134 100 178
130 96 185
126 93 192
123 91 198
122 88 204
121 87 208
122 85 212
123 85 215
125 84 217
128 84 218
132 85 218
136 85 217
140 86 215
144 88 212
148 90 208
152 91 203
155 94 197
157 96 191
158 99 183
159 101 175
125 156 107
133 156 115
141 157 124
149 157 134
156 157 143
162 157 153
167 157 162
171 156 171
173 156 180
174 155 189
174 154 196
172 154 203
169 153 210
166 152 215
161 151 219
156 150 223
151 149 225
147 148 227
142 147 227
139 147 226
137 146 225
135 145 222
136 144 218
137 143 214
140 143 209
145 142 203
151 141 196
158 141 189
166 141 182
174 140 174
183 140 167
192 140 159
200 140 152
208 140 145
214 141 138
220 141 132
224 141 126
226 142 121
226 143 117
225 144 114
222 145 112
218 146 111
213 147 110
207 149 111
200 151 113
194 153 116
188 155 120
184 158 124
255 220 80
255 220 80
179 169 143
181 174 151
186 180 159
192 186 168
200 193 177
209 200 186
219 208 195
228 215 203
236 222 212
242 227 220
247 229 228
249 228 234
248 223 241
245 214 246
40 255 220
236 188 254
230 173 255
224 160 255
219 149 255
215 142 255
211 139 255
208 140 253
205 143 249
203 150 245
202 157 239
201 166 232
201 175 225
201 184 217
202 192 209
202 199 200
204 205 191
205 210 181
207 213 172
209 216 163
211 217 154
213 217 146
215 215 138
217 213 130
219 210 124
220 206 118
221 202 113
222 197 109
221 191 106
221 185 104
219 179 103
217 172 103
214 166 104
210 159 106
205 153 109
199 146 113
193 140 117
186 133 123
179 128 129
172 122 136
165 117 143
157 112 150
150 107 158
144 103 165
138 99 173
132 96 180
128 93 187
124 91 193
122 89 199
121 87 205
121 86 209
121 86 213
123 85 215
126 86 217
129 86 218
133 87 218
137 88 216
141 90 214
146 92 211
150 94 206
153 96 201
156 98 195
157 101 188
158 104 180
125 155 102
133 155 110
141 155 119
149 155 128
156 155 137
162 155 147
167 154 156
171 154 166
174 153 175
175 152 184
174 151 192
173 150 199
170 149 206
166 148 212
162 147 217
157 146 221
152 145 225
147 144 227
143 143 228
140 142 228
137 141 227
136 140 225
136 139 222
138 138 218
141 138 214
145 137 208
151 136 202
158 136 195
166 135 188
175 135 181
183 135 173
192 135 166
201 135 158
208 135 151
215 135 144
220 136 137
224 136 131
226 137 126
227 137 121
226 138 117
223 139 114
219 140 112
214 141 111
208 143 111
201 144 113
195 146 115
189 148 118
184 150 122
181 153 127
179 156 133
255 220 80
182 164 146
187 170 154
194 176 162
202 183 171
212 190 180
221 199 189
231 208 198
239 217 206
245 224 215
249 229 223
249 230 230
247 226 237
243 218 243
40 255 220
229 190 252
223 174 255
216 160 255
211 149 255
206 142 255
202 140 255
199 141 255
197 146 253
196 154 248
195 163 243
194 172 237
194 181 230
194 190 223
194 198 215
195 204 206
197 210 197
198 214 188
200 217 179
202 218 170
204 218 160
207 217 152
209 215 143
212 212 136
214 209 128
216 204 122
218 199 116
219 194 111
220 188 108
220 182 105
220 176 103
218 169 102
216 162 103
212 156 104
208 149 106
203 143 109
198 137 114
191 131 118
184 125 124
177 120 130
170 115 137
162 110 144
155 106 152
147 102 159
141 98 167
135 95 174
130 93 181
126 91 188
123 89 195
121 88 200
120 87 205
120 87 210
121 87 213
124 87 216
127 88 217
130 89 218
134 90 217
139 92 215
143 94 213
147 96 209
151 98 205
154 101 199
156 103 193
158 106 186
125 154 97
133 154 105
141 154 113
149 154 122
156 153 131
162 153 141
167 152 150
171 151 160
174 150 169
175 149 178
175 148 187
173 147 195
171 146 202
167 145 209
163 143 215
158 142 220
153 141 223
148 140 226
144 138 228
141 137 229
138 136 229
137 135 228
137 134 225
138 133 222
141 133 218
146 132 213
151 131 208
158 131 201
166 131 195
175 130 187
183 130 180
192 130 172
201 130 165
208 130 157
215 131 150
221 131 143
225 131 136
227 132 131
228 133 125
227 133 121
224 134 117
220 135 115
215 136 113
209 137 112
203 139 113
196 140 114
191 142 116
186 144 120
182 146 124
180 148 129
180 151 135
255 220 80
188 160 149
195 165 157
203 172 166
213 179 174
224 188 183
233 198 192
242 209 201
247 219 209
250 227 218
249 231 225
245 229 233
239 222 239
40 255 220
222 192 250
214 175 254
208 160 255
202 148 255
198 142 255
195 141 255
192 144 255
191 151 255
190 159 252
189 169 247
188 179 242
188 188 235
188 197 228
188 204 221
189 210 212
190 214 204
192 217 195
193 219 185
195 220 176
198 219 167
201 217 158
203 215 149
206 211 141
209 207 133
212 202 126
214 197 120
216 191 115
218 185 110
219 178 106
219 172 104
218 165 102
217 159 102
214 152 102
211 146 104
207 140 107
202 134 110
196 128 114
189 123 120
182 118 125
174 113 132
167 108 139
159 104 146
151 101 153
144 98 161
138 95 168
132 93 176
128 91 183
124 90 190
121 89 196
120 88 201
119 88 206
120 88 210
122 89 213
124 90 216
128 91 217
132 92 217
136 94 216
140 96 214
145 98 211
149 101 207
152 103 203
155 106 197
157 109 190
124 153 92
133 153 100
141 152 108
149 152 116
156 151 125
162 150 135
168 149 144
172 148 154
174 147 163
176 146 173
175 145 182
174 143 190
172 142 198
168 141 205
164 139 212
159 138 217
154 137 222
150 135 225
145 134 228
142 133 230
139 132 230
138 131 230
137 130 228
139 129 226
142 128 222
146 127 218
151 127 213
158 126 207
166 126 200
174 126 194
183 126 186
192 126 179
200 126 171
208 126 164
215 127 156
221 127 149
225 128 142
228 128 136
229 129 130
228 130 125
226 131 121
222 132 117
217 132 115
211 134 114
205 135 113
198 136 114
192 137 115
187 139 118
183 140 122
181 142 126
181 144 132
183 147 138
255 220 80
255 220 80
204 161 160
214 168 169
225 176 177
235 187 186
243 199 195
249 211 204
251 222 212
249 230 220
243 231 228
234 225 235
40 255 220
215 194 247
206 175 251
200 158 255
195 147 255
192 142 255
189 142 255
188 148 255
187 156 255
186 166 254
185 177 251
184 187 246
184 196 240
184 204 234
184 210 226
184 215 218
185 219 210
186 221 201
188 221 192
190 221 183
192 219 173
194 216 164
197 213 155
201 209 147
204 204 138
207 199 131
210 193 124
213 187 118
215 181 113
217 174 109
218 168 105
218 162 103
217 155 102
216 149 102
213 143 102
209 137 104
205 131 107
199 125 111
193 120 115
186 115 121
179 111 127
171 107 133
163 103 140
155 100 147
148 97 155
141 95 162
135 93 170
130 91 177
125 90 184
122 90 191
120 89 197
119 89 202
119 90 207
120 91 211
122 92 214
126 93 216
129 95 216
133 97 216
138 99 215
142 101 213
147 103 210
150 106 206
153 109 201
156 111 195
124 151 88
132 151 95
141 150 103
148 150 111
156 149 120
162 148 129
168 146 138
172 145 148
175 144 157
176 143 167
176 141 176
175 140 185
172 138 193
169 137 201
165 135 208
160 134 214
155 132 219
151 131 224
146 130 227
143 128 230
140 127 231
138 126 231
138 125 230
139 124 229
142 124 226
146 123 222
151 123 217
158 122 212
165 122 206
174 122 200
182 122 193
191 122 185
200 123 178
208 123 170
215 124 162
221 124 155
225 125 148
228 126 141
230 127 135
229 127 129
227 128 125
224 129 121
219 130 118
213 131 115
207 133 114
200 134 114
194 135 115
189 136 117
185 137 120
182 138 124
182 140 128
184 141 134
188 144 140
195 147 147
255 220 80
214 156 163
225 164 172
235 174 180
244 186 189
250 200 198
251 215 207
248 226 215
240 232 223
229 228 230
40 255 220
207 195 243
199 173 248
193 156 253
190 145 255
188 142 255
187 145 255
186 153 255
186 163 255
185 175 255
184 185 254
184 195 249
183 204 244
182 211 238
181 216 232
181 220 224
181 222 216
182 223 207
183 222 198
184 221 189
186 218 180
189 215 171
192 211 161
195 206 153
198 201 144
202 195 136
205 189 129
209 183 122
212 177 116
214 170 111
216 164 107
217 157 104
217 151 102
216 145 101
214 139 101
211 133 102
207 128 104
202 123 108
197 118 112
190 113 116
183 109 122
175 106 128
167 102 135
159 99 142
152 97 149
144 95 156
138 93 164
132 92 171
127 91 179
123 91 186
120 91 192
118 91 198
118 92 203
119 93 208
121 94 211
123 95 214
127 97 215
131 99 216
135 101 216
140 104 214
144 106 212
148 109 208
152 111 204
154 114 199
124 150 84
132 149 91
140 148 98
148 147 106
155 146 114
162 145 123
167 143 132
172 142 142
175 141 151
176 139 161
177 137 170
176 136 179
173 134 188
170 133 196
166 131 204
162 129 211
157 128 217
152 127 222
148 125 226
144 124 229
141 123 231
139 122 232
139 121 232
140 120 231
142 120 229
146 119 226
151 119 222
157 119 217
165 119 211
173 119 205
181 119 199
190 120 191
199 120 184
207 121 176
214 121 169
220 122 161
225 123 154
229 124 147
230 125 140
230 127 134
229 128 129
226 129 124
221 130 121
216 131 118
209 132 116
203 134 115
197 135 115
191 135 116
187 136 118
184 137 121
182 138 125
184 139 130
187 140 136
193 141 143
202 144 150
255 220 80
224 152 166
235 160 175
244 171 183
251 186 192
252 203 201
247 220 209
237 231 218
223 231 225
40 255 220
199 194 239
193 170 245
189 152 250
188 143 254
188 144 255
189 151 255
189 161 255
189 173 255
188 185 255
187 196 255
186 205 253
184 212 248
183 217 243
181 221 236
180 223 229
180 224 222
179 224 213
180 222 205
180 219 196
182 216 186
184 212 177
187 207 168
190 202 159
193 196 150
197 190 141
200 184 134
204 178 126
208 172 120
211 165 114
213 159 110
215 153 106
216 147 103
216 141 101
215 135 101
213 130 101
209 125 102
205 120 105
200 116 108
194 111 112
187 108 117
179 104 123
171 101 129
163 99 136
155 97 143
148 95 150
141 94 158
134 93 166
129 92 173
124 92 180
121 92 187
118 93 193
118 94 199
118 95 204
119 96 208
122 98 211
125 100 214
129 102 215
133 104 215
138 106 215
142 109 213
146 111 210
150 114 207
153 117 202
123 148 81
131 147 87
139 146 93
147 145 101
155 143 109
161 142 117
167 140 126
172 139 136
175 137 145
177 135 155
177 134 164
176 132 174
174 130 183
171 129 191
167 127 199
163 125 207
158 124 213
154 122 219
149 121 224
145 120 228
142 119 231
140 118 232
139 117 233
140 117 233
142 116 231
146 116 229
151 116 226
157 116 221
164 116 216
172 116 211
180 117 204
189 118 198
198 118 190
206 119 183
213 120 175
220 122 168
225 123 160
229 124 153
231 126 146
231 127 139
230 129 134
228 130 128
224 132 124
218 133 120
212 135 118
206 136 116
200 137 116
194 138 116
189 139 117
185 140 120
183 140 123
184 140 127
187 140 133
192 141 139
200 141 145
209 142 153
255 220 80
255 220 80
243 157 177
251 170 186
252 188 195
247 210 204
234 228 212
218 232 220
40 255 220
193 192 235
189 165 241
190 148 247
191 143 251
194 149 255
195 159 255
196 172 255
196 185 255
195 197 255
193 206 255
191 214 255
188 220 251
186 223 247
184 225 241
182 226 234
180 225 227
179 223 219
178 220 211
178 217 202
179 213 193
180 208 183
182 203 174
185 197 165
188 191 156
192 185 147
195 179 139
199 173 131
203 167 124
207 160 118
210 154 112
213 148 108
214 142 104
215 137 102
215 132 100
213 127 100
211 122 101
207 117 102
202 113 105
197 110 109
190 106 113
183 103 118
175 101 124
167 99 130
159 97 137
151 96 145
143 95 152
137 94 160
130 94 167
125 94 174
121 94 181
119 95 188
117 96 194
117 97 200
118 99 205
120 100 208
123 102 212
127 105 214
131 107 215
135 109 215
140 112 214
144 114 212
148 117 209
152 119 205
122 146 78
130 145 83
138 143 89
146 142 96
154 140 104
161 139 112
167 137 121
171 135 130
175 133 139
177 132 149
178 130 158
177 128 168
175 126 177
173 125 186
169 123 195
165 121 202
160 120 210
155 118 216
151 117 221
147 116 226
143 115 230
141 114 232
140 114 234
141 113 234
142 113 233
145 113 232
150 113 229
156 113 225
163 114 221
170 115 216
179 115 210
187 116 203
196 118 196
204 119 189
212 120 182
219 122 174
224 124 166
229 126 159
231 127 152
232 129 145
232 131 138
230 133 133
226 135 128
221 137 124
216 139 120
210 141 118
203 142 117
197 144 116
192 145 117
188 146 118
185 146 121
184 146 125
186 146 129
190 145 135
196 145 141
205 143 148
216 143 155
228 143 163
255 220 80
250 154 180
253 170 189
248 194 198
233 220 206
213 233 215
40 255 220
190 187 230
191 157 237
196 144 243
201 147 248
204 158 253
206 173 255
207 187 255
206 200 255
204 209 255
202 217 255
199 222 255
195 225 254
192 227 250
188 227 245
185 226 239
182 224 232
179 221 225
178 217 217
177 213 208
176 208 199
177 203 190
178 197 180
181 191 171
183 185 162
187 179 153
191 173 144
195 167 136
199 161 128
203 155 122
207 149 116
210 144 110
212 138 106
214 133 103
214 128 101
213 123 100
212 119 100
209 115 100
204 111 102
199 108 105
193 105 109
186 103 114
178 101 119
170 99 125
162 97 132
154 96 139
146 96 146
139 95 153
133 95 161
127 96 169
122 96 176
119 97 183
117 98 189
116 100 195
117 101 201
118 103 205
121 105 209
125 107 212
129 110 213
133 112 214
138 115 214
142 117 213
147 120 211
150 122 207
121 143 76
129 142 80
137 141 86
145 139 92
153 137 99
160 136 107
166 134 115
171 132 124
175 130 133
177 128 143
178 126 152
178 124 162
176 122 171
174 121 181
170 119 189
166 117 198
162 116 205
157 115 212
152 114 218
148 113 224
145 112 228
142 111 231
141 111 233
141 111 235
142 111 235
145 111 234
149 111 232
155 112 229
161 113 225
169 114 221
177 115 215
185 116 209
194 118 202
202 120 195
210 121 188
217 124 180
223 126 173
228 128 165
231 130 158
233 133 150
233 135 144
232 138 138
229 140 132
225 143 127
219 145 123
214 148 120
207 150 118
201 152 117
196 153 117
191 155 118
187 156 120
185 157 123
185 157 126
188 156 131
193 155 137
200 153 143
210 150 150
222 147 158
235 144 166
255 220 80
253 151 183
250 172 192
234 206 200
210 233 209
40 255 220
192 177 225
200 148 232
210 146 239
216 158 245
220 175 250
221 191 254
221 204 255
219 214 255
216 221 255
212 226 255
208 228 255
204 229 255
199 228 253
194 226 248
190 224 243
185 220 237
182 216 230
179 212 222
177 207 214
175 202 205
175 196 196
176 191 187
177 185 177
180 179 168
183 173 159
186 167 150
190 161 141
195 155 133
199 150 126
203 144 119
207 139 114
210 134 109
212 129 105
213 125 102
213 121 100
212 117 99
210 113 99
206 110 100
201 107 102
196 104 106
189 102 110
182 101 115
174 99 120
165 98 126
157 97 133
149 97 140
141 97 147
135 97 155
129 98 162
124 98 170
120 100 177
117 101 184
116 102 190
116 104 196
117 106 201
119 108 206
123 111 209
127 113 212
131 115 213
136 118 214
140 120 213
145 123 212
149 125 209
120 141 74
128 139 78
136 138 82
144 136 88
152 134 95
159 132 102
165 130 110
171 128 118
175 126 127
177 124 137
179 122 146
179 120 156
177 119 165
175 117 175
172 115 184
168 114 193
163 112 201
159 111 208
154 110 215
150 109 221
146 109 226
144 108 230
142 108 233
142 108 235
143 109 236
145 109 235
149 110 234
154 111 232
160 112 229
167 113 225
175 115 220
183 117 214
192 119 208
200 121 201
208 123 194
216 126 187
222 129 179
227 132 171
231 135 164
233 138 156
234 141 149
234 144 143
231 147 137
228 150 131
223 153 127
218 156 123
212 159 120
206 162 118
200 164 117
195 167 118
190 169 119
187 170 121
186 171 124
187 172 128
189 171 133
195 170 139
202 168 146
213 164 153
225 158 160
238 151 169
255 220 80
255 220 80
240 180 194
208 228 203
40 255 220
202 160 219
219 145 227
230 160 234
235 181 240
237 199 246
237 212 251
235 221 255
232 226 255
228 229 255
224 230 255
218 230 255
213 228 255
207 226 255
201 223 251
196 219 247
190 215 241
186 210 235
181 205 228
178 200 220
176 194 211
174 189 202
174 183 193
175 178 184
176 172 174
179 166 165
182 161 156
186 155 147
191 150 138
195 144 131
199 139 123
203 135 117
207 130 111
210 126 107
212 122 103
212 118 100
212 114 99
210 111 98
207 109 99
203 106 100
198 104 103
191 102 106
184 101 110
177 100 115
168 99 121
160 99 127
152 98 134
144 99 141
137 99 149
130 100 156
125 101 164
120 102 171
117 104 178
116 105 185
115 107 191
116 109 197
118 111 202
121 114 206
125 116 209
129 118 212
134 121 213
138 123 213
143 125 212
147 128 211
119 138 73
127 137 76
135 135 80
143 133 85
151 131 90
158 129 97
165 127 105
170 125 113
174 123 122
177 121 131
179 119 140
179 117 150
178 115 159
176 113 169
173 112 178
170 110 187
165 109 196
161 108 204
156 107 211
152 107 217
148 106 223
145 106 228
143 106 232
142 106 234
143 107 236
145 108 237
148 109 236
153 110 235
158 112 232
165 114 229
173 116 224
181 118 219
189 121 213
198 123 207
206 126 200
213 130 193
220 133 185
226 136 178
230 140 170
233 143 162
235 147 155
235 151 148
234 155 142
231 159 136
227 162 131
223 166 126
217 170 123
211 173 120
205 177 118
200 180 118
195 183 118
191 186 120
188 188 122
187 190 126
187 191 130
190 192 135
195 192 141
202 190 148
212 186 155
224 180 163
238 168 171
251 152 180
255 220 80
212 211 197
40 255 220
229 145 214
245 168 222
250 196 229
251 213 236
250 223 242
248 229 247
246 231 252
243 232 255
239 231 255
234 229 255
228 227 255
222 223 255
216 220 255
209 216 254
203 211 250
196 207 245
190 202 239
185 197 232
180 191 225
177 186 217
174 181 208
173 175 199
173 170 190
174 165 181
176 159 171
179 154 162
182 149 153
187 144 144
191 139 136
196 135 128
200 130 121
204 126 115
207 122 109
210 119 105
211 116 102
211 113 99
210 110 98
208 108 98
204 106 98
200 104 100
194 103 103
187 102 106
179 101 111
171 100 116
163 100 122
154 100 129
146 101 135
139 102 143
132 103 150
126 104 158
121 105 165
118 107 173
116 109 180
115 110 186
115 112 192
117 115 198
119 117 202
123 119 206
127 121 209
132 124 211
137 126 212
141 128 212
146 130 211
117 136 72
125 134 74
133 132 77
141 130 82
149 128 87
157 126 93
164 124 100
169 121 108
174 119 116
177 117 125
179 115 134
180 113 144
179 112 153
178 110 163
175 108 172
171 107 182
167 106 190
163 105 199
158 105 207
154 104 214
150 104 220
147 104 225
144 105 230
143 105 233
143 106 236
145 107 237
147 109 237
151 111 237
157 113 235
163 115 232
170 117 228
178 120 224
186 123 218
195 127 212
203 130 206
211 134 199
218 138 191
224 142 184
229 146 176
233 150 168
235 154 161
236 159 154
236 163 147
234 168 140
231 172 135
227 177 130
222 181 126
217 185 122
212 189 120
206 194 119
201 197 118
196 201 119
192 204 121
190 208 123
188 211 127
188 213 132
190 215 137
193 217 143
198 218 150
205 218 157
214 217 165
226 211 174
243 192 182
255 220 80
40 255 220
254 203 208
252 225 216
252 231 224
252 233 231
253 233 238
253 232 243
252 230 249
250 228 253
246 225 255
242 221 255
237 218 255
231 214 255
224 210 255
217 206 255
209 201 252
202 197 248
195 192 243
189 187 237
183 182 230
179 177 222
175 172 214
173 167 205
172 162 196
172 157 187
173 152 177
176 148 168
179 143 159
183 139 150
187 134 141
192 130 133
197 127 125
201 123 118
205 120 112
208 117 107
210 114 103
211 111 100
210 109 98
208 107 97
205 106 97
201 104 98
195 103 100
189 103 103
182 102 107
174 102 112
165 102 117
157 103 123
148 103 130
141 104 137
134 105 144
127 107 152
122 108 159
118 110 167
116 112 174
114 114 181
114 116 187
116 118 193
118 120 198
121 122 203
125 125 207
130 127 209
135 129 211
140 131 212
144 133 212
116 133 71
124 131 73
132 129 75
140 127 79
148 125 84
155 122 89
162 120 96
168 118 103
173 116 111
177 114 119
179 112 128
180 110 137
180 108 147
179 107 157
177 105 166
173 104 176
169 103 185
165 103 194
161 102 202
156 102 209
152 102 216
149 103 222
146 103 227
144 104 232
144 106 235
145 107 237
147 109 238
150 111 238
155 114 237
161 117 235
168 120 232
175 123 228
183 127 223
191 130 218
199 134 211
207 139 205
215 143 197
221 148 190
227 152 182
231 157 174
235 162 167
237 167 159
237 172 152
237 177 145
235 182 139
232 187 134
228 192 129
223 197 125
218 201 122
213 206 120
208 210 119
203 214 119
199 218 120
195 221 122
192 225 125
190 228 128
189 230 133
189 232 139
190 233 145
191 233 152
193 231 160
193 225 168
191 203 176
207 145 185
40 255 220
255 220 80
219 211 210
231 217 218
239 218 226
245 218 233
249 217 239
251 215 245
252 213 250
250 211 253
248 208 255
243 204 255
238 201 255
231 197 255
224 194 255
216 189 254
208 185 251
201 181 246
193 177 241
187 172 234
181 168 227
177 163 219
173 159 211
171 154 202
171 150 193
171 146 184
173 142 174
176 138 165
180 134 155
184 130 146
189 127 138
194 123 130
198 120 123
202 117 116
206 115 110
208 113 105
210 111 102
210 109 99
208 107 97
206 106 96
202 105 96
197 105 98
191 104 100
184 104 103
176 104 107
167 105 112
159 105 118
151 106 124
143 107 131
135 108 138
129 110 145
123 112 153
119 113 161
116 115 168
114 117 175
114 119 182
115 121 188
117 124 194
120 126 199
124 128 203
128 130 207
133 132 209
138 134 211
143 136 211
114 130 72
122 128 72
130 126 74
138 124 77
146 121 81
154 119 86
161 117 92
167 115 98
172 112 106
176 110 114
179 109 122
181 107 131
181 105 141
180 104 150
178 103 160
175 102 170
172 101 179
167 100 188
163 100 197
158 100 205
154 101 212
151 102 219
148 103 225
146 104 229
145 106 233
145 108 236
147 110 238
149 113 239
154 116 238
159 119 237
165 122 235
172 126 231
179 130 227
187 135 222
196 139 216
204 144 210
211 149 203
218 154 196
224 159 188
229 165 181
234 170 173
236 175 165
238 181 158
238 186 151
238 191 144
236 197 138
233 202 133
229 207 128
225 211 125
221 216 122
216 220 120
211 223 119
207 227 119
203 229 120
200 231 123
197 232 126
195 231 130
193 229 135
193 223 141
193 213 147
194 196 154
199 168 162
216 145 170
250 200 178
40 255 220
194 147 196
255 220 80
206 168 212
220 180 220
231 186 228
240 190 234
246 192 241
250 192 246
251 191 250
250 190 254
247 188 255
243 186 255
237 183 255
230 180 255
222 177 255
214 173 253
206 170 249
198 166 244
191 162 239
184 159 232
179 155 225
174 151 217
172 147 208
170 143 199
170 140 190
171 136 180
173 133 171
177 130 161
181 126 152
186 123 143
190 121 135
195 118 127
200 116 120
203 114 113
206 112 108
208 110 103
209 109 100
208 108 97
206 107 96
203 106 95
198 106 96
192 106 97
185 106 100
178 107 103
169 107 108
161 108 113
152 109 119
144 110 125
137 112 132
130 113 139
124 115 147
119 117 154
116 119 162
114 121 169
113 123 176
114 125 183
116 127 189
119 129 195
122 131 200
127 133 204
132 135 207
136 137 209
141 138 210
113 128 72
120 125 72
128 123 73
136 121 75
144 118 79
152 116 83
159 114 88
166 111 94
171 109 101
176 107 108
179 105 117
181 104 126
182 102 135
181 101 144
180 100 154
177 99 163
174 99 173
170 98 182
165 99 191
161 99 200
157 100 208
153 101 215
150 102 221
147 104 227
146 106 231
146 109 235
147 111 238
149 114 239
152 118 240
157 122 239
162 126 237
169 130 235
176 135 231
184 139 227
191 144 221
199 150 215
207 155 209
214 161 202
221 166 194
227 172 187
231 178 179
235 183 171
238 189 164
239 194 156
240 200 149
239 205 143
237 210 137
235 215 132
232 219 127
228 223 124
224 226 121
220 228 120
216 230 119
213 230 120
210 229 121
207 226 124
206 221 127
205 212 131
205 199 136
208 181 142
214 160 149
225 145 156
242 160 164
254 215 172
40 255 220
205 180 189
191 149 198
255 220 80
205 151 214
218 158 222
229 164 229
238 168 236
245 170 242
249 171 247
250 172 251
249 171 254
246 170 255
241 169 255
235 167 255
227 164 255
219 162 255
211 159 252
202 156 247
194 153 242
187 150 236
181 147 229
176 144 222
172 141 213
170 138 205
169 135 196
169 132 186
171 129 177
174 126 167
178 123 158
183 121 149
188 119 140
192 117 132
197 115 124
201 113 117
205 112 111
207 111 106
208 110 101
208 109 98
206 109 96
203 108 95
199 108 94
194 108 95
187 109 97
179 109 100
171 110 104
163 111 108
154 112 114
146 114 120
138 115 126
131 117 133
125 119 141
120 120 148
116 122 156
114 124 163
113 126 171
113 128 178
115 130 184
117 132 190
121 134 196
125 136 200
130 138 204
135 139 207
140 141 209
111 125 74
118 123 73
126 120 73
134 118 74
142 115 77
150 113 80
157 111 85
164 108 90
170 106 96
175 104 104
178 102 111
181 101 120
182 100 129
182 98 138
181 98 148
179 97 157
176 97 167
172 97 176
168 97 186
164 98 194
159 99 203
155 101 210
152 102 217
149 104 224
147 107 229
146 110 233
147 113 236
148 117 239
151 121 240
155 125 240
160 129 239
166 134 237
172 139 234
179 144 230
187 150 226
195 155 220
202 161 214
210 167 207
217 173 200
223 179 193
228 185 185
233 191 177
236 196 170
239 202 162
240 207 155
241 212 148
240 216 141
239 220 136
237 224 131
235 226 127
232 228 123
229 229 121
226 228 120
224 226 119
222 221 120
220 214 122
219 204 124
220 191 128
222 175 133
226 158 138
234 146 144
243 148 151
252 177 158
252 219 166
40 255 220
210 206 183
193 172 191
190 151 200
255 220 80
255 220 80
219 147 224
230 150 231
239 153 237
245 155 243
248 156 248
249 157 252
247 157 255
244 156 255
238 155 255
231 153 255
223 152 255
215 150 253
206 148 250
198 145 245
190 143 240
183 140 234
177 138 227
173 135 219
170 133 210
168 130 202
168 128 192
169 126 183
172 124 173
176 121 164
180 120 154
185 118 145
190 116 137
195 115 129
199 114 121
203 113 115
205 112 109
207 111 104
207 111 100
206 111 97
204 111 95
200 111 94
194 111 94
188 112 95
181 113 97
173 114 100
164 115 104
156 116 109
147 117 114
139 119 121
132 121 127
125 122 134
120 124 142
116 126 149
113 128 157
112 130 165
112 132 172
114 134 179
116 136 185
120 137 191
124 139 196
129 141 201
134 142 204
139 143 207
109 122 75
116 120 74
123 117 73
131 115 74
139 112 76
147 110 78
155 107 82
162 105 87
168 103 92
174 101 99
178 100 106
181 98 114
182 97 123
183 96 132
182 96 141
181 95 151
178 95 161
175 96 170
171 96 180
166 97 189
162 99 197
158 101 206
154 103 213
151 105 220
149 108 226
148 111 231
147 115 235
148 119 238
150 123 240
153 128 241
157 133 241
163 138 239
169 144 237
175 149 234
182 155 230
190 161 225
197 167 219
205 173 213
212 179 206
219 185 199
224 191 191
230 197 183
234 203 175
237 208 168
240 213 160
241 217 153
242 221 146
242 224 140
241 226 135
240 227 130
239 227 126
237 225 123
235 222 121
234 217 120
233 209 120
232 200 121
232 187 122
234 173 125
237 158 129
241 147 134
247 144 140
252 157 146
253 187 153
246 220 160
40 255 220
210 220 177
195 194 185
189 170 194
192 154 202
201 146 210
255 220 80
223 143 225
233 143 232
241 145 238
246 145 244
248 146 248
248 146 252
245 146 255
241 146 255
234 145 255
227 144 255
218 142 255
209 141 252
201 139 248
192 137 243
185 135 238
178 133 231
173 131 224
170 129 216
168 127 207
167 126 198
168 124 189
170 122 179
173 120 170
178 119 160
182 118 151
187 116 142
192 115 134
197 115 126
201 114 118
204 113 112
206 113 106
207 113 102
206 113 98
204 113 95
200 114 93
195 114 93
189 115 93
182 116 94
174 117 97
166 118 100
157 120 105
149 121 110
140 123 115
133 125 122
126 126 128
121 128 136
116 130 143
113 132 151
112 133 158
112 135 166
113 137 173
115 139 180
119 140 186
123 142 192
127 143 197
132 145 201
137 146 204
107 119 78
114 117 75
121 114 74
129 112 74
137 109 75
145 107 77
153 105 80
160 102 84
166 100 89
172 99 95
177 97 102
180 96 109
182 95 117
183 94 126
183 94 135
182 94 145
180 94 154
177 95 164
173 96 173
169 97 183
165 99 192
161 101 200
157 103 208
154 106 216
151 110 222
149 113 228
148 117 233
148 122 236
150 127 239
152 132 241
155 137 241
160 142 241
165 148 239
171 154 237
178 160 233
185 167 229
192 173 224
199 179 218
207 185 211
213 191 204
220 197 197
225 203 189
230 208 181
234 213 174
238 217 166
240 220 158
242 223 151
243 225 145
244 226 139
244 225 133
243 223 129
243 220 125
242 214 122
242 206 120
241 197 120
242 185 120
243 172 121
244 159 123
247 149 126
250 143 130
252 148 135
253 165 141
249 192 148
239 219 155
40 255 220
208 228 170
195 210 179
189 188 187
190 170 196
197 157 204
207 149 212
255 220 80
228 142 227
236 141 234
243 141 240
246 140 245
247 140 249
246 140 252
242 140 255
236 139 255
229 138 255
221 137 255
212 136 253
203 135 250
195 133 246
187 132 241
180 130 235
174 129 228
170 127 221
167 126 213
166 124 204
167 123 195
168 122 185
171 120 176
175 119 166
180 118 157
185 118 148
190 117 139
195 116 130
199 116 123
203 116 116
205 116 109
206 116 104
205 116 99
204 117 96
200 117 94
196 118 92
190 119 92
183 120 92
175 121 94
167 122 97
158 124 100
150 125 105
141 127 110
134 129 116
127 130 123
121 132 130
116 134 137
113 135 144
112 137 152
111 139 160
112 140 167
114 142 174
118 143 181
122 145 187
126 146 193
131 147 197
136 148 201
106 117 80
112 114 77
119 111 75
126 109 74
134 106 75
142 104 76
150 102 78
158 100 81
164 98 86
170 96 91
175 95 97
179 94 104
182 93 112
184 92 120
184 92 129
183 92 138
182 93 148
179 94 158
176 95 167
172 97 177
168 99 186
164 101 195
160 104 203
156 108 211
153 111 218
151 116 224
149 120 230
149 125 234
150 130 238
151 135 240
154 141 242
157 147 242
162 153 241
167 159 239
173 165 236
180 172 233
187 178 228
194 184 223
201 190 217
207 196 210
214 202 203
220 207 195
225 212 187
230 216 180
234 219 172
238 222 164
240 224 157
242 224 150
244 223 143
245 221 137
246 217 132
246 212 128
246 205 124
247 196 122
247 185 120
248 173 120
249 161 120
250 151 121
251 144 124
252 143 127
251 152 132
249 170 137
242 194 143
232 217 149
40 255 220
205 231 164
194 220 172
189 203 181
189 186 189
195 171 197
204 160 206
214 152 214
255 220 80
255 220 80
240 141 235
245 140 241
247 139 245
246 138 249
243 137 252
238 136 254
231 135 255
223 135 255
214 134 254
205 132 252
196 131 248
188 130 244
181 129 239
175 128 232
170 127 225
167 125 218
165 124 209
165 123 200
167 122 191
170 121 182
173 121 172
178 120 163
183 120 153
188 119 144
193 119 135
197 119 127
201 119 120
204 119 113
205 119 107
205 120 102
203 120 97
200 121 94
196 122 92
190 123 91
184 124 91
176 125 92
168 127 94
159 128 97
150 129 101
142 131 105
134 133 111
127 134 117
121 136 124
117 137 131
113 139 138
111 141 146
111 142 153
111 143 161
113 145 168
117 146 175
121 147 182
125 148 188
130 149 193
135 150 198
104 114 83
110 111 80
116 109 77
124 106 76
131 104 75
139 101 75
147 99 77
155 97 80
162 95 83
168 94 88
174 93 93
178 92 100
182 91 107
184 91 115
185 91 123
185 91 132
183 92 142
181 93 151
179 95 161
175 97 170
171 99 180
167 102 189
163 106 198
159 109 206
156 113 214
153 118 221
151 123 227
150 128 232
150 133 236
151 139 239
153 145 241
155 151 242
159 157 242
164 164 241
169 170 239
175 177 236
181 183 232
188 189 227
194 195 221
201 201 215
208 206 208
214 211 201
219 215 193
225 218 185
229 221 178
233 222 170
237 223 162
240 222 155
242 220 148
244 216 142
245 211 136
246 204 131
247 195 127
248 185 123
249 175 121
249 163 120
250 153 119
250 145 120
250 142 122
249 145 125
246 156 128
241 173 133
234 195 138
223 215 144
40 255 220
200 232 158
192 226 166
188 215 174
189 200 183
194 186 191
202 174 199
211 164 207
221 156 215
230 151 223
255 220 80
243 144 236
245 141 241
245 140 246
243 138 250
238 137 252
232 136 254
224 135 255
216 134 254
207 133 253
198 131 250
189 130 246
182 129 242
175 128 236
170 127 230
167 127 222
165 126 214
164 125 206
166 124 197
168 124 188
172 123 178
176 123 169
181 122 159
186 122 150
191 122 141
196 122 132
200 122 124
202 123 117
204 123 110
204 124 104
203 124 99
200 125 95
196 126 93
191 127 91
184 128 90
177 130 90
168 131 91
160 132 94
151 134 97
143 135 101
135 137 106
128 138 112
121 140 118
117 141 125
113 143 132
111 144 139
110 145 147
111 146 155
113 148 162
116 149 169
120 150 176
124 150 183
129 151 189
134 151 194
102 111 87
108 109 83
114 106 80
121 103 77
129 101 76
136 99 76
144 97 76
152 95 78
159 93 81
166 92 85
172 91 90
177 90 96
181 89 102
183 89 110
185 90 118
185 90 126
185 91 135
183 93 145
181 95 154
178 97 164
174 100 174
170 103 183
167 107 192
163 111 201
159 115 209
156 120 216
154 125 223
152 131 229
151 137 233
151 143 237
152 149 240
154 155 242
157 162 243
161 168 242
165 174 241
170 181 239
176 187 235
182 193 231
188 199 226
194 204 220
201 209 213
207 213 206
213 216 199
218 219 191
223 221 183
227 221 176
231 221 168
235 219 160
238 215 153
240 210 146
242 204 140
244 196 134
245 187 130
246 177 126
247 166 123
247 156 121
247 148 119
247 142 119
245 142 120
243 147 122
238 158 125
232 175 129
224 194 134
215 212 139
40 255 220
196 231 153
190 230 160
187 222 168
188 211 176
193 199 184
201 187 193
210 176 201
220 168 209
229 161 217
236 155 224
255 220 80
244 147 237
245 144 242
243 142 246
239 140 250
233 139 252
225 137 253
217 136 254
208 135 253
199 134 251
190 132 248
182 132 244
176 131 239
170 130 233
166 129 227
164 128 219
163 128 211
164 127 202
167 127 193
170 126 184
175 126 175
179 126 165
185 126 155
190 126 146
194 126 137
198 126 129
201 127 121
203 127 114
204 128 107
203 129 102
200 130 97
196 131 94
191 132 91
184 133 89
177 134 89
169 135 89
160 137 91
152 138 94
143 139 97
135 141 101
128 142 107
122 143 112
117 145 119
113 146 126
111 147 133
110 148 141
110 149 148
112 150 156
115 151 163
119 152 171
123 152 177
128 153 184
133 153 189
100 109 91
105 106 86
111 103 82
118 101 79
126 98 77
133 96 76
141 94 76
149 92 77
156 91 79
163 90 82
170 89 87
175 88 92
179 88 98
183 88 105
185 89 112
186 90 121
186 91 129
185 93 139
183 95 148
181 98 158
177 101 167
174 104 177
170 108 186
166 113 195
162 118 204
159 123 211
156 128 219
154 134 225
153 140 230
152 146 235
152 152 239
153 159 241
155 165 243
158 172 243
162 178 242
166 185 241
171 191 238
176 197 234
182 202 230
188 207 224
194 211 218
199 215 212
205 217 205
210 219 197
216 220 189
220 219 181
224 217 173
228 214 166
231 210 158
234 204 151
236 197 144
238 188 138
240 179 133
241 169 128
241 159 125
241 151 122
241 144 120
240 141 119
237 142 119
234 148 120
229 160 123
223 175 126
215 192 130
207 209 135
40 255 220
192 229 147
188 231 154
186 227 162
189 219 170
194 209 178
201 198 186
210 188 194
219 179 203
228 172 211
235 165 218
240 160 225
255 220 80
255 220 80
242 148 242
238 146 247
233 144 250
225 142 252
217 140 253
208 139 253
199 137 252
190 136 249
182 135 246
176 134 242
170 133 237
166 133 231
163 132 224
163 131 216
163 131 208
166 131 199
169 130 190
173 130 180
178 130 171
183 130 161
188 130 152
193 131 143
197 131 134
200 131 126
202 132 118
203 133 111
202 133 105
200 134 99
196 135 95
191 136 92
184 137 89
177 138 88
169 140 88
160 141 89
152 142 91
143 143 93
135 145 97
128 146 102
122 147 107
116 148 113
113 149 120
110 150 127
109 151 134
110 152 142
111 153 150
114 153 157
118 154 165
122 154 172
127 154 178
132 154 185
99 106 96
103 103 90
109 101 86
115 98 82
122 96 79
130 94 77
138 92 77
145 90 77
153 89 78
160 88 81
167 87 84
173 87 89
178 87 94
182 87 100
184 88 107
186 89 115
187 91 124
187 93 132
185 95 142
183 98 151
180 102 161
177 106 170
174 110 180
170 115 189
166 120 198
163 125 206
159 131 214
157 137 221
155 143 227
153 149 232
153 156 237
153 162 240
154 169 242
156 176 243
159 182 243
162 188 242
167 194 240
171 199 237
176 204 233
181 209 229
187 212 223
192 215 217
197 217 210
203 218 203
207 218 195
212 217 187
216 214 179
220 210 171
223 204 163
226 198 156
229 190 149
231 181 142
232 172 137
233 163 131
234 154 127
233 146 123
232 141 121
230 140 119
228 142 119
224 149 119
219 160 121
213 174 123
206 190 126
199 206 131
40 255 220
189 226 142
186 230 148
186 229 156
189 224 163
194 217 171
202 208 180
210 199 188
219 190 196
227 183 204
234 176 212
239 170 219
243 164 226
243 160 233
255 220 80
238 153 243
232 150 247
225 148 249
217 146 251
208 144 252
199 143 252
190 141 250
182 140 248
175 139 244
170 138 240
165 137 234
163 137 228
162 136 221
162 136 213
164 135 204
168 135 195
172 135 186
177 135 177
182 135 167
187 135 158
192 135 148
196 136 139
199 136 130
201 137 122
202 138 115
201 138 108
199 139 102
196 140 97
191 141 93
184 142 90
177 143 88
169 144 87
160 145 87
152 146 88
143 147 90
135 148 93
128 149 98
121 150 102
116 151 108
112 152 114
110 153 121
109 154 128
109 154 136
111 155 143
114 155 151
117 155 159
122 155 166
127 155 173
132 155 180
98 104 100
102 101 94
107 98 89
113 96 85
119 94 81
127 92 79
134 90 77
142 88 77
150 87 78
157 86 79
164 86 82
170 85 86
175 86 90
180 86 96
183 87 103
186 89 110
187 91 118
188 93 126
187 96 135
185 99 145
183 103 154
180 107 164
177 112 174
173 117 183
170 122 192
166 128 201
163 133 209
160 140 216
157 146 223
156 153 229
154 159 234
154 166 238
154 172 241
155 179 243
157 185 244
160 191 243
163 197 242
167 202 240
171 206 236
175 210 232
180 213 227
185 215 221
190 217 215
194 217 208
199 216 201
203 213 193
208 210 185
211 205 177
215 199 169
217 192 161
220 184 154
222 175 147
223 166 141
224 157 135
224 150 130
224 143 126
222 140 122
220 139 120
217 142 119
213 149 118
209 160 119
204 173 121
198 188 123
193 202 127
40 255 220
186 223 137
185 228 143
186 229 150
190 227 157
196 222 165
203 215 173
211 208 181
220 200 189
228 193 198
234 186 206
239 180 213
242 174 221
242 169 227
241 165 233
255 220 80
231 158 243
224 155 247
216 153 249
207 151 251
198 149 251
190 147 250
182 146 249
175 145 246
169 144 242
165 143 237
162 142 231
161 141 225
161 141 217
163 141 209
167 140 201
171 140 192
176 140 182
181 140 173
186 140 163
191 141 154
195 141 144
198 141 135
201 142 127
201 143 119
201 143 112
199 144 105
195 145 99
190 146 95
184 147 91
177 147 88
169 148 87
160 149 86
152 150 86
143 151 88
135 152 90
128 153 94
121 154 98
116 154 103
112 155 109
109 156 115
108 156 122
109 157 129
110 157 137
113 157 145
117 157 152
121 157 160
126 156 167
131 156 174
97 101 105
100 99 99
104 96 93
110 94 88
116 91 84
123 90 81
131 88 79
138 86 78
146 85 77
153 85 78
160 84 80
167 84 83
173 85 87
178 85 92
182 87 98
185 88 105
187 91 112
188 93 121
188 96 129
187 100 138
186 104 148
183 108 157
180 113 167
177 119 177
174 124 186
170 130 195
167 136 203
164 142 211
161 149 219
158 155 225
157 162 231
156 169 235
155 175 239
155 181 242
156 188 243
158 193 244
160 199 243
163 203 242
166 207 239
170 211 236
174 213 231
178 215 226
182 215 220
187 215 213
191 213 206
195 210 198
199 206 191
202 201 183
205 194 175
208 187 167
210 178 159
212 170 152
213 161 145
214 153 139
214 146 133
213 141 128
212 138 124
210 138 121
207 142 119
203 149 118
200 159 118
195 171 119
191 185 121
188 198 124
40 255 220
184 219 132
185 225 138
187 228 144
192 228 151
198 225 159
205 220 166
213 215 174
221 208 183
228 202 191
234 195 199
239 189 207
241 183 215
241 178 222
240 174 228
236 170 234
255 220 80
255 220 80
215 161 246
206 158 249
197 156 250
189 154 250
181 153 249
174 151 247
168 150 244
164 149 240
161 148 235
160 147 229
161 147 222
163 146 214
166 146 206
170 146 197
175 146 188
180 146 179
185 146 169
190 146 160
194 146 150
198 147 141
200 147 132
201 148 124
200 148 116
198 149 109
195 150 102
190 150 97
183 151 93
176 152 89
168 153 87
160 153 85
151 154 85
143 155 86
135 156 87
127 156 90
121 157 94
116 157 98
112 158 104
109 158 110
108 158 116
108 158 123
110 158 131
112 158 138
116 158 146
121 157 154
126 157 161
131 156 168
96 99 111
98 96 104
102 94 98
107 92 92
113 89 88
120 88 84
127 86 81
134 85 79
142 84 78
149 83 78
157 83 79
164 83 81
170 84 85
175 85 89
180 86 94
184 88 100
187 91 107
188 94 115
189 97 123
189 101 132
188 105 141
186 110 151
184 115 160
181 120 170
178 126 180
174 132 189
171 138 198
168 145 206
164 151 214
162 158 221
160 165 227
158 171 232
157 178 237
156 184 240
156 190 242
157 195 244
159 200 244
161 204 243
163 208 241
166 211 238
169 213 234
172 214 230
176 214 224
180 212 218
183 210 211
187 207 204
190 202 196
193 196 188
196 189 180
198 182 172
200 174 164
202 165 157
203 157 149
204 150 143
204 144 137
203 139 131
202 137 127
200 138 123
197 142 120
195 148 118
192 158 118
189 169 118
186 181 119
184 194 121
40 255 220
183 214 128
185 221 133
189 226 139
194 227 145
200 226 152
207 223 160
215 219 168
223 214 176
229 209 184
235 203 192
239 198 200
240 192 208
240 187 216
238 183 223
234 179 229
229 175 235
221 171 239
255 220 80
205 166 246
196 164 248
187 162 249
179 160 249
173 158 247
167 157 245
163 156 242
160 155 237
159 154 232
160 153 226
162 152 219
165 152 211
169 152 202
174 152 194
179 151 184
185 151 175
189 152 165
194 152 156
197 152 146
199 152 137
200 153 128
199 153 120
197 154 113
194 154 106
189 155 100
183 155 95
176 156 90
168 157 87
159 157 85
151 158 84
142 158 84
134 159 85
127 159 87
120 159 90
115 160 94
111 160 99
108 160 104
107 160 110
108 160 117
109 160 124
112 159 132
116 159 139
120 158 147
125 157 155
130 156 162
95 97 116
97 94 109
101 92 103
105 89 97
110 87 91
116 86 87
123 84 83
130 83 81
138 82 79
145 82 78
153 82 79
160 82 80
166 83 83
172 84 86
178 86 91
182 88 96
185 91 103
188 94 110
189 98 118
190 102 126
189 106 135
188 111 144
187 117 154
184 122 164
181 128 173
178 134 182
175 141 192
172 147 200
169 154 209
166 160 216
163 167 223
161 174 229
159 180 234
158 186 238
158 191 241
158 197 243
158 201 244
159 205 244
161 208 243
163 211 241
165 212 237
168 212 233
171 212 228
174 210 222
177 207 216
180 203 209
182 198 202
185 192 194
188 185 186
190 177 178
191 169 170
193 161 162
194 154 154
194 147 147
194 141 141
194 138 135
193 136 130
191 137 125
189 141 122
188 147 119
186 156 117
184 166 117
182 178 117
182 189 119
40 255 220
184 210 125
187 217 129
191 222 134
197 225 140
203 226 147
210 225 154
217 222 161
224 219 169
230 214 177
235 210 186
238 205 194
240 200 202
239 195 209
237 191 217
232 187 224
226 183 230
219 179 235
211 176 240
255 220 80
194 171 246
186 169 247
178 167 248
171 165 247
166 164 246
162 162 243
159 161 239
158 160 235
159 159 229
161 159 223
164 158 215
169 158 207
174 157 199
179 157 190
184 157 181
189 157 171
193 157 161
196 157 152
199 157 143
199 158 134
199 158 125
197 158 117
193 159 110
188 159 103
182 159 97
175 160 92
167 160 88
159 161 85
150 161 84
141 161 83
133 162 83
126 162 84
120 162 87
114 162 90
111 162 94
108 162 99
107 161 105
107 161 111
109 161 118
112 160 125
115 159 133
120 158 141
125 157 148
130 156 156
95 95 122
96 92 115
99 90 108
103 88 101
108 86 95
113 84 90
119 83 86
126 81 83
134 81 80
141 81 79
148 81 79
156 81 79
163 82 81
169 84 84
175 86 88
179 88 93
184 91 98
187 95 105
189 99 112
190 103 120
191 108 129
190 113 138
189 118 147
187 124 157
185 130 166
182 136 176
179 143 185
176 149 194
173 156 203
170 163 211
167 169 218
165 175 225
163 182 231
161 187 235
160 193 239
159 198 242
159 202 244
159 205 244
160 208 244
161 210 242
163 211 240
165 211 236
167 210 232
169 207 227
171 204 221
174 200 214
176 194 207
178 188 199
180 181 191
182 173 183
184 166 175
185 158 167
186 151 159
186 144 152
186 139 145
186 136 139
185 135 133
184 136 128
183 140 124
182 146 120
181 154 118
181 163 117
181 174 116
181 185 117
40 255 220
186 205 121
189 212 125
194 218 130
200 222 135
207 224 141
213 225 148
220 223 155
226 221 163
232 218 171
236 214 179
238 210 187
239 206 195
238 202 203
235 198 211
230 194 218
224 190 224
217 187 230
209 184 235
200 181 240
255 220 80
255 220 80
176 174 246
169 172 247
164 170 246
160 169 244
158 168 241
158 167 237
158 166 232
161 165 226
164 164 219
168 163 212
173 163 204
178 163 195
184 162 186
188 162 177
193 162 167
196 162 158
198 162 148
199 162 139
198 162 130
196 163 121
192 163 114
187 163 106
181 163 100
174 163 95
166 164 90
158 164 86
149 164 84
141 164 82
133 164 82
125 164 82
119 164 84
114 164 87
110 163 90
107 163 95
106 162 100
107 162 106
108 161 112
111 160 119
115 159 127
120 158 134
125 157 142
130 155 150
95 93 128
96 90 120
98 88 113
101 86 106
105 84 100
110 82 94
116 81 89
122 80 85
129 80 82
137 79 80
144 80 79
151 81 79
158 82 80
165 84 82
171 86 85
177 88 89
181 92 94
185 95 100
188 99 107
190 104 115
191 109 123
191 114 132
191 120 141
190 125 150
188 132 160
186 138 169
183 145 179
180 151 188
177 158 197
175 164 205
172 171 213
169 177 220
167 183 227
165 189 232
163 194 237
162 198 240
161 202 242
160 205 244
161 208 244
161 209 243
162 210 242
163 209 239
164 207 235
166 205 230
168 201 225
169 196 219
171 191 212
173 184 204
175 177 197
176 170 189
177 162 181
178 155 173
179 148 165
180 142 157
180 138 150
180 135 143
180 134 136
179 135 131
179 138 126
179 144 122
179 151 119
179 160 117
180 170 116
182 180 116
40 255 220
188 199 119
193 207 122
198 214 125
204 218 130
210 221 136
217 223 142
223 223 149
228 222 156
233 220 164
236 217 172
238 214 180
238 211 188
236 207 196
233 204 204
228 200 212
221 197 219
214 194 225
206 191 231
197 188 235
189 185 239
181 183 242
255 220 80
168 179 246
163 177 245
159 175 244
157 174 242
157 173 239
158 172 235
160 171 229
164 170 223
168 169 216
173 169 209
178 168 200
183 168 191
188 167 182
192 167 173
195 167 163
197 167 154
198 167 144
197 167 135
195 167 126
191 167 118
186 167 110
180 167 103
173 167 97
165 167 92
156 167 88
148 166 84
139 166 82
132 166 81
124 166 81
118 166 82
113 165 84
109 165 86
107 164 90
106 163 95
106 162 100
108 161 107
111 160 113
115 159 120
120 157 128
125 156 136
130 154 143
95 91 134
95 88 126
97 86 118
99 84 111
103 82 105
107 81 99
113 80 93
119 79 89
125 78 85
132 78 82
139 79 80
147 80 79
154 81 80
161 83 81
167 86 83
173 89 87
178 92 91
183 96 96
186 100 103
189 105 110
191 110 117
192 115 126
192 121 134
192 127 144
191 133 153
189 140 163
187 146 172
185 153 182
182 159 191
179 166 200
176 172 208
174 178 215
171 184 222
169 190 228
167 194 233
165 199 238
164 202 241
163 205 243
162 207 244
162 208 244
162 208 243
163 207 241
164 205 238
164 202 234
166 198 229
167 193 223
168 188 217
169 181 210
171 174 202
172 167 194
173 160 186
174 153 178
175 146 170
175 141 162
176 136 154
176 134 147
176 133 140
177 134 134
177 137 129
178 142 124
178 149 120
180 157 118
182 166 116
184 175 115
40 255 220
192 194 116
197 202 119
202 208 122
208 214 126
214 218 131
220 220 137
225 222 143
230 222 150
234 221 157
236 219 165
237 217 173
236 214 181
234 211 189
230 208 197
224 205 205
218 202 212
210 199 219
202 196 225
194 194 231
186 191 236
178 189 239
171 187 242
255 220 80
161 183 244
158 181 244
156 180 243
156 178 240
157 177 236
160 176 232
164 175 226
168 174 220
173 174 213
178 173 205
183 172 197
188 172 188
192 172 178
195 171 169
197 171 159
197 171 150
196 170 141
194 170 131
190 170 123
185 170 115
179 170 107
171 169 100
163 169 95
155 169 90
146 169 86
138 168 83
130 168 81
123 167 80
117 167 80
112 166 81
109 165 83
106 164 86
105 163 91
106 162 95
108 161 101
111 160 107
115 158 114
119 156 122
125 155 129
130 153 137
96 89 140
95 87 132
96 84 124
98 82 117
101 81 110
105 79 103
109 78 97
115 78 92
121 77 88
128 78 84
135 78 82
142 79 80
149 81 80
156 83 80
163 86 82
169 89 84
175 92 88
180 96 93
184 101 98
187 105 105
190 111 112
192 116 120
193 122 128
193 128 137
193 135 147
192 141 156
190 148 166
188 154 175
186 161 184
184 167 193
181 173 202
179 179 210
176 185 217
174 190 224
171 195 230
169 199 235
168 202 239
166 204 241
165 206 243
165 207 244
164 206 244
164 205 242
164 203 240
165 200 236
165 195 232
166 190 227
167 185 221
168 178 214
169 171 207
170 164 200
171 157 192
171 150 184
172 144 175
173 139 167
174 135 159
174 133 152
175 132 145
176 133 138
177 135 132
178 140 127
180 146 122
182 153 119
185 162 116
188 170 115
40 255 220
196 188 115
201 196 116
207 203 119
212 209 122
218 213 126
223 217 131
228 219 137
232 220 144
234 220 151
236 219 158
236 218 166
234 216 174
231 214 183
227 212 191
221 209 199
214 206 206
207 204 213
199 201 220
190 199 226
183 196 231
175 194 235
169 192 239
163 190 241
255 220 80
255 220 80
155 185 243
155 183 241
157 182 238
160 181 234
164 180 229
168 179 223
173 178 217
178 177 210
183 177 202
188 176 193
192 176 184
195 175 175
196 175 165
197 174 156
195 174 146
193 173 137
189 173 128
184 173 119
177 172 111
170 172 104
162 171 98
153 171 92
145 170 87
137 170 84
129 169 81
122 168 79
116 167 79
111 166 79
108 165 81
106 164 83
105 163 87
106 162 91
108 160 96
111 159 102
115 157 108
120 155 115
125 153 123
130 151 131
97 87 146
96 85 138
96 83 130
97 81 122
99 79 115
102 78 108
106 77 102
111 76 96
117 76 91
123 77 87
130 77 84
137 79 81
144 81 80
151 83 80
158 86 81
164 89 83
170 92 86
176 97 89
181 101 94
185 106 100
188 111 107
191 117 114
193 123 122
194 129 131
194 136 140
194 142 149
193 149 159
192 155 168
190 162 178
188 168 187
186 174 196
183 180 204
181 186 212
179 190 219
176 195 226
174 198 231
172 201 236
171 204 239
169 205 242
168 205 243
167 205 244
167 203 243
167 201 241
167 197 239
167 193 235
167 188 230
168 182 225
168 176 219
169 169 212
169 162 205
170 155 197
171 149 189
172 143 181
173 138 173
174 134 164
175 131 157
176 131 149
177 131 142
179 134 136
181 138 130
183 143 125
186 150 121
189 157 117
192 166 115
40 255 220
201 182 113
206 190 114
211 197 116
216 203 118
221 208 122
226 212 127
230 215 132
233 217 138
235 218 145
235 218 152
234 218 160
232 217 168
228 215 176
223 213 184
217 211 192
210 209 200
202 207 207
194 205 214
187 203 220
179 200 226
172 198 231
166 196 235
161 194 238
157 193 241
155 191 242
255 220 80
155 188 241
157 187 239
160 185 236
164 184 232
169 183 226
174 182 220
179 181 214
184 180 206
188 180 198
192 179 189
194 178 180
196 178 171
196 177 161
194 176 152
192 176 142
187 175 133
182 175 124
175 174 116
168 173 108
160 173 101
152 172 95
143 171 89
135 171 85
127 170 82
121 169 79
115 168 78
110 167 78
107 165 78
105 164 80
105 162 83
106 161 87
108 159 91
111 157 97
115 155 103
120 153 109
125 151 117
130 149 124
98 86 151
97 83 144
96 81 136
97 79 128
98 78 121
101 76 113
104 76 107
108 75 100
113 75 95
119 76 90
125 77 86
132 78 83
139 80 81
146 83 80
153 85 80
159 89 81
166 93 84
172 97 87
177 102 91
182 107 96
186 112 102
189 118 109
192 124 117
193 130 125
195 137 134
195 143 143
195 150 152
194 156 162
193 163 171
192 169 180
190 175 190
188 181 198
186 186 207
184 191 214
182 195 221
179 198 227
178 201 233
176 203 237
174 204 240
173 204 242
172 203 243
171 201 244
170 199 243
170 195 241
170 190 237
170 185 233
170 179 229
170 173 223
171 167 217
171 160 210
172 153 202
173 147 194
174 141 186
175 137 178
176 133 170
177 130 162
178 129 154
180 130 146
182 132 139
184 135 133
187 140 127
190 146 123
194 153 119
198 161 116
40 255 220
206 176 113
211 184 113
216 191 113
220 197 115
225 202 118
228 207 122
231 210 127
233 213 133
234 215 139
234 216 146
232 216 153
229 216 161
225 215 169
219 214 177
213 213 185
206 211 193
198 209 200
190 207 208
182 205 215
175 203 221
169 202 226
163 200 231
159 198 235
156 196 238
154 195 240
154 193 241
255 220 80
157 190 239
160 189 237
164 188 233
169 187 229
174 185 224
179 184 217
184 184 210
188 183 203
192 182 194
194 181 185
195 180 176
195 179 167
193 179 157
190 178 148
186 177 138
180 176 129
174 176 121
166 175 112
158 174 105
150 173 98
141 172 92
133 171 87
126 170 83
119 169 80
114 167 78
109 166 77
106 165 77
104 163 78
104 161 80
105 160 83
108 158 87
111 156 92
115 154 97
120 151 104
125 149 111
130 147 118
100 84 157
98 82 149
97 80 142
97 78 134
98 76 126
99 75 119
102 75 112
105 74 105
110 74 99
115 75 94
121 76 89
127 78 85
133 80 83
140 82 81
147 85 80
154 89 81
160 93 82
167 97 84
172 102 88
178 107 92
182 113 98
186 119 104
190 125 111
192 131 119
194 138 127
195 144 136
196 151 145
196 157 155
196 163 164
195 170 174
194 175 183
192 181 192
190 186 201
189 190 209
187 194 216
185 198 223
183 200 229
181 202 234
180 202 238
178 202 241
177 201 243
176 199 243
175 196 243
174 193 242
174 188 239
174 183 236
174 177 232
174 171 227
174 165 221
175 158 214
175 152 207
176 146 199
177 140 191
178 135 183
179 132 175
181 129 167
183 128 159
184 128 151
187 130 144
189 133 137
192 137 131
196 143 125
199 149 121
203 156 117
40 255 220
211 171 112
216 178 112
220 185 112
224 191 113
227 196 115
230 201 118
232 205 123
233 208 127
233 211 133
231 212 140
229 213 147
225 214 154
220 214 162
214 213 170
208 212 178
201 211 186
193 210 194
185 208 201
178 207 209
171 205 215
165 204 221
160 202 227
156 200 231
154 199 235
153 197 237
153 196 239
154 194 239
255 220 80
255 220 80
165 190 235
170 189 231
175 188 226
180 187 221
185 186 214
189 185 207
192 184 199
194 183 191
195 182 182
194 181 172
192 180 163
189 179 153
184 178 144
178 177 135
172 176 126
164 175 117
156 174 109
148 173 102
139 172 95
131 171 89
124 169 85
118 168 81
112 167 78
108 165 76
105 163 75
104 162 76
104 160 77
105 158 80
108 156 83
111 154 87
115 151 92
120 149 98
125 146 105
131 144 112
103 83 163
100 80 155
98 78 148
97 76 140
97 75 132
98 74 124
100 73 117
103 73 110
107 74 103
111 74 98
116 76 93
122 77 88
128 79 85
135 82 82
142 85 81
148 89 80
155 93 81
161 98 83
167 102 86
173 108 89
178 113 94
183 119 100
187 125 106
190 132 113
193 138 121
195 145 130
196 151 139
197 158 148
197 164 157
197 170 167
197 176 176
196 181 186
194 186 194
193 190 203
191 194 211
190 197 218
188 199 224
187 200 230
185 201 235
184 201 238
182 200 241
181 197 243
180 195 243
180 191 243
179 186 241
179 181 238
179 175 235
179 169 230
179 163 225
179 157 218
180 150 212
181 144 204
182 139 197
183 134 189
184 131 180
186 128 172
188 127 164
190 127 156
192 128 148
195 131 141
198 135 134
201 139 128
205 145 123
208 151 119
40 255 220
216 165 113
220 172 111
223 178 110
226 184 111
229 190 112
231 195 115
232 199 118
232 203 123
231 206 128
228 208 134
225 210 140
221 211 147
215 211 155
209 211 163
203 211 171
195 210 179
188 210 187
181 208 195
174 207 202
167 206 209
162 205 216
158 203 222
154 202 227
152 200 231
152 199 234
152 197 236
154 196 238
157 195 238
161 193 237
255 220 80
171 191 232
176 190 228
181 189 223
185 187 218
189 186 211
192 185 204
193 184 195
194 183 187
193 182 178
191 181 168
187 180 159
182 179 149
176 178 140
169 177 131
162 175 122
153 174 114
145 173 106
137 171 99
129 170 92
122 169 87
116 167 82
111 165 79
107 164 76
104 162 75
103 160 74
104 158 75
105 156 77
108 153 80
111 151 83
116 149 88
121 146 93
126 143 99
131 141 106
105 81 168
102 79 161
100 77 153
98 75 146
98 74 138
98 73 130
99 72 122
101 72 115
104 73 108
108 74 102
112 75 96
118 77 91
123 79 87
129 82 84
136 85 82
142 89 81
149 93 81
155 98 82
162 103 84
168 108 87
173 114 91
178 120 96
183 126 101
187 132 108
190 139 116
193 145 124
195 152 132
197 158 141
198 164 151
198 170 160
198 176 169
198 181 179
198 186 188
197 190 197
196 193 205
194 196 213
193 198 220
192 199 226
191 200 231
189 199 236
188 198 239
187 196 241
186 193 243
185 189 243
185 184 242
185 179 240
184 174 237
184 168 233
185 162 228
185 155 222
185 149 216
186 143 209
187 138 202
189 134 194
190 130 186
192 127 177
194 126 169
196 126 161
198 126 153
201 129 145
204 132 138
207 136 132
210 141 126
213 147 121
40 255 220
220 159 113
223 166 111
226 172 110
228 178 109
230 184 110
230 189 112
230 193 115
230 197 118
228 201 123
225 203 128
221 205 134
216 207 141
210 208 148
204 208 156
197 209 164
190 208 172
183 208 180
176 207 188
169 207 196
164 206 203
159 204 210
155 203 216
152 202 222
151 201 227
151 200 231
152 198 234
155 197 236
158 196 237
162 194 237
167 193 235
255 220 80
177 191 230
181 189 226
186 188 221
189 187 215
192 186 208
193 185 200
193 184 192
192 182 183
189 181 174
185 180 165
180 179 155
174 177 146
167 176 136
159 175 127
151 173 118
143 172 110
135 170 103
127 169 96
120 167 90
114 165 84
109 164 80
106 162 77
104 160 75
103 158 74
103 155 74
105 153 75
108 151 77
112 148 80
116 146 83
121 143 88
127 140 94
132 137 100
108 80 173
105 77 166
102 76 159
100 74 151
99 73 144
98 72 136
99 71 128
100 72 121
102 72 113
105 73 107
109 74 100
114 76 95
119 79 90
124 82 87
130 85 84
137 89 82
143 93 81
149 98 81
156 103 82
162 108 84
168 114 88
173 120 92
178 126 97
183 133 103
187 139 110
190 145 118
193 152 126
195 158 135
197 164 144
198 170 153
199 175 163
200 181 172
200 185 181
199 189 190
199 192 199
198 195 207
197 197 215
197 198 221
196 198 227
195 198 232
194 196 236
193 194 239
192 191 241
191 187 242
191 183 242
191 178 241
190 172 239
190 166 235
191 160 231
191 154 226
192 148 220
192 143 214
193 137 206
195 133 199
196 129 191
198 127 183
200 125 174
202 124 166
204 125 158
207 126 150
209 129 142
212 133 135
215 137 129
218 142 123
40 255 220
223 154 115
225 160 112
227 166 110
229 171 109
229 177 109
229 182 110
228 187 112
226 191 115
224 194 118
220 198 123
216 200 129
210 202 135
204 203 142
198 205 149
191 205 157
184 205 165
177 205 173
171 205 181
165 205 189
160 204 196
156 203 204
153 202 210
151 201 216
150 200 222
151 199 226
152 198 230
155 197 233
159 196 235
163 194 235
168 193 235
173 192 234
255 220 80
255 220 80
186 188 223
189 187 218
192 186 211
193 184 204
192 183 196
191 182 188
188 181 179
183 179 170
178 178 161
171 176 151
164 175 142
156 174 132
148 172 123
140 170 115
132 169 107
125 167 99
118 165 93
113 163 87
108 161 82
105 159 78
103 157 75
102 155 73
103 153 72
105 150 73
108 148 74
112 145 76
117 142 80
122 140 84
127 137 89
132 134 95
111 78 178
108 76 171
105 74 164
102 73 157
100 72 149
99 71 142
99 71 134
99 71 126
101 71 119
103 72 112
106 74 105
110 76 99
114 78 94
119 81 89
125 85 86
131 89 83
137 93 81
143 98 81
150 103 81
156 108 83
162 114 85
167 120 89
173 126 93
178 133 99
182 139 105
186 146 112
190 152 120
193 158 128
195 164 137
197 170 146
199 175 156
200 180 165
201 184 174
201 188 184
201 191 193
201 194 201
201 196 209
200 197 216
200 197 223
199 196 228
198 195 233
198 193 237
197 189 240
197 186 241
197 181 242
196 176 241
196 171 240
196 165 237
197 159 234
197 153 229
198 147 224
198 142 218
199 137 211
201 132 204
202 129 196
204 126 188
205 124 179
207 123 171
210 123 163
212 124 155
214 126 147
217 129 139
219 133 133
221 138 126
40 255 220
225 148 116
227 154 113
228 159 110
228 165 108
228 170 107
227 175 108
225 180 109
222 184 111
219 188 114
215 191 118
210 194 123
204 197 129
198 198 136
191 200 143
185 201 150
178 202 158
172 202 166
166 202 174
161 202 182
156 202 190
153 201 197
151 200 204
149 200 211
149 199 217
151 198 222
153 197 226
156 196 230
160 195 232
164 193 234
169 192 234
174 191 233
179 190 232
183 189 229
255 220 80
190 186 220
191 185 215
192 183 208
191 182 201
189 181 193
186 179 184
181 178 175
175 176 166
169 175 157
161 173 147
153 172 138
145 170 129
137 168 120
130 166 111
122 165 104
116 163 96
111 161 90
107 159 84
104 156 80
102 154 76
102 152 74
103 149 72
105 147 71
109 144 72
113 141 74
118 139 76
123 136 80
128 133 84
133 130 90
115 77 183
111 75 176
108 73 170
104 72 163
102 71 155
100 70 147
99 70 140
99 70 132
100 71 124
101 72 117
104 73 110
107 75 103
111 78 98
115 81 93
120 85 88
125 89 85
131 93 83
137 98 81
143 103 81
149 108 82
155 114 83
161 120 86
167 126 90
172 133 95
177 139 100
182 145 107
186 152 114
189 158 122
192 164 131
195 169 140
197 175 149
199 179 158
200 184 168
202 187 177
202 190 186
203 193 195
203 195 203
203 195 211
203 196 218
203 195 224
202 193 229
202 191 234
202 188 237
202 184 240
202 180 241
202 175 241
202 170 241
202 164 239
202 158 236
203 153 232
203 147 227
204 141 222
205 136 215
206 132 208
208 128 201
209 125 193
211 123 185
212 122 176
214 121 168
216 122 160
218 124 151
220 126 144
222 130 136
223 134 130
40 255 220
226 143 119
226 148 114
226 153 111
226 158 108
225 164 107
223 169 106
221 173 107
217 177 108
213 181 111
209 185 114
203 188 119
197 190 124
191 193 130
185 194 136
179 196 143
172 197 151
167 198 159
161 198 167
157 198 175
153 198 183
150 198 190
149 198 198
148 197 205
149 196 211
151 196 217
153 195 222
157 194 226
161 193 229
166 192 231
171 191 233
176 189 233
180 188 232
184 187 230
187 186 227
255 220 80
191 183 218
191 182 212
190 180 205
187 179 197
184 177 189
179 176 181
173 174 172
166 173 162
158 171 153
150 169 143
142 168 134
134 166 125
127 164 116
120 162 108
114 160 100
109 158 93
105 155 87
103 153 82
102 151 78
102 148 74
103 146 72
106 143 71
109 140 71
114 138 71
119 135 73
124 132 76
129 129 80
134 126 85
118 76 187
115 74 181
111 72 175
107 71 168
105 70 161
102 69 153
101 69 145
100 69 137
100 70 130
100 71 122
102 73 115
104 75 108
107 78 102
111 81 96
115 84 91
120 88 87
125 93 84
131 98 82
137 103 81
143 108 81
149 114 82
154 120 84
160 126 87
166 133 91
171 139 96
176 145 102
180 151 109
184 157 116
188 163 124
191 169 133
194 174 142
197 179 151
199 183 161
200 186 170
202 189 179
203 192 188
204 193 197
204 194 205
205 194 212
205 193 219
205 192 225
205 190 230
205 187 234
205 183 238
206 179 240
206 174 241
206 169 241
206 163 240
207 158 237
207 152 234
208 146 230
209 141 225
210 136 219
211 131 213
212 128 205
213 124 198
215 122 190
216 121 181
218 120 173
219 120 165
220 121 156
222 123 148
223 126 141
224 130 134
40 255 220
225 138 121
225 142 116
224 147 112
223 152 109
221 157 106
218 162 105
215 166 105
211 171 106
207 174 108
202 178 110
196 181 114
191 184 119
184 186 124
178 188 130
172 190 137
167 191 144
161 193 152
157 193 160
153 194 168
150 194 176
148 194 183
147 194 191
148 194 198
149 193 205
151 192 211
154 192 217
158 191 222
163 190 226
167 189 228
172 188 230
177 187 231
181 186 231
185 185 230
188 183 228
190 182 224
255 220 80
255 220 80
188 178 209
185 176 202
181 175 194
176 173 186
170 172 177
163 170 168
155 168 159
147 166 149
139 164 140
131 162 130
124 160 121
118 158 113
112 156 105
107 154 97
104 152 91
102 149 85
101 147 80
102 144 76
103 142 73
106 139 71
110 136 70
115 133 70
119 130 71
125 127 73
130 124 76
134 121 80
122 75 190
118 73 185
114 71 179
111 70 173
107 69 166
105 68 159
103 68 151
101 68 143
100 69 135
100 70 128
101 72 120
103 74 113
105 77 106
108 80 100
111 84 95
116 88 90
120 92 86
125 97 84
131 103 82
136 108 81
142 114 81
148 120 82
153 126 85
159 132 88
164 139 92
169 145 98
174 151 104
179 157 111
183 163 118
187 168 127
190 173 135
193 178 144
196 182 154
198 185 163
200 188 172
202 190 181
203 192 190
204 193 199
205 193 207
206 192 214
207 191 221
207 188 226
207 185 231
208 182 235
208 178 238
209 173 240
209 168 240
210 163 240
210 157 238
211 152 236
211 146 232
212 141 228
213 136 223
214 131 217
215 127 210
216 124 202
217 121 195
218 120 187
219 119 178
220 119 170
221 119 161
222 121 153
223 123 145
223 126 138
40 255 220
223 133 124
222 137 119
220 142 114
218 146 110
216 151 107
213 155 105
209 159 104
205 164 104
200 167 105
195 171 107
189 174 110
183 177 114
178 180 119
172 182 124
166 184 131
161 186 137
157 187 145
153 188 152
150 189 160
148 189 168
147 189 176
147 189 184
148 189 192
150 189 199
152 189 206
156 188 212
160 187 217
165 187 222
169 186 225
174 185 228
178 184 229
182 183 230
186 181 230
188 180 228
190 179 225
190 178 222
189 176 217
255 220 80
183 173 205
179 172 198
173 170 190
166 168 182
159 167 173
152 165 164
144 163 155
136 161 145
128 159 136
121 157 127
115 155 118
110 152 109
106 150 101
103 148 94
101 145 88
101 143 82
102 140 77
104 137 74
107 135 71
111 132 69
116 129 69
121 126 69
126 123 71
131 120 73
135 117 77
126 74 194
122 72 189
118 70 184
114 69 178
111 68 171
108 67 164
105 67 157
103 68 149
102 68 141
101 70 133
101 71 126
102 74 118
103 77 111
105 80 105
108 83 99
111 88 93
115 92 89
120 97 86
125 102 83
130 108 81
135 113 81
141 119 81
146 126 83
152 132 85
157 138 89
162 144 94
167 150 99
172 156 106
177 162 113
181 167 120
185 172 129
188 177 138
191 181 147
194 184 156
197 187 165
199 189 175
201 191 184
203 191 192
204 191 201
205 191 208
206 189 215
207 187 222
208 184 227
209 181 232
209 177 235
210 172 238
211 167 239
211 162 240
212 157 239
213 151 237
213 146 234
214 141 230
215 136 226
216 131 220
217 127 214
217 124 207
218 121 199
219 119 192
220 118 183
220 117 175
221 117 166
221 118 158
221 120 150
220 122 142
40 255 220
219 128 128
217 132 121
215 136 116
213 140 111
209 144 108
206 149 105
202 153 103
197 157 103
192 160 103
187 164 104
182 167 107
176 170 110
171 173 114
166 175 119
161 177 125
156 179 131
152 181 138
149 182 146
147 183 153
146 183 161
146 184 169
146 184 177
148 184 185
150 184 193
154 184 200
158 184 206
162 183 212
167 182 217
171 182 221
176 181 225
180 180 227
184 179 228
186 178 229
188 176 228
189 175 226
189 174 223
187 172 219
185 171 214
255 220 80
176 168 202
170 166 195
163 164 187
156 163 178
148 161 169
140 159 160
132 157 151
125 155 141
118 153 132
113 150 123
108 148 114
104 146 106
102 143 98
100 141 91
100 138 85
102 136 80
104 133 75
108 130 72
112 127 69
117 124 68
122 121 68
127 118 68
132 115 70
136 112 73
129 73 196
126 71 193
122 69 188
118 68 182
114 67 176
111 66 169
108 66 162
106 67 155
104 68 147
102 69 139
101 71 131
101 73 124
102 76 116
103 79 109
106 83 103
108 87 97
111 92 92
115 96 88
119 102 85
124 107 82
129 113 81
134 119 81
139 125 82
145 131 83
150 137 86
155 144 90
160 150 95
165 155 101
170 161 107
174 166 115
178 171 122
182 176 131
186 180 140
189 183 149
192 186 158
195 188 168
197 189 177
199 190 186
201 190 194
203 189 202
204 188 210
206 186 217
207 183 223
208 180 228
209 176 232
210 172 236
211 167 238
211 162 239
212 156 239
213 151 238
214 146 236
214 141 233
215 136 228
216 131 224
216 127 218
217 123 211
218 120 204
218 118 196
218 117 188
218 116 180
218 116 171
218 116 163
217 117 155
216 119 146
40 255 220
213 124 131
211 127 125
209 131 119
206 135 113
202 138 109
198 142 106
194 146 103
189 150 102
185 153 101
179 157 102
174 160 103
169 163 106
164 166 110
160 168 114
155 170 119
152 172 125
149 174 132
147 175 139
145 176 146
145 177 154
145 178 162
147 178 170
149 179 178
152 179 186
155 179 193
160 178 200
164 178 206
169 177 212
173 177 217
178 176 221
181 175 224
185 174 226
187 173 227
188 172 227
188 171 226
188 169 224
186 168 221
182 167 217
178 165 212
255 220 80
255 220 80
159 160 191
152 158 183
144 156 175
136 154 166
129 152 156
122 150 147
116 148 138
110 146 128
106 143 119
103 141 111
101 139 103
100 136 95
100 133 88
102 131 82
105 128 77
109 125 73
113 122 70
118 120 68
123 117 67
128 114 67
133 111 68
137 107 70
133 72 199
130 70 196
126 68 191
122 67 186
118 66 181
115 66 174
111 66 167
109 66 160
106 67 152
104 68 145
103 70 137
102 73 129
102 75 121
103 79 114
104 82 107
106 86 101
108 91 96
111 96 91
115 101 87
119 107 84
123 112 82
128 118 81
132 124 81
137 130 82
143 137 84
148 143 87
153 149 91
158 154 96
162 160 102
167 165 109
171 170 116
175 174 125
179 178 133
183 182 142
186 184 151
189 187 160
192 188 170
195 189 179
197 189 188
199 188 196
201 187 204
202 185 211
204 182 218
205 179 224
207 175 229
208 171 233
209 166 236
210 161 237
211 156 238
211 151 238
212 146 237
213 141 234
213 136 231
214 131 226
214 127 221
215 123 215
215 120 208
215 118 201
215 116 193
215 115 185
214 114 177
213 114 168
212 115 160
211 116 151
40 255 220
207 120 135
204 123 128
201 126 122
198 129 116
194 133 111
190 136 107
186 140 104
181 143 101
177 147 100
172 150 100
167 153 101
162 156 103
158 159 106
154 161 109
151 163 114
148 165 119
146 167 126
144 169 132
144 170 140
144 171 147
145 172 155
147 172 163
150 173 171
153 173 179
157 173 186
162 173 194
166 172 200
171 172 207
175 171 212
179 171 217
183 170 220
185 169 223
187 168 225
188 167 226
187 166 226
186 165 224
183 163 222
180 162 219
175 160 214
169 159 209
162 157 203
255 220 80
148 153 188
140 151 180
133 149 171
125 147 162
119 145 153
113 143 143
108 141 134
104 138 125
101 136 116
100 134 107
100 131 99
100 128 92
103 126 86
106 123 80
110 120 75
114 117 71
119 115 68
124 112 67
129 109 66
134 106 66
138 103 68
136 71 201
133 69 198
130 67 195
126 66 190
122 65 185
119 65 179
115 65 173
112 65 165
109 66 158
107 68 150
105 69 142
103 72 135
103 75 127
103 78 119
103 82 112
104 86 106
106 90 99
108 95 94
111 100 90
114 106 86
118 112 83
122 117 81
126 123 81
131 130 81
135 136 82
140 142 85
145 148 88
150 153 92
155 159 98
159 164 104
164 169 111
168 173 118
172 177 127
176 180 135
179 183 144
183 185 153
186 187 163
189 187 172
191 188 181
194 187 190
196 186 198
198 184 206
199 181 213
201 178 219
203 175 225
204 170 229
205 166 233
206 161 236
207 156 237
208 151 237
209 146 237
209 141 235
210 136 232
210 131 229
211 127 224
211 123 219
211 120 212
210 117 205
210 115 198
209 114 190
208 113 182
207 112 173
206 113 165
204 114 156
40 255 220
199 117 140
197 119 132
193 121 125
190 124 119
186 127 113
182 130 108
178 134 105
173 137 102
169 140 100
164 143 99
160 146 99
156 149 100
153 152 102
149 154 105
147 156 109
145 158 114
143 160 120
143 162 126
143 163 133
144 164 140
146 165 148
149 166 156
152 166 164
156 166 172
160 167 180
164 167 187
169 166 194
173 166 201
177 166 207
181 165 212
184 164 216
186 164 220
187 163 223
187 162 224
186 160 225
184 159 224
181 158 222
177 156 220
171 155 216
165 153 211
158 152 206
151 150 199
255 220 80
136 146 184
129 144 176
122 142 167
116 140 158
110 138 149
106 136 139
102 133 130
100 131 121
99 128 112
99 126 104
101 123 96
103 121 89
107 118 83
111 115 77
116 112 73
121 110 69
126 107 67
131 104 65
135 101 65
139 98 66
139 70 202
136 68 200
133 67 197
130 65 193
126 64 189
123 64 183
119 64 177
116 65 171
113 65 163
110 67 156
108 69 148
106 71 140
104 74 132
103 77 125
103 81 117
104 85 110
104 90 104
106 94 98
108 100 93
110 105 88
113 111 85
117 117 82
121 123 81
125 129 80
129 135 81
133 141 83
138 146 85
142 152 89
147 158 93
151 163 99
156 167 105
160 172 112
164 176 120
168 179 129
172 182 137
175 184 146
178 185 156
181 186 165
184 186 174
187 186 183
189 185 191
191 183 200
194 180 207
195 177 214
197 174 220
198 170 225
200 166 230
201 161 233
202 156 235
203 151 237
204 146 237
204 141 236
205 136 234
205 132 231
205 128 227
205 124 222
205 120 216
204 117 209
204 115 202
203 113 195
201 112 187
200 111 178
198 111 170
196 111 161
40 255 220
191 113 144
188 115 137
185 117 129
181 120 122
177 122 116
174 125 111
170 128 106
165 131 102
161 134 100
158 136 98
154 139 97
151 142 98
148 144 99
145 147 102
143 149 105
142 151 109
142 153 114
142 154 120
143 156 127
145 157 134
147 158 141
150 159 149
154 159 157
158 160 165
162 160 173
167 160 180
171 160 188
175 160 195
179 160 201
182 159 207
184 158 212
186 158 216
186 157 219
186 156 222
184 155 223
182 154 223
178 152 222
173 151 220
167 149 218
161 148 214
154 146 209
147 144 203
139 143 196
255 220 80
255 220 80
118 137 172
112 135 164
107 132 154
103 130 145
101 128 136
99 125 127
99 123 118
99 121 109
101 118 101
104 115 93
108 113 86
112 110 80
117 107 75
122 105 71
127 102 68
132 99 65
136 96 64
140 93 64
141 69 203
139 67 202
137 66 199
134 65 196
130 64 192
127 63 187
124 63 182
120 64 176
117 65 169
114 66 161
111 68 154
109 70 146
107 73 138
105 76 130
104 80 123
104 84 115
104 89 108
105 94 102
106 99 96
108 104 91
110 110 87
113 116 84
116 121 82
119 127 80
123 133 80
127 139 81
131 145 83
135 151 86
139 156 90
143 161 95
147 166 100
152 170 107
156 174 114
159 177 122
163 180 131
167 182 139
170 184 148
173 185 158
176 185 167
179 185 176
182 184 185
184 182 193
186 180 201
188 177 209
190 173 215
192 170 221
193 166 226
194 161 230
195 156 233
196 152 235
197 147 236
198 142 236
198 137 234
198 132 232
198 128 229
198 124 224
197 120 219
197 117 213
196 115 207
195 112 199
193 111 191
192 110 183
190 109 175
187 109 166
40 255 220
182 111 149
179 112 141
176 113 133
173 115 126
169 117 119
165 120 113
162 122 108
158 125 104
155 128 100
151 130 98
148 133 96
146 135 96
144 138 97
142 140 98
141 142 101
141 144 105
141 146 109
142 147 114
144 149 120
146 150 127
149 151 134
153 152 142
157 152 150
161 153 158
165 153 166
169 153 173
173 153 181
177 153 188
180 153 195
183 153 202
185 152 207
186 151 212
186 151 216
184 150 219
182 149 221
179 147 222
175 146 222
169 145 221
163 143 218
157 142 215
150 140 211
142 139 206
135 137 200
128 135 193
121 133 186
255 220 80
109 129 169
105 127 160
102 125 151
99 122 141
98 120 132
98 118 123
100 115 114
102 113 106
105 110 98
109 107 90
114 105 84
119 102 78
124 99 73
129 97 69
133 94 66
137 91 64
140 88 63
143 69 203
142 67 203
140 65 201
137 64 199
134 63 195
131 63 191
128 63 186
124 63 180
121 64 174
118 65 167
115 67 159
112 70 152
110 72 144
108 76 136
106 79 128
105 83 120
105 88 113
105 93 106
105 98 100
106 103 95
108 109 90
110 114 86
112 120 83
115 126 81
118 132 80
121 138 80
124 144 81
128 149 83
132 155 87
136 160 91
140 164 96
143 169 102
147 172 109
151 176 116
155 179 124
158 181 133
162 182 141
165 183 150
168 184 160
171 183 169
173 183 178
176 181 187
178 179 195
180 176 203
182 173 210
184 169 216
185 165 222
186 161 227
187 157 230
188 152 233
189 147 235
190 142 235
190 138 235
190 133 233
190 129 230
190 125 227
189 121 222
188 118 217
187 115 210
186 112 203
184 110 196
183 109 188
181 108 180
178 108 171
40 255 220
173 108 154
170 109 146
167 110 138
164 111 130
161 113 123
158 115 116
154 117 110
151 119 105
149 122 101
146 124 98
144 126 96
142 129 95
141 131 95
140 133 96
140 135 98
140 137 101
141 139 104
143 140 109
145 142 115
148 143 121
152 144 128
155 145 135
159 145 142
164 146 150
168 146 158
172 147 166
176 147 174
179 147 182
182 146 189
184 146 196
185 145 202
185 145 207
184 144 212
182 143 215
180 142 218
176 141 220
171 140 221
165 139 220
159 137 219
152 136 216
145 134 213
138 133 208
131 131 203
124 129 197
117 127 190
111 125 182
255 220 80
103 121 165
100 119 156
98 117 147
98 114 138
98 112 128
100 110 119
103 107 111
107 105 102
111 102 94
116 100 87
121 97 81
126 94 75
130 92 71
135 89 67
138 87 65
141 84 63
144 68 203
143 66 203
142 64 202
140 63 201
138 62 198
135 62 194
132 62 190
129 62 184
125 63 178
122 65 172
119 66 165
116 69 157
113 72 149
111 75 141
109 78 133
107 82 126
106 87 118
105 92 111
105 97 104
106 102 98
106 107 93
107 113 88
109 119 85
111 125 82
113 131 80
116 136 80
119 142 80
122 148 81
125 153 84
129 158 87
132 163 92
136 167 97
139 171 103
143 174 110
146 177 118
150 179 126
153 181 134
156 182 143
159 182 153
162 182 162
164 181 171
167 180 180
169 178 188
171 176 196
173 173 204
175 169 211
176 165 217
178 161 222
179 157 227
180 152 230
180 148 233
181 143 234
181 138 234
181 134 233
181 129 231
181 125 228
180 121 224
179 118 220
178 115 214
177 112 207
175 110 200
173 108 193
171 107 185
169 106 176
40 255 220
164 106 159
162 106 150
159 107 142
156 108 134
153 109 127
151 111 120
148 113 113
146 114 108
143 116 103
142 118 99
140 121 96
139 123 94
139 125 93
139 126 94
139 128 95
141 130 97
142 132 100
145 133 104
147 135 109
151 136 115
154 137 121
158 138 128
162 138 136
167 139 143
171 139 151
174 140 159
178 140 167
180 140 175
183 140 183
184 139 190
184 139 196
184 138 202
182 138 207
180 137 212
176 136 215
172 135 217
167 134 219
161 132 219
154 131 219
147 130 217
140 128 214
133 127 211
126 125 206
120 123 200
114 121 194
108 119 187
104 117 179
255 220 80
255 220 80
97 111 153
98 109 143
99 106 134
101 104 125
104 102 116
108 99 107
113 97 99
117 95 91
122 92 85
127 90 78
132 87 73
136 84 69
139 82 65
142 79 63
144 67 202
144 65 203
144 64 203
142 62 202
141 62 200
138 61 197
136 61 193
133 62 188
130 62 183
127 64 176
123 66 170
120 68 162
117 71 155
115 74 147
112 77 139
110 81 131
109 86 123
107 90 116
106 95 109
106 101 102
106 106 97
107 112 91
107 118 87
109 123 84
110 129 81
112 135 80
115 141 79
117 146 80
120 151 82
123 156 84
126 161 88
129 165 93
132 169 98
135 172 105
138 175 112
141 178 120
144 179 128
147 181 136
150 181 145
153 181 155
155 180 164
158 179 173
160 177 182
162 175 190
164 172 198
166 169 205
167 165 212
168 161 218
169 157 223
170 153 227
171 148 230
171 144 232
172 139 233
172 135 233
172 130 232
171 126 230
171 122 226
170 118 222
169 115 217
167 112 211
166 110 204
164 108 197
162 106 189
160 105 181
40 255 220
156 104 164
154 104 155
151 104 147
149 105 139
147 106 131
145 107 123
143 108 116
141 110 110
139 112 105
138 113 100
138 115 97
137 117 94
138 119 93
139 120 92
140 122 92
142 124 94
144 125 96
147 126 100
150 128 104
154 129 109
158 130 115
162 131 122
166 131 129
169 132 136
173 132 144
176 133 152
179 133 160
182 133 168
183 133 176
184 132 183
183 132 190
182 131 197
180 131 202
177 130 207
173 129 211
168 128 215
162 127 217
156 126 218
149 125 218
142 123 217
135 122 215
128 120 212
122 119 208
116 117 203
110 115 197
105 113 191
102 111 183
99 109 175
97 107 167
255 220 80
98 103 149
99 101 140
102 99 130
106 96 121
110 94 112
114 92 104
119 89 96
124 87 89
129 85 82
133 82 76
137 80 71
140 78 67
142 75 64
144 67 200
145 65 202
145 63 203
144 62 203
143 61 201
141 60 199
139 60 196
137 61 192
134 62 187
131 63 181
128 65 175
125 67 168
122 70 160
119 73 153
116 76 145
114 80 137
112 85 129
110 89 121
109 94 114
108 99 107
107 105 101
107 110 95
107 116 90
108 122 86
109 128 83
110 133 80
111 139 79
113 144 79
115 150 80
118 155 82
120 159 85
123 163 89
125 167 94
128 171 100
131 174 106
134 176 113
136 178 121
139 179 130
142 180 138
144 180 147
147 179 156
149 178 166
151 177 175
153 175 183
155 172 192
156 169 199
158 165 207
159 162 213
160 158 219
161 153 223
162 149 227
162 144 230
162 140 232
162 135 232
162 131 232
162 127 230
161 123 228
160 119 224
159 116 220
158 113 214
157 110 208
155 108 201
154 106 194
152 104 186
40 255 220
148 103 169
146 102 160
145 102 152
143 102 143
141 103 135
140 104 127
138 105 120
137 106 113
137 107 107
136 108 102
136 110 98
137 111 95
138 113 92
139 114 91
141 116 91
144 117 91
147 119 93
150 120 96
153 121 100
157 122 104
161 123 110
165 124 116
169 125 122
172 125 130
175 126 137
178 126 145
181 126 153
182 126 161
183 126 169
183 126 177
182 125 184
180 125 191
177 124 197
173 124 202
169 123 207
163 122 211
157 121 214
151 120 216
144 118 217
137 117 217
130 116 215
124 114 213
117 113 210
112 111 206
107 109 200
103 108 194
100 106 188
97 104 180
97 102 172
97 100 163
255 220 80
100 96 145
103 93 136
107 91 127
112 89 118
116 87 109
121 85 101
126 82 93
131 80 86
135 78 79
138 76 74
141 73 69
142 71 65
143 66 199
144 64 201
145 62 203
145 61 203
145 60 202
144 60 201
142 60 198
140 60 195
138 61 190
135 62 185
132 64 179
129 66 173
126 69 165
124 72 158
121 75 150
118 79 142
116 83 134
114 88 126
112 93 119
110 98 112
109 103 105
108 109 99
108 114 93
108 120 88
108 126 85
109 131 82
110 137 80
111 142 79
112 148 79
114 153 80
116 157 82
118 162 86
120 165 90
122 169 95
125 172 101
127 174 108
129 176 115
132 178 123
134 178 131
136 179 140
139 178 149
141 177 158
142 176 167
144 174 176
146 172 185
147 169 193
149 166 201
150 162 208
151 158 214
152 154 219
152 150 224
153 145 227
153 141 230
153 136 231
153 132 231
153 128 231
152 124 229
152 120 226
151 117 222
150 113 217
149 111 212
147 108 205
146 106 198
145 104 191
40 255 220
142 102 174
140 101 165
139 100 157
138 100 148
137 100 140
136 101 132
135 101 124
135 102 117
135 103 110
135 104 105
136 105 100
137 107 96
139 108 93
141 109 90
144 110 89
146 112 89
150 113 90
153 114 93
157 115 96
160 116 99
164 117 104
168 117 110
171 118 116
175 118 123
177 119 130
180 119 138
181 119 146
182 119 154
182 119 162
181 119 170
180 119 177
177 118 184
174 118 191
169 117 197
164 116 203
158 115 207
152 114 211
146 113 213
139 112 215
132 111 216
125 110 215
119 108 214
113 107 211
108 105 208
104 103 203
100 102 198
98 100 191
96 98 184
96 96 177
97 94 169
99 92 160
255 220 80
255 220 80
109 86 132
114 84 123
119 82 114
123 80 106
128 78 98
132 76 90
136 74 83
139 72 77
141 69 71
142 67 67
141 66 196
143 64 199
145 62 202
145 61 203
146 60 203
145 59 202
144 59 200
143 59 197
141 60 194
139 61 189
136 63 183
134 65 177
131 68 171
128 71 163
125 74 156
123 78 148
120 82 140
118 87 132
116 91 124
114 96 117
112 102 109
111 107 103
110 113 97
109 118 91
109 124 87
109 130 83
109 135 81
110 140 79
110 146 78
112 151 79
113 155 80
114 160 83
116 164 86
118 167 91
120 170 96
122 173 102
123 175 109
125 176 117
127 177 125
129 177 133
131 177 142
133 177 151
135 175 160
136 174 169
138 171 178
139 169 187
141 166 195
142 162 202
143 159 209
143 155 215
144 150 220
144 146 224
145 142 227
145 138 229
145 133 230
144 129 230
144 125 229
144 121 227
143 118 224
142 114 220
141 111 215
140 108 209
139 106 202
138 104 195
40 255 220
137 101 179
136 100 171
135 99 162
134 98 153
134 98 145
134 98 136
134 99 128
134 99 121
135 100 114
136 100 107
137 101 102
139 102 97
141 103 93
144 104 91
147 105 89
150 106 88
153 107 88
157 108 90
160 109 92
164 110 95
168 111 99
171 111 104
174 112 110
177 112 117
179 113 124
180 113 131
181 113 139
181 113 147
181 113 155
179 113 163
177 112 171
174 112 178
169 111 185
165 111 192
159 110 197
153 109 203
147 108 207
140 107 210
133 106 213
127 105 214
120 104 214
115 102 214
109 101 212
105 99 209
101 98 205
98 96 201
96 94 195
96 93 188
96 91 181
97 89 173
100 87 165
103 85 156
107 83 147
255 220 80
116 80 129
121 78 120
126 76 111
130 74 102
134 72 94
138 70 87
140 68 80
142 66 74
142 64 69
138 65 193
141 63 197
143 61 200
145 60 202
146 59 203
146 59 203
146 58 202
145 59 199
144 59 196
142 61 192
140 62 187
138 64 182
135 67 175
133 70 168
130 73 161
127 77 153
125 81 145
122 85 137
120 90 130
118 95 122
116 100 114
114 105 107
113 111 101
111 116 95
111 122 90
110 128 86
110 133 82
110 138 80
110 144 78
111 149 78
111 153 79
112 158 80
113 161 83
115 165 87
116 168 91
117 171 97
119 173 103
120 175 111
122 176 118
124 176 126
125 176 135
127 176 144
128 175 153
130 173 162
131 171 171
132 169 180
133 166 188
134 163 196
135 159 203
136 155 210
136 151 215
137 147 220
137 143 224
137 139 227
137 134 229
137 130 229
137 126 229
137 122 228
136 119 225
136 115 222
135 112 217
135 109 212
134 106 206
134 104 199
40 255 220
133 100 184
132 99 175
132 98 167
132 97 158
132 97 149
133 96 141
133 96 133
134 96 125
136 97 117
137 97 110
139 98 104
141 98 99
144 99 95
147 100 91
150 100 89
153 101 87
157 102 87
160 103 87
164 104 89
167 104 91
171 105 95
174 105 99
176 106 105
178 106 111
180 106 117
181 107 124
181 107 132
180 107 140
179 107 148
176 106 156
173 106 164
169 106 171
165 105 179
160 105 186
154 104 192
148 103 198
141 102 203
135 101 207
128 100 210
122 99 212
116 98 213
110 97 213
106 95 212
102 94 210
99 92 207
96 91 203
95 89 198
95 88 192
96 86 185
98 84 178
101 82 170
105 81 162
109 79 153
113 77 144
255 220 80
123 73 125
128 71 116
132 70 108
136 68 99
139 66 91
141 64 84
142 62 78
142 61 72
135 65 190
138 63 194
141 61 198
143 60 201
145 59 202
146 58 203
146 58 202
146 58 201
146 59 199
145 60 195
143 61 191
142 63 186
139 66 180
137 69 173
135 72 166
132 75 159
130 79 151
127 84 143
125 88 135
122 93 127
120 98 119
118 104 112
116 109 105
115 114 99
114 120 93
112 126 88
112 131 84
111 136 81
111 141 79
111 146 78
111 151 78
111 155 79
112 159 81
113 163 84
114 166 88
115 169 92
116 171 98
117 173 105
118 174 112
119 175 120
121 175 128
122 175 137
123 174 146
124 172 155
125 171 164
126 168 173
127 166 181
128 163 189
129 159 197
130 156 204
130 152 210
131 148 216
131 144 220
131 140 224
131 136 227
131 132 228
131 128 228
131 124 228
131 120 226
131 116 223
131 113 220
131 110 215
130 107 209
130 105 203
40 255 220
130 100 188
130 99 180
131 97 172
131 96 163
132 95 155
133 95 146
134 94 137
136 94 129
138 94 121
140 94 114
142 94 107
145 95 101
148 95 96
151 96 92
154 96 89
157 97 87
161 97 86
164 98 85
167 99 86
170 99 88
173 100 91
176 100 95
178 100 99
179 101 105
180 101 111
180 101 118
179 101 125
178 101 133
176 101 141
173 101 149
169 100 157
165 100 165
160 99 172
154 99 180
148 98 186
142 97 192
135 96 198
129 96 203
123 95 206
117 93 209
111 92 211
106 91 212
102 90 212
99 88 211
97 87 208
95 86 205
95 84 201
95 83 195
97 81 189
100 79 182
103 78 175
107 76 167
111 74 158
116 73 149
121 71 140
255 220 80
255 220 80
134 66 113
137 64 104
140 63 96
141 61 89
142 59 82
141 58 75
131 64 186
135 62 191
138 61 195
141 59 199
143 58 201
145 57 203
146 57 203
147 57 202
147 58 200
147 59 198
146 60 194
144 62 189
143 65 184
141 67 178
139 71 171
137 74 164
134 78 156
132 82 149
130 87 141
127 92 133
125 97 125
123 102 117
121 107 110
119 112 103
117 118 97
116 123 91
115 129 87
114 134 83
113 139 80
113 144 78
112 149 77
112 153 77
112 157 79
113 161 81
113 164 84
113 167 88
114 169 93
115 171 99
116 173 106
117 173 114
117 174 122
118 174 130
119 173 139
120 172 148
121 170 157
122 168 166
123 166 174
124 163 183
124 160 191
125 157 198
125 153 205
126 149 211
126 145 216
127 141 221
127 137 224
127 133 226
127 129 227
128 125 227
128 121 226
128 118 224
128 114 221
128 111 217
128 108 212
129 105 206
40 255 220
129 101 193
130 99 185
131 97 177
132 96 168
133 95 160
135 94 151
136 93 142
138 92 134
140 92 126
143 92 118
146 92 111
148 92 104
151 92 99
155 92 94
158 93 90
161 93 87
164 93 85
167 94 84
170 94 84
173 94 85
175 95 87
177 95 91
178 95 95
179 95 99
179 96 105
179 96 112
177 96 118
175 95 126
172 95 134
169 95 142
164 95 150
160 94 158
154 94 165
148 93 173
142 93 180
136 92 187
130 91 193
123 90 198
117 89 203
112 88 206
107 87 209
103 86 210
99 85 211
97 84 210
95 82 209
94 81 206
95 79 203
96 78 198
98 77 193
101 75 186
105 74 179
109 72 172
114 70 164
118 69 155
123 67 146
128 66 137
132 64 128
255 220 80
138 61 110
140 60 101
141 58 93
141 57 86
140 55 79
126 64 181
130 62 187
134 60 192
138 59 196
141 58 199
143 57 202
145 57 203
146 57 203
147 57 202
147 58 200
147 59 197
147 61 193
146 64 188
144 66 182
143 69 176
141 73 169
139 77 162
137 81 154
134 85 146
132 90 138
130 95 130
128 100 122
126 105 115
124 110 107
122 116 101
120 121 95
119 126 90
117 132 85
116 137 81
115 142 79
115 146 77
114 151 77
114 155 77
114 159 79
114 162 81
114 165 85
114 167 89
114 169 94
115 171 101
115 172 108
116 172 115
117 173 123
117 172 132
118 171 140
119 170 149
119 168 158
120 166 167
121 163 176
121 160 184
122 157 192
122 154 199
123 150 206
123 146 212
124 143 217
124 139 221
125 135 224
125 131 225
125 127 226
126 123 226
126 119 225
127 116 222
127 113 219
128 109 215
128 107 210
40 255 220
130 101 197
131 99 189
132 97 181
134 96 173
135 94 165
137 93 156
139 92 147
142 91 139
144 91 130
147 90 122
150 90 115
153 90 108
156 89 101
159 89 96
162 89 91
165 90 88
168 90 85
170 90 83
173 90 83
175 90 83
177 90 84
178 91 87
178 91 90
178 91 95
178 91 100
176 91 106
174 91 112
171 91 119
168 90 127
164 90 134
159 90 142
154 89 151
148 89 159
142 88 166
136 88 174
130 87 181
124 86 187
118 85 193
112 84 198
108 83 203
103 82 206
100 81 208
97 80 210
95 79 210
94 78 209
94 76 207
95 75 204
97 74 201
100 72 196
103 71 190
107 70 184
111 68 176
116 67 169
121 65 160
125 64 152
130 63 143
134 61 133
137 60 124
255 220 80
141 57 107
141 56 98
141 54 90
139 53 83
121 64 177
125 62 183
130 60 189
134 58 193
137 57 197
140 56 200
143 56 202
145 56 203
146 56 202
147 57 201
148 59 199
148 60 195
147 62 191
147 65 186
146 68 180
144 71 174
143 75 167
141 79 159
139 83 152
137 88 144
135 93 136
133 98 128
131 103 120
129 108 112
127 113 105
125 119 99
123 124 93
122 129 88
120 134 84
119 139 80
118 144 78
117 148 76
117 153 76
116 156 77
116 160 79
116 163 81
115 165 85
115 168 90
116 169 95
116 170 102
116 171 109
117 171 117
117 171 125
117 170 133
118 169 142
118 168 151
119 166 160
119 163 169
120 161 178
121 158 186
121 155 193
122 151 200
122 148 207
123 144 212
123 140 217
124 136 221
124 132 223
125 128 225
125 125 225
126 121 225
127 117 223
128 114 221
128 111 217
130 108 212
40 255 220
132 102 201
133 100 194
135 98 186
137 96 178
139 94 170
141 93 161
143 92 152
146 90 143
148 90 135
151 89 127
154 88 119
157 88 111
160 87 105
163 87 98
166 87 93
168 87 89
171 87 85
173 87 83
175 87 82
176 87 81
177 87 82
178 87 84
177 87 86
177 87 90
175 87 95
173 86 100
170 86 106
167 86 113
163 86 120
158 85 128
153 85 135
148 85 144
142 84 152
136 84 160
130 83 167
124 82 175
118 81 182
113 81 188
108 80 194
103 79 198
100 78 202
97 77 205
95 76 208
94 75 209
94 74 209
94 72 208
96 71 205
98 70 202
102 69 198
105 67 193
110 66 187
114 65 181
119 64 173
123 62 165
128 61 157
132 60 148
135 58 139
138 57 130
140 56 121
255 220 80
255 220 80
140 53 95
137 52 87
115 64 171
120 62 178
125 60 185
129 58 190
133 57 194
137 56 198
140 55 201
142 55 202
144 56 203
146 56 202
147 58 200
148 59 198
148 61 194
148 64 190
148 67 184
147 70 178
146 73 172
145 77 165
143 82 157
141 86 149
140 91 141
138 96 133
136 101 125
134 106 117
132 111 110
130 116 103
128 122 97
127 127 91
125 132 86
124 137 82
123 142 79
122 146 77
121 150 76
120 154 76
119 157 77
119 161 79
118 163 82
118 166 86
118 167 91
118 169 97
118 170 103
118 170 110
118 170 118
118 170 126
119 169 135
119 167 144
119 166 153
120 164 162
120 161 171
121 158 179
121 155 187
122 152 194
122 149 201
123 145 207
124 141 213
124 138 217
125 134 220
126 130 223
127 126 224
128 123 224
128 119 223
130 116 221
131 112 219
132 109 215
40 255 220
135 104 204
137 101 198
139 99 190
141 97 183
143 95 174
145 93 166
148 92 157
150 90 148
153 89 140
156 88 131
158 87 123
161 86 115
164 86 108
166 85 101
169 85 96
171 85 91
173 84 87
175 84 83
176 84 81
177 84 80
177 83 80
176 83 81
176 83 83
174 83 86
172 83 90
169 83 95
166 82 100
162 82 107
157 82 113
152 81 121
147 81 129
141 80 136
136 80 145
130 79 153
124 79 161
118 78 168
113 77 175
108 77 182
104 76 188
100 75 194
97 74 199
95 73 202
93 72 205
93 71 207
94 70 208
95 69 207
97 68 206
100 67 204
104 65 200
108 64 196
112 63 191
117 62 185
122 61 178
126 60 170
130 58 162
134 57 154
137 56 145
139 55 136
140 54 127
141 53 118
140 52 109
255 220 80
136 50 92
109 64 166
114 61 173
119 59 180
124 58 186
128 56 191
132 55 195
136 55 199
139 55 201
142 55 202
144 56 202
146 57 201
147 58 200
148 60 197
149 63 193
149 65 188
149 68 183
148 72 176
147 76 169
146 80 162
145 84 154
144 89 147
142 94 138
140 99 130
139 104 123
137 109 115
135 114 108
134 119 101
132 124 95
130 129 89
129 134 84
128 139 81
126 143 78
125 148 76
124 152 75
123 155 75
123 158 77
122 161 79
122 164 82
121 166 86
121 167 92
121 168 98
121 169 104
121 169 112
121 169 120
121 168 128
121 167 137
121 165 146
122 164 155
122 161 163
123 159 172
123 156 180
124 153 188
124 150 196
125 146 202
126 143 208
126 139 213
127 136 217
128 132 220
129 128 222
130 125 223
131 121 223
133 118 222
134 114 220
136 111 216
40 255 220
139 105 207
141 102 201
143 100 194
145 98 187
147 96 179
150 94 171
152 92 162
155 90 154
157 89 145
160 88 136
162 87 128
165 86 120
167 85 112
169 84 105
171 83 98
173 83 93
174 82 88
175 82 84
176 82 81
176 81 80
175 81 79
174 81 79
173 80 80
171 80 83
168 80 86
164 79 90
161 79 95
156 79 101
151 78 107
146 78 114
141 77 122
135 77 130
129 76 138
123 76 146
118 75 154
113 74 162
108 74 169
103 73 176
100 72 183
97 71 189
95 70 194
93 70 199
93 69 202
93 68 205
94 67 206
96 66 207
99 65 206
102 64 205
106 63 202
111 62 198
115 60 194
120 59 188
124 58 182
129 57 175
132 56 167
136 55 159
138 54 150
140 53 141
140 52 132
140 52 123
139 51 114
137 50 106
255 220 80
