P3
192 120
255
200 125 77
200 125 77
200 125 77
200 125 77
200 125 77
200 125 77
200 125 77
200 125 77
200 125 77
200 125 77
200 125 77
200 125 77
200 125 77
200 125 77
200 125 77
200 125 77
200 125 77
200 125 77
200 125 77
200 125 77
200 125 77
200 125 77
200 125 77
200 125 77
200 125 77
200 125 77
200 125 77
200 125 77
200 125 77
200 125 77
200 125 77
200 125 77
200 125 77
200 125 77
200 125 77
200 125 77
200 125 77
200 125 77
200 125 77
200 125 77
200 125 77
200 125 77
200 125 77
200 125 77
200 125 77
200 125 77
200 125 77
200 125 77
200 125 77
200 125 77
200 125 77
200 125 77
200 125 77
200 125 77
200 125 77
200 125 77
200 125 77
200 125 77
200 125 77
200 125 77
200 125 77
200 125 77
200 125 77
200 125 77
200 125 77
200 125 77
200 125 77
200 125 77
200 125 77
200 125 77
200 125 77
200 125 77
200 125 77
200 125 77
200 125 77
200 125 77
200 125 77
200 125 77
200 125 77
200 125 77
200 125 77
200 125 77
200 125 77
200 125 77
200 125 77
200 125 77
200 125 77
200 125 77
200 125 77
200 125 77
200 125 77
200 125 77
200 125 77
200 125 77
200 125 77
200 125 77
200 125 77
200 125 77
200 125 77
200 125 77
200 125 77
200 125 77
200 125 77
200 125 77
200 125 77
200 125 77
200 125 77
200 125 77
200 125 77
200 125 77
200 125 77
200 125 77
200 125 77
200 125 77
200 125 77
200 125 77
200 125 77
200 125 77
200 125 77
200 125 77
200 125 77
200 125 77
200 125 77
200 125 77
200 125 77
200 125 77
200 125 77
200 125 77
200 125 77
200 125 77
200 125 77
200 125 77
200 125 77
200 125 77
200 125 77
200 125 77
200 125 77
200 125 77
200 125 77
200 125 77
200 125 77
200 125 77
200 125 77
200 125 77
200 125 77
200 125 77
200 125 77
200 125 77
200 125 77
200 125 77
200 125 77
200 125 77
200 125 77
200 125 77
200 125 77
200 125 77
200 125 77
200 125 77
200 125 77
200 125 77
200 125 77
200 125 77
200 125 77
200 125 77
200 125 77
200 125 77
200 125 77
200 125 77
200 125 77
200 125 77
200 125 77
200 125 77
200 125 77
200 125 77
200 125 77
200 125 77
200 125 77
200 125 77
200 125 77
200 125 77
200 125 77
200 125 77
200 125 77
200 125 77
200 125 77
200 125 77
200 125 77
200 125 77
200 125 77
200 125 77
200 125 77
200 125 77
200 125 77
200 125 77
200 125 77
200 125 77
200 125 77
200 125 77
200 125 77
200 125 77
200 125 77
200 125 77
200 125 77
200 125 77
200 125 77
200 125 77
200 125 77
200 125 77
200 125 77
200 125 77
200 125 77
200 125 77
200 125 77
200 125 77
200 125 77
200 125 77
200 125 77
200 125 77
200 125 77
200 125 77
200 125 77
200 125 77
200 125 77
200 125 77
200 125 77
200 125 77
200 125 77
200 125 77
200 125 77
200 125 77
200 125 77
200 125 77
200 125 77
200 125 77
200 125 77
200 125 77
200 125 77
200 125 77
200 125 77
200 125 77
200 125 77
200 125 77
200 125 77
200 125 77
200 125 77
200 125 77
200 125 77
200 125 77
200 125 77
200 125 77
200 125 77
200 125 77
200 125 77
200 125 77
200 125 77
200 125 77
200 125 77
200 125 77
200 125 77
200 125 77
200 125 77
200 125 77
200 125 77
200 125 77
200 125 77
200 125 77
200 125 77
200 125 77
200 125 77
200 125 77
200 125 77
200 125 77
200 125 77
200 125 77
200 125 77
200 125 77
200 125 77
200 125 77
200 125 77
200 125 77
200 125 77
200 125 77
200 125 77
200 125 77
200 125 77
200 125 77
200 125 77
200 125 77
200 125 77
200 125 77
200 125 77
200 125 77
200 125 77
200 125 77
200 125 77
200 125 77
200 125 77
200 125 77
200 125 77
200 125 77
200 125 77
200 125 77
200 125 77
200 125 77
200 125 77
200 125 77
200 125 77
200 125 77
200 125 77
200 125 77
200 125 77
200 125 77
200 125 77
200 125 77
200 125 77
200 125 77
200 125 77
200 125 77
200 125 77
200 125 77
200 125 77
200 125 77
200 125 77
200 125 77
200 125 77
200 125 77
200 125 77
200 125 77
200 125 77
200 125 77
200 125 77
200 125 77
200 125 77
200 125 77
200 125 77
200 125 77
200 125 77
200 125 77
200 125 77
200 125 77
200 125 77
200 125 77
200 125 77
200 125 77
200 125 77
200 125 77
200 125 77
200 125 77
200 125 77
200 125 77
200 125 77
200 125 77
200 125 77
200 125 77
200 125 77
200 125 77
200 125 77
200 125 77
200 125 77
200 125 77
200 125 77
200 125 77
200 125 77
200 125 77
200 125 77
200 125 77
200 125 77
200 125 77
200 125 77
200 125 77
200 125 77
200 125 77
200 125 77
200 125 77
200 125 77
200 125 77
200 125 77
200 125 77
200 125 77
200 125 77
200 125 77
200 125 77
200 125 77
200 125 77
200 125 77
200 125 77
104 131 117
103 128 126
101 124 136
100 120 146
100 116 153
101 111 160
102 108 163
104 106 163
107 103 163
108 102 159
111 100 155
112 99 151
113 98 147
112 98 144
112 97 141
111 96 140
109 96 140
109 94 141
108 93 143
109 90 145
111 87 147
113 85 149
117 81 151
121 78 152
125 75 153
130 73 152
133 70 153
136 69 153
137 68 153
137 69 152
135 70 153
133 72 152
128 75 152
125 77 152
121 81 150
117 84 148
114 88 146
111 92 143
110 95 140
110 97 138
110 100 135
111 101 135
112 102 134
112 103 137
113 103 140
112 104 144
200 125 77
109 106 155
107 106 160
104 109 162
103 110 164
101 113 163
101 117 158
101 119 152
101 123 143
103 127 133
105 130 123
108 134 112
110 136 104
111 138 97
112 139 95
112 140 94
110 139 98
109 138 105
106 136 113
103 134 123
200 125 77
99 128 145
97 125 154
96 123 161
96 121 164
97 119 165
99 118 163
101 117 159
104 116 153
107 117 145
109 117 137
111 117 130
112 117 125
113 115 122
113 115 120
113 113 120
113 111 122
113 109 125
114 105 130
116 102 134
118 98 139
120 94 144
123 90 148
126 86 151
129 83 152
130 81 153
132 79 153
134 77 153
200 125 77
133 77 150
130 78 149
127 79 149
124 80 148
121 81 148
118 82 149
115 83 149
113 83 150
113 83 150
114 83 150
116 81 151
119 79 151
123 77 151
127 75 151
131 73 151
134 73 150
137 71 150
139 70 151
140 70 150
139 71 151
137 71 151
134 74 151
131 75 151
127 78 149
123 80 149
120 83 148
116 85 147
114 88 145
112 90 144
112 90 144
112 91 143
113 90 144
116 89 144
117 88 146
120 87 147
122 85 149
125 84 151
126 83 152
128 82 154
128 81 155
127 82 155
126 83 155
124 85 153
122 87 151
120 89 149
118 92 145
115 94 143
200 125 77
112 98 137
111 99 135
110 100 135
110 100 135
111 99 136
112 98 138
114 97 140
116 95 143
117 93 147
118 91 150
120 89 153
121 88 155
122 87 157
121 86 158
121 87 157
120 88 155
119 89 153
118 91 150
115 93 146
114 94 144
112 96 141
110 98 138
110 99 136
109 98 137
109 98 137
109 98 138
110 96 140
113 94 142
114 91 146
117 89 148
119 87 151
122 84 154
124 83 155
126 81 156
126 81 156
126 80 156
125 81 155
124 81 154
121 83 152
119 84 150
116 86 148
113 87 147
111 88 147
110 89 146
108 89 147
200 125 77
200 125 77
200 125 77
200 125 77
99 126 138
98 122 148
98 118 156
98 115 161
99 112 164
101 109 165
103 107 163
106 105 160
108 104 154
109 103 149
110 103 144
111 102 140
110 101 138
110 101 136
109 99 137
109 97 138
109 95 140
110 93 142
111 90 145
114 86 148
117 82 150
121 79 151
126 76 152
130 73 152
133 71 153
136 69 153
137 68 153
137 68 153
135 69 153
133 71 152
128 74 152
124 77 151
120 80 150
116 83 149
113 87 147
112 90 144
110 93 142
110 95 140
111 96 138
112 97 138
113 99 138
114 99 140
114 100 143
114 101 146
113 101 152
111 102 156
200 125 77
107 105 162
105 108 162
103 111 160
103 114 156
103 118 150
103 123 140
105 126 131
106 130 120
109 133 110
110 136 103
111 138 97
112 139 95
111 140 95
110 139 100
108 137 107
106 135 117
103 133 127
100 131 137
98 128 148
97 125 156
95 123 162
95 122 165
97 120 165
99 119 162
102 119 156
104 118 150
107 118 142
109 118 134
111 118 127
112 118 122
113 118 118
113 117 117
113 114 119
114 112 121
114 109 125
115 106 130
116 102 135
117 98 140
121 94 145
124 90 148
126 86 151
129 83 153
131 81 152
133 79 153
134 78 151
133 77 151
132 78 150
200 125 77
126 80 148
123 81 148
120 82 148
117 82 149
115 83 149
114 83 150
114 83 150
115 82 150
117 81 150
121 79 150
124 78 150
129 75 150
133 73 150
136 72 150
138 71 150
140 70 150
139 70 151
139 71 151
137 72 151
134 75 150
130 78 149
126 80 149
122 83 147
119 86 146
116 87 145
114 90 143
113 91 142
112 92 142
113 92 141
114 92 141
116 91 143
118 90 144
121 89 146
123 87 149
125 86 151
126 85 153
126 84 155
125 85 155
125 85 156
124 87 154
122 88 153
120 91 150
118 93 147
116 96 142
114 98 139
113 100 136
112 102 133
200 125 77
110 104 131
111 103 131
111 103 132
112 102 135
113 100 139
114 98 143
115 96 147
116 94 152
117 93 155
118 92 157
118 91 159
118 91 159
118 92 157
117 93 155
116 95 151
115 96 147
113 98 144
112 100 140
111 101 136
110 103 133
110 104 131
109 103 132
109 103 132
110 102 134
110 100 137
112 98 140
114 95 145
116 93 148
118 90 152
119 89 154
121 87 156
121 86 158
122 85 158
122 85 157
121 85 156
120 87 153
118 88 151
116 90 148
200 125 77
112 92 144
110 93 142
109 93 142
108 94 142
108 93 143
110 91 144
200 125 77
200 125 77
200 125 77
200 125 77
95 121 158
95 118 164
96 115 166
98 113 166
100 111 163
103 109 159
105 109 153
107 108 147
109 108 141
109 107 137
109 106 134
109 105 132
109 103 132
108 102 134
109 98 137
109 96 140
112 92 143
114 89 146
117 85 149
122 80 151
126 76 153
130 74 153
134 71 153
136 69 153
137 69 152
136 69 153
134 70 153
132 71 153
128 74 152
124 76 152
120 79 151
116 82 150
113 85 148
111 87 147
110 90 145
110 92 143
111 93 141
113 94 141
114 95 141
115 95 143
116 96 145
115 96 149
115 97 153
114 99 156
112 101 159
110 102 161
200 125 77
106 108 159
105 113 154
105 116 147
105 120 138
106 124 129
108 128 119
110 132 109
110 135 102
112 137 97
112 138 96
111 138 97
110 138 102
107 137 110
105 135 120
102 132 131
99 130 141
97 128 150
95 126 159
95 124 164
95 122 166
96 121 165
98 121 160
101 120 155
104 120 147
107 121 138
109 121 131
111 121 124
112 121 118
114 119 116
114 118 115
114 116 117
114 113 120
115 109 125
115 106 130
116 102 136
118 98 141
121 94 145
124 90 149
127 86 151
130 83 153
132 81 153
133 80 152
134 78 152
134 78 150
132 78 150
129 79 149
200 125 77
200 125 77
120 82 148
117 83 148
115 83 149
114 84 149
115 82 150
116 82 150
119 80 150
122 79 150
126 77 150
131 74 150
134 74 149
137 72 150
139 71 150
140 71 150
140 71 151
139 72 150
136 74 150
133 76 150
129 79 149
125 82 148
122 85 146
119 87 145
116 89 143
114 92 141
113 93 140
113 94 139
115 93 139
116 93 140
117 93 141
119 92 143
121 90 146
122 89 149
123 88 151
124 88 154
125 87 156
124 88 156
122 89 156
121 90 155
119 93 152
118 94 149
117 97 144
114 100 140
113 103 135
112 104 132
112 106 128
111 107 127
111 107 127
200 125 77
111 107 130
112 105 133
113 103 138
113 101 143
114 100 147
115 98 152
114 97 156
114 96 159
115 96 160
115 96 159
114 97 157
114 98 154
113 100 150
113 102 145
111 103 140
111 105 135
110 107 131
110 108 128
110 109 126
109 108 127
109 108 128
110 107 130
111 104 134
111 103 138
112 101 143
113 98 148
114 96 152
115 93 156
116 92 158
117 91 159
117 91 159
118 90 158
117 92 155
116 92 152
115 93 149
114 95 145
112 96 142
110 98 139
110 98 137
109 98 137
108 99 137
109 97 138
109 96 140
111 93 143
114 91 145
200 125 77
200 125 77
200 125 77
200 125 77
94 118 167
96 116 166
97 115 163
100 114 157
103 113 150
200 125 77
107 112 137
108 111 133
108 110 130
108 110 127
109 107 128
108 106 130
109 102 133
110 98 138
112 95 141
115 91 145
118 87 148
122 83 150
126 79 152
129 75 153
133 73 153
135 71 153
136 70 153
135 70 153
134 71 152
131 71 153
127 73 153
123 76 152
119 78 152
115 81 151
112 84 150
111 85 149
110 88 147
110 89 146
112 90 144
114 90 144
115 92 143
116 92 145
118 92 147
119 92 150
118 94 153
117 95 156
114 97 159
113 99 160
110 103 159
108 106 157
200 125 77
107 114 145
107 119 136
108 123 127
109 127 118
110 130 109
111 133 102
112 136 98
112 137 97
111 137 100
109 137 105
107 136 113
104 134 123
101 133 133
98 131 144
96 128 154
95 126 160
94 124 165
94 123 166
96 122 164
98 122 159
101 123 152
104 122 144
107 122 136
110 122 128
112 122 121
113 122 116
114 121 113
114 120 113
114 118 115
115 114 119
115 111 124
116 107 130
117 102 137
119 98 142
121 94 146
124 90 150
127 87 152
130 84 153
132 81 153
134 79 152
134 79 151
133 79 150
131 79 148
129 80 147
126 81 147
122 82 147
120 83 147
200 125 77
115 83 149
115 83 149
116 83 149
118 82 149
121 79 150
124 79 149
128 77 149
132 75 149
136 73 149
138 72 149
141 71 150
141 71 150
140 72 150
138 73 150
136 75 150
132 78 149
128 80 148
124 83 147
121 86 145
118 89 143
115 92 141
115 93 139
114 95 138
114 96 137
115 96 137
117 95 138
118 95 140
120 93 143
121 92 146
122 91 149
123 90 152
123 90 154
123 90 156
122 90 157
121 92 156
119 94 153
118 96 151
116 99 146
115 102 141
114 104 136
113 107 131
113 108 127
112 110 124
112 111 123
112 111 123
111 111 124
112 110 128
200 125 77
112 107 137
112 105 143
112 103 149
112 102 154
112 100 158
111 101 160
111 101 160
112 101 159
111 102 157
111 103 152
111 105 147
111 107 141
110 109 136
111 110 130
110 112 126
110 113 122
110 114 121
110 114 121
110 112 124
110 111 127
110 110 131
110 107 138
110 105 143
111 103 148
111 100 154
112 99 157
112 97 160
113 96 160
113 96 160
113 97 157
113 97 155
113 99 150
112 100 146
111 101 142
111 103 137
110 103 134
109 104 132
109 104 131
108 104 132
108 102 134
109 101 135
110 99 139
113 96 143
115 93 147
117 90 151
200 125 77
200 125 77
200 125 77
200 125 77
96 119 161
98 118 155
101 117 148
103 117 140
105 117 133
107 116 128
108 116 124
109 114 123
109 111 124
108 110 126
109 106 130
110 102 135
111 98 139
114 93 144
117 89 148
120 85 151
125 81 152
128 78 154
131 75 154
133 73 153
134 71 154
134 71 153
132 71 153
129 73 152
125 74 153
121 76 153
118 79 152
114 81 152
112 83 151
110 85 150
110 86 149
111 86 148
113 87 146
115 88 146
117 88 146
119 88 147
120 88 149
121 89 151
121 89 154
120 91 157
118 93 158
116 96 159
114 99 158
111 103 155
109 108 150
109 111 143
200 125 77
109 121 125
110 125 117
111 129 109
112 131 103
112 134 100
112 135 99
111 135 102
110 135 108
106 134 117
103 133 126
101 131 137
98 130 147
95 128 156
94 127 162
93 125 166
93 124 166
96 124 162
98 123 158
101 124 150
104 125 140
107 125 132
110 125 124
112 125 117
113 124 113
114 123 110
115 121 111
115 119 113
115 115 118
115 112 124
116 108 130
118 103 137
119 99 142
122 95 147
124 91 151
127 87 153
130 84 153
132 82 153
133 80 152
133 80 150
132 80 149
130 81 147
128 81 147
125 82 147
121 83 147
119 83 147
117 83 148
116 84 148
200 125 77
117 82 149
119 81 149
123 79 149
126 78 149
130 76 149
134 74 149
137 73 149
140 71 149
141 71 149
141 72 149
140 72 150
138 74 150
134 77 149
131 79 148
128 82 147
124 85 145
121 88 143
118 91 141
117 93 138
115 95 137
115 96 136
115 97 135
116 97 136
117 97 137
119 96 140
200 125 77
121 94 146
122 93 150
122 92 153
122 92 155
120 93 157
120 94 156
119 95 156
118 97 153
117 100 149
116 103 143
114 105 138
113 108 132
113 111 127
113 112 123
113 114 119
112 115 119
112 115 119
112 115 121
112 113 126
112 112 131
111 110 137
200 125 77
110 108 149
109 106 155
109 105 159
108 104 162
108 104 162
108 105 160
108 106 156
108 108 151
109 110 145
109 112 138
110 114 131
110 116 125
110 117 120
110 118 117
110 119 116
110 119 116
110 117 120
109 116 124
109 114 130
109 112 136
109 109 144
108 107 150
108 105 155
108 103 159
109 102 161
109 101 162
109 102 160
109 102 158
110 103 153
110 104 148
110 106 142
110 107 137
109 108 132
109 110 128
109 110 126
108 110 126
109 109 126
109 108 128
109 106 132
111 104 136
111 101 141
112 98 146
114 95 151
116 92 154
118 90 157
200 125 77
200 125 77
200 125 77
200 125 77
99 122 145
102 122 136
105 122 128
106 121 123
107 120 119
108 118 118
108 117 119
109 113 122
109 110 127
110 106 132
111 102 138
113 97 143
115 93 148
119 88 152
123 84 154
127 80 154
129 78 155
131 75 154
132 74 154
131 74 153
130 74 152
127 75 152
124 76 152
120 78 152
116 79 153
113 80 153
111 82 152
110 83 152
110 84 151
111 84 150
114 85 148
116 84 148
200 125 77
121 84 149
123 84 150
124 84 152
124 86 154
123 88 156
121 89 158
119 92 158
116 96 156
114 100 153
112 104 148
110 109 142
110 114 133
110 118 126
200 125 77
112 126 110
113 129 104
112 132 102
112 133 102
111 133 106
109 133 112
107 132 120
103 131 130
100 130 140
97 129 150
95 128 158
93 127 164
93 126 166
94 125 166
95 126 161
98 126 155
101 126 146
104 126 138
108 127 128
110 127 120
113 127 113
114 126 109
114 125 108
115 123 109
115 121 112
115 117 118
116 113 124
116 110 130
117 105 137
120 100 143
122 95 148
124 92 151
127 89 153
130 86 153
132 84 152
133 82 151
133 81 150
132 81 148
130 82 147
128 82 146
125 83 146
122 84 145
119 84 146
117 84 147
116 84 148
117 83 148
118 83 148
200 125 77
124 79 149
128 77 149
133 75 148
136 74 148
139 72 149
141 72 149
142 72 149
141 72 150
140 73 150
137 75 149
134 78 149
130 81 147
127 84 146
123 87 144
120 90 142
118 92 139
117 95 136
116 97 135
116 98 134
116 98 134
117 98 135
118 98 137
119 98 139
120 97 142
121 96 146
122 95 150
121 95 154
120 95 156
119 96 157
119 97 157
118 99 154
116 101 151
115 103 147
114 106 141
114 109 134
114 112 128
113 114 123
113 116 118
113 118 115
113 118 115
113 119 115
112 118 119
112 116 125
111 115 130
110 113 138
108 113 144
108 111 151
200 125 77
106 108 161
106 108 163
105 109 162
105 110 159
106 111 154
106 113 148
107 115 141
108 117 133
109 119 126
109 121 119
110 123 114
111 123 111
110 124 111
110 122 113
110 121 117
109 120 122
108 118 129
107 116 136
106 113 145
105 111 151
105 110 157
104 108 162
104 107 163
104 107 163
105 107 161
105 108 156
106 109 151
107 111 144
108 112 138
108 114 131
108 115 126
108 115 123
108 116 120
109 115 120
109 115 120
109 113 124
108 111 129
109 108 135
110 106 140
110 103 146
111 100 151
112 98 156
114 95 159
114 95 160
115 94 160
200 125 77
200 125 77
200 125 77
200 125 77
105 125 124
106 125 118
107 125 114
108 122 114
108 121 115
108 117 119
109 114 123
109 110 130
110 105 137
111 101 142
115 96 148
118 91 152
121 87 154
123 83 156
127 80 156
129 78 155
130 77 154
129 76 154
128 76 152
125 76 152
122 77 152
119 78 152
115 80 152
112 82 152
111 81 153
110 83 152
110 83 152
112 83 151
115 82 150
117 82 150
120 82 149
123 81 150
126 80 151
127 81 153
127 82 154
127 83 155
124 86 156
122 89 156
119 93 155
117 97 151
114 102 147
112 107 140
111 111 134
111 116 126
111 120 118
112 123 112
200 125 77
113 128 105
112 130 106
111 130 110
109 131 116
106 131 124
103 130 134
100 128 144
97 128 153
94 127 160
93 126 165
93 126 166
94 126 165
96 127 159
98 127 152
102 128 143
105 129 134
108 130 124
111 130 116
113 129 110
115 129 105
116 128 104
115 125 107
116 122 111
115 119 116
115 115 124
116 111 131
117 106 138
118 102 144
121 98 148
124 93 152
126 90 153
129 87 154
131 85 153
132 83 151
132 83 149
131 82 148
129 83 146
127 83 145
124 84 145
122 85 144
119 85 145
118 85 146
117 84 147
118 83 148
120 82 148
123 80 148
126 79 148
200 125 77
135 74 148
138 73 148
141 72 148
143 71 149
143 71 149
142 72 149
141 74 149
137 76 148
134 79 148
130 82 146
127 85 145
123 88 143
120 92 139
118 94 137
117 96 135
116 99 133
117 99 132
117 100 132
118 99 134
119 100 136
120 99 139
120 98 143
121 97 148
120 97 151
120 97 154
119 97 156
118 98 157
117 100 156
116 102 154
115 104 149
115 107 143
113 111 137
113 113 131
113 116 124
114 118 118
114 120 113
114 121 112
114 122 111
113 121 114
113 121 117
112 119 124
111 118 130
109 116 139
107 115 147
106 114 153
104 113 159
104 112 162
200 125 77
102 113 162
103 114 158
103 116 153
105 117 145
200 125 77
107 122 129
109 124 121
110 125 114
110 127 109
111 127 107
111 127 107
110 127 109
109 126 114
108 124 121
107 122 128
105 119 138
104 117 146
102 116 153
101 114 159
101 112 163
101 112 165
101 112 163
101 112 161
103 113 155
104 114 149
105 116 141
106 118 133
107 119 126
108 120 121
109 121 116
109 121 114
109 121 114
109 120 116
109 119 120
108 116 126
107 114 133
107 111 140
107 109 146
107 106 153
108 103 158
108 101 161
109 100 162
110 100 161
111 99 159
111 100 156
200 125 77
200 125 77
200 125 77
200 125 77
108 129 109
108 127 109
108 125 111
108 122 115
108 118 121
108 113 129
109 109 135
110 104 143
112 99 149
115 95 153
118 91 156
121 87 158
123 84 157
126 82 156
126 80 155
126 79 154
125 79 152
123 80 151
120 80 151
117 81 151
114 82 151
112 82 152
110 83 152
110 83 152
111 82 152
113 81 152
116 81 151
119 79 151
123 79 150
126 78 151
129 78 151
130 77 153
130 78 154
129 80 154
127 82 155
125 86 154
122 89 154
118 94 150
116 98 146
114 103 140
113 108 133
112 112 127
112 116 120
112 120 114
112 124 110
112 125 109
200 125 77
111 128 113
108 128 120
107 128 128
103 128 137
100 127 147
97 126 155
95 126 162
94 126 165
93 126 166
94 126 164
95 127 158
98 129 150
200 125 77
105 130 130
109 131 120
111 132 112
114 132 105
116 131 102
116 130 102
116 128 104
116 125 109
115 121 116
115 117 124
116 112 132
117 108 139
118 103 146
121 99 150
123 94 153
125 92 154
128 89 153
129 87 153
131 85 150
131 85 148
130 85 146
128 85 145
126 85 144
124 85 143
121 86 143
119 85 145
118 85 146
118 85 146
119 83 147
121 82 147
125 79 148
129 77 148
133 75 148
137 73 148
200 125 77
142 71 148
144 71 148
144 72 148
143 73 148
141 75 148
137 77 147
134 80 147
130 83 145
126 86 144
123 90 140
121 93 138
118 95 136
118 98 133
117 99 132
118 101 130
118 101 131
119 100 133
121 100 135
121 99 140
121 99 143
121 99 148
120 98 152
119 98 156
118 100 157
117 101 157
116 103 155
115 105 152
114 108 147
114 111 140
114 114 133
114 117 126
114 119 120
114 121 114
114 123 110
115 124 108
114 124 109
114 124 111
112 123 117
111 122 123
110 120 132
108 119 140
105 118 148
103 116 155
103 116 160
101 115 163
101 115 164
101 116 162
200 125 77
103 120 150
104 122 142
106 124 133
107 126 124
109 128 116
111 129 109
111 131 105
111 131 103
112 131 103
110 130 107
109 129 113
107 127 120
105 125 129
103 122 139
101 120 148
99 119 156
98 118 161
98 117 164
97 116 166
98 116 164
99 117 159
100 118 154
102 120 145
104 122 136
105 123 129
107 125 120
108 125 115
108 127 110
109 127 108
109 126 109
108 125 113
108 123 117
107 121 124
106 119 132
105 116 140
104 113 148
103 111 154
104 109 159
104 107 163
104 106 164
105 106 162
106 106 159
106 106 155
108 107 149
108 108 143
200 125 77
200 125 77
200 125 77
200 125 77
109 128 107
108 126 112
107 122 120
107 118 127
107 113 136
108 109 143
109 104 150
112 99 155
114 96 157
117 92 158
120 88 159
121 87 157
122 85 155
123 84 153
122 84 151
120 84 149
118 84 149
115 84 149
113 84 149
111 84 150
110 84 151
110 83 152
111 82 152
113 81 152
117 79 152
121 77 152
125 76 151
128 75 151
131 74 152
132 75 152
133 76 153
132 76 154
130 79 154
127 82 154
124 85 153
120 90 150
118 95 145
116 100 140
114 105 134
112 109 128
112 113 122
113 116 117
113 119 114
113 122 112
112 123 114
111 124 118
200 125 77
107 125 131
103 125 140
100 124 150
98 124 157
96 124 163
94 125 166
94 126 165
95 126 162
97 128 155
100 130 146
103 131 137
106 133 125
109 134 116
113 134 107
114 135 101
115 134 99
116 132 100
116 129 103
116 126 109
115 123 116
114 119 124
115 114 133
116 110 140
117 105 147
119 101 151
122 97 154
124 93 155
127 91 154
129 88 153
129 88 150
129 87 147
129 87 145
128 87 143
126 87 142
123 87 142
121 87 142
119 87 143
119 85 145
119 84 146
121 83 146
123 81 147
127 79 147
131 77 147
135 75 147
139 73 147
142 72 147
144 71 147
200 125 77
145 71 148
143 73 148
141 75 148
137 77 147
133 80 146
129 84 144
126 87 142
123 91 139
121 94 137
120 97 133
118 99 132
118 101 130
119 101 130
120 102 130
120 101 133
121 101 135
121 100 140
121 100 144
121 100 149
120 100 152
119 100 156
117 101 157
117 102 157
115 105 154
115 108 150
114 111 144
114 114 137
114 117 129
115 120 121
115 123 114
116 124 110
116 126 106
116 127 105
115 127 107
114 127 110
112 126 116
111 124 124
109 123 132
106 121 142
104 120 150
102 119 156
100 118 162
100 118 164
99 119 163
100 120 160
101 121 154
102 123 147
200 125 77
106 127 128
108 129 119
110 131 111
111 133 105
112 134 100
112 134 100
112 133 101
110 133 106
108 131 113
107 129 121
104 127 131
102 125 141
99 124 150
97 122 157
95 121 163
95 119 166
94 120 166
95 120 163
97 121 158
98 122 151
100 124 142
103 126 132
105 128 123
107 129 115
108 131 109
109 131 105
109 131 104
109 131 105
108 129 109
107 128 115
105 125 124
200 125 77
102 120 141
101 117 150
100 115 157
100 113 162
99 113 164
100 111 165
101 111 163
101 111 159
103 113 153
105 113 146
105 115 139
106 116 132
108 116 126
200 125 77
200 125 77
200 125 77
200 125 77
106 125 118
106 121 127
105 117 135
105 112 144
106 108 151
109 103 156
111 99 159
114 95 161
116 93 159
118 91 158
119 89 156
120 88 152
119 87 150
118 87 148
116 87 147
114 87 147
112 87 147
110 87 148
110 85 150
110 84 151
112 83 151
114 81 152
118 79 152
122 77 152
126 75 152
130 74 151
133 73 151
135 72 152
135 73 152
134 74 153
132 76 154
129 80 152
126 83 151
122 87 149
119 92 145
116 97 141
115 100 136
113 105 131
113 109 125
113 112 121
113 115 118
113 118 117
113 119 118
111 121 122
110 121 128
107 122 135
200 125 77
101 122 152
98 122 159
97 123 163
95 124 165
95 125 164
96 126 160
98 129 152
101 130 143
104 132 133
107 134 121
110 135 112
113 136 104
115 136 99
116 136 96
116 135 97
117 132 101
116 129 107
114 125 116
114 121 124
114 116 134
115 112 141
116 107 148
118 102 153
120 99 155
123 96 155
125 94 154
128 91 152
128 91 148
129 89 146
128 89 143
127 89 141
125 89 140
123 89 140
121 88 141
120 88 142
119 87 143
120 85 145
122 84 145
125 81 146
200 125 77
133 76 147
137 74 147
141 72 147
144 72 146
145 71 147
147 71 146
146 71 148
200 125 77
141 76 146
138 78 146
133 81 145
130 84 144
126 88 141
123 91 138
121 95 135
120 98 132
119 99 131
120 101 129
120 102 128
121 102 130
121 102 132
122 102 136
122 101 140
122 101 145
121 101 150
120 101 153
118 102 156
117 104 157
116 105 156
115 107 153
114 110 148
114 114 141
114 117 133
114 120 125
116 123 117
116 125 111
117 127 106
117 128 103
117 129 102
116 129 105
114 129 110
112 128 116
110 126 125
108 125 134
105 123 144
102 122 152
101 121 158
99 121 163
99 120 164
98 121 163
99 123 158
100 124 152
102 126 143
105 128 133
107 130 123
200 125 77
111 134 106
113 135 100
113 136 97
113 136 97
112 136 100
110 135 105
108 133 113
106 131 123
102 130 133
99 128 143
97 126 152
95 124 159
94 123 164
93 122 167
93 122 166
94 123 162
96 125 155
98 126 147
101 127 138
103 130 128
105 132 118
108 133 110
109 134 104
110 135 100
110 135 100
110 133 103
108 133 107
106 131 114
104 128 124
102 126 133
100 123 143
98 121 152
97 119 159
96 118 164
96 116 167
96 116 166
97 116 163
99 116 158
100 118 150
102 119 143
104 120 135
105 122 126
107 123 120
108 123 115
108 123 113
200 125 77
200 125 77
200 125 77
200 125 77
103 121 137
103 116 145
103 112 153
104 108 158
107 104 161
109 100 162
111 98 161
114 96 158
116 94 155
116 93 152
117 93 148
115 92 146
115 92 144
112 92 143
112 90 144
110 90 145
110 88 147
110 86 149
112 84 150
115 81 151
119 78 152
123 76 152
127 74 152
131 72 152
135 70 152
136 70 152
137 70 152
136 71 153
134 74 152
132 77 151
128 79 151
124 84 149
120 88 146
117 93 142
115 97 138
113 101 133
113 105 128
112 109 125
113 111 122
113 113 122
113 115 123
112 116 127
111 117 132
109 117 139
106 118 146
104 118 154
200 125 77
99 120 164
97 122 165
97 124 162
98 126 157
99 128 150
102 131 140
105 133 129
108 135 118
111 137 108
113 138 100
115 138 95
117 137 94
117 136 95
116 134 100
115 130 108
114 127 116
113 122 126
113 118 135
113 114 143
114 109 150
116 106 153
119 102 156
122 98 156
123 97 154
125 95 151
127 93 148
127 93 144
126 92 142
125 92 140
125 91 138
123 91 138
121 90 139
120 89 141
120 88 142
121 86 143
124 84 144
127 81 145
131 78 146
135 76 146
139 74 146
143 72 146
146 71 146
148 70 146
148 70 146
146 72 146
145 73 146
141 76 146
200 125 77
134 81 144
130 85 142
127 88 140
124 92 137
122 95 134
121 97 132
121 99 130
121 101 128
121 102 128
122 103 129
123 102 133
123 102 137
123 102 141
122 102 145
121 102 151
119 103 154
118 103 156
117 105 156
116 107 155
115 109 151
115 113 145
115 116 138
115 119 130
115 122 121
117 125 113
118 127 107
118 129 102
118 131 100
117 131 101
117 131 104
114 131 109
113 129 118
110 128 126
107 126 136
104 125 145
101 124 154
100 122 160
99 122 164
98 123 164
97 124 162
99 125 156
101 126 149
103 128 140
105 131 129
108 133 119
110 136 109
112 137 101
200 125 77
114 139 94
114 139 94
112 137 99
111 136 106
108 134 115
105 132 125
101 131 135
98 129 146
96 127 155
93 126 162
93 125 166
92 125 167
92 125 165
94 125 161
96 127 153
98 129 144
101 131 133
103 133 123
106 135 113
108 136 106
110 137 100
110 138 97
110 138 97
110 137 100
108 135 107
105 133 115
103 131 124
100 128 136
98 126 145
95 125 154
94 122 161
93 121 166
92 120 168
94 120 166
95 120 162
96 122 156
98 123 148
100 125 138
103 126 129
105 127 121
107 128 114
108 129 109
109 128 107
108 129 107
108 127 110
200 125 77
200 125 77
200 125 77
200 125 77
100 115 156
101 112 160
103 109 163
105 105 163
107 103 162
109 102 158
112 100 154
113 99 150
113 98 146
113 98 142
112 97 140
111 96 139
111 94 140
110 93 142
110 91 144
111 88 146
113 85 148
115 83 150
119 80 151
124 77 151
129 73 152
132 72 152
136 70 152
138 69 152
139 69 151
137 70 152
135 72 151
133 74 151
128 78 150
125 81 150
121 85 147
117 90 144
115 93 140
113 98 136
113 101 132
112 104 130
113 106 127
114 108 127
114 109 129
114 110 132
112 111 137
110 112 143
108 113 149
106 114 155
103 115 161
101 118 163
200 125 77
99 122 160
99 124 155
101 128 147
103 131 137
107 133 125
110 135 115
112 138 105
115 138 98
116 139 93
117 138 93
117 138 94
115 135 100
114 133 108
113 129 117
112 125 127
112 120 137
112 116 145
112 113 151
114 108 155
117 104 157
119 102 156
121 100 154
123 98 151
125 96 147
126 96 142
126 95 140
125 95 137
124 94 136
122 93 136
121 92 137
121 90 139
121 89 140
123 86 142
125 84 143
129 81 144
133 78 145
137 76 145
141 73 146
145 71 146
147 70 146
149 70 145
149 70 146
148 71 146
145 73 145
142 76 145
138 78 145
134 82 143
200 125 77
127 89 138
124 92 136
123 95 133
122 98 131
122 100 129
122 101 128
123 102 128
123 103 130
124 102 134
124 102 138
124 102 142
123 102 147
121 103 151
120 103 155
119 104 156
117 107 155
116 109 153
115 112 148
200 125 77
116 118 134
116 121 126
117 124 117
118 128 109
119 129 103
119 131 99
119 132 98
119 133 99
117 132 104
115 131 110
112 131 118
109 129 129
107 127 139
103 126 148
101 125 156
99 124 161
98 124 163
97 125 163
98 125 160
99 127 154
102 128 145
104 131 135
107 133 125
109 135 115
112 137 105
113 138 98
114 139 94
115 139 93
200 125 77
113 138 99
110 137 107
107 135 116
104 133 127
101 131 138
97 130 148
95 128 156
93 126 163
92 125 167
91 126 167
92 126 164
94 127 158
96 129 149
99 131 139
102 133 129
105 134 119
107 136 109
109 138 102
111 139 97
111 139 95
110 139 96
110 138 100
107 136 108
104 135 117
101 133 127
98 131 137
96 129 147
93 126 157
92 125 163
90 124 167
91 123 168
92 123 166
92 125 160
95 125 153
98 127 144
100 128 135
103 130 124
105 131 116
107 133 108
108 133 104
109 133 102
109 132 103
108 132 106
107 129 113
105 127 121
200 125 77
200 125 77
200 125 77
200 125 77
99 113 165
101 110 164
104 108 162
106 106 158
109 105 152
110 104 147
111 103 143
112 102 139
111 102 136
110 101 135
110 99 136
109 97 138
110 95 140
111 91 143
113 88 146
116 85 148
121 81 150
125 78 151
129 75 151
132 72 152
136 70 152
138 69 152
139 68 152
138 69 152
136 71 151
200 125 77
129 76 151
124 80 149
120 83 148
118 86 146
115 90 143
113 94 139
112 97 137
113 99 134
113 102 132
115 103 131
115 105 133
115 106 136
114 107 140
113 107 145
111 109 151
108 110 156
107 112 160
104 113 163
102 117 162
102 119 159
200 125 77
103 126 144
105 129 134
107 133 122
111 136 112
114 137 103
115 140 95
117 140 91
117 140 91
116 139 94
116 136 100
114 134 109
112 131 118
110 127 129
109 123 139
109 119 147
110 115 153
112 111 157
114 108 158
116 105 157
119 103 154
122 102 149
124 100 145
125 99 140
125 98 137
124 98 134
124 97 133
122 96 133
122 95 134
121 93 136
122 91 138
124 88 140
126 84 143
130 81 144
134 78 145
139 75 145
143 73 145
147 71 145
149 70 145
150 70 145
150 70 145
148 71 145
146 73 145
142 76 145
138 79 144
134 83 142
130 86 141
128 89 138
200 125 77
124 95 133
123 97 131
123 99 129
124 100 128
124 101 129
126 101 131
126 101 134
126 101 138
125 101 143
124 102 148
122 103 152
121 104 154
119 106 155
118 107 155
117 110 151
116 113 147
116 117 139
117 120 131
117 123 122
118 127 112
119 130 105
120 132 99
121 133 96
120 134 96
120 134 98
118 134 103
115 132 111
113 131 120
110 129 131
106 128 141
103 127 150
100 126 157
99 125 162
98 125 164
98 126 162
99 127 157
100 129 150
103 130 141
105 133 131
109 135 120
111 137 110
113 138 102
115 139 96
116 140 92
116 140 92
115 139 95
113 138 100
200 125 77
107 135 119
104 133 129
101 130 141
97 129 151
95 127 159
93 126 164
92 126 166
93 126 165
93 127 161
95 129 155
98 130 146
101 131 136
103 134 125
106 136 115
109 137 106
111 139 99
111 140 95
111 140 94
111 140 96
109 139 101
107 137 109
104 135 119
101 133 130
97 131 141
95 129 151
92 127 159
90 126 165
89 126 168
90 125 168
90 126 165
92 127 158
95 128 150
98 129 141
100 132 130
103 134 119
106 134 111
108 136 104
109 137 99
109 136 99
108 136 100
107 134 105
106 133 112
103 130 121
101 128 130
99 125 141
200 125 77
200 125 77
200 125 77
200 125 77
100 113 162
103 111 157
105 111 150
108 110 144
108 109 139
110 109 134
110 108 131
109 106 130
110 104 131
109 102 133
110 99 136
111 96 139
113 91 143
117 87 146
120 83 149
124 79 151
129 76 151
132 74 152
136 70 153
137 70 152
139 68 152
138 69 152
135 70 152
132 73 151
129 74 151
124 77 151
120 81 149
116 84 148
115 87 145
113 90 143
112 93 141
113 95 138
114 96 137
115 98 136
116 99 137
116 100 140
117 101 143
116 102 148
114 103 153
112 105 157
110 107 160
108 109 161
106 113 160
105 117 156
104 120 150
106 124 141
200 125 77
109 132 120
112 134 110
114 138 100
116 139 95
117 140 91
117 140 91
116 139 95
115 138 101
113 135 110
111 132 120
109 129 131
108 125 141
108 121 149
108 117 155
109 114 158
112 111 159
114 109 157
117 107 153
119 106 147
122 105 142
123 104 137
123 103 134
124 101 131
123 101 129
122 99 130
122 97 132
122 95 134
123 92 136
125 89 139
128 85 141
132 82 142
136 79 143
140 76 144
145 73 144
148 71 145
150 70 145
151 69 145
151 70 144
150 71 144
146 73 144
143 76 144
138 79 143
134 82 142
131 86 140
128 89 137
126 92 135
124 95 133
200 125 77
125 98 129
126 99 129
127 101 129
127 101 131
127 101 135
127 101 139
126 101 144
125 102 148
123 103 152
121 104 154
120 106 155
119 109 153
117 112 149
117 115 143
117 119 135
118 122 127
118 125 118
120 129 108
121 131 101
122 133 96
122 134 95
121 135 95
121 135 98
118 135 104
115 133 113
112 132 122
109 130 133
106 128 143
103 127 152
101 127 158
99 126 162
98 126 163
99 127 160
101 128 155
102 130 147
104 132 137
108 134 126
111 136 116
113 137 107
116 138 99
116 140 93
117 140 91
117 140 91
115 140 95
113 138 103
200 125 77
107 134 122
200 125 77
101 130 143
98 128 153
96 126 160
94 126 164
93 126 166
94 126 164
95 127 159
97 129 151
99 130 143
102 132 132
105 134 122
108 136 112
110 138 103
112 139 97
112 140 94
112 140 94
111 139 97
109 138 103
106 137 111
103 135 122
100 133 132
97 131 143
94 128 154
92 127 161
90 126 166
89 126 168
90 126 167
91 127 163
92 128 156
95 130 147
98 132 136
101 134 125
104 136 115
107 137 107
108 138 100
110 139 96
109 139 96
108 138 99
107 137 104
105 135 112
103 132 122
100 130 132
97 127 143
94 126 152
92 123 161
200 125 77
200 125 77
200 125 77
200 125 77
102 116 148
105 116 140
107 115 134
108 115 129
109 113 126
110 111 125
109 109 126
109 107 128
109 104 132
111 99 136
113 96 140
116 91 145
119 87 148
123 83 150
127 79 152
131 75 153
134 73 152
136 71 153
137 70 152
137 70 151
134 71 152
131 72 152
127 74 152
123 77 151
120 80 150
116 83 149
114 85 148
112 88 146
112 90 144
113 91 142
114 92 141
116 94 140
118 95 140
119 94 143
119 95 146
119 96 150
117 99 153
116 100 156
113 103 159
111 106 159
109 109 158
108 113 154
107 117 148
108 121 139
109 125 129
111 129 119
200 125 77
115 136 100
117 138 94
117 139 92
117 140 92
116 139 96
200 125 77
112 135 113
110 133 123
107 130 133
105 126 144
105 123 152
106 120 157
106 117 160
109 115 159
111 113 156
114 111 152
118 109 146
120 109 140
121 108 134
122 107 130
123 106 127
123 104 126
123 102 126
122 101 128
123 97 131
124 94 134
126 91 136
129 87 139
133 83 142
137 79 143
141 76 144
146 73 144
149 71 145
152 70 144
152 70 144
152 70 144
150 71 144
147 73 143
143 76 143
139 79 142
135 82 142
131 86 139
128 88 138
126 92 135
125 94 133
125 96 131
126 98 129
200 125 77
128 100 130
129 100 132
129 100 136
129 101 139
127 101 144
126 102 148
125 103 152
123 104 154
121 107 154
120 109 151
119 113 146
118 117 140
119 120 132
120 124 122
121 127 114
122 130 105
122 132 99
124 134 94
123 135 93
123 136 94
121 136 98
119 134 106
116 134 114
113 132 125
109 130 136
106 129 145
103 128 153
101 127 159
100 126 162
100 126 162
101 127 158
102 129 152
105 130 143
108 132 133
110 134 123
113 136 112
115 138 103
117 139 96
118 139 92
118 140 91
118 139 92
116 138 98
114 136 105
111 135 114
108 133 125
105 130 136
101 128 146
200 125 77
97 126 160
96 124 165
96 124 165
97 125 162
97 126 156
100 128 148
102 129 139
105 131 129
107 133 119
109 135 109
111 137 102
113 138 97
113 138 95
112 138 96
112 137 100
109 136 106
106 135 115
104 133 125
100 131 136
98 129 146
95 127 155
92 126 162
91 125 166
90 125 168
91 126 166
92 127 160
94 128 153
97 130 143
100 132 133
102 135 122
106 136 112
107 138 104
109 139 98
110 140 95
110 140 95
108 139 99
106 138 105
104 136 114
101 134 124
98 132 135
95 130 145
93 127 156
90 126 162
89 125 167
90 123 169
200 125 77
200 125 77
200 125 77
200 125 77
106 120 129
107 119 124
108 119 120
109 117 119
109 114 121
109 112 123
110 108 128
111 104 133
112 99 139
115 95 143
118 90 148
121 86 150
125 81 153
129 78 154
132 76 153
134 74 153
135 72 153
134 72 152
132 72 152
130 74 151
126 75 152
122 77 152
118 80 151
115 81 151
113 83 150
112 85 149
112 87 147
114 88 145
115 88 145
117 89 143
119 89 144
122 90 145
122 91 147
123 92 150
122 93 153
120 95 156
118 98 157
115 101 158
113 104 156
111 109 152
110 113 146
111 118 137
112 123 127
113 127 118
114 131 108
116 134 100
200 125 77
117 138 93
117 139 94
116 138 98
114 138 105
111 136 115
108 134 126
106 130 137
104 127 147
103 125 154
104 122 159
104 120 161
106 119 159
109 116 156
113 115 150
116 114 144
118 114 136
120 113 130
122 111 126
122 110 123
123 108 121
123 106 122
123 104 124
124 101 127
125 97 131
127 93 135
130 89 138
134 84 141
138 81 142
142 77 144
147 74 144
150 72 144
152 70 144
153 70 143
152 70 144
150 72 143
147 73 143
144 76 142
139 79 142
135 82 141
131 85 140
129 88 137
127 90 136
126 93 134
127 95 131
127 97 130
129 97 130
130 98 131
200 125 77
131 99 137
130 100 140
130 100 145
128 101 149
126 103 151
124 105 153
122 107 152
121 110 149
120 114 144
120 118 136
120 121 129
121 125 119
122 128 110
124 131 101
124 134 95
125 135 92
125 136 91
124 137 93
122 136 99
119 135 107
116 133 117
113 132 127
110 130 137
107 129 147
104 127 155
102 127 160
102 126 161
102 127 160
103 128 155
105 129 148
107 130 140
110 132 129
112 135 118
115 136 109
117 138 100
119 139 94
120 139 91
120 139 91
118 138 94
117 137 100
114 135 108
111 133 118
108 131 128
106 128 139
103 126 148
101 125 156
100 123 161
200 125 77
99 123 163
99 123 160
101 124 154
103 126 145
105 128 136
107 130 125
110 132 116
111 133 108
113 135 102
114 135 98
114 136 97
113 136 98
112 135 103
110 133 110
107 132 119
104 130 129
101 128 140
99 126 149
96 124 158
95 123 163
93 123 167
92 124 166
93 125 163
95 126 157
200 125 77
99 130 140
102 132 129
104 134 119
107 136 110
109 137 102
110 138 97
110 140 95
109 140 96
108 139 100
107 137 107
103 136 117
100 134 127
97 132 138
94 130 148
91 128 157
89 126 165
89 125 168
88 125 169
89 126 166
91 127 160
200 125 77
200 125 77
200 125 77
200 125 77
108 124 114
109 122 114
109 120 115
109 117 119
110 113 124
110 109 130
111 105 136
113 100 142
115 95 148
119 90 152
123 86 153
126 83 154
129 79 155
131 77 154
132 75 153
132 75 152
130 75 152
128 75 151
125 76 151
121 78 151
117 79 152
114 82 151
113 82 151
112 84 150
112 85 149
114 85 148
117 84 147
120 84 147
122 84 147
124 84 148
126 85 149
126 86 151
126 88 153
125 90 155
122 93 156
120 96 156
117 100 154
115 104 150
114 109 144
113 114 136
113 119 128
114 123 118
115 128 109
116 131 102
117 134 97
117 136 95
200 125 77
116 137 101
113 136 109
110 135 118
108 133 129
105 131 140
103 129 149
101 126 156
101 124 161
102 123 162
104 122 159
108 120 155
110 120 148
114 118 141
117 118 133
119 117 126
122 117 120
123 115 117
124 113 116
124 111 117
124 108 120
124 104 124
125 100 128
128 95 133
131 91 137
135 86 140
139 82 142
143 78 144
147 76 144
151 72 144
153 71 144
153 71 143
153 70 143
200 125 77
147 73 143
143 76 142
139 78 142
135 81 141
132 85 139
129 87 138
128 90 136
127 92 134
128 94 132
129 95 131
131 95 131
132 96 132
133 96 134
133 97 137
200 125 77
132 99 145
130 100 149
129 102 151
126 104 152
124 107 151
123 111 146
122 114 141
122 118 133
122 122 125
123 126 115
124 130 106
125 132 99
126 134 93
126 136 91
126 136 91
125 137 94
123 136 100
120 135 109
117 134 118
114 132 129
110 130 140
108 128 149
105 127 156
103 127 160
103 127 160
104 127 158
104 128 153
107 129 145
109 131 135
113 132 125
115 135 114
117 136 106
120 137 98
121 137 93
121 138 91
121 137 92
119 137 96
117 135 103
115 133 111
113 130 121
110 128 131
108 125 141
106 124 149
103 122 157
103 121 160
102 120 162
102 120 161
200 125 77
105 122 150
107 124 142
108 126 132
110 127 124
112 129 115
113 131 107
115 132 102
115 133 99
115 133 99
114 133 101
113 131 108
111 129 115
108 128 124
105 126 134
103 125 142
100 123 151
98 122 158
97 121 163
96 121 165
96 121 165
96 122 161
97 123 155
100 126 146
101 128 137
104 130 127
106 132 117
108 134 109
110 136 101
111 137 97
111 137 97
110 137 99
108 136 104
106 136 111
104 134 120
100 132 131
96 130 142
94 128 152
91 127 160
89 126 166
88 126 168
88 126 168
90 127 164
91 127 159
94 129 150
96 131 140
200 125 77
200 125 77
200 125 77
200 125 77
109 125 110
109 122 114
109 118 121
109 114 127
109 109 135
111 104 142
114 99 148
117 95 152
120 90 155
123 86 156
125 84 156
127 81 156
129 79 154
128 79 152
127 78 151
125 79 150
122 79 150
119 80 150
116 81 151
114 82 151
112 83 151
112 83 151
113 82 151
115 82 150
118 82 149
121 81 149
124 81 148
127 81 149
129 81 150
130 81 151
130 83 152
129 85 154
126 87 155
124 91 154
121 95 152
118 100 148
117 104 143
116 109 136
115 114 128
115 120 119
116 124 111
116 127 105
117 130 101
117 132 100
117 134 101
115 134 105
200 125 77
110 132 123
107 131 133
105 130 143
102 128 152
100 127 158
100 126 162
101 124 162
103 124 159
106 124 153
109 123 146
113 123 138
116 123 129
120 122 121
121 121 116
122 120 112
123 118 111
124 115 113
124 112 116
125 108 120
126 103 126
128 99 131
130 95 135
135 89 139
139 85 141
143 80 144
147 77 144
150 75 143
152 72 144
153 72 143
152 71 143
150 73 142
147 74 142
143 76 142
139 78 142
135 81 141
132 84 140
130 86 139
129 88 137
129 90 135
130 92 133
131 93 132
132 93 133
134 94 133
135 94 136
136 95 138
135 96 141
134 97 145
200 125 77
130 101 150
129 103 150
126 107 148
124 111 144
124 114 138
124 118 130
125 122 121
126 126 112
126 130 103
127 133 96
129 134 91
128 136 90
128 136 91
126 136 95
123 136 101
121 135 110
118 133 121
114 131 132
110 130 142
108 128 150
106 127 156
105 127 159
105 127 159
106 127 156
107 128 149
110 129 142
113 131 131
115 132 121
118 134 111
120 135 103
122 136 97
123 137 92
123 136 92
122 135 94
120 135 98
119 132 106
117 130 115
114 128 124
112 125 134
110 122 144
108 121 151
107 119 157
106 118 160
106 117 160
107 118 158
107 118 154
109 120 147
200 125 77
111 123 130
113 125 121
115 126 114
116 128 108
116 129 104
116 130 102
116 129 103
114 128 107
114 127 112
112 125 119
110 123 128
107 122 137
105 120 146
103 118 153
102 117 159
101 116 163
100 117 164
100 118 162
100 119 158
101 120 152
103 122 144
105 125 134
107 127 125
108 130 116
110 132 108
111 133 103
111 134 100
111 134 100
110 135 102
108 134 108
107 132 116
103 131 124
100 129 135
97 127 145
95 126 154
92 125 161
91 124 166
90 124 169
90 125 167
90 126 163
92 128 156
95 129 147
98 131 136
100 134 126
103 136 115
200 125 77
200 125 77
200 125 77
200 125 77
108 122 118
107 119 126
107 114 135
109 109 142
110 104 149
112 100 154
115 95 157
118 91 158
121 89 157
123 86 156
125 85 154
125 83 152
124 83 150
122 83 149
120 83 149
117 84 148
115 83 149
113 83 150
112 83 151
112 83 151
113 82 151
115 81 151
119 79 151
123 78 150
126 77 150
129 77 149
132 76 150
134 76 151
134 77 152
133 80 153
131 83 153
127 86 153
124 90 151
122 94 148
119 100 142
117 105 136
116 110 129
116 114 122
116 120 114
117 123 108
117 126 105
117 128 104
116 130 106
115 130 111
113 131 117
110 130 127
200 125 77
104 128 146
101 128 154
100 127 159
99 127 162
101 126 161
102 126 158
105 126 152
109 126 143
112 127 133
115 127 124
119 127 116
121 126 111
123 125 106
123 123 106
124 120 108
125 116 111
125 112 117
126 108 123
128 103 129
130 98 134
134 92 139
138 87 142
142 83 144
146 80 144
149 76 145
151 75 143
152 73 143
152 73 142
149 74 142
146 75 142
142 77 142
139 78 142
135 81 141
132 84 140
130 86 139
130 87 138
130 89 136
132 90 134
133 91 133
136 91 133
137 92 134
138 92 136
139 93 139
139 94 141
137 95 145
135 97 148
134 99 149
200 125 77
129 106 146
127 110 141
126 114 135
126 118 127
127 123 117
127 127 108
129 130 101
129 133 94
130 135 90
130 137 88
129 137 90
200 125 77
124 136 103
122 135 112
118 133 123
115 131 134
111 129 144
109 128 152
107 127 157
107 127 158
107 126 158
108 127 153
110 128 146
113 130 137
116 131 127
119 132 117
121 134 107
123 135 100
124 135 95
125 135 92
124 135 93
124 133 96
122 131 102
121 130 109
118 127 118
116 124 128
114 122 137
113 119 146
112 117 152
110 116 156
110 114 159
110 115 158
111 114 155
112 115 151
113 117 144
114 118 137
115 120 128
200 125 77
117 123 114
117 125 109
117 125 107
117 125 106
117 125 107
116 124 111
115 123 116
113 120 124
112 118 132
111 116 140
109 115 148
107 113 154
106 112 159
105 113 161
105 113 162
105 113 160
105 115 155
106 116 149
107 118 142
108 122 132
109 124 124
110 126 117
111 128 109
112 129 105
112 130 104
111 131 104
111 130 107
109 130 112
107 128 120
104 127 129
102 125 139
99 123 148
97 123 156
94 122 163
93 122 166
92 122 167
92 122 166
93 124 160
95 126 153
97 129 143
100 131 133
102 133 123
105 135 113
106 138 104
108 139 99
200 125 77
200 125 77
200 125 77
200 125 77
106 118 135
106 114 143
107 109 151
108 105 155
111 101 159
113 97 160
116 94 159
118 91 158
120 90 154
121 89 152
120 88 150
119 88 147
117 88 146
116 87 146
114 87 146
112 87 147
111 85 149
112 84 150
200 125 77
116 81 151
120 79 151
124 77 151
128 76 150
132 73 151
135 74 150
136 73 151
137 74 151
136 76 151
134 78 152
131 81 152
128 85 150
125 90 147
121 95 143
119 100 138
118 104 132
117 110 124
117 114 119
117 117 114
117 121 110
117 123 109
116 125 111
115 125 116
113 126 123
111 126 131
108 126 140
105 126 149
200 125 77
100 126 160
99 127 162
100 127 161
102 127 157
105 128 149
108 129 140
112 130 130
115 131 120
119 130 112
122 130 105
123 129 101
124 128 100
124 125 103
125 121 107
125 117 114
126 112 120
128 107 127
129 102 134
133 96 139
137 91 142
140 87 144
144 83 145
147 80 145
149 78 144
151 76 142
150 75 142
149 76 141
145 77 141
142 78 141
138 80 141
135 81 141
132 83 141
131 84 140
131 85 139
131 87 137
133 87 136
135 88 135
138 89 134
140 89 135
142 89 136
143 89 139
142 91 142
140 93 144
139 95 146
136 98 147
134 101 146
131 106 143
200 125 77
128 114 132
128 118 124
129 123 114
129 127 106
130 131 98
131 133 92
132 135 89
131 136 89
130 137 91
128 136 97
125 135 105
122 134 115
119 132 126
116 130 137
113 129 146
110 128 153
109 127 156
109 127 157
109 127 155
111 128 149
113 128 142
116 129 133
118 131 123
121 132 114
124 133 105
126 133 99
126 134 94
127 133 93
126 133 94
125 131 98
124 129 104
122 127 112
120 124 121
119 121 131
117 118 139
116 115 147
115 113 153
114 113 155
115 111 157
115 111 156
116 111 153
116 112 148
117 114 141
118 115 134
119 117 127
119 118 120
119 120 115
200 125 77
119 121 109
119 120 110
118 120 112
117 119 115
117 118 121
116 115 128
115 113 135
114 111 143
112 110 149
112 108 154
111 107 158
110 107 160
110 107 160
110 108 157
110 111 152
110 113 146
110 115 139
111 117 132
112 120 124
112 122 117
113 123 112
113 125 108
113 125 108
112 125 109
111 125 112
110 124 118
108 123 125
106 121 134
104 120 142
102 118 151
100 118 157
98 117 163
97 117 165
96 119 165
96 119 163
96 122 157
98 123 150
100 126 140
102 128 131
105 131 120
106 133 112
108 136 104
109 137 99
109 137 98
109 138 98
200 125 77
200 125 77
200 125 77
200 125 77
103 113 153
104 110 158
106 106 161
109 103 161
111 100 160
113 98 158
115 96 155
117 94 151
117 94 147
117 93 144
115 92 143
114 92 142
112 91 143
112 90 144
111 88 146
112 87 147
114 84 149
117 81 150
121 79 150
125 76 151
129 74 151
134 72 151
137 71 150
139 71 150
139 71 150
139 72 151
137 74 151
134 77 151
130 81 150
126 86 147
122 91 143
120 95 139
118 100 134
117 104 129
116 108 124
117 112 119
117 115 116
117 117 116
117 119 118
116 121 121
114 122 127
112 121 135
109 122 143
106 122 151
104 123 157
102 124 161
200 125 77
101 127 159
102 128 155
105 130 146
108 132 136
112 132 126
116 133 116
119 134 107
122 134 100
123 133 96
124 132 96
125 129 98
125 125 104
124 121 111
125 116 119
126 111 127
128 106 134
130 101 139
134 96 143
137 91 145
141 87 146
144 84 146
147 82 144
148 79 143
148 79 141
146 78 141
144 79 140
141 80 139
138 81 140
135 82 140
133 83 140
132 84 140
132 85 139
133 85 138
135 85 137
138 85 136
141 85 136
143 85 136
145 86 137
146 87 139
145 88 142
144 90 144
142 92 146
140 95 146
137 99 145
134 103 142
133 108 136
132 113 129
200 125 77
132 122 112
132 127 103
132 130 96
133 133 91
133 135 88
133 136 89
132 136 92
130 135 99
126 135 107
123 134 117
120 132 128
117 130 139
114 128 147
112 127 153
111 127 156
111 127 155
112 127 152
114 127 147
117 128 139
119 129 129
122 130 120
125 131 110
127 132 102
128 133 96
128 133 93
128 133 93
128 131 95
127 129 100
125 127 107
124 124 115
122 121 124
121 118 132
120 115 141
119 112 147
119 110 152
119 109 155
119 108 155
120 107 153
200 125 77
121 109 144
121 110 138
121 112 132
122 113 126
122 115 120
121 116 116
121 116 114
121 116 113
200 125 77
119 115 116
120 114 120
119 111 126
119 110 132
118 108 138
118 106 144
118 104 149
117 103 154
116 102 157
117 101 158
116 102 157
115 104 154
115 106 150
114 108 144
114 110 138
114 112 132
114 115 125
114 117 120
114 118 116
114 120 113
113 120 113
113 120 115
113 119 118
111 118 124
110 117 130
109 115 138
107 114 145
105 114 152
104 112 158
103 112 162
101 112 164
101 113 163
101 115 160
101 117 155
102 120 147
103 123 138
105 125 130
106 128 120
107 131 112
109 132 106
110 134 101
110 134 101
109 135 102
107 135 106
105 133 114
200 125 77
200 125 77
200 125 77
200 125 77
102 111 163
103 108 164
106 105 162
108 104 158
111 102 154
112 101 149
113 100 145
113 99 141
114 99 138
113 97 138
111 97 138
111 94 140
111 92 142
112 90 144
115 86 146
117 84 148
121 80 150
125 77 151
131 74 150
135 71 151
138 70 151
140 69 151
141 69 150
140 70 150
138 72 150
135 75 150
131 78 150
127 82 147
124 86 145
120 91 141
118 95 138
117 99 133
117 102 129
116 107 125
117 109 123
118 111 122
117 113 123
117 114 127
116 115 132
114 116 139
111 117 146
109 118 153
106 120 157
104 121 161
102 123 161
200 125 77
200 125 77
106 129 144
109 132 133
113 134 122
116 136 111
120 136 103
122 138 95
124 136 92
125 135 92
124 133 95
125 130 100
124 125 109
124 121 117
124 116 126
126 111 134
128 106 140
131 100 145
134 96 147
138 92 147
141 88 146
143 86 145
146 83 143
146 83 140
144 83 139
143 82 138
140 82 138
138 83 138
135 83 139
133 83 140
132 84 140
133 84 139
135 83 139
137 83 138
140 83 137
144 82 137
146 83 136
149 83 137
149 83 139
149 85 141
148 87 143
146 89 144
143 93 144
140 98 142
137 102 139
136 107 133
134 112 127
134 117 118
133 122 110
200 125 77
134 130 94
135 132 90
135 134 88
134 135 90
132 136 93
130 135 101
127 134 110
124 133 120
120 131 131
118 130 140
115 129 147
113 127 153
113 127 155
113 127 153
115 127 149
117 128 143
119 129 134
122 130 125
125 131 115
127 132 106
129 132 100
130 132 95
131 132 92
130 131 94
130 129 97
129 126 103
127 124 110
127 121 117
125 118 127
124 115 134
123 112 141
123 109 148
124 107 151
124 105 153
124 105 152
125 105 150
125 105 146
126 106 141
125 107 136
125 108 131
124 110 126
123 111 122
123 111 119
123 112 116
122 112 117
122 112 117
122 110 121
200 125 77
122 106 130
122 104 135
123 102 140
123 100 146
123 98 150
123 97 153
123 97 155
122 97 155
121 98 154
121 99 151
120 101 147
119 103 143
118 105 138
117 107 132
116 109 127
116 112 122
115 113 120
115 113 119
115 114 118
114 114 120
114 114 123
113 112 129
113 110 135
112 109 141
111 108 147
110 107 154
109 107 158
108 106 161
107 107 162
106 108 161
106 110 157
105 112 152
106 115 145
106 118 137
107 121 128
108 123 121
109 126 114
109 128 108
110 130 105
110 130 105
109 130 107
108 130 111
106 129 118
104 127 127
101 126 137
200 125 77
200 125 77
200 125 77
200 125 77
101 112 162
104 110 158
107 109 152
109 108 146
111 107 141
111 106 137
111 105 134
112 104 132
111 102 133
111 99 135
111 97 137
113 93 140
114 90 143
117 86 146
121 82 149
125 79 149
131 75 151
134 73 150
138 71 150
140 69 151
141 68 151
141 69 150
139 70 150
135 73 150
132 75 150
127 79 148
124 83 146
121 87 144
118 90 141
117 94 137
116 98 134
116 101 131
117 103 129
119 104 128
119 107 129
118 108 132
118 108 137
116 110 142
114 111 148
111 113 154
110 114 158
107 117 160
106 119 160
106 122 156
107 125 149
108 128 141
200 125 77
114 135 118
117 136 108
120 139 98
123 139 92
125 139 88
125 138 89
125 136 93
123 134 99
123 130 107
122 126 116
123 120 126
123 115 135
124 110 142
127 105 146
130 101 149
134 97 149
137 93 148
140 91 145
142 89 142
142 87 140
142 87 137
141 86 137
138 86 136
136 85 137
135 85 137
133 85 138
133 84 139
134 84 139
136 83 139
139 82 138
143 81 137
146 80 137
150 80 137
152 80 137
153 80 139
153 82 140
152 84 141
150 87 142
147 90 142
144 94 140
141 100 136
138 105 131
137 110 125
136 115 117
135 120 109
135 124 101
137 128 94
200 125 77
137 132 89
136 133 91
134 134 95
131 135 102
128 134 112
125 133 122
121 131 133
118 130 141
116 129 148
115 127 153
114 127 154
115 128 151
117 128 146
119 128 139
122 129 130
125 130 120
128 131 111
130 132 103
132 131 97
132 132 93
133 130 93
133 129 94
132 127 99
131 125 104
129 122 112
129 118 121
128 115 128
127 111 136
128 108 142
128 105 147
128 104 150
129 102 150
130 101 150
129 101 148
129 102 144
129 103 139
129 104 134
128 105 130
127 106 126
126 107 122
125 108 120
124 108 120
124 108 120
123 107 122
124 105 125
125 103 128
125 101 133
200 125 77
128 96 142
128 94 146
128 93 149
129 92 151
129 91 153
128 91 153
127 92 152
126 94 149
124 96 146
123 98 142
121 100 138
119 102 133
118 104 130
117 106 127
116 108 124
116 108 124
116 108 124
200 125 77
116 107 129
116 105 134
116 104 139
116 102 144
116 101 149
116 101 153
115 100 157
114 100 159
113 101 160
112 102 158
111 105 155
111 107 149
110 109 144
110 112 137
110 116 129
111 118 122
110 121 116
110 123 112
111 123 111
110 124 111
109 125 113
109 124 117
107 124 124
105 123 132
102 122 140
100 120 150
98 119 157
200 125 77
200 125 77
200 125 77
200 125 77
103 115 150
107 113 143
109 113 136
110 112 131
110 111 128
111 109 127
111 108 126
111 105 129
111 102 132
112 98 136
114 95 140
117 91 143
120 86 147
125 81 149
129 77 151
133 75 151
137 72 151
139 71 151
141 69 150
140 70 150
138 71 150
135 72 150
132 74 150
128 77 149
123 81 148
120 83 147
118 87 144
116 90 142
116 93 139
116 95 137
117 97 135
119 98 134
120 99 135
121 101 136
121 102 140
120 103 145
118 105 149
116 106 154
114 109 157
112 112 158
109 115 157
109 119 153
109 122 147
110 126 138
113 129 128
115 133 116
200 125 77
121 138 97
123 140 90
124 141 87
125 140 87
125 138 91
123 136 98
122 133 107
121 129 117
120 125 127
120 119 137
121 115 143
123 111 148
126 107 150
129 103 150
132 99 149
136 97 145
138 95 141
140 93 138
140 92 135
139 91 133
138 90 133
136 89 133
135 88 134
134 87 136
134 86 137
200 125 77
138 83 138
141 81 138
145 79 138
150 78 137
153 77 137
156 77 137
157 77 138
158 78 139
156 80 140
154 83 140
151 87 140
147 91 139
144 97 135
141 102 130
139 108 123
138 113 116
138 117 108
138 123 100
139 126 94
138 129 92
138 131 90
200 125 77
135 133 98
132 133 105
129 132 115
126 131 125
122 130 135
119 129 144
117 129 149
117 128 152
116 127 153
118 128 149
119 128 143
122 129 135
125 130 126
129 131 116
131 131 107
133 132 99
134 132 94
135 131 92
135 129 93
134 128 95
133 126 100
133 122 107
132 119 115
131 116 122
131 112 130
131 108 137
132 105 143
132 103 146
133 100 149
134 99 148
134 98 148
134 98 145
134 99 141
133 99 137
133 100 133
131 102 129
130 103 126
128 104 124
127 104 123
126 104 123
126 103 124
126 102 125
127 100 128
128 98 132
129 96 135
131 93 139
132 92 142
200 125 77
134 88 148
135 86 150
134 86 151
134 87 150
133 88 149
131 89 147
129 90 145
126 93 142
124 95 138
121 97 135
120 99 133
118 101 130
117 102 129
117 102 129
117 102 130
118 101 132
118 101 134
119 99 138
120 97 142
120 96 146
121 94 150
121 94 153
121 93 156
120 94 157
119 95 157
118 96 156
116 99 152
115 102 148
114 104 143
113 107 137
113 110 131
112 113 125
111 115 120
112 117 117
111 118 116
111 118 117
111 118 120
109 118 124
109 117 130
107 116 137
105 115 145
104 114 152
102 113 158
100 113 163
99 114 165
200 125 77
200 125 77
200 125 77
200 125 77
106 119 132
108 119 125
109 118 122
110 116 120
111 114 120
110 112 123
111 108 127
112 104 132
113 99 137
116 95 142
119 90 146
123 86 149
127 82 151
131 78 151
134 75 152
137 73 152
138 72 151
138 71 150
137 71 150
134 73 150
130 75 150
126 77 150
123 79 149
119 82 148
117 84 147
116 86 146
115 88 144
117 89 142
118 91 140
120 93 139
122 93 140
123 94 141
124 95 143
124 96 147
123 97 151
120 100 154
119 102 156
117 106 157
115 109 155
113 113 151
113 118 145
114 122 136
115 127 125
117 131 115
119 135 104
122 138 95
200 125 77
124 141 87
124 140 88
123 139 92
122 138 99
120 135 109
119 131 119
118 128 129
117 124 139
117 120 146
119 115 151
121 112 152
125 109 152
128 106 149
132 103 145
134 101 140
136 100 135
137 98 132
137 97 130
136 95 129
135 94 129
135 92 130
134 91 132
135 88 134
137 85 136
139 83 137
143 81 137
147 78 138
152 77 137
156 75 137
159 75 136
161 74 137
161 75 138
160 78 138
158 80 139
154 84 138
150 88 137
147 94 133
144 99 129
142 105 122
141 109 116
139 115 108
140 119 102
140 124 96
140 127 93
139 129 92
138 130 95
137 131 100
200 125 77
131 130 117
128 130 127
124 130 136
121 128 144
119 128 149
119 128 151
119 128 150
120 128 147
123 128 140
125 129 131
129 130 121
131 132 111
134 132 103
135 132 97
137 132 92
138 131 90
137 129 92
137 127 95
135 124 101
135 121 108
134 117 116
134 113 124
135 109 131
135 106 138
136 102 143
137 99 146
137 98 146
139 96 146
139 95 145
139 96 142
138 96 139
137 97 135
135 98 132
134 99 128
132 99 127
130 100 126
129 100 125
128 100 126
128 99 127
128 98 128
130 96 131
131 93 134
133 92 137
135 89 140
137 86 143
138 85 145
140 83 147
200 125 77
140 82 148
139 82 148
138 83 147
135 85 145
132 87 143
129 89 142
126 91 139
124 93 137
121 95 135
120 96 134
118 97 134
118 97 134
119 96 135
120 96 136
121 94 138
122 93 141
124 91 144
126 90 147
127 88 150
127 87 153
127 88 154
127 87 155
125 89 154
123 91 152
121 93 151
119 96 147
118 98 143
115 101 138
114 104 133
113 107 129
112 109 125
112 111 123
112 111 123
112 111 124
112 111 126
111 111 130
111 110 135
110 109 141
110 108 147
108 107 154
107 107 159
105 108 161
104 109 163
103 110 162
200 125 77
200 125 77
200 125 77
200 125 77
200 125 77
109 124 115
110 122 114
110 120 115
110 118 117
111 114 122
111 109 128
112 105 134
114 101 140
116 96 145
121 90 149
124 87 151
127 82 153
131 79 153
133 77 153
135 75 152
135 74 152
134 74 151
131 75 150
129 75 150
125 77 150
121 79 150
118 81 150
116 83 149
115 84 148
115 85 147
117 86 145
119 86 144
122 87 143
124 87 143
127 88 144
128 89 145
128 90 148
127 91 150
126 93 153
124 96 154
122 99 155
119 104 153
118 108 149
117 113 142
116 118 134
117 123 125
118 128 114
120 131 105
122 135 96
123 138 91
124 139 89
200 125 77
123 139 94
121 138 101
119 136 111
117 134 121
115 130 132
114 127 141
114 123 149
115 120 153
117 117 154
120 114 154
123 112 149
127 110 144
130 108 139
133 106 133
134 105 128
136 103 125
135 102 123
135 100 123
135 97 125
135 94 128
136 92 130
138 89 132
141 85 134
145 82 135
149 79 136
154 76 137
158 74 137
162 73 136
164 72 136
164 73 137
164 74 137
161 77 137
158 81 136
154 85 135
150 90 133
147 96 128
144 101 123
143 106 116
142 112 109
141 116 104
141 120 99
142 123 96
141 126 95
140 128 98
138 128 104
135 129 111
133 129 120
200 125 77
126 128 138
123 128 145
121 128 149
121 128 150
200 125 77
123 128 144
125 130 136
128 131 126
132 131 117
134 132 107
136 132 100
139 133 93
139 132 89
140 131 89
139 129 91
138 126 96
138 123 102
137 119 110
137 115 118
137 111 125
137 107 133
138 103 138
140 100 142
140 97 145
142 95 145
143 94 144
142 94 142
142 93 140
141 94 136
140 94 134
138 96 131
136 97 128
134 97 128
132 97 127
131 97 127
130 97 128
131 95 129
131 94 131
133 91 134
135 90 135
138 87 138
140 84 141
142 83 142
144 80 144
146 79 145
146 78 146
145 79 146
200 125 77
141 80 145
139 82 143
135 83 143
132 85 141
128 88 140
125 90 138
123 91 137
121 91 138
120 92 138
120 92 138
121 91 139
122 90 140
124 89 141
127 87 143
129 85 145
131 84 148
132 82 150
133 82 151
133 82 152
132 82 153
131 84 152
128 85 151
126 88 149
123 90 147
120 93 143
118 96 139
116 98 136
115 101 133
114 103 130
113 103 130
113 104 129
113 105 130
114 104 132
114 104 135
114 103 139
114 102 144
113 101 149
113 100 154
112 100 158
111 101 161
109 102 162
108 104 160
108 106 157
107 109 152
107 112 146
200 125 77
200 125 77
200 125 77
200 125 77
110 126 109
110 123 112
110 119 118
110 115 125
111 110 132
112 106 139
114 101 145
117 96 150
120 91 154
124 88 154
126 84 155
200 125 77
131 79 153
131 78 152
130 78 151
129 78 149
126 78 149
123 79 149
120 81 149
117 81 150
115 82 150
115 82 150
115 83 149
117 83 148
120 83 147
123 83 146
126 83 145
130 82 146
131 82 147
133 83 148
133 85 150
131 87 152
130 89 153
126 93 153
124 97 151
122 101 148
120 107 141
120 112 134
119 118 125
120 122 116
121 127 107
122 131 100
124 134 94
124 136 92
124 137 93
123 137 97
200 125 77
118 135 114
115 133 125
113 131 135
111 129 144
111 126 151
111 124 155
113 121 156
115 120 153
119 118 149
123 117 143
126 115 136
130 114 129
132 112 124
134 110 119
135 109 117
135 106 117
135 103 119
135 100 122
137 96 125
138 92 129
142 88 132
146 84 134
150 80 135
155 77 136
160 74 136
164 72 136
166 71 136
168 71 135
167 72 136
164 74 136
160 78 135
156 82 134
153 87 132
149 92 128
146 98 123
144 102 118
143 107 112
143 112 106
143 116 102
143 119 100
143 122 99
142 123 102
140 126 106
137 126 114
135 126 122
131 126 131
128 127 139
200 125 77
123 127 149
122 128 149
123 129 146
125 130 140
127 131 132
131 131 123
134 133 112
137 134 102
139 134 95
141 133 90
142 132 87
142 131 88
142 129 90
141 125 96
140 122 103
140 117 112
139 114 119
140 110 126
141 105 133
142 101 138
144 98 141
145 96 142
146 94 142
147 92 141
147 92 140
147 91 137
145 92 135
143 93 132
141 93 130
138 94 129
136 95 127
135 94 128
133 94 129
133 93 130
134 92 131
134 90 133
136 88 135
140 86 136
142 83 139
145 80 140
148 79 141
149 77 143
150 75 144
150 75 144
150 75 144
148 76 144
145 78 143
200 125 77
138 81 142
133 83 141
130 84 141
127 86 140
124 88 140
122 89 140
122 88 141
122 88 141
124 87 141
126 85 142
128 84 143
131 82 145
133 80 146
136 78 148
138 77 149
139 77 149
138 77 150
137 78 150
135 79 150
133 81 149
130 83 148
126 85 147
123 88 144
120 90 142
117 93 139
115 96 137
114 97 136
113 98 135
114 99 134
115 98 136
115 98 137
117 97 140
118 96 143
119 95 147
119 94 150
119 94 154
118 94 157
117 94 158
116 95 159
114 97 158
113 99 155
112 102 151
110 106 145
110 109 138
110 112 132
200 125 77
200 125 77
200 125 77
200 125 77
109 125 114
108 121 122
109 116 131
109 112 138
111 106 146
113 101 152
115 97 156
118 94 157
121 90 157
123 87 156
125 86 154
126 84 152
126 83 150
125 83 148
123 83 147
121 83 147
118 84 147
116 84 148
115 83 149
114 83 150
115 82 150
118 82 149
121 80 149
125 79 148
128 78 148
132 78 147
135 78 147
136 78 148
137 79 150
136 81 150
134 84 151
132 87 151
129 91 149
126 96 145
124 101 141
122 107 134
122 111 127
121 117 118
122 121 111
122 125 104
123 129 99
124 131 97
123 133 98
122 134 102
120 134 109
118 133 118
200 125 77
112 130 139
110 129 147
108 128 153
108 127 156
110 125 157
112 124 154
115 123 148
120 122 141
124 122 132
127 121 124
130 119 118
133 118 113
134 116 110
134 113 110
135 110 112
136 106 116
136 102 120
138 98 124
141 93 129
146 87 132
150 83 134
156 79 135
160 75 136
164 72 136
167 71 135
168 71 135
168 71 135
166 72 135
162 76 134
159 79 133
155 83 132
151 88 129
147 93 126
145 98 120
144 103 115
144 108 110
144 112 106
144 115 103
145 118 103
144 119 106
142 121 110
139 122 117
137 123 125
133 124 133
130 125 140
127 126 145
125 126 148
200 125 77
125 129 143
128 130 137
130 132 127
133 133 118
137 134 107
140 135 98
142 135 91
144 134 86
144 133 85
144 132 86
144 128 90
143 126 96
142 121 104
141 117 113
142 113 120
143 108 128
144 104 133
145 100 138
147 97 140
149 93 142
150 92 141
150 91 139
151 90 137
150 90 135
148 90 133
146 91 131
143 92 130
140 93 128
138 92 129
137 92 129
135 92 130
200 125 77
137 89 132
138 87 134
141 85 136
143 82 137
147 80 138
150 78 139
152 75 141
154 74 141
155 73 142
155 73 141
154 73 142
151 74 142
147 75 142
144 77 142
139 79 142
200 125 77
131 83 141
128 84 142
125 85 142
124 86 142
123 86 142
124 85 143
126 84 143
128 82 144
132 80 144
135 79 145
138 77 145
141 75 146
142 74 147
143 74 148
142 74 148
141 74 148
139 75 148
136 77 148
133 79 148
128 82 146
125 84 145
122 86 144
118 89 142
116 91 141
115 91 141
114 93 140
115 92 140
116 92 140
118 92 141
120 90 144
122 89 146
124 88 148
124 87 151
125 87 153
124 87 155
124 88 156
122 89 156
120 91 155
118 94 153
117 96 149
114 100 145
113 103 140
112 107 133
111 109 128
110 112 124
200 125 77
200 125 77
200 125 77
200 125 77
106 121 130
107 117 139
107 112 147
108 107 154
110 104 157
112 100 159
115 96 159
118 93 158
120 92 154
122 90 152
121 89 149
122 89 146
120 88 145
118 88 145
116 87 145
115 87 145
114 86 147
114 85 148
115 83 149
118 82 149
121 80 149
126 78 149
130 76 149
134 75 148
138 73 148
140 74 148
140 75 148
140 76 149
139 78 150
136 81 149
133 85 148
130 90 145
126 95 141
124 101 135
123 105 129
122 111 122
122 115 116
123 119 109
200 125 77
123 126 103
123 127 104
122 129 108
120 129 115
118 129 123
115 129 132
112 129 141
200 125 77
108 127 155
107 127 158
108 127 157
110 127 154
114 126 147
118 127 138
122 127 128
125 126 120
129 126 112
132 124 106
133 123 103
134 120 103
135 117 105
136 113 109
136 109 114
139 103 120
141 98 126
145 93 130
149 87 133
154 82 135
159 78 136
163 75 136
167 73 135
168 71 135
168 72 134
167 72 134
164 74 134
160 77 133
156 81 132
152 85 130
149 90 127
146 94 123
146 98 119
145 102 115
146 106 111
146 109 109
146 112 108
146 114 110
145 116 114
143 118 120
140 120 126
137 121 134
133 122 140
131 123 145
128 125 147
127 127 146
129 128 141
200 125 77
133 133 123
136 135 113
140 136 102
142 137 93
145 136 87
146 136 83
147 134 82
146 133 84
145 129 89
144 125 97
144 122 104
144 117 113
144 112 121
146 107 128
147 102 134
148 99 137
151 95 139
152 93 139
153 91 139
154 90 137
154 89 135
152 89 133
151 89 131
148 90 130
146 91 128
143 91 128
141 91 128
139 90 130
138 90 131
138 89 132
140 87 133
141 85 135
144 82 136
148 80 136
151 78 138
155 75 139
157 74 139
159 72 140
159 72 139
158 71 140
156 72 140
153 73 141
150 75 140
146 76 141
141 78 141
136 80 142
132 82 142
200 125 77
127 83 143
126 84 143
126 84 143
127 83 143
129 81 144
132 80 144
136 78 144
139 76 144
142 73 146
145 72 146
146 71 146
147 71 146
147 71 147
145 72 147
143 73 147
139 75 147
135 77 147
130 79 146
126 81 146
123 83 145
119 85 145
117 86 145
116 88 144
116 88 144
117 87 144
118 87 144
120 86 145
123 85 146
126 83 148
128 82 149
130 81 151
130 80 153
130 81 154
129 82 154
128 83 154
126 85 153
123 88 151
120 91 148
118 94 145
115 97 141
113 100 137
112 103 133
111 106 129
110 108 127
110 109 126
200 125 77
200 125 77
200 125 77
200 125 77
103 117 149
103 113 156
105 109 160
108 105 162
110 102 162
112 101 158
114 99 155
116 97 151
118 96 147
118 96 143
117 95 141
116 93 141
115 93 140
114 92 141
113 90 143
114 88 145
116 86 146
119 83 147
122 81 148
127 77 149
131 75 149
135 73 149
139 71 149
142 71 148
143 71 149
143 72 148
141 73 149
139 77 148
135 80 147
132 85 145
128 90 142
126 94 138
123 99 133
123 103 127
122 108 121
122 112 117
123 115 113
123 119 111
123 120 112
122 122 115
121 123 120
119 124 128
116 124 136
113 124 144
110 125 151
109 125 156
200 125 77
108 128 156
109 128 152
112 129 145
117 130 135
120 131 125
125 132 115
128 132 106
131 131 100
134 130 95
135 127 95
135 124 98
136 120 102
136 115 109
138 110 116
140 104 123
143 99 128
148 92 133
152 87 135
157 82 137
161 79 136
165 75 136
166 74 135
167 73 134
167 73 133
164 74 134
160 77 133
157 79 132
153 82 131
150 86 129
148 90 126
146 94 123
146 97 120
147 100 116
148 103 114
148 106 113
149 108 115
149 110 117
147 112 122
144 114 129
140 117 135
137 118 140
134 121 144
133 123 144
132 126 142
132 128 138
133 131 130
136 133 119
200 125 77
143 137 97
145 138 89
147 138 83
149 138 79
149 136 79
149 133 82
147 131 88
147 126 96
146 122 105
146 117 113
146 112 121
147 107 128
149 103 133
152 98 136
154 95 138
156 92 138
156 91 136
157 89 135
157 88 133
156 88 131
153 89 129
150 89 128
147 89 128
144 90 128
143 89 129
141 89 130
141 88 131
141 87 132
143 85 133
146 83 134
149 80 135
152 78 136
155 76 137
159 73 137
161 72 137
162 71 138
163 70 138
161 70 139
159 71 139
156 73 139
151 74 140
147 76 140
142 78 141
137 80 141
134 82 141
130 83 142
129 83 142
200 125 77
128 83 143
130 82 143
132 81 143
135 78 144
139 76 144
142 75 144
146 72 145
148 71 145
150 70 145
150 70 145
200 125 77
147 70 146
144 72 146
140 74 146
136 76 146
131 77 147
127 79 147
123 81 147
120 83 147
118 84 147
117 84 147
117 84 147
119 84 146
121 83 146
124 81 147
127 80 148
130 79 148
133 77 149
134 77 150
135 76 151
135 76 151
135 76 152
133 78 152
130 80 151
126 82 151
123 85 149
120 88 146
117 91 143
115 94 140
113 97 137
112 99 135
111 100 134
111 102 132
112 102 133
112 102 135
200 125 77
200 125 77
200 125 77
200 125 77
100 114 163
102 111 164
105 109 162
107 107 159
109 105 155
112 104 150
113 104 144
115 102 140
115 101 137
114 100 135
114 99 134
113 97 136
113 95 138
114 93 140
116 90 142
118 86 145
122 82 147
126 79 148
131 76 149
136 73 149
140 71 149
143 69 149
144 70 148
145 69 148
143 71 148
140 74 148
137 76 148
133 80 146
130 84 144
126 88 141
124 93 137
122 97 133
122 102 127
122 105 124
122 109 120
123 110 119
124 113 119
124 115 121
122 116 126
121 117 132
118 118 139
116 119 146
113 120 152
111 121 156
110 124 157
110 125 156
200 125 77
113 130 142
116 132 132
121 134 121
124 135 111
128 136 100
131 136 93
133 135 90
134 134 89
135 130 92
135 127 97
135 123 104
136 117 112
138 111 120
140 105 128
144 100 132
148 94 136
153 89 138
157 85 138
200 125 77
163 78 136
164 77 134
164 76 134
162 76 133
160 77 133
156 79 133
153 81 132
150 84 131
148 87 129
147 89 127
147 92 124
149 94 121
150 97 119
152 99 118
153 101 118
152 103 121
150 106 125
148 108 130
146 110 135
142 113 140
139 117 142
137 120 143
136 123 140
135 127 134
137 130 125
139 133 115
142 136 104
145 138 93
200 125 77
150 140 78
150 139 76
151 137 77
150 135 80
149 131 87
148 128 95
147 123 104
147 117 114
148 112 122
150 107 129
152 103 133
154 98 137
156 95 137
158 92 137
159 91 134
160 89 133
159 89 130
158 88 129
155 88 128
153 88 127
150 89 126
147 89 127
145 89 128
144 88 130
144 87 131
145 85 132
147 83 133
150 81 134
153 79 134
157 76 135
160 75 135
163 72 136
165 71 136
165 70 137
165 70 137
163 71 137
161 71 138
157 73 138
153 75 138
148 77 139
143 79 139
139 81 139
135 82 140
132 84 140
131 84 140
130 84 141
131 83 141
200 125 77
135 80 142
139 78 142
142 77 142
146 74 143
149 72 143
151 70 144
152 70 144
152 70 144
151 69 145
148 71 145
145 72 145
141 73 146
136 76 146
131 78 146
127 79 147
123 81 147
121 82 147
119 83 147
118 84 147
119 82 148
121 81 148
124 80 148
127 78 148
131 76 148
133 75 149
137 74 148
138 73 149
140 72 150
139 72 151
139 73 150
137 74 151
134 76 150
130 78 150
126 81 148
122 84 147
118 87 145
116 89 143
114 92 141
112 94 140
111 95 139
112 96 138
113 96 139
114 95 140
115 95 142
116 94 145
200 125 77
200 125 77
200 125 77
200 125 77
99 115 164
103 113 159
105 112 154
108 111 147
110 110 141
112 109 136
112 109 131
113 108 129
113 106 128
113 103 130
113 101 132
114 98 135
116 94 138
118 90 143
122 86 145
125 82 148
131 78 148
135 75 149
139 73 149
142 70 149
144 69 149
144 69 149
143 70 148
141 71 148
137 74 148
134 77 146
130 80 146
126 84 144
123 89 140
121 92 138
121 95 134
121 98 131
122 101 128
123 103 126
124 105 127
124 107 128
125 108 131
124 109 137
122 111 142
120 112 148
117 114 152
115 116 155
113 119 156
113 121 154
113 125 147
115 128 139
200 125 77
121 134 118
125 136 107
128 138 97
131 139 89
133 140 84
134 138 85
134 136 87
135 133 92
134 128 101
134 124 109
135 119 118
137 112 127
139 107 133
142 101 138
147 96 139
151 91 140
155 88 139
158 84 137
160 82 135
160 81 133
160 81 131
158 80 131
155 81 131
152 82 132
150 83 132
148 85 131
147 86 130
148 88 128
150 90 125
152 91 123
155 92 122
156 94 122
156 96 124
156 99 126
155 101 131
152 104 134
149 107 138
145 112 140
142 116 139
141 120 137
140 124 131
141 129 121
143 133 111
145 136 100
148 139 89
150 140 81
152 142 74
200 125 77
153 139 74
152 137 79
151 134 86
150 129 95
149 124 105
149 119 114
150 113 123
151 109 129
153 103 134
156 99 135
158 95 136
160 93 135
161 91 133
162 89 131
162 89 128
160 88 127
158 88 126
154 89 125
151 89 126
149 88 127
147 88 128
146 88 129
147 86 130
148 85 131
150 83 132
154 80 133
157 78 133
161 75 134
164 74 134
166 73 134
168 71 135
168 71 135
167 71 135
165 71 136
162 73 136
158 75 136
154 77 136
149 79 136
144 81 137
140 83 137
137 84 137
134 86 137
133 85 138
133 85 138
134 85 138
136 83 139
139 81 139
200 125 77
145 77 141
148 75 141
151 74 142
152 72 143
153 72 143
153 71 144
151 72 143
148 72 144
144 74 144
141 75 144
136 78 144
132 79 145
128 81 145
124 82 146
122 83 146
120 84 146
120 83 147
121 82 147
123 81 147
126 79 148
130 77 148
133 75 148
137 73 148
140 72 148
142 70 149
143 69 149
142 69 150
141 71 149
139 72 149
136 73 149
132 75 149
127 78 149
123 81 148
119 83 148
116 86 146
114 87 146
112 89 145
200 125 77
113 90 143
114 89 144
116 89 145
118 88 146
121 87 148
122 87 149
123 86 152
200 125 77
200 125 77
200 125 77
200 125 77
102 118 152
104 118 144
107 117 137
109 117 130
111 116 125
112 114 123
112 113 121
112 111 123
113 107 126
113 104 130
115 100 134
117 95 139
120 91 143
124 86 147
129 82 149
133 78 150
137 75 150
140 72 150
142 71 149
142 70 149
142 71 148
140 72 148
136 74 148
133 75 148
129 78 147
126 81 146
123 84 144
121 87 142
120 90 140
121 92 137
122 94 135
124 96 133
126 97 133
127 98 134
128 100 136
128 100 140
127 102 144
124 105 148
122 106 153
120 110 154
119 112 154
117 117 151
117 121 145
118 124 137
120 129 127
122 133 116
200 125 77
128 139 94
131 141 87
133 141 83
134 141 82
134 139 85
133 137 91
133 134 99
132 130 108
131 124 119
132 120 127
133 115 135
136 109 140
140 104 142
144 99 143
148 96 141
152 92 138
154 89 136
156 88 132
156 86 130
155 85 130
153 85 129
151 85 129
149 84 131
148 85 131
148 85 131
149 85 130
151 85 129
155 85 127
158 86 126
160 87 126
162 89 126
162 91 128
161 94 130
159 96 134
155 101 136
152 105 137
148 110 137
146 116 133
144 121 127
145 126 118
146 131 108
148 135 97
150 139 86
153 141 77
154 142 72
200 125 77
155 141 71
200 125 77
152 135 85
150 132 94
149 127 105
149 121 115
150 116 123
151 110 130
154 105 134
156 101 135
159 97 135
161 95 133
163 92 131
164 90 128
163 89 126
161 89 125
159 89 124
157 89 124
154 89 124
151 88 126
150 88 127
149 87 128
150 86 129
152 84 130
154 82 131
158 80 131
161 77 132
165 75 132
168 74 132
170 72 133
171 71 133
170 71 134
169 72 134
166 73 134
163 75 135
159 77 135
154 79 134
149 82 134
145 84 134
142 86 133
138 88 133
136 88 134
135 88 134
136 88 134
137 87 134
138 85 136
141 84 137
144 82 138
146 79 140
200 125 77
152 76 141
152 75 142
152 75 142
151 74 143
150 74 144
147 76 143
144 77 143
140 79 142
136 80 142
131 83 142
128 84 142
125 84 143
123 85 143
122 85 144
122 85 144
123 83 145
126 82 145
129 79 146
132 78 146
136 75 147
139 73 147
142 71 148
144 70 148
145 69 148
144 69 149
143 69 149
140 71 149
137 72 149
132 75 149
128 77 149
123 79 149
120 81 149
116 83 149
114 85 148
113 85 148
113 85 148
115 85 147
116 84 148
119 84 148
122 83 148
125 82 149
127 80 151
129 79 152
129 79 154
129 80 155
200 125 77
200 125 77
200 125 77
200 125 77
105 124 132
108 124 124
110 122 119
111 122 115
200 125 77
112 117 117
113 114 119
113 110 125
114 106 131
116 101 137
118 97 141
121 92 146
125 88 148
129 83 151
133 79 151
137 76 151
138 74 151
140 73 150
139 73 149
137 74 148
135 74 148
131 76 148
127 78 148
124 80 148
122 82 147
120 84 146
120 86 144
120 88 142
122 89 140
125 89 139
127 90 138
129 91 139
131 91 140
131 93 142
131 94 146
131 96 148
129 98 151
126 102 152
124 106 151
123 109 149
121 115 143
121 119 136
122 124 126
125 128 115
126 133 104
129 136 95
200 125 77
133 140 83
134 141 82
134 141 84
133 139 90
131 136 99
129 133 110
128 130 120
128 125 130
128 121 137
130 116 143
133 112 145
137 108 145
141 104 143
145 101 140
148 99 135
150 96 131
152 94 128
152 92 126
151 91 125
150 89 126
149 88 127
148 87 129
148 86 130
150 85 130
153 83 130
156 83 129
161 82 127
163 82 127
167 83 127
168 84 128
168 86 130
166 90 131
163 93 134
160 98 134
156 103 133
153 109 130
150 115 125
150 122 115
150 128 105
151 133 94
153 137 84
154 141 75
156 142 70
156 143 69
156 142 70
155 140 76
153 138 84
200 125 77
150 129 105
150 123 116
149 118 124
152 112 130
154 107 134
157 103 135
160 99 134
162 97 131
165 94 129
165 92 127
164 91 124
163 90 123
161 90 121
158 89 122
156 89 123
153 88 125
152 88 126
152 87 127
153 85 128
155 83 129
158 81 130
162 79 130
165 77 130
169 75 130
171 74 130
172 73 131
173 73 131
172 73 132
170 74 133
167 75 133
164 77 133
159 80 132
155 82 132
150 85 131
146 87 130
142 89 130
141 90 129
139 91 129
138 92 129
139 91 129
139 91 130
141 88 132
143 87 134
146 85 136
148 82 138
150 81 140
151 80 141
200 125 77
152 78 142
150 78 143
149 79 142
146 80 142
143 81 141
139 84 140
136 85 139
132 86 139
128 88 138
126 89 138
124 89 139
124 88 140
124 88 140
126 86 141
127 84 143
131 81 144
134 79 145
138 76 146
141 74 147
143 73 147
145 71 147
145 70 148
144 70 148
143 70 148
140 72 148
136 74 148
132 75 149
128 77 149
123 79 149
119 80 150
116 82 150
115 82 150
114 83 150
114 83 150
116 83 149
119 81 149
122 80 149
125 78 150
128 77 150
131 75 151
133 75 152
134 75 152
134 75 153
133 76 153
130 77 154
200 125 77
200 125 77
200 125 77
200 125 77
109 129 112
111 127 109
112 126 108
112 124 110
112 120 114
112 117 120
112 113 127
113 108 134
116 102 141
118 98 146
121 93 150
125 88 153
128 85 153
131 82 153
134 79 152
135 78 151
134 77 150
133 78 148
132 77 148
128 78 148
126 80 147
123 80 148
120 82 148
119 83 147
119 83 147
120 84 146
123 84 144
126 84 143
129 84 143
132 84 142
134 84 143
136 85 144
137 86 146
136 88 148
135 90 150
132 94 150
130 98 149
128 102 147
126 107 142
126 113 134
125 118 126
126 123 116
128 128 106
130 132 97
131 136 90
132 138 86
200 125 77
133 140 87
131 139 93
129 137 102
127 135 112
125 132 123
124 129 133
124 126 140
124 122 146
127 119 148
130 115 148
134 112 145
138 110 140
142 107 134
145 106 128
148 103 124
148 101 121
149 100 119
149 97 120
148 95 121
148 92 124
149 89 126
151 86 128
154 84 129
158 82 129
162 80 129
167 78 128
171 78 127
173 78 128
174 79 129
173 82 129
170 86 131
167 91 131
163 95 131
160 101 128
156 109 122
155 115 115
154 122 105
154 128 95
155 133 85
157 137 76
158 141 70
158 142 69
157 142 71
156 141 76
154 138 85
152 135 95
150 131 106
200 125 77
150 121 125
151 116 131
153 111 134
156 107 135
160 103 133
163 99 131
165 96 127
166 95 123
165 93 121
165 92 119
163 91 119
160 90 120
158 90 121
156 89 123
155 87 125
155 86 126
157 84 127
159 82 128
162 81 128
166 79 128
169 77 128
173 75 128
174 74 129
176 73 130
200 125 77
173 75 131
172 75 132
167 78 131
163 80 131
160 83 130
155 86 129
151 88 128
148 91 126
144 93 125
143 94 124
141 95 124
141 95 124
141 95 125
142 94 126
144 92 128
145 91 131
147 89 133
149 86 137
149 85 139
150 84 141
151 83 142
150 83 142
200 125 77
146 85 141
145 85 140
141 87 139
138 89 136
135 91 135
132 92 134
129 93 133
128 94 132
126 94 133
126 93 134
126 92 135
127 90 137
129 87 139
132 85 141
135 82 143
137 80 144
140 78 146
143 75 147
144 74 147
145 73 148
143 73 148
142 73 148
139 74 147
135 76 147
131 77 148
127 79 147
123 80 148
120 82 148
117 82 149
115 83 149
115 82 150
116 82 150
118 81 150
121 79 150
124 78 150
128 76 150
132 74 150
134 72 151
137 71 151
137 71 151
138 71 152
136 72 152
134 73 152
131 76 152
128 78 151
200 125 77
200 125 77
200 125 77
200 125 77
111 131 103
112 129 105
111 126 110
111 123 116
110 118 125
111 114 132
112 109 140
114 104 147
116 100 151
119 95 154
122 91 156
125 89 155
128 86 154
129 84 152
130 83 150
130 82 148
128 82 147
125 83 145
123 83 146
121 83 146
119 83 147
118 84 147
119 83 147
120 83 147
123 81 147
126 81 146
131 79 145
134 79 145
137 79 145
140 79 145
141 80 146
200 125 77
140 84 148
138 87 148
135 90 148
133 95 145
131 100 140
129 105 135
128 111 127
128 116 118
128 122 109
129 126 102
131 130 94
132 133 91
132 134 90
132 136 92
200 125 77
128 136 106
126 134 116
123 133 126
121 131 136
120 129 143
120 126 149
121 124 151
124 122 150
128 120 146
132 119 139
137 117 132
141 115 124
143 113 119
146 111 114
147 109 111
147 106 111
148 103 113
148 100 116
149 95 120
152 92 122
154 87 126
158 83 128
164 80 128
169 77 128
173 75 128
177 74 127
178 75 127
178 76 128
177 78 129
174 82 129
170 88 127
165 94 126
162 100 122
159 108 114
158 115 106
157 122 97
158 128 87
159 133 79
159 137 73
160 140 70
159 141 72
157 141 78
155 139 87
152 137 97
149 133 109
148 129 119
148 125 126
200 125 77
152 115 135
155 111 135
159 107 132
163 103 129
164 101 124
167 97 121
166 96 119
165 95 117
164 93 117
161 92 118
160 91 119
158 90 121
158 88 123
158 86 125
160 84 126
163 82 126
166 80 127
170 78 127
173 77 126
175 76 127
178 74 128
178 75 128
177 75 130
175 76 130
172 78 130
168 81 129
164 83 129
161 86 127
156 90 125
152 92 124
149 95 121
147 97 120
145 99 118
144 100 118
144 100 118
145 99 120
145 98 122
146 97 124
147 95 129
147 93 132
148 92 136
149 90 139
149 90 141
148 89 143
147 89 142
146 89 142
145 91 140
200 125 77
140 93 135
137 96 132
135 97 129
133 98 127
131 99 126
129 99 126
128 99 127
128 99 127
128 97 129
129 95 132
131 93 135
133 90 138
135 86 142
137 84 144
139 81 146
141 79 147
141 78 148
142 77 148
141 77 148
140 77 147
137 78 147
134 79 146
130 81 146
126 82 145
123 84 144
120 85 145
117 85 146
116 85 147
116 84 148
117 83 148
120 81 149
123 79 149
126 77 150
130 75 150
134 73 150
137 71 150
139 69 151
140 69 151
141 69 150
139 70 150
136 71 151
133 73 151
129 76 150
125 78 150
120 81 149
200 125 77
200 125 77
200 125 77
200 125 77
110 131 107
109 128 114
108 124 123
108 120 132
108 115 141
109 110 148
111 106 153
113 102 157
116 98 158
119 95 158
122 93 155
123 91 152
124 90 150
125 89 146
124 88 145
123 88 143
121 88 143
120 88 142
118 87 144
117 86 145
118 85 146
120 83 147
123 81 147
127 79 147
131 77 147
136 76 146
140 74 146
143 74 145
145 74 146
145 76 146
144 77 147
143 80 146
140 84 145
137 88 144
134 92 141
132 98 136
130 104 129
129 108 123
128 114 115
130 118 108
130 123 102
131 125 99
131 128 97
131 130 99
130 131 104
128 131 111
200 125 77
122 131 130
120 129 139
119 128 146
117 128 150
118 127 152
120 126 150
124 125 145
128 125 138
132 125 129
136 123 121
140 123 112
143 121 107
145 119 103
146 116 102
147 112 104
148 109 107
150 104 111
151 99 117
154 94 121
159 88 124
163 83 127
169 79 128
174 75 128
179 73 127
181 72 127
183 72 126
181 74 126
180 76 127
176 80 127
171 86 125
167 92 121
163 99 116
161 106 109
159 114 101
160 120 92
160 125 85
160 131 79
160 134 76
160 137 76
158 138 81
155 138 90
152 136 100
149 134 110
147 131 120
146 128 128
147 123 134
149 120 136
200 125 77
157 112 131
161 108 127
164 105 122
166 102 118
166 100 115
166 98 113
165 96 113
163 94 115
162 92 117
160 91 119
161 88 121
162 86 123
164 84 124
167 81 125
170 80 125
174 78 125
177 76 125
179 76 125
180 76 126
180 75 128
179 76 128
177 78 129
173 80 129
169 84 127
165 87 126
161 91 124
157 93 122
154 96 119
151 99 116
149 102 114
148 104 112
147 104 112
147 104 113
147 104 114
147 103 118
148 101 122
147 100 127
147 98 131
147 97 136
147 96 139
147 95 141
146 95 142
145 95 143
144 96 141
142 97 138
141 99 134
139 101 131
200 125 77
136 104 123
134 105 120
132 106 118
200 125 77
130 106 119
130 104 121
130 103 124
130 101 127
131 98 132
133 95 136
134 93 140
135 90 143
138 87 146
138 85 148
138 84 149
138 84 148
138 84 147
136 83 147
134 84 145
132 85 143
129 87 142
126 88 141
123 89 140
120 89 141
118 89 142
117 88 143
118 87 144
119 85 145
122 83 146
124 81 147
128 78 148
131 76 149
135 73 150
139 71 149
141 69 150
141 69 150
141 69 150
140 69 151
137 70 151
133 72 151
129 74 151
125 76 151
121 79 150
117 81 150
114 83 150
200 125 77
200 125 77
200 125 77
200 125 77
106 128 123
105 124 133
105 120 143
105 116 151
105 112 156
107 109 159
110 105 161
112 102 160
115 101 156
118 99 152
119 97 148
120 96 145
121 96 141
120 95 139
119 94 138
117 94 138
117 91 140
117 90 141
118 88 143
120 86 144
123 83 145
128 80 146
132 77 147
137 74 147
141 73 146
145 71 146
147 71 146
149 71 146
148 72 146
146 75 145
144 77 145
140 82 143
137 86 141
133 91 137
131 96 133
129 101 127
129 105 122
129 110 116
129 114 111
131 117 107
131 120 106
131 122 108
131 123 111
128 124 118
126 125 126
124 125 134
200 125 77
119 126 148
117 127 151
117 128 152
118 129 149
121 129 144
125 129 136
129 131 126
133 130 116
138 131 106
141 129 99
144 128 94
200 125 77
147 122 94
148 118 98
149 114 103
150 108 109
153 102 115
157 96 121
161 90 124
167 84 127
172 80 128
177 76 127
181 73 127
183 72 126
183 72 126
182 74 125
179 76 126
175 80 124
171 85 123
166 91 119
164 97 114
162 104 107
161 111 99
161 116 93
162 122 87
162 126 84
162 130 83
159 132 87
157 134 93
153 134 103
150 134 112
147 132 123
146 130 130
146 127 135
147 125 136
151 121 135
154 118 131
200 125 77
162 112 119
165 109 113
167 106 110
167 103 108
166 100 109
165 97 111
164 94 114
163 91 117
163 89 119
165 86 121
167 84 122
171 81 123
174 80 123
178 78 123
180 76 124
183 76 124
183 76 125
182 77 126
181 78 127
177 81 127
174 83 127
170 86 126
166 90 123
162 94 121
158 97 118
156 101 113
154 104 110
152 107 107
151 108 106
151 108 106
149 109 107
149 109 109
149 108 114
149 106 119
148 106 124
148 104 130
147 103 135
146 102 139
144 101 142
144 101 143
143 102 142
141 103 139
140 104 136
139 107 130
139 108 125
138 109 121
136 112 115
200 125 77
134 113 110
133 113 110
133 112 111
132 111 114
132 109 118
132 107 123
132 104 128
132 102 134
133 99 139
133 96 144
134 94 147
134 92 149
135 91 149
135 90 149
134 90 147
133 91 145
132 91 143
130 92 140
127 94 137
125 94 136
123 95 135
121 95 134
119 94 136
119 93 137
120 92 138
120 90 140
123 87 143
125 84 145
129 81 146
132 78 148
135 76 149
138 73 150
140 72 150
141 70 150
141 71 150
139 71 150
137 71 150
133 73 150
129 74 151
124 77 151
120 79 151
116 81 151
114 82 151
112 83 151
111 83 151
200 125 77
200 125 77
200 125 77
200 125 77
101 124 145
99 122 153
100 118 159
102 115 162
104 111 163
106 110 161
109 107 158
111 107 152
114 105 147
115 104 142
117 104 136
117 103 134
116 101 133
116 100 132
116 98 134
116 96 136
118 93 138
119 90 141
123 86 143
127 83 145
132 78 146
136 76 146
142 73 146
145 71 146
148 70 146
149 69 146
150 70 145
148 71 145
145 74 144
142 77 144
138 80 143
134 85 140
132 90 136
129 94 132
128 98 128
128 102 124
129 105 120
130 109 116
131 111 115
132 112 117
131 114 119
130 116 124
129 117 130
126 118 137
123 120 143
122 121 148
200 125 77
119 125 151
120 127 148
122 129 142
124 131 133
128 134 122
132 135 111
136 136 101
140 136 92
143 135 87
145 134 84
146 132 85
147 128 89
148 123 95
149 118 102
150 112 110
153 105 117
157 99 123
162 92 127
167 87 128
172 82 129
177 78 129
180 75 127
182 73 127
182 74 125
179 75 125
176 77 125
172 80 124
169 85 121
165 90 119
163 95 114
162 101 108
162 106 103
163 111 97
163 117 93
162 121 92
161 124 94
159 127 99
156 129 107
152 131 115
148 131 124
146 130 131
145 129 136
146 128 137
148 126 134
152 124 129
157 121 122
161 118 115
200 125 77
167 111 105
168 108 103
168 105 103
166 101 106
166 98 109
165 94 113
166 91 116
168 87 119
171 84 120
175 80 122
178 79 122
182 77 122
184 76 122
186 75 123
186 76 123
184 77 125
182 80 125
179 82 126
175 85 125
171 89 123
166 94 120
163 98 116
160 101 113
158 105 108
156 108 105
155 110 102
154 113 100
153 114 100
152 113 103
151 113 106
151 113 111
149 111 117
149 110 123
147 109 130
145 108 136
144 107 140
142 107 142
141 108 142
140 109 141
140 109 138
139 111 132
139 113 126
139 115 119
138 117 113
138 119 107
137 120 104
136 120 102
200 125 77
135 119 104
135 118 106
134 116 112
132 113 119
132 110 126
131 108 133
131 105 139
130 103 144
130 101 148
131 99 150
131 98 150
130 98 149
130 98 147
130 98 143
129 99 140
127 100 135
127 100 132
124 102 129
123 102 127
122 102 127
121 101 128
121 99 130
121 98 132
122 95 135
123 93 138
126 89 142
129 86 145
131 82 148
134 80 149
136 78 150
200 125 77
138 75 150
138 74 151
137 74 150
135 74 150
132 76 149
127 78 149
124 79 149
120 80 150
116 82 150
114 82 151
112 83 151
112 83 151
113 82 151
115 81 151
200 125 77
200 125 77
200 125 77
200 125 77
96 122 162
97 120 164
98 118 165
100 116 162
104 115 157
107 113 151
109 113 144
112 112 138
114 112 131
115 110 128
115 109 126
115 108 125
115 105 127
116 102 130
117 99 133
119 95 136
121 91 141
126 86 143
130 82 146
135 79 146
140 75 147
143 72 147
146 71 146
149 69 146
149 69 146
147 70 146
145 72 145
142 75 144
138 77 144
134 81 142
131 85 140
128 88 138
128 92 134
127 94 132
128 98 128
129 100 126
131 102 124
132 103 125
133 105 126
133 107 130
132 108 134
131 110 139
128 111 145
126 114 149
124 117 150
123 120 150
200 125 77
124 126 140
125 129 131
128 133 120
132 135 109
136 138 97
140 139 88
143 140 82
144 139 79
146 138 79
146 135 83
146 132 89
146 127 98
147 121 107
149 115 116
151 108 123
155 103 127
159 97 130
164 92 131
169 87 131
174 82 130
177 79 128
178 78 126
177 78 125
175 78 124
172 79 125
169 81 124
166 85 122
164 88 120
162 92 117
162 97 112
164 101 107
165 105 104
165 109 102
165 113 102
164 117 105
160 121 111
156 124 118
152 126 125
200 125 77
147 128 136
146 129 136
147 130 133
150 129 127
155 127 119
159 125 111
163 123 103
166 119 98
200 125 77
169 111 96
169 107 98
168 102 104
168 98 108
169 93 112
171 88 116
175 84 118
178 81 120
182 78 121
186 76 121
189 75 120
190 75 121
189 76 122
187 78 123
185 80 123
180 84 124
176 87 123
171 92 121
168 97 117
165 101 112
162 105 108
160 109 103
159 112 99
158 115 96
157 116 95
156 118 95
155 118 98
153 118 102
152 117 109
151 116 116
148 114 124
146 114 130
144 113 136
142 112 141
140 113 143
139 113 142
138 115 139
139 116 134
138 118 128
139 120 120
139 123 112
140 124 106
140 125 100
140 127 95
140 127 93
139 126 94
138 125 97
200 125 77
134 123 107
133 120 115
131 118 124
129 115 132
128 112 140
128 109 145
127 108 149
127 107 151
127 105 151
127 105 149
127 106 145
127 106 140
127 107 135
126 108 130
126 109 125
125 109 122
124 110 119
123 109 119
122 109 120
122 107 122
122 104 126
123 102 130
124 98 135
126 95 139
127 92 143
130 88 147
131 86 149
133 83 151
135 81 151
135 80 152
135 79 151
134 80 149
132 79 149
129 81 148
126 82 147
122 83 147
118 84 147
116 85 147
114 85 148
113 84 149
113 83 150
114 83 150
117 80 151
120 79 151
124 77 151
200 125 77
200 125 77
200 125 77
200 125 77
95 122 166
96 122 162
99 121 156
102 120 149
106 120 140
109 120 132
111 120 125
113 118 121
113 118 118
114 115 118
115 112 120
116 110 122
116 106 127
118 101 133
120 97 137
123 92 142
127 88 145
131 84 147
136 80 148
140 76 148
143 74 148
145 72 148
146 71 147
145 72 146
143 73 145
140 75 145
137 76 145
133 79 144
130 82 143
128 84 142
126 87 140
126 89 138
127 90 136
129 92 133
131 93 132
134 94 132
136 96 132
137 97 134
136 98 138
136 100 141
134 102 145
133 105 148
130 108 149
129 112 147
128 116 144
128 121 137
200 125 77
131 129 119
134 133 107
137 137 96
140 140 86
142 142 79
144 142 76
145 141 76
145 140 79
145 137 86
144 133 95
143 129 105
144 123 115
144 118 124
147 113 130
151 107 134
156 101 136
160 97 135
164 93 132
169 89 130
171 87 126
172 84 125
171 84 123
170 82 123
167 83 123
165 83 124
163 85 123
162 87 122
163 88 120
164 92 116
166 94 113
168 97 111
169 100 111
169 104 112
167 109 115
163 113 120
159 117 126
154 121 131
152 124 134
149 128 134
149 130 130
151 131 124
154 132 116
159 132 106
163 131 96
166 128 90
168 125 87
170 120 87
200 125 77
169 109 96
170 103 102
171 97 108
174 91 112
177 86 116
181 82 118
186 78 119
189 76 119
192 75 119
193 75 119
192 75 121
191 77 121
187 80 122
182 85 122
177 89 121
173 94 118
169 99 114
167 103 109
164 109 103
163 112 98
161 116 94
161 118 91
160 121 89
159 121 91
158 122 94
156 122 100
154 121 107
151 120 116
148 119 123
146 118 131
143 118 136
141 118 140
139 118 142
139 119 140
139 120 136
139 122 130
139 124 123
140 126 114
141 128 106
142 130 98
142 131 92
142 133 87
142 133 86
141 133 86
140 132 90
137 130 96
135 128 105
200 125 77
130 123 123
128 120 133
126 118 141
125 116 147
124 114 150
123 114 152
123 113 150
123 113 148
124 113 143
124 115 136
126 115 130
126 116 123
126 117 118
126 118 113
126 117 111
125 117 110
124 116 112
124 113 115
123 112 119
123 108 125
123 105 132
124 102 137
125 98 142
126 95 147
127 93 150
129 90 152
130 88 153
130 86 153
130 86 151
130 86 149
128 87 147
126 87 145
123 87 144
121 88 143
118 89 142
116 89 143
114 89 144
114 88 145
114 87 146
116 85 147
119 82 148
122 80 149
126 77 150
130 75 150
133 72 151
200 125 77
200 125 77
200 125 77
200 125 77
97 125 154
100 126 145
104 126 136
107 126 128
110 125 120
111 125 114
113 124 111
114 123 110
114 120 113
115 117 116
115 113 122
116 108 129
118 104 134
120 99 140
124 94 144
128 89 148
131 86 149
135 81 151
139 78 150
141 77 148
141 76 148
141 76 146
139 75 146
137 77 145
134 78 145
131 79 145
128 81 145
126 83 144
125 84 143
125 85 142
127 85 141
129 86 139
132 86 138
135 87 137
138 88 137
140 88 138
142 89 140
142 91 142
141 92 145
139 95 146
137 99 147
136 103 145
133 108 142
133 113 136
132 118 128
134 123 118
200 125 77
137 132 98
140 136 88
142 139 81
143 140 78
143 142 77
144 141 80
143 139 87
141 137 96
140 134 106
138 130 117
138 126 126
139 122 133
142 117 138
145 113 139
150 108 138
155 105 134
158 102 130
162 98 127
165 95 123
166 93 120
166 91 119
165 90 119
164 88 120
162 87 122
162 86 123
163 85 123
165 85 122
168 87 119
171 88 117
174 89 116
175 92 116
175 95 118
173 100 120
169 104 125
165 110 128
160 115 131
156 121 131
154 126 127
154 130 121
155 134 111
159 136 101
163 137 90
166 136 82
169 133 77
171 129 77
171 124 80
171 117 87
200 125 77
173 103 101
176 96 108
179 89 113
183 83 116
188 79 117
193 75 118
195 74 118
197 73 118
195 74 119
193 76 120
189 80 120
185 85 120
180 90 118
175 95 115
172 100 111
168 106 105
166 111 99
200 125 77
165 119 88
163 122 86
163 124 85
162 125 87
160 125 92
157 125 99
154 124 107
151 124 115
148 123 124
145 122 132
142 122 137
140 122 140
139 123 141
138 124 138
139 125 133
140 126 127
141 129 118
142 131 108
144 133 99
145 135 90
145 136 85
146 137 80
145 137 80
144 137 81
141 136 86
139 134 94
136 133 102
133 130 113
130 128 123
200 125 77
124 123 141
122 121 148
121 120 151
121 119 152
121 119 150
122 120 145
123 121 139
123 121 132
125 123 124
127 124 116
127 124 110
127 125 105
127 126 101
127 124 102
126 124 103
125 121 108
124 118 114
124 116 120
123 112 128
122 109 136
123 106 142
123 102 147
124 99 151
125 97 154
126 95 154
125 95 153
126 94 151
125 94 148
125 94 145
124 94 142
122 95 139
120 95 137
118 95 137
117 94 137
115 94 138
115 92 140
116 91 141
117 88 144
119 86 146
122 83 147
126 80 149
130 77 150
133 74 150
136 72 151
138 70 151
200 125 77
200 125 77
200 125 77
200 125 77
102 131 132
105 132 122
109 131 114
111 132 107
112 131 104
113 129 104
114 127 106
114 124 111
113 120 118
114 116 125
115 111 133
117 105 140
119 101 145
122 96 150
125 93 152
129 88 153
132 86 152
134 83 151
135 82 149
136 81 147
135 80 146
134 81 144
131 82 143
129 82 143
200 125 77
124 84 144
124 83 145
124 84 144
126 83 144
129 82 143
133 82 141
136 81 141
140 81 141
144 81 140
146 81 141
147 82 142
147 84 144
146 87 144
144 89 145
142 94 143
139 99 140
138 104 135
137 109 128
136 115 120
136 121 110
138 125 102
200 125 77
141 133 87
142 136 83
143 138 82
142 138 85
141 138 90
139 137 99
137 136 109
134 133 120
133 131 129
133 128 136
135 125 141
137 122 142
141 118 141
144 116 137
150 113 131
154 110 125
158 108 119
160 106 114
161 103 111
162 100 111
162 97 112
162 94 115
162 91 118
163 88 120
166 86 121
169 83 122
173 82 121
178 82 119
181 81 120
183 83 120
182 86 121
181 90 123
177 95 125
172 102 127
167 109 126
163 116 124
160 124 117
160 130 108
161 135 97
165 139 85
167 141 76
170 140 69
172 138 67
173 133 70
173 127 76
173 119 85
174 112 94
200 125 77
179 95 110
184 88 114
189 82 116
195 77 117
198 74 117
200 73 117
199 73 118
197 75 118
192 80 118
187 84 118
182 89 117
178 95 113
173 102 108
171 108 101
169 113 95
168 117 90
167 121 85
166 125 82
165 126 82
164 127 85
162 128 90
159 128 98
155 127 107
152 126 116
148 126 125
145 125 133
143 125 137
140 126 140
139 126 139
139 128 136
140 128 130
141 131 122
143 133 112
144 136 101
147 137 92
148 139 84
149 140 78
149 141 74
148 141 75
146 140 78
144 139 83
141 137 92
137 136 102
134 133 113
130 131 124
126 128 135
123 127 142
200 125 77
120 125 151
119 124 151
120 124 148
120 125 143
122 126 135
124 128 126
125 129 117
128 130 108
128 132 101
130 131 97
129 132 94
129 131 94
128 129 97
127 128 102
125 125 109
123 122 117
121 119 127
120 116 135
120 112 143
119 109 149
119 106 154
120 105 155
120 103 155
121 102 153
121 102 150
122 101 146
121 102 142
121 102 138
120 103 133
119 103 131
118 103 129
117 102 129
116 101 131
116 99 133
116 96 136
117 94 138
119 91 142
122 87 145
126 84 147
128 80 150
132 77 151
135 75 151
136 74 151
137 72 152
137 71 152
200 125 77
200 125 77
200 125 77
200 125 77
108 135 109
111 135 103
112 135 99
113 134 99
113 132 102
113 129 107
112 125 115
112 121 123
112 117 132
113 113 140
114 108 147
116 104 151
119 99 155
121 96 156
125 93 154
128 90 153
129 89 150
130 88 147
130 87 145
129 87 143
128 87 141
126 86 141
124 87 141
123 86 142
123 85 143
124 84 144
126 83 144
129 81 144
133 79 144
138 78 143
143 76 142
146 76 141
150 75 142
151 75 142
152 77 142
151 79 142
149 82 142
147 86 141
144 90 139
141 95 135
139 101 130
138 106 123
138 111 116
138 116 108
139 121 101
140 125 95
200 125 77
141 130 90
142 132 92
140 133 97
139 133 105
136 132 114
134 132 123
131 131 133
130 130 139
130 128 144
131 127 145
134 126 143
138 124 138
142 123 131
147 121 123
151 120 115
154 119 107
158 116 103
159 113 100
160 110 101
161 105 104
161 101 108
163 96 112
165 92 116
169 87 119
175 82 120
179 79 121
184 77 121
189 76 119
191 76 120
190 79 120
188 82 122
184 88 122
180 94 123
174 102 121
170 111 116
167 120 107
167 127 97
167 134 85
170 140 73
172 143 65
173 144 60
174 142 61
174 137 66
174 130 76
174 123 86
175 113 97
178 104 106
200 125 77
188 87 115
194 81 116
199 75 116
202 73 116
202 73 116
199 75 116
195 78 117
190 83 116
184 89 114
180 95 111
175 101 106
173 108 99
172 114 92
170 119 86
170 123 82
169 126 79
168 129 79
166 130 83
163 130 89
160 131 97
157 130 107
153 129 116
148 128 126
145 127 133
143 128 137
141 128 139
141 129 137
141 129 133
142 131 126
144 134 116
146 135 106
148 138 96
150 139 87
151 141 79
152 142 74
152 143 71
151 142 72
148 142 76
146 140 83
142 138 93
139 137 103
134 134 115
130 133 125
127 130 135
200 125 77
121 128 148
120 127 151
200 125 77
121 128 145
122 129 139
123 131 130
126 132 121
127 134 111
130 135 102
130 136 95
131 137 90
132 137 87
131 136 88
129 135 91
128 133 97
125 130 106
123 128 116
120 125 125
117 122 136
116 119 144
115 116 151
115 114 154
115 112 156
115 111 156
116 110 154
117 110 148
118 110 143
118 111 137
120 111 131
119 111 127
119 111 123
118 111 121
118 110 121
117 108 123
117 106 125
117 103 129
118 100 134
120 96 139
121 93 143
124 90 146
126 86 149
129 83 151
131 80 153
133 78 153
134 76 153
134 76 152
133 76 151
130 76 151
200 125 77
200 125 77
200 125 77
200 125 77
112 139 95
112 138 96
113 136 99
111 134 105
110 131 113
109 127 122
108 123 132
107 119 142
108 115 149
110 111 154
111 107 158
114 104 158
117 101 157
120 99 154
122 97 150
123 96 147
125 95 142
124 94 140
124 94 138
123 93 137
122 92 137
122 91 138
122 90 139
123 87 141
125 85 142
129 82 143
133 80 143
138 78 143
143 75 143
147 73 143
151 72 142
154 71 142
155 72 141
155 73 142
153 75 142
151 79 141
148 83 139
145 87 136
142 92 133
139 98 127
138 102 122
138 107 116
138 111 110
139 115 105
140 119 101
141 121 100
200 125 77
140 124 106
139 126 111
137 126 119
134 127 127
200 125 77
130 128 141
128 128 146
129 128 146
130 129 143
133 129 137
137 130 129
142 130 119
146 130 109
151 130 100
155 128 93
157 126 89
159 123 89
160 119 91
161 114 95
162 108 101
165 102 107
168 96 112
172 90 117
177 85 119
183 80 119
189 76 120
193 73 120
196 73 119
196 74 119
194 77 119
190 82 119
185 88 119
180 96 115
176 105 109
173 114 101
172 122 90
172 131 78
174 138 67
175 141 61
175 143 59
174 143 61
174 139 69
172 134 79
173 125 92
174 116 102
178 106 110
184 96 115
200 125 77
197 80 117
202 76 115
203 73 115
202 74 115
198 76 115
193 80 115
187 86 113
182 93 110
178 101 104
175 108 98
173 114 90
173 119 84
172 124 80
171 128 77
170 130 78
168 132 82
165 132 89
161 132 99
157 131 109
153 130 118
149 130 126
147 129 133
144 129 137
143 130 137
143 130 135
144 131 129
146 132 121
148 135 111
150 136 101
152 138 91
154 140 82
156 141 75
156 142 70
155 142 70
153 142 72
151 141 76
149 139 84
144 138 94
141 136 105
136 134 116
132 132 127
129 130 136
126 129 144
123 129 148
123 128 149
123 128 148
123 129 142
200 125 77
126 133 125
128 134 116
131 137 105
132 138 96
134 139 89
134 140 84
134 141 82
133 140 83
131 139 88
129 137 95
125 135 105
122 132 115
119 130 126
116 127 136
113 124 146
112 122 152
111 120 156
111 118 158
112 118 156
113 117 152
115 117 147
115 118 139
118 118 132
118 119 125
119 119 119
120 119 115
120 119 112
119 118 112
118 117 114
118 114 117
118 110 123
118 107 129
119 103 135
120 99 141
121 96 146
123 92 150
125 89 153
128 86 154
129 85 154
129 83 153
129 82 152
128 82 151
127 82 149
124 83 148
122 84 147
200 125 77
200 125 77
200 125 77
200 125 77
112 139 97
110 137 104
108 134 114
106 131 124
105 127 134
103 123 144
103 120 151
104 117 157
105 114 160
107 111 161
110 108 159
113 107 155
116 105 151
117 105 145
120 103 140
120 103 135
121 102 132
121 101 130
120 99 131
120 98 132
121 95 134
122 93 136
124 89 139
128 86 140
132 82 143
137 79 143
142 76 143
147 73 143
151 71 143
154 70 143
156 70 142
156 71 141
155 72 141
152 74 141
149 77 140
145 81 139
142 85 136
140 90 132
137 94 128
137 98 124
137 102 119
137 105 116
139 108 112
140 111 111
141 113 112
141 114 114
200 125 77
139 117 124
137 118 132
135 120 138
132 121 143
131 123 145
131 125 145
131 128 142
133 129 136
136 132 126
140 134 116
144 135 105
149 137 94
152 137 85
156 136 80
158 133 78
159 131 79
160 127 83
161 121 90
162 115 98
164 109 105
168 103 111
172 95 117
178 89 120
184 83 121
190 78 121
194 75 120
197 73 118
197 72 119
195 74 118
191 78 117
187 84 116
182 91 112
178 98 107
176 107 99
174 116 89
175 124 79
175 131 71
176 137 65
174 141 64
173 142 69
171 140 77
169 136 88
169 129 100
172 119 109
176 110 116
183 99 119
191 90 118
200 125 77
201 77 115
202 75 114
200 76 114
195 79 114
190 83 113
184 90 110
180 97 105
178 105 98
176 112 90
175 118 84
175 123 79
174 128 76
172 130 78
170 132 83
166 133 90
162 133 100
158 132 110
155 131 119
151 130 128
148 130 133
147 130 135
147 129 135
147 131 131
148 131 125
151 132 116
153 134 107
155 135 97
157 137 88
158 139 79
159 140 73
159 140 70
158 140 71
157 140 73
154 138 79
151 136 87
147 135 97
144 132 108
140 131 118
136 129 129
133 128 137
131 127 143
129 126 147
127 127 147
127 128 143
127 129 138
128 131 130
130 132 121
200 125 77
134 137 100
136 138 92
137 140 85
137 141 81
136 142 80
135 141 82
133 140 87
130 138 95
127 137 105
123 134 116
119 132 127
115 129 138
112 127 147
110 125 154
110 124 157
109 123 158
110 123 155
111 124 150
112 124 143
115 125 134
117 125 126
118 127 118
120 127 111
200 125 77
121 127 103
120 126 104
120 124 106
119 121 111
118 118 117
117 115 125
117 111 132
117 107 139
119 103 145
120 100 150
121 96 154
122 93 156
124 91 156
125 90 155
124 89 153
124 89 150
123 89 148
122 89 146
119 90 143
117 90 143
115 90 143
200 125 77
200 125 77
200 125 77
200 125 77
107 135 115
104 133 125
101 130 137
100 127 147
98 124 155
98 122 160
99 119 164
102 117 163
104 116 160
106 115 155
110 114 149
113 112 142
115 112 135
117 111 130
118 111 126
118 109 124
119 108 123
119 105 125
120 103 127
121 100 130
123 95 134
126 91 138
131 87 141
135 84 142
140 79 144
144 76 144
149 73 144
152 71 144
154 70 143
155 70 142
154 71 142
152 72 142
149 74 141
146 78 139
141 81 139
138 84 137
136 87 135
136 91 131
135 94 128
136 97 125
138 99 122
139 100 121
142 102 121
142 104 122
144 105 125
143 106 129
200 125 77
140 110 139
138 113 142
136 115 145
135 118 143
134 122 140
136 125 134
137 130 124
141 133 113
144 136 102
148 139 90
151 140 81
155 141 75
156 141 71
158 140 71
159 137 75
159 133 81
159 128 90
160 122 100
162 115 109
165 109 116
168 103 120
173 96 124
180 90 124
184 85 123
189 81 121
192 78 119
193 77 118
192 76 118
188 78 118
185 81 116
181 86 114
200 125 77
176 98 104
175 106 96
175 114 88
175 122 81
176 128 76
174 134 76
172 137 81
168 138 90
166 135 101
165 130 111
166 124 118
172 114 123
179 105 123
188 95 120
195 87 117
200 125 77
199 79 113
196 78 114
192 81 113
187 86 111
183 93 107
180 100 101
178 109 92
177 115 86
177 121 80
176 127 77
174 130 79
171 132 83
168 133 91
163 134 101
160 133 111
155 132 121
152 131 128
151 130 132
150 129 134
150 129 132
152 129 127
153 130 120
155 132 111
157 132 103
159 134 93
161 135 85
162 136 78
162 137 74
162 137 72
161 136 73
159 135 77
157 133 83
154 132 91
151 130 101
148 128 110
145 126 120
141 125 129
139 123 137
137 122 141
135 122 144
134 123 143
133 124 140
133 126 134
134 128 126
136 130 117
137 133 107
139 135 97
200 125 77
140 138 84
140 140 80
139 140 80
137 140 82
135 140 88
131 138 97
128 136 107
123 135 118
119 132 130
116 131 139
112 129 148
111 128 154
109 127 157
109 126 157
109 127 154
111 127 147
113 128 139
115 130 130
117 131 120
120 132 111
120 133 104
122 133 99
122 133 96
122 132 97
121 130 100
119 128 105
118 125 113
116 122 122
115 118 131
114 114 139
115 110 146
115 107 152
115 104 156
116 102 157
118 100 157
119 98 156
119 97 152
120 97 149
120 97 145
119 97 141
118 97 139
116 97 137
115 97 136
113 96 137
112 95 139
200 125 77
200 125 77
200 125 77
200 125 77
99 131 140
97 129 150
96 127 157
94 125 163
95 123 166
97 122 165
99 121 161
102 120 155
105 121 147
109 120 138
112 120 130
114 120 123
116 119 119
117 118 116
117 116 116
118 114 117
119 110 120
120 107 124
122 103 129
124 98 134
128 94 138
132 89 142
136 85 144
140 81 145
144 78 146
147 76 145
150 73 145
151 72 144
151 73 142
149 73 142
146 75 142
143 77 141
140 79 141
137 81 140
135 83 139
134 86 137
134 88 135
135 89 133
137 90 131
140 91 129
142 92 129
145 94 129
146 94 131
147 96 133
148 97 135
147 99 138
200 125 77
144 105 142
142 108 142
140 113 138
140 118 132
141 123 123
143 127 113
145 132 102
148 135 91
151 139 81
154 141 74
156 143 69
157 142 69
157 141 72
157 139 78
156 136 87
155 132 97
155 127 107
156 122 116
158 116 123
161 111 127
166 104 129
172 99 128
177 94 125
181 91 122
184 86 120
185 85 117
185 83 116
183 82 116
180 83 117
178 85 116
176 87 115
175 91 111
175 96 106
177 102 99
178 108 95
177 115 91
175 121 93
172 127 97
167 131 105
163 132 113
160 132 121
161 128 126
165 122 126
173 113 124
182 104 119
189 95 115
193 88 112
200 125 77
192 82 112
188 83 113
185 87 110
182 94 105
180 102 98
179 110 90
178 117 84
178 123 80
176 128 81
173 131 85
169 133 93
165 133 103
160 133 113
157 132 122
154 131 128
154 130 131
153 128 132
154 128 129
156 128 124
158 128 116
161 129 107
163 129 99
164 130 91
165 131 84
165 131 79
166 131 76
165 131 76
164 131 77
162 129 82
161 127 88
158 125 96
156 123 105
153 121 113
151 119 122
148 118 129
147 117 135
144 116 139
143 116 140
141 117 139
141 119 135
141 121 130
141 123 122
141 126 114
142 128 105
143 131 97
143 133 90
143 134 85
200 125 77
142 137 82
139 137 86
137 136 92
134 135 100
130 133 110
126 132 121
122 130 131
119 129 141
115 128 148
112 127 154
111 127 156
110 128 155
111 128 151
112 130 144
115 131 135
117 133 124
119 135 114
121 136 105
122 137 98
124 138 92
124 138 90
123 137 91
122 135 96
120 133 102
118 131 110
115 127 120
114 123 131
112 121 139
110 117 148
111 114 154
110 111 158
111 109 159
113 107 158
113 107 155
114 106 151
116 105 146
116 105 141
117 105 136
116 106 132
116 105 130
115 104 130
114 103 130
113 101 132
114 99 134
114 96 138
200 125 77
200 125 77
200 125 77
200 125 77
93 127 161
92 127 164
92 125 167
94 125 165
96 125 160
99 125 153
102 126 144
106 126 135
110 126 126
112 127 117
114 127 111
116 126 108
117 124 107
118 121 110
118 118 113
119 115 118
119 110 125
122 106 131
124 101 137
127 96 142
130 92 145
134 87 148
138 84 148
141 81 148
144 79 147
145 78 145
145 77 144
145 77 142
143 78 142
140 79 141
137 80 141
135 81 141
133 82 141
132 84 140
132 85 139
134 85 138
137 85 136
140 85 135
144 85 134
147 85 134
150 85 134
153 86 135
153 87 137
154 89 138
153 91 140
151 94 140
200 125 77
147 103 136
146 108 130
145 113 123
146 119 114
147 123 105
148 129 95
151 132 86
153 136 78
154 139 74
155 140 73
155 141 75
154 141 80
153 138 89
151 137 98
149 133 109
148 130 119
148 127 126
150 123 131
154 118 133
158 114 133
163 110 130
168 106 124
172 103 119
175 100 115
178 96 112
178 94 110
178 91 111
176 90 112
175 87 115
175 86 116
175 87 115
177 88 113
179 91 110
182 95 106
183 99 105
181 105 106
177 112 110
172 119 115
165 125 122
160 129 127
159 131 128
162 129 126
167 124 121
176 116 114
183 107 108
188 98 106
189 90 108
200 125 77
185 85 112
182 89 110
181 94 105
181 101 98
181 110 90
181 118 85
178 125 84
175 129 88
170 132 95
166 133 105
200 125 77
159 131 123
157 130 129
156 129 130
157 127 129
159 126 125
162 125 120
164 125 112
166 125 104
168 125 97
169 125 90
169 125 85
170 125 82
169 125 80
168 124 82
167 123 84
166 121 88
165 119 94
163 117 101
161 115 109
160 113 115
159 111 123
157 110 128
155 108 133
154 108 135
153 109 136
152 110 134
150 112 131
149 114 126
148 116 120
148 119 113
148 121 105
147 125 98
147 127 92
146 128 89
145 130 87
144 130 88
200 125 77
140 130 97
137 129 105
134 128 113
130 127 124
126 125 134
123 125 141
119 125 148
117 124 153
115 125 154
114 126 152
115 127 147
116 129 140
117 132 130
119 134 120
122 136 109
124 138 100
125 140 93
125 140 88
126 140 87
125 140 87
123 139 92
121 137 100
118 134 109
115 132 120
111 128 131
110 125 141
108 122 150
107 120 156
106 117 160
107 115 161
107 114 159
109 114 154
110 114 149
112 113 143
114 113 136
114 114 130
115 114 125
115 114 122
115 113 120
114 111 122
114 109 124
114 106 127
115 103 131
116 99 137
117 95 142
200 125 77
200 125 77
200 125 77
200 125 77
92 125 167
92 127 164
94 128 159
98 128 151
100 130 141
105 130 131
108 131 121
111 132 112
114 132 105
115 132 101
116 131 101
117 128 103
117 125 108
117 122 114
117 118 121
118 113 130
120 108 137
200 125 77
124 99 148
128 95 150
131 91 151
133 89 151
136 87 149
138 85 146
139 84 144
138 84 142
138 83 141
136 84 140
134 84 139
132 85 139
131 84 140
130 85 140
131 84 140
133 83 140
136 83 139
140 81 139
145 80 137
149 79 137
153 78 136
157 78 136
159 78 137
160 79 137
160 81 138
157 84 138
156 88 136
153 92 135
200 125 77
149 103 125
148 108 118
148 114 110
149 119 101
150 124 93
152 127 87
153 130 83
154 133 80
154 135 82
153 135 87
150 136 94
149 135 103
146 133 114
145 132 123
143 131 130
143 129 135
144 127 137
147 126 135
151 124 131
156 121 125
161 119 117
166 117 110
170 113 105
171 111 100
173 107 99
174 103 101
174 100 103
174 95 108
175 91 111
178 87 114
181 84 115
185 83 114
189 83 113
192 84 112
191 89 112
188 95 115
183 103 119
175 112 123
168 121 125
164 128 124
163 132 120
166 132 112
172 129 102
179 121 97
184 111 95
185 101 99
185 92 105
200 125 77
182 88 111
182 92 107
183 100 99
183 109 92
181 117 89
178 124 91
173 128 99
167 132 107
163 132 116
161 131 124
159 129 128
160 127 129
162 125 127
165 123 122
167 122 116
170 121 108
172 121 101
173 120 95
174 119 91
173 119 87
173 118 87
172 117 87
171 116 88
170 114 91
169 113 95
169 110 100
168 108 106
168 106 112
169 103 118
168 102 122
167 100 127
166 99 130
165 100 131
164 99 132
161 101 131
159 103 128
158 106 123
156 108 118
154 111 112
152 114 107
152 117 101
150 119 97
150 121 94
148 122 94
147 123 94
145 122 98
144 122 103
200 125 77
139 120 118
136 120 126
132 119 135
129 119 142
126 119 147
123 119 151
122 121 150
121 122 148
120 125 143
121 127 136
122 129 127
123 133 116
125 135 106
127 137 97
127 139 90
128 140 86
127 141 85
126 140 87
124 140 92
122 138 100
117 136 110
115 133 121
111 131 133
107 128 143
105 126 152
104 124 158
103 123 161
103 122 161
104 121 158
106 120 154
108 121 146
110 121 138
113 121 130
114 122 123
115 122 118
116 121 114
115 121 112
115 119 113
115 116 116
114 114 121
114 111 126
115 106 133
116 102 139
117 98 144
120 94 149
200 125 77
200 125 77
200 125 77
200 125 77
95 127 157
97 130 148
100 132 138
104 133 127
107 135 116
111 136 107
113 137 100
115 137 96
115 136 96
115 134 99
116 131 104
115 128 111
114 124 120
114 120 129
114 115 138
115 111 145
117 107 150
119 104 153
122 100 154
125 97 153
128 94 152
130 93 148
132 92 144
133 92 141
133 91 138
131 91 136
130 91 135
129 90 136
129 89 136
129 88 137
130 87 138
132 85 139
135 83 139
140 81 139
145 78 139
150 76 139
155 74 138
159 73 137
162 73 137
163 73 137
163 74 137
162 77 136
160 80 136
158 83 134
155 88 132
152 93 127
200 125 77
149 103 116
148 108 110
149 112 104
150 116 99
151 119 95
152 122 93
153 124 93
152 126 96
151 127 103
149 128 109
147 128 117
144 128 126
142 128 133
141 129 138
141 129 139
143 129 137
145 130 132
149 130 124
153 131 115
158 130 105
163 129 97
166 127 90
170 125 85
171 121 85
173 117 86
173 112 91
175 106 96
177 100 103
180 93 108
185 88 111
190 82 113
196 78 114
200 76 114
202 77 113
201 80 115
197 86 116
190 95 118
182 105 119
175 117 115
170 128 108
170 135 98
173 138 87
177 135 79
182 127 78
183 115 85
184 102 96
183 92 106
200 125 77
186 88 109
186 95 103
186 105 97
183 114 98
176 123 101
170 128 109
165 131 118
161 131 125
161 129 128
162 127 128
166 124 123
169 121 119
172 119 112
175 117 106
177 115 100
177 114 96
177 113 93
176 112 92
176 111 91
174 109 94
173 107 96
173 106 98
173 103 103
174 101 106
175 98 110
176 95 115
177 94 118
178 92 121
177 90 125
177 90 126
176 90 127
174 91 127
171 93 126
169 95 124
166 97 121
163 100 118
160 102 114
200 125 77
156 108 106
153 110 104
152 112 102
151 112 102
150 113 103
149 113 105
148 112 110
146 112 115
145 111 122
200 125 77
140 111 135
138 111 140
134 111 145
132 112 147
130 114 147
129 116 144
128 119 139
127 122 132
127 125 124
128 128 114
129 132 105
130 134 97
131 136 90
130 138 87
129 138 87
128 139 88
125 138 94
122 137 102
118 136 112
115 134 123
111 131 135
107 130 145
104 128 154
103 127 158
102 126 161
102 125 161
103 125 157
105 126 151
107 126 143
109 127 134
111 128 125
114 129 116
115 129 110
116 128 106
117 127 104
116 126 106
115 124 109
115 121 115
114 118 121
114 114 129
113 109 137
114 105 144
116 101 149
117 97 154
119 94 156
200 125 77
200 125 77
200 125 77
200 125 77
102 131 135
105 133 124
107 136 113
110 138 104
113 139 97
115 139 93
115 139 93
115 138 96
114 135 102
112 133 110
111 130 119
110 125 130
109 122 139
110 118 147
110 114 153
112 111 156
115 108 157
117 106 156
120 103 153
122 102 149
125 101 143
126 100 139
127 100 135
128 99 132
127 99 130
127 98 129
127 96 130
127 94 132
129 91 134
131 89 135
134 86 137
138 83 138
143 80 139
148 77 139
154 74 139
158 72 139
162 71 138
164 71 137
165 71 136
164 72 136
162 75 135
160 77 135
156 81 133
153 85 131
200 125 77
148 94 124
200 125 77
148 102 114
148 105 111
149 108 107
151 111 105
152 113 105
153 113 108
153 115 111
152 116 117
150 118 123
149 119 128
146 121 134
144 122 138
144 124 138
144 126 137
145 129 131
147 132 123
151 134 112
155 137 101
159 137 90
164 138 80
168 137 74
169 136 70
171 133 71
172 130 74
172 125 80
174 119 88
176 112 96
179 104 103
183 96 110
189 89 113
196 82 114
202 77 114
207 73 113
208 73 113
207 75 113
202 80 113
195 89 112
188 100 109
182 113 101
179 126 89
178 137 76
180 142 64
182 141 60
184 132 66
184 118 80
185 101 96
187 89 107
200 125 77
192 88 107
190 98 104
184 111 105
175 121 111
167 128 119
163 131 125
162 129 128
165 127 126
169 123 121
174 118 116
178 115 109
181 111 104
182 109 100
181 107 98
180 105 97
179 104 97
177 102 99
176 101 101
176 99 103
176 97 105
177 94 108
179 92 111
181 89 113
183 87 116
185 85 117
187 83 120
188 82 121
187 81 122
186 82 123
184 83 123
180 84 123
177 86 122
173 88 121
169 91 119
165 95 116
162 97 114
159 99 112
157 101 110
155 102 110
154 103 110
154 103 111
153 104 112
153 102 116
152 102 120
151 102 125
151 101 129
150 101 134
200 125 77
145 102 141
142 104 143
139 106 143
137 108 140
136 111 136
134 115 130
133 118 122
133 122 114
133 125 106
133 128 99
133 131 94
132 133 91
132 134 90
129 135 93
127 134 99
124 134 106
120 132 116
117 131 126
113 130 137
109 128 147
106 127 154
104 127 159
102 127 160
102 127 160
102 128 155
105 129 148
107 130 139
110 131 129
112 133 119
115 134 110
116 135 103
117 134 99
118 134 97
117 132 99
116 130 103
115 127 110
113 124 118
112 120 127
111 116 136
111 112 144
111 109 151
112 105 155
114 101 158
115 99 159
116 97 158
200 125 77
200 125 77
200 125 77
200 125 77
108 135 112
111 137 103
113 139 96
114 140 93
114 140 93
114 139 96
112 137 103
110 136 111
108 132 122
106 129 132
105 126 142
104 123 150
104 120 156
105 117 160
108 114 161
110 113 158
112 112 154
116 111 148
118 110 142
121 109 136
122 109 130
124 109 125
125 107 123
125 106 122
125 104 123
126 102 125
128 99 127
130 95 131
132 92 134
136 87 137
141 84 138
146 80 139
152 77 139
156 74 140
160 72 139
161 71 139
163 70 138
163 71 137
161 72 137
159 74 136
156 77 135
152 80 134
149 84 132
147 87 130
146 90 127
145 93 124
200 125 77
148 97 119
150 99 116
152 100 116
154 102 117
155 102 119
156 104 122
155 105 126
155 107 130
153 109 134
151 112 136
150 114 137
150 118 134
149 122 129
150 126 121
153 130 111
156 134 100
159 137 88
163 141 77
166 143 68
168 143 63
170 143 62
170 141 64
171 138 70
170 134 78
170 129 87
171 122 98
173 116 106
177 109 112
182 101 117
187 95 118
193 89 117
199 82 116
203 78 114
204 76 112
203 76 112
200 79 111
194 85 110
190 93 105
185 106 95
183 120 82
184 133 66
184 143 55
184 145 53
184 136 64
185 118 83
189 99 100
195 84 109
200 125 77
197 90 108
188 104 112
175 119 118
166 128 124
163 131 126
165 128 124
171 123 119
177 117 113
182 112 106
185 107 102
185 104 100
184 101 100
183 99 101
181 97 102
179 95 105
179 93 107
179 91 109
180 90 110
182 87 112
185 85 113
188 82 115
191 80 116
193 78 116
195 76 118
196 76 118
196 75 119
194 76 119
192 76 120
188 78 120
183 80 120
178 83 120
173 85 119
169 88 119
164 90 118
162 92 117
159 93 117
158 94 117
157 94 117
157 95 117
158 94 119
159 93 120
160 93 123
160 92 126
160 91 130
159 91 133
158 92 135
155 93 138
200 125 77
150 97 138
147 99 136
144 103 133
141 107 127
140 111 121
138 114 115
137 117 109
136 121 103
135 124 99
134 126 97
133 127 97
132 127 100
130 127 105
127 127 112
124 126 121
120 126 130
200 125 77
112 125 147
109 124 154
107 125 158
105 125 159
105 126 157
105 128 152
106 130 144
109 132 134
111 134 123
113 136 114
116 137 105
118 138 97
119 139 93
119 138 92
117 137 95
116 135 99
115 133 106
112 130 116
110 126 126
109 122 137
107 118 146
107 115 153
107 112 158
108 109 161
109 107 161
111 105 158
112 104 156
114 103 151
200 125 77
200 125 77
200 125 77
200 125 77
113 137 97
113 138 95
113 139 95
112 139 98
111 137 105
109 136 113
106 134 124
104 132 134
101 129 145
100 127 153
99 124 159
100 122 162
102 121 162
104 119 160
107 119 154
110 118 147
113 118 140
116 118 132
119 117 125
121 117 119
122 116 116
123 115 114
124 113 115
125 110 117
126 106 121
127 103 126
130 99 130
133 94 134
137 90 138
142 85 140
146 82 141
151 78 142
154 76 141
157 74 140
158 73 140
159 74 138
157 74 138
156 75 137
153 76 137
150 79 136
147 81 135
145 83 134
143 85 133
143 87 131
144 88 130
146 90 127
200 125 77
152 91 124
156 91 124
158 92 125
161 92 126
161 93 129
162 94 131
161 97 133
160 99 134
158 103 134
157 107 131
156 111 127
155 116 121
156 121 111
157 127 101
160 131 90
162 135 80
165 138 72
167 141 65
168 143 63
169 143 64
168 142 68
167 140 76
166 138 85
164 134 96
200 125 77
164 126 114
166 121 121
169 116 124
173 111 124
179 106 122
184 100 119
189 95 115
192 91 111
194 87 110
193 85 110
191 83 111
188 85 111
186 89 108
184 97 101
184 107 91
185 120 77
184 134 67
181 141 67
180 138 76
183 121 93
193 97 105
205 79 109
200 125 77
195 95 114
177 116 121
165 129 125
165 131 123
171 126 116
179 118 109
185 109 105
188 102 102
189 97 102
187 94 103
185 92 105
183 90 108
181 89 110
181 88 111
182 87 112
183 85 113
186 83 114
189 81 114
193 78 115
196 77 115
198 75 116
200 74 116
201 72 117
200 73 117
198 73 118
195 74 118
191 75 119
187 77 119
182 79 120
176 82 120
171 83 121
167 85 121
164 87 121
162 88 121
160 89 121
161 88 121
162 88 121
163 87 122
165 85 123
167 84 125
168 84 126
169 82 129
168 83 130
168 82 133
166 83 134
163 85 135
160 88 134
200 125 77
153 94 131
149 97 128
145 102 123
142 106 118
141 109 114
139 113 109
138 115 106
137 116 105
136 118 104
135 119 107
133 120 111
131 119 117
128 119 125
124 119 133
121 119 141
118 119 148
115 119 153
112 120 156
110 122 156
110 124 153
110 125 148
111 128 140
112 131 131
114 133 120
117 135 110
118 138 101
119 139 94
120 140 90
120 140 90
119 140 92
117 138 97
115 136 106
112 133 116
108 131 126
106 127 138
104 124 147
103 121 155
102 118 160
103 115 163
104 114 162
106 112 159
107 112 155
110 111 149
110 111 143
112 111 137
200 125 77
200 125 77
200 125 77
200 125 77
113 136 99
111 136 103
109 135 110
107 134 118
104 133 128
101 132 138
98 130 148
97 128 156
96 126 162
96 126 164
97 125 164
100 124 160
103 124 154
106 124 145
110 125 136
113 126 126
117 125 118
119 125 112
120 124 108
121 124 106
122 122 107
123 118 111
124 115 115
125 111 121
127 107 127
129 102 132
133 98 137
135 94 141
139 90 143
144 86 144
147 83 144
150 80 143
152 79 141
153 79 139
152 78 139
151 79 137
149 80 136
146 81 136
144 82 136
142 83 136
141 84 135
141 84 135
142 85 134
145 84 133
149 84 131
153 83 130
200 125 77
162 82 129
165 82 129
167 82 130
168 83 131
169 85 132
168 88 131
166 91 131
164 94 130
162 99 126
161 104 120
160 109 114
160 114 106
162 119 97
162 124 89
163 128 81
165 131 76
166 135 72
167 136 72
166 137 76
165 137 81
163 137 89
161 135 100
159 134 110
156 133 118
156 131 125
157 128 129
158 127 130
162 124 127
166 122 123
171 120 115
176 116 109
180 113 103
182 110 98
184 105 97
184 100 99
184 96 102
183 91 107
184 88 110
185 87 110
188 91 105
188 99 99
186 113 93
178 128 93
172 136 99
174 125 110
194 97 113
211 76 109
200 125 77
183 108 119
168 129 120
168 131 115
178 122 106
187 109 102
190 98 103
191 92 104
189 88 107
186 88 109
184 87 111
183 87 111
183 87 111
184 87 111
186 86 111
189 84 111
192 82 112
195 81 113
197 79 113
199 77 115
201 76 115
201 75 116
200 75 117
198 76 116
196 76 117
192 77 117
187 79 118
183 80 118
178 82 119
173 84 119
169 85 120
166 86 121
164 86 122
163 86 122
164 85 123
165 84 123
168 82 124
171 80 124
172 79 125
175 78 125
176 77 126
177 76 128
176 76 129
175 76 130
172 78 131
168 80 132
164 83 131
159 86 130
200 125 77
150 94 125
147 97 122
143 100 119
141 104 116
140 106 114
139 107 113
139 109 112
138 109 115
136 110 118
135 110 123
133 110 129
131 110 136
128 110 142
126 110 148
123 112 151
120 113 154
118 116 153
116 118 150
116 121 145
116 124 137
116 128 127
117 131 117
119 134 107
121 136 99
122 138 93
122 140 89
121 140 89
120 140 92
117 139 98
114 137 107
111 135 117
108 132 128
104 130 140
101 127 149
100 125 157
99 123 161
99 121 164
100 120 162
102 119 159
104 119 153
106 119 146
108 119 138
110 119 131
200 125 77
112 118 120
200 125 77
200 125 77
200 125 77
200 125 77
109 131 115
106 131 123
103 130 133
101 128 143
98 127 152
96 127 159
94 127 163
94 126 165
95 126 164
97 127 159
100 128 152
104 129 142
107 130 132
111 131 122
114 132 113
118 132 105
120 132 100
121 130 99
121 128 101
122 126 104
122 123 109
122 119 117
123 115 124
125 110 131
126 106 138
129 102 142
132 97 147
135 93 148
139 90 148
141 88 147
144 87 143
145 86 141
146 85 139
145 86 136
143 86 135
141 86 134
140 86 134
139 86 134
139 86 134
139 86 134
141 84 135
144 84 134
148 82 134
152 81 133
158 78 133
163 77 131
200 125 77
170 76 130
173 76 130
174 77 130
173 78 131
172 81 130
170 84 129
167 88 127
166 93 122
164 97 118
162 102 113
161 107 106
162 111 100
162 115 94
163 118 90
165 121 86
166 124 85
165 125 88
165 126 92
164 127 98
162 128 105
159 127 114
158 128 121
155 128 128
155 129 131
154 129 132
156 130 129
158 132 122
161 132 115
166 133 104
170 133 95
174 133 85
178 131 78
180 129 75
182 124 76
183 119 79
183 113 85
184 105 93
187 97 101
191 89 106
196 83 109
200 81 109
201 85 108
192 99 111
176 120 118
164 132 124
181 111 119
210 77 109
200 125 77
173 127 111
173 132 102
185 113 99
200 125 77
192 87 107
189 85 110
186 87 110
185 89 108
184 92 106
185 93 104
185 94 104
187 94 104
189 93 106
191 92 107
192 90 110
194 89 112
195 87 115
195 85 117
195 84 118
195 84 118
194 84 117
191 85 116
189 86 115
185 86 115
182 88 113
178 88 114
173 90 114
171 89 115
168 90 116
167 89 117
166 88 119
167 86 120
169 84 121
172 82 122
174 80 123
177 77 124
180 75 125
182 73 126
183 72 126
183 72 126
181 72 128
178 73 128
175 75 129
169 77 129
164 81 129
159 83 129
154 87 127
200 125 77
146 92 125
144 95 123
142 97 122
142 99 120
141 100 120
141 100 122
142 100 124
141 100 128
141 100 131
139 100 137
137 101 141
134 102 145
132 103 149
129 105 150
126 108 149
124 111 147
122 115 141
122 118 134
122 122 125
122 126 117
122 129 108
123 132 101
124 134 95
123 136 92
123 137 91
121 138 94
119 137 101
115 136 110
112 134 120
107 132 131
104 130 142
101 129 151
99 127 159
97 125 163
97 124 165
97 124 162
99 124 157
102 125 150
104 125 142
107 125 133
109 126 124
111 126 117
112 126 112
112 125 110
113 123 110
200 125 77
200 125 77
200 125 77
200 125 77
104 125 137
101 124 147
99 124 154
97 124 161
95 124 165
95 124 166
95 126 163
96 128 157
99 129 150
103 131 139
200 125 77
109 134 118
113 136 108
116 136 101
118 137 95
119 136 94
120 135 95
120 133 99
119 129 106
119 126 114
119 122 123
119 117 132
120 113 140
122 109 146
124 105 150
127 102 152
129 99 151
132 97 149
134 96 146
136 95 142
138 94 139
138 95 134
138 94 132
137 94 130
137 94 129
137 92 129
136 92 130
137 90 131
139 88 132
143 85 133
147 83 133
152 81 133
157 78 133
162 76 133
167 73 133
171 72 132
200 125 77
175 72 131
176 72 130
175 74 129
173 77 128
170 80 127
167 84 125
164 87 123
162 92 119
160 96 115
160 99 111
160 103 107
161 105 104
163 107 101
164 110 100
165 111 101
166 112 103
166 113 107
166 113 113
165 115 118
164 115 123
162 117 128
160 119 130
160 121 130
160 124 127
160 127 121
162 130 113
165 134 102
169 137 90
172 140 79
176 141 70
179 142 62
180 143 57
181 142 57
182 139 60
182 135 67
181 131 75
181 124 86
184 116 95
187 107 103
194 97 108
201 86 111
209 78 110
212 75 109
205 83 112
182 111 118
168 131 117
203 85 108
200 125 77
178 132 90
192 98 100
192 85 109
189 88 107
187 96 100
185 103 94
185 108 89
185 111 88
186 112 88
184 112 92
185 111 96
184 110 102
184 107 109
184 105 113
184 103 117
184 101 120
184 100 121
184 100 119
184 99 118
183 99 115
182 99 112
181 100 109
179 100 106
176 101 104
174 101 103
172 101 103
170 99 106
169 97 108
169 95 110
169 93 113
172 89 116
173 86 118
176 83 121
179 80 122
182 77 123
184 75 124
185 73 125
186 72 125
184 72 126
181 72 127
177 74 127
172 76 128
167 78 128
162 80 129
157 82 129
152 85 129
149 87 128
200 125 77
145 90 127
145 90 127
145 91 127
145 91 127
147 91 129
147 91 130
148 91 133
147 90 137
146 91 140
144 93 143
141 94 146
139 96 146
136 99 145
133 103 142
130 106 139
128 111 133
127 115 125
126 120 117
126 123 110
125 127 103
125 129 99
125 131 96
124 132 96
122 133 99
119 133 106
116 132 114
112 132 123
109 130 134
105 129 144
102 128 153
99 127 159
97 127 163
97 126 164
97 127 161
99 127 155
101 128 148
103 129 138
107 130 128
109 132 118
111 132 111
113 132 105
114 131 102
114 130 103
114 128 105
112 125 111
200 125 77
200 125 77
200 125 77
200 125 77
101 119 156
99 119 162
97 120 165
97 122 164
97 123 162
98 125 156
100 128 148
103 130 137
106 133 126
109 136 114
113 138 105
116 139 97
117 140 92
118 140 91
118 138 93
118 137 97
117 134 105
116 131 114
115 128 124
113 124 134
113 120 142
114 116 149
115 114 153
117 111 155
120 108 154
123 106 152
126 105 148
129 104 142
131 104 136
132 104 131
133 104 127
133 103 124
133 102 122
134 101 122
134 100 123
135 97 125
138 95 126
140 91 129
144 88 131
149 84 133
154 81 134
159 78 134
165 75 134
168 73 133
172 72 132
174 71 132
200 125 77
174 72 131
172 74 130
169 76 129
167 78 128
163 82 127
161 85 124
159 87 123
158 90 121
158 93 118
159 94 116
161 96 113
164 96 113
166 97 112
169 98 113
170 98 115
172 98 118
172 99 121
172 100 124
171 103 126
171 105 127
170 107 127
169 111 124
168 115 119
169 119 112
170 123 103
172 128 92
174 131 83
175 135 74
177 139 65
180 141 59
180 142 58
180 143 58
180 142 63
177 142 70
176 139 79
173 137 90
171 135 100
169 132 110
169 128 118
170 125 122
172 122 122
176 117 120
184 109 117
192 100 111
201 86 108
202 81 108
178 136 85
200 125 77
190 92 103
187 119 79
186 132 65
186 137 60
185 139 59
184 139 63
182 138 69
180 135 79
176 133 89
174 130 99
172 128 108
170 124 117
170 122 122
169 120 125
170 119 124
171 118 122
172 118 118
173 117 113
174 117 106
175 118 100
175 117 95
175 116 91
174 116 89
173 115 89
172 113 91
172 111 93
171 108 98
171 104 103
172 100 108
173 96 112
200 125 77
178 88 120
180 84 123
181 82 124
183 79 124
183 77 126
183 76 126
181 76 125
178 76 126
173 78 126
168 79 127
163 80 128
158 82 129
154 84 129
150 85 130
148 86 130
147 86 130
200 125 77
149 85 130
150 84 131
152 84 131
154 83 132
156 82 134
156 83 135
155 83 138
154 83 140
151 86 141
149 87 142
145 91 142
141 95 139
138 98 137
135 102 132
132 107 126
130 111 120
129 115 114
127 119 108
127 121 105
126 124 103
126 125 103
124 126 106
121 127 111
118 126 119
115 126 127
111 126 137
107 125 146
105 125 154
101 124 160
99 125 162
98 126 162
98 127 159
100 128 153
102 130 144
105 132 133
107 134 123
110 135 114
112 136 105
114 136 100
114 136 97
114 136 97
114 133 100
112 131 107
111 127 115
109 124 124
200 125 77
200 125 77
200 125 77
200 125 77
200 125 77
200 125 77
200 125 77
200 125 77
200 125 77
200 125 77
200 125 77
200 125 77
200 125 77
200 125 77
200 125 77
200 125 77
200 125 77
200 125 77
200 125 77
200 125 77
200 125 77
200 125 77
200 125 77
200 125 77
200 125 77
200 125 77
200 125 77
200 125 77
200 125 77
200 125 77
200 125 77
200 125 77
200 125 77
200 125 77
200 125 77
200 125 77
200 125 77
200 125 77
200 125 77
200 125 77
200 125 77
200 125 77
200 125 77
200 125 77
200 125 77
200 125 77
200 125 77
200 125 77
200 125 77
200 125 77
200 125 77
200 125 77
200 125 77
200 125 77
200 125 77
200 125 77
200 125 77
200 125 77
200 125 77
200 125 77
200 125 77
200 125 77
200 125 77
200 125 77
200 125 77
200 125 77
200 125 77
200 125 77
200 125 77
200 125 77
200 125 77
200 125 77
200 125 77
200 125 77
200 125 77
200 125 77
200 125 77
200 125 77
200 125 77
200 125 77
200 125 77
200 125 77
200 125 77
200 125 77
200 125 77
200 125 77
200 125 77
200 125 77
200 125 77
200 125 77
200 125 77
200 125 77
200 125 77
200 125 77
200 125 77
200 125 77
200 125 77
200 125 77
200 125 77
200 125 77
200 125 77
200 125 77
200 125 77
200 125 77
200 125 77
200 125 77
200 125 77
200 125 77
200 125 77
200 125 77
200 125 77
200 125 77
200 125 77
200 125 77
200 125 77
200 125 77
200 125 77
200 125 77
200 125 77
200 125 77
200 125 77
200 125 77
200 125 77
200 125 77
200 125 77
200 125 77
200 125 77
200 125 77
200 125 77
200 125 77
200 125 77
200 125 77
200 125 77
200 125 77
200 125 77
200 125 77
200 125 77
200 125 77
200 125 77
200 125 77
200 125 77
200 125 77
200 125 77
200 125 77
200 125 77
200 125 77
200 125 77
200 125 77
200 125 77
200 125 77
200 125 77
200 125 77
200 125 77
200 125 77
200 125 77
200 125 77
200 125 77
200 125 77
200 125 77
200 125 77
200 125 77
200 125 77
200 125 77
200 125 77
200 125 77
200 125 77
200 125 77
200 125 77
200 125 77
200 125 77
200 125 77
200 125 77
200 125 77
200 125 77
200 125 77
200 125 77
200 125 77
200 125 77
200 125 77
200 125 77
200 125 77
200 125 77
200 125 77
200 125 77
200 125 77
200 125 77
200 125 77
200 125 77
200 125 77
200 125 77
200 125 77
200 125 77
200 125 77
200 125 77
200 125 77
200 125 77
105 114 157
104 117 151
105 121 143
106 125 133
109 128 123
111 131 113
112 135 104
115 136 98
116 138 94
116 139 93
116 139 95
114 138 101
113 136 109
110 135 119
108 133 129
106 130 140
104 128 148
103 126 156
103 124 159
104 123 161
106 122 159
109 121 154
112 121 147
116 122 138
119 121 130
122 122 121
125 122 115
127 122 109
128 121 106
130 119 106
130 117 108
131 115 110
132 111 115
134 107 120
137 103 126
140 99 130
143 95 134
147 90 137
151 87 138
155 85 138
158 82 139
161 80 137
163 79 135
162 79 134
162 80 132
160 81 131
200 125 77
156 83 129
154 84 129
153 84 129
152 86 128
153 85 128
155 85 127
158 84 127
162 83 126
167 81 125
172 80 124
176 79 123
180 78 123
184 77 123
186 77 123
187 78 123
188 79 123
186 81 122
185 84 121
183 87 119
180 90 116
178 95 111
177 98 107
176 101 103
176 104 99
176 107 95
176 109 93
177 110 91
178 111 91
179 111 92
181 110 96
181 109 101
182 108 105
184 107 109
184 105 114
185 104 117
186 103 118
188 102 118
189 101 116
191 99 114
193 97 110
194 94 107
196 90 106
195 85 108
192 85 109
188 101 96
185 138 60
186 120 77
200 125 77
185 143 57
185 122 80
192 92 104
197 82 109
200 83 108
198 88 109
194 96 111
188 103 115
183 109 119
177 114 122
173 119 122
169 124 120
169 128 113
168 133 104
170 136 94
172 138 84
174 141 74
176 143 65
177 143 60
177 142 59
176 141 61
174 139 66
173 136 73
170 132 83
168 127 93
166 123 103
165 118 112
165 114 119
165 109 125
166 106 128
168 103 129
169 100 129
169 98 126
170 96 124
169 95 121
168 95 119
165 95 117
162 94 117
160 93 118
157 92 119
154 92 121
153 90 123
153 88 125
153 86 127
155 83 129
158 81 130
161 78 131
200 125 77
166 74 133
168 73 133
169 72 133
168 72 134
166 73 135
163 74 137
159 77 137
154 80 136
149 83 135
200 125 77
140 91 131
136 95 129
133 99 125
132 102 122
130 104 121
130 106 119
129 107 119
129 108 121
128 109 125
126 109 130
124 110 136
121 110 142
119 111 149
116 112 154
112 114 157
111 116 158
109 118 157
108 121 152
107 124 145
108 127 137
110 131 126
112 133 117
114 136 107
115 138 99
117 140 93
116 141 91
115 140 93
114 139 97
112 137 104
109 134 114
106 132 125
103 129 136
101 126 146
100 122 154
99 120 160
200 125 77
200 125 77
200 125 77
200 125 77
108 115 142
109 119 134
111 123 123
111 127 114
113 130 106
114 132 101
115 134 98
115 136 97
115 136 100
113 135 106
111 134 114
109 133 124
105 132 134
103 130 143
101 128 152
100 127 159
100 126 162
100 126 162
102 126 159
105 126 153
108 127 145
111 127 136
116 128 126
120 128 117
123 129 109
124 129 103
127 129 99
128 127 99
129 125 100
129 122 105
129 120 110
131 115 117
131 111 124
134 107 130
137 103 136
139 99 140
143 96 142
145 93 143
149 91 142
151 89 140
153 88 138
154 88 134
154 87 133
153 88 130
152 88 128
151 89 126
200 125 77
149 89 126
149 89 126
150 88 127
153 86 127
156 85 127
161 82 127
166 81 126
171 78 126
176 76 126
181 74 125
185 73 124
188 73 123
190 73 122
190 73 122
189 75 122
188 76 121
184 80 119
200 125 77
179 84 117
177 88 115
174 90 113
174 93 110
173 94 109
174 96 107
176 96 106
178 95 106
181 94 107
184 93 108
187 92 109
190 90 111
193 89 112
196 87 113
198 86 114
201 84 115
202 84 113
202 82 113
203 82 111
202 81 110
200 81 109
197 81 110
194 83 110
191 88 106
187 101 96
186 121 76
186 142 55
186 138 59
188 101 95
200 125 77
185 119 87
177 138 85
179 124 99
191 101 108
203 83 110
212 75 109
212 75 109
208 79 111
202 85 113
194 94 113
188 102 110
183 111 105
179 118 97
178 125 88
178 132 77
179 136 68
179 140 62
178 143 58
177 143 59
176 143 62
172 142 69
169 139 79
166 137 90
162 133 102
160 130 112
157 126 122
157 123 127
157 120 131
158 116 132
160 114 130
161 112 126
163 110 122
163 109 118
164 108 112
163 107 109
161 107 107
160 105 107
158 103 108
156 102 110
155 98 114
155 95 117
155 93 120
158 88 124
159 85 126
162 82 128
166 78 130
169 75 131
200 125 77
172 71 133
171 71 133
170 71 134
167 72 134
163 73 135
158 76 135
152 79 135
147 82 135
142 85 134
138 88 133
136 91 131
133 94 129
132 96 128
132 98 126
132 99 126
132 99 128
133 99 130
132 100 134
130 100 139
129 102 143
126 103 148
124 104 152
121 106 154
118 108 155
116 111 153
114 115 149
113 118 143
113 122 134
114 127 124
115 130 115
116 133 106
117 136 99
117 138 94
117 139 92
116 139 94
114 138 99
111 137 106
109 135 116
105 134 126
102 131 138
99 128 148
97 126 157
96 124 162
95 122 165
97 120 165
200 125 77
200 125 77
200 125 77
200 125 77
112 116 126
113 120 119
113 124 111
114 127 106
114 129 104
114 130 104
114 131 106
112 131 111
110 130 120
108 130 128
104 129 138
103 127 147
100 127 155
98 126 161
98 126 163
98 126 163
100 128 158
103 128 152
106 130 143
110 131 132
113 132 122
117 134 112
121 135 102
123 135 96
125 135 93
126 134 93
126 132 95
127 130 100
127 127 106
126 123 115
127 119 123
128 115 131
129 111 138
131 107 143
133 105 146
136 101 147
139 100 146
141 98 144
144 97 139
145 97 136
146 97 131
147 97 127
147 97 124
146 97 122
146 97 120
146 97 120
200 125 77
148 94 122
151 91 123
154 89 124
158 86 125
163 84 126
168 81 126
174 78 126
178 76 126
182 74 125
185 73 125
187 72 124
188 73 123
187 73 123
185 75 122
183 76 122
180 79 121
177 81 120
174 84 119
172 85 119
171 86 118
171 87 117
172 88 116
174 88 115
177 87 114
182 85 114
185 84 114
190 82 113
195 80 114
199 78 113
202 77 113
205 75 113
207 75 113
207 75 112
207 75 111
205 76 111
202 78 111
199 79 111
195 83 109
191 87 108
188 94 102
185 104 94
185 117 80
185 132 65
185 142 56
184 140 63
186 118 85
194 90 105
200 125 77
191 101 106
175 125 110
166 133 117
172 122 121
185 105 119
199 89 114
207 79 111
208 76 110
204 78 110
198 83 109
192 90 107
186 98 102
183 107 94
181 114 86
181 120 79
179 126 74
178 131 70
177 133 71
174 135 76
170 136 83
167 135 93
162 135 104
158 133 114
154 131 124
152 130 130
150 129 133
151 127 133
152 125 131
154 125 125
156 124 118
159 122 112
160 122 105
161 121 99
161 120 95
160 118 94
159 116 95
158 114 97
158 110 101
157 106 107
157 102 112
158 98 117
160 92 122
162 88 126
164 84 129
168 80 130
170 77 132
171 75 132
200 125 77
170 73 132
168 73 133
164 74 134
159 75 135
154 78 135
149 79 136
144 82 136
140 84 136
137 86 135
135 88 134
134 89 134
135 90 132
135 91 132
137 90 133
138 91 134
138 91 136
138 92 139
137 92 143
135 93 146
132 95 149
129 97 151
127 100 152
123 103 150
122 107 146
119 112 140
119 116 132
118 120 125
118 124 116
119 128 108
119 131 101
119 133 97
118 135 96
117 135 98
115 135 102
112 135 110
109 134 119
200 125 77
101 131 141
98 129 150
96 128 158
94 126 164
94 125 166
94 124 165
95 124 161
98 125 154
200 125 77
200 125 77
200 125 77
200 125 77
113 117 118
113 119 114
114 122 111
113 123 111
113 124 114
111 124 119
111 124 126
108 124 134
106 123 142
103 123 150
101 123 157
99 124 161
99 124 163
99 125 162
100 127 157
102 129 150
105 130 141
109 133 130
112 135 119
116 136 108
119 138 100
122 138 93
124 139 89
124 139 89
124 137 92
124 135 97
123 132 105
122 129 115
121 126 124
121 122 133
121 119 141
122 116 146
124 112 150
126 110 151
128 109 149
132 107 146
134 107 141
137 106 135
139 107 129
140 107 123
141 107 119
142 107 115
143 107 113
144 105 113
144 104 114
146 102 115
200 125 77
151 96 120
155 93 123
159 89 125
163 87 126
168 83 128
173 81 128
176 78 128
179 77 128
181 76 126
182 76 125
182 77 124
181 78 123
178 79 122
176 81 121
173 82 121
170 84 121
169 85 120
168 86 120
168 87 119
170 86 119
172 86 118
176 84 118
180 83 117
185 80 117
190 79 116
195 76 116
199 75 115
203 73 115
205 73 114
206 73 114
206 74 113
205 75 112
201 78 112
198 80 112
194 84 110
190 89 108
187 94 103
185 101 98
184 108 90
184 118 80
184 129 69
184 138 62
182 142 63
180 139 73
200 125 77
191 100 103
203 81 109
200 125 77
197 92 112
179 114 120
165 129 125
165 130 125
173 123 118
184 109 112
191 97 108
195 89 107
193 85 109
190 84 111
186 86 111
183 90 108
181 95 104
180 102 98
180 106 94
179 112 91
179 116 90
176 120 94
172 122 100
168 125 107
163 126 116
158 127 124
154 128 130
152 129 133
151 129 133
150 131 129
152 131 123
154 133 114
156 133 105
159 133 97
161 133 88
161 133 83
162 131 80
162 129 80
160 126 84
159 123 88
158 118 95
158 113 103
157 108 111
158 104 117
159 98 123
162 93 128
164 89 131
166 85 132
168 82 133
168 80 133
168 78 133
200 125 77
163 77 133
159 79 132
155 79 133
150 81 134
145 82 135
141 83 136
138 84 137
137 84 137
136 85 137
137 85 136
139 84 136
140 84 136
142 84 137
144 83 139
145 83 140
144 83 143
144 84 145
141 86 147
139 88 148
135 91 148
132 95 147
128 100 143
126 104 139
124 108 133
122 113 126
121 117 119
121 121 112
120 124 106
120 127 103
120 129 101
117 131 103
116 130 108
113 131 114
110 130 123
106 130 133
102 129 143
99 127 153
96 127 159
94 127 164
94 126 165
93 126 164
95 127 159
97 128 152
100 129 143
102 130 133
200 125 77
200 125 77
200 125 77
200 125 77
113 114 119
113 115 120
113 117 121
200 125 77
111 117 132
110 116 139
108 116 146
106 116 153
104 117 159
102 118 162
102 119 163
101 122 160
102 123 156
103 126 149
106 129 138
109 132 127
112 135 116
116 136 106
118 139 97
121 140 91
122 141 88
123 140 88
122 139 92
121 138 98
120 136 106
118 133 116
117 130 127
116 127 136
115 124 144
115 121 150
116 119 154
118 117 154
120 116 152
123 116 147
126 116 141
130 116 133
133 116 125
135 117 118
137 116 113
138 117 108
140 116 105
141 115 104
142 113 106
143 111 108
144 108 112
146 105 116
200 125 77
153 98 124
157 94 127
161 91 130
164 88 132
167 86 131
170 84 131
172 83 130
173 83 128
173 83 127
173 84 124
171 85 122
170 87 120
168 88 119
166 89 118
165 90 117
165 90 117
165 90 117
167 89 117
170 88 117
174 87 116
178 84 117
183 83 116
188 80 117
192 79 116
196 77 117
199 76 116
200 76 116
201 77 115
199 78 115
198 80 115
195 83 113
192 87 111
189 91 108
186 96 104
183 102 99
182 108 92
183 114 84
183 121 77
183 128 71
183 135 67
181 139 68
178 140 75
176 135 87
178 123 100
187 105 109
201 87 110
210 75 110
200 125 77
199 89 114
183 107 118
172 124 117
168 134 109
172 134 100
177 127 93
183 116 92
185 106 95
185 97 101
183 91 107
182 88 111
181 87 112
182 88 111
183 90 109
185 92 107
185 97 106
184 100 108
181 103 112
176 108 116
171 111 123
166 115 127
162 119 130
158 123 129
156 126 126
155 130 119
156 134 110
157 136 100
159 139 90
161 140 80
163 140 74
164 140 70
163 139 69
162 137 72
160 134 78
159 130 85
157 125 95
155 121 104
154 115 114
155 110 122
156 104 128
157 100 133
159 95 135
161 92 135
162 89 135
162 88 133
161 86 132
160 85 131
200 125 77
153 85 130
149 86 130
146 86 131
142 86 133
140 85 135
139 84 136
138 84 137
140 83 137
142 81 138
144 80 138
146 79 138
150 77 139
151 77 139
152 77 141
151 77 142
149 78 144
147 81 145
143 84 145
139 88 144
135 92 142
132 96 138
128 100 134
125 105 129
124 110 122
122 114 117
122 117 112
121 119 110
120 122 108
119 124 109
118 124 113
115 124 121
112 124 128
109 124 137
105 124 146
102 123 155
99 123 161
97 124 164
95 125 165
96 126 162
96 127 157
98 129 149
100 131 139
104 133 128
106 135 118
108 136 109
200 125 77
200 125 77
200 125 77
200 125 77
113 108 130
113 109 133
114 108 138
112 109 143
111 109 149
110 109 154
109 110 159
106 111 162
105 113 162
105 115 159
106 118 154
106 122 146
108 125 137
110 128 127
113 132 115
115 135 106
118 137 98
120 138 92
121 139 90
121 140 90
120 140 94
119 138 101
117 137 109
115 134 120
112 132 130
111 130 140
109 128 148
109 126 153
110 124 157
111 123 156
114 122 154
116 123 147
120 123 140
123 124 131
127 124 122
130 125 113
133 125 106
135 125 101
137 125 97
138 124 97
140 122 98
140 120 102
142 117 106
142 114 112
144 110 118
146 107 124
200 125 77
151 100 133
154 97 135
157 94 136
159 93 136
162 92 134
163 92 131
164 92 128
164 93 124
164 94 120
163 95 118
162 96 115
162 97 113
162 97 112
162 97 112
163 96 112
165 95 112
168 94 112
171 92 114
175 90 115
179 88 116
183 86 117
187 84 118
189 83 119
191 82 119
193 82 119
192 83 119
192 85 117
190 87 116
188 91 113
185 94 110
183 99 105
181 104 100
180 109 93
181 114 87
181 119 80
181 125 74
181 130 71
181 134 69
178 138 73
175 139 80
173 137 90
172 131 102
175 121 110
183 108 115
196 91 115
207 79 112
212 74 110
200 125 77
197 90 112
185 108 108
177 124 100
175 136 87
177 140 76
180 138 70
182 130 71
183 120 78
182 110 89
182 100 99
183 92 106
186 86 111
189 82 113
192 81 113
194 81 113
195 83 113
192 86 116
189 90 119
184 96 121
179 101 123
173 107 123
168 113 121
165 119 116
200 125 77
163 130 99
163 135 88
164 139 78
165 141 71
166 143 65
165 143 64
163 143 66
162 140 72
158 138 80
156 134 90
152 130 102
150 126 112
149 121 122
150 116 129
150 111 135
151 107 137
153 103 138
154 102 135
155 99 133
155 97 130
155 96 128
154 95 125
152 94 124
200 125 77
146 92 125
144 91 127
141 90 129
140 88 132
141 86 133
142 84 135
144 82 136
147 79 137
150 77 138
154 74 139
156 73 139
157 73 139
157 72 140
156 73 141
153 75 142
149 78 142
145 80 142
140 85 141
136 89 138
132 93 135
128 98 131
126 102 127
124 105 123
123 108 120
122 112 117
122 113 116
121 115 118
120 116 120
118 117 126
115 117 133
113 117 140
109 118 148
106 118 155
103 119 160
100 121 163
99 122 163
99 124 160
99 126 153
100 129 145
103 131 135
105 134 124
108 136 114
110 138 105
112 138 99
112 139 95
200 125 77
200 125 77
200 125 77
200 125 77
116 100 142
117 100 147
116 101 151
115 101 155
113 102 158
112 105 159
110 107 159
110 109 157
110 112 152
110 116 145
110 120 136
111 124 127
114 127 117
116 131 107
117 133 101
119 135 95
119 136 94
120 137 94
119 137 98
117 136 105
115 135 114
112 134 124
110 131 135
108 130 144
106 128 152
105 128 156
105 127 159
107 126 158
109 127 154
111 128 147
200 125 77
119 129 128
124 131 117
127 131 108
130 133 99
133 133 94
134 132 91
136 132 90
136 130 92
137 128 97
137 125 103
138 121 111
138 118 118
139 115 125
140 112 131
142 109 136
200 125 77
146 104 141
148 102 140
150 102 137
152 102 133
154 102 129
156 103 123
157 103 118
157 105 113
157 105 110
157 106 106
159 106 104
159 106 104
160 106 104
162 104 105
165 102 107
167 100 110
170 98 113
172 95 117
175 94 119
179 92 120
181 90 123
182 90 123
182 91 123
182 92 122
182 94 120
181 96 117
179 100 113
178 104 107
178 108 101
177 112 94
177 117 87
178 121 80
178 126 75
179 129 71
179 132 70
178 136 71
176 137 76
173 138 84
170 136 95
168 133 105
169 127 114
173 119 119
182 107 120
192 95 117
201 84 114
207 76 111
206 76 111
200 125 77
191 95 106
184 111 96
181 126 83
181 137 68
181 144 58
182 144 55
182 138 61
182 128 72
181 117 85
183 105 97
186 95 106
191 86 111
196 80 112
200 76 114
203 74 114
202 76 114
199 79 116
195 82 118
189 88 118
184 95 117
177 102 114
173 110 109
170 116 102
168 124 92
168 129 83
167 134 75
167 138 69
166 141 66
165 142 67
162 141 72
159 140 80
155 138 90
151 136 101
147 132 113
145 129 123
143 126 131
142 122 137
143 118 140
144 116 139
147 113 137
148 111 133
150 109 128
151 107 123
151 106 119
149 106 116
149 104 115
147 102 116
200 125 77
143 97 121
143 94 124
143 91 127
144 88 130
146 84 133
149 81 135
152 78 136
156 75 137
159 72 138
160 71 139
161 70 139
160 71 139
157 72 140
154 73 141
149 76 141
145 79 140
140 83 139
135 86 138
130 91 135
127 95 132
126 98 129
124 101 127
123 103 125
123 105 124
123 106 125
123 107 127
121 108 132
120 109 137
117 109 143
115 110 150
112 111 155
109 112 159
106 114 161
104 117 160
104 120 156
103 123 151
103 127 142
105 130 132
107 133 121
109 135 111
112 138 102
113 139 96
113 140 93
113 140 93
112 139 97
200 125 77
200 125 77
200 125 77
200 125 77
121 93 152
120 93 155
119 94 157
118 96 158
116 99 157
114 102 155
114 105 150
114 110 143
113 114 136
113 118 128
115 121 119
116 125 111
116 128 105
118 130 101
118 132 99
118 132 101
117 132 105
116 132 111
113 131 120
111 130 129
109 128 139
106 127 148
105 126 155
103 126 159
103 127 160
105 127 158
107 128 153
110 129 146
113 131 136
117 133 125
121 135 114
124 136 104
128 137 95
130 138 89
133 137 86
134 137 86
134 136 88
134 133 94
133 131 101
133 128 110
132 125 119
132 122 128
132 118 136
133 116 140
134 114 144
136 112 145
200 125 77
141 111 140
144 111 134
145 112 128
148 113 120
150 113 114
152 115 107
152 115 103
154 116 99
155 116 96
156 116 96
157 114 98
159 112 100
160 110 104
162 109 107
164 106 112
166 104 117
168 102 121
169 100 125
170 100 126
172 99 127
173 100 127
172 101 125
173 103 122
173 106 116
173 108 111
172 112 104
173 117 96
173 120 89
174 124 81
175 128 75
176 131 71
176 133 69
177 135 70
175 136 73
173 137 80
171 137 89
167 136 99
166 133 109
164 130 117
167 123 123
173 116 123
180 107 121
190 97 117
197 88 113
201 81 112
200 79 111
196 81 111
200 125 77
185 101 99
182 114 87
182 127 72
182 138 61
182 143 56
180 143 59
178 139 68
177 131 81
179 120 94
181 108 104
187 97 111
193 88 114
199 80 115
203 75 114
205 73 114
203 73 115
200 75 116
194 80 115
188 85 115
182 93 112
177 99 108
173 107 101
171 114 94
170 119 87
169 125 80
168 130 76
166 133 75
164 135 78
160 136 84
156 136 93
152 135 104
147 134 115
144 131 126
141 129 134
138 128 139
138 126 141
139 124 141
141 123 136
143 122 130
145 121 124
147 119 117
148 119 111
149 117 106
148 116 104
147 113 104
146 111 106
145 107 110
200 125 77
145 100 119
146 95 124
200 125 77
149 86 132
152 82 135
156 78 136
159 75 137
160 73 138
161 72 138
161 70 139
159 71 139
156 72 140
151 74 140
147 76 140
141 79 141
136 82 140
132 85 139
129 88 137
126 91 136
125 93 134
125 95 132
125 97 131
125 98 132
126 98 133
126 98 137
125 100 140
123 100 145
122 102 149
119 103 154
117 104 157
113 108 158
111 111 157
109 114 154
108 118 147
108 122 139
109 126 129
110 129 120
112 132 111
112 135 103
114 137 97
114 139 94
113 139 95
112 139 98
109 138 105
107 135 115
200 125 77
200 125 77
200 125 77
200 125 77
125 87 156
124 88 156
122 92 155
120 95 153
118 98 149
116 102 144
116 107 137
115 111 130
115 114 123
115 118 117
116 120 112
117 122 109
117 125 107
117 126 108
116 125 113
115 125 119
113 125 126
111 125 134
109 123 143
107 123 150
105 123 157
104 124 159
104 124 160
104 126 158
106 127 152
109 129 144
112 131 134
115 134 123
120 136 111
123 138 101
127 140 92
129 140 86
131 140 84
132 140 84
131 139 88
130 137 94
129 135 103
128 132 112
127 130 122
126 127 131
125 124 139
125 122 145
126 121 148
127 119 149
129 119 146
132 118 142
200 125 77
138 121 126
141 121 118
144 123 109
147 124 101
149 124 96
150 125 91
152 125 89
153 124 89
154 123 91
155 121 95
200 125 77
156 117 106
157 114 113
158 113 118
159 110 124
160 109 128
160 108 131
161 108 132
162 109 130
163 110 127
164 112 122
165 114 116
166 117 108
167 120 100
168 124 91
170 127 83
172 130 76
173 133 70
174 135 68
174 136 68
173 138 70
172 138 75
170 138 83
167 136 93
164 135 104
162 133 113
161 130 120
163 126 125
167 120 126
174 114 123
181 106 119
187 99 115
192 91 112
194 86 110
193 83 111
190 83 112
186 87 110
200 125 77
182 105 94
181 116 83
180 127 73
179 135 68
177 140 70
174 140 78
171 136 89
170 130 101
172 120 111
177 109 117
184 99 120
190 91 119
196 84 117
198 79 116
199 77 115
197 76 115
192 78 116
186 81 116
181 87 113
177 92 111
173 98 106
171 103 101
170 109 96
169 114 91
168 118 89
166 121 90
164 124 94
160 126 100
156 128 108
151 128 118
146 128 127
142 128 135
139 129 139
138 128 141
138 129 139
139 129 135
140 129 128
143 129 119
145 129 111
146 129 103
148 128 97
149 126 93
149 125 92
148 122 94
147 118 98
146 114 104
145 110 110
200 125 77
146 99 124
148 95 129
151 89 133
154 85 136
157 81 137
158 78 138
160 76 138
160 73 139
158 74 138
155 74 139
152 75 139
147 76 140
142 78 141
137 80 141
133 82 141
130 84 141
127 86 140
126 88 139
127 88 138
127 90 137
128 90 137
130 90 138
131 90 140
131 91 143
130 92 145
129 93 149
127 94 152
124 97 154
121 99 155
119 103 153
116 107 151
114 111 145
113 116 137
113 120 129
113 125 120
113 129 111
114 131 104
114 134 99
114 136 97
114 136 97
112 137 101
110 136 108
106 135 118
103 134 127
100 131 139
200 125 77
200 125 77
200 125 77
200 125 77
126 85 154
124 88 152
122 91 149
119 95 145
117 99 140
116 104 133
115 107 128
115 110 123
116 113 119
116 115 117
116 117 115
116 118 116
116 118 120
115 118 125
115 118 132
112 118 139
110 118 146
109 118 152
108 117 158
107 118 160
106 120 159
106 122 156
108 123 151
110 127 142
113 129 132
116 132 121
119 135 110
122 137 100
125 139 92
127 141 86
128 141 85
129 141 85
129 139 90
127 139 96
126 136 105
124 134 116
122 132 125
119 130 135
119 128 143
118 126 149
118 125 152
120 125 151
122 125 148
125 125 141
129 126 133
132 128 124
200 125 77
139 130 105
143 131 96
146 132 89
148 132 85
149 132 83
151 131 83
150 130 87
151 128 92
150 126 99
150 124 107
151 122 114
150 119 122
150 117 129
150 116 133
150 115 136
152 115 136
153 116 133
154 118 129
156 120 122
158 122 114
160 125 105
162 127 96
164 131 86
167 133 78
169 135 71
170 138 67
171 138 66
171 139 67
170 140 71
168 139 79
166 138 87
164 137 97
161 135 108
160 132 117
159 129 124
160 126 128
164 122 128
168 117 125
174 112 121
180 106 115
184 101 110
188 94 109
188 89 109
186 86 111
184 85 113
182 87 112
180 91 109
200 125 77
180 106 94
180 115 87
178 124 84
174 131 86
169 134 94
165 135 103
163 132 114
163 127 121
166 120 125
171 112 125
179 104 122
185 96 119
189 91 116
190 86 114
189 83 114
186 82 115
182 83 116
178 84 117
174 87 116
172 91 113
170 95 110
170 98 107
170 102 104
169 105 103
169 109 104
166 111 108
162 115 113
158 117 120
153 119 127
149 121 133
145 123 138
142 126 139
140 128 137
140 130 132
141 132 124
143 134 114
145 135 105
148 136 95
149 136 88
150 136 83
150 134 81
149 132 83
147 129 88
146 124 95
146 119 103
144 115 111
145 110 119
200 125 77
147 99 132
149 94 136
152 89 139
154 86 139
156 82 140
156 80 139
156 78 139
154 78 138
150 79 138
146 79 138
142 80 139
137 81 140
133 82 141
130 84 141
129 83 142
128 84 142
129 84 141
130 84 141
132 83 141
134 84 141
136 83 142
137 83 143
138 84 145
137 85 147
135 86 150
132 88 152
129 92 151
126 95 151
123 99 148
200 125 77
118 108 138
116 114 130
116 118 122
115 123 114
115 126 107
116 129 103
115 131 101
114 132 102
113 133 106
110 132 113
107 132 122
103 131 132
100 130 142
96 128 152
94 127 160
200 125 77
200 125 77
200 125 77
200 125 77
124 85 149
121 89 146
118 93 142
117 97 138
115 100 134
114 103 130
114 106 127
115 107 125
115 109 124
116 109 126
117 110 127
116 110 132
116 110 137
115 110 143
114 110 149
113 110 154
111 111 158
110 112 159
110 114 158
110 117 154
111 119 149
112 122 140
114 126 130
116 129 120
119 131 111
122 134 101
124 136 94
126 138 89
127 138 88
126 139 89
126 138 94
124 137 101
123 136 110
120 134 120
118 132 130
116 131 139
114 129 147
114 128 152
114 127 154
116 127 153
118 128 148
121 129 141
124 130 132
128 132 122
132 133 111
136 135 101
200 125 77
143 138 84
145 138 80
146 138 79
147 137 80
147 135 85
146 134 91
146 132 99
145 129 108
143 127 118
143 125 125
142 123 133
141 123 137
142 121 140
143 122 139
145 122 136
147 124 130
149 126 122
152 128 112
155 131 102
159 133 91
161 136 82
164 138 74
166 139 68
168 141 65
168 141 65
168 141 68
167 140 74
165 139 82
163 138 92
160 135 103
158 133 113
156 131 121
156 129 127
158 126 129
161 122 129
165 118 126
170 115 120
200 125 77
179 106 110
183 102 106
183 97 106
182 93 107
181 89 110
179 87 113
179 86 114
179 89 111
180 93 107
200 125 77
181 106 98
179 113 98
175 120 102
169 126 108
163 129 117
158 131 124
157 130 129
159 127 129
163 123 127
169 117 122
175 110 116
178 105 112
181 99 109
181 94 109
179 90 111
177 88 113
174 87 116
172 86 118
171 86 118
171 88 116
173 89 114
173 91 113
174 94 113
173 96 114
172 99 117
169 102 121
164 105 127
159 109 132
155 113 135
151 117 135
147 122 133
145 126 128
145 130 120
146 133 111
147 136 101
149 138 91
150 141 81
152 140 77
151 141 74
151 139 75
149 137 80
147 133 87
145 129 96
143 124 107
142 119 116
142 114 125
142 108 133
200 125 77
145 99 141
147 95 142
149 91 142
151 88 140
150 87 138
149 86 136
147 86 135
144 85 135
141 85 136
138 85 136
134 85 138
131 85 139
130 84 141
130 83 142
130 83 142
132 82 142
135 80 142
138 79 142
141 78 143
143 77 143
144 77 145
143 78 146
142 79 148
140 81 149
136 84 149
132 88 148
128 92 146
125 96 143
122 102 137
120 106 132
118 111 125
117 115 119
117 119 113
116 122 110
116 125 107
115 126 108
113 127 112
111 128 118
108 127 127
105 127 136
101 126 145
98 125 154
95 125 161
92 126 165
91 126 167
200 125 77
200 125 77
200 125 77
200 125 77
120 87 145
116 91 142
115 94 139
114 96 137
113 98 135
114 100 133
115 101 132
116 101 133
117 101 135
118 101 138
119 101 142
119 102 146
118 102 150
117 102 154
116 103 157
116 105 157
115 107 156
114 110 153
115 113 147
115 116 139
116 120 130
118 123 122
119 127 112
121 130 104
122 132 98
124 134 94
125 134 93
125 135 94
124 135 99
122 134 107
120 132 116
118 131 126
116 129 135
114 128 144
113 127 150
111 127 154
112 127 155
113 127 154
115 129 148
118 130 141
122 132 130
126 133 120
130 136 108
135 137 97
137 140 88
140 140 82
200 125 77
144 141 77
144 140 80
143 139 84
142 137 92
141 135 102
139 133 111
137 131 121
136 128 130
135 127 137
135 126 142
135 126 143
137 125 142
139 127 137
141 129 129
145 130 121
148 132 110
152 135 99
156 137 88
158 139 79
162 140 72
163 142 67
165 142 65
165 143 66
164 142 70
163 140 78
161 139 87
158 137 97
156 134 108
155 132 117
155 129 125
155 126 130
156 125 131
159 121 130
163 119 126
167 117 120
171 113 114
176 110 108
178 107 104
180 102 103
179 98 104
178 94 107
177 90 111
177 88 113
178 87 114
179 87 113
181 89 111
184 92 108
200 125 77
181 104 108
177 111 112
170 117 118
163 123 124
158 128 129
155 130 131
156 130 128
159 129 122
163 126 115
168 122 108
172 118 102
175 113 98
176 107 99
175 102 102
173 97 106
172 93 111
171 89 115
172 86 118
174 84 119
177 83 118
179 83 118
181 83 118
181 85 120
180 87 122
177 90 125
172 95 127
167 99 130
162 104 131
157 110 130
154 116 125
152 122 118
151 126 110
151 132 99
152 136 88
152 140 80
153 141 74
153 142 71
152 143 71
150 141 76
147 139 83
145 136 93
141 132 104
138 127 116
137 123 126
136 117 135
137 113 140
138 109 143
200 125 77
142 102 143
143 99 141
145 97 137
144 95 135
144 95 131
142 93 130
139 93 130
137 92 130
135 90 132
132 89 135
131 87 137
131 85 139
132 84 140
135 81 141
138 79 142
141 76 143
144 75 143
147 73 143
149 73 143
149 72 145
147 73 146
145 76 146
142 78 147
138 81 146
133 85 145
130 89 143
126 94 139
122 99 134
120 103 130
118 108 124
118 111 120
117 114 117
116 116 116
116 118 116
115 119 119
112 121 124
110 121 131
108 121 139
104 121 148
100 121 156
97 122 162
95 122 165
94 123 166
93 125 163
95 127 157
200 125 77
200 125 77
200 125 77
200 125 77
114 89 144
113 90 143
113 92 141
114 93 140
115 94 139
117 94 139
119 94 140
121 93 143
122 93 146
123 93 149
123 93 152
123 93 155
122 95 156
121 96 156
120 99 155
119 103 151
118 106 145
118 110 139
118 114 131
119 116 124
120 120 116
121 123 109
121 126 104
122 128 101
123 128 101
123 129 102
122 129 107
121 128 114
119 128 121
117 126 131
115 125 140
114 125 146
112 124 152
111 124 156
112 124 156
113 126 153
115 127 147
118 129 139
121 132 128
125 133 118
129 136 106
133 138 95
136 140 87
138 141 81
140 142 78
141 141 78
200 125 77
140 139 88
138 138 96
136 137 105
134 134 116
133 132 125
131 130 134
130 129 140
129 128 145
130 128 145
132 128 143
134 130 137
137 131 129
141 133 119
145 135 107
149 137 97
153 139 86
157 140 77
159 142 70
161 143 66
162 143 66
162 143 68
161 141 74
159 140 82
157 138 92
155 135 102
154 133 112
152 130 121
152 127 128
152 125 132
155 123 132
158 121 130
161 118 126
166 116 120
169 114 114
172 112 107
175 109 103
176 106 101
176 103 101
175 99 104
175 94 108
175 90 112
176 88 114
179 85 115
182 84 115
185 85 113
187 87 112
187 91 112
200 125 77
180 102 119
173 109 123
167 116 128
161 123 128
158 128 126
158 131 121
159 133 113
163 133 103
167 132 93
170 129 88
172 124 86
173 118 87
173 112 91
172 106 98
172 99 105
172 93 111
200 125 77
178 84 117
181 80 119
185 77 120
187 77 120
188 78 120
187 79 122
184 82 124
179 86 126
174 91 127
168 97 126
164 104 122
159 110 117
157 117 110
155 123 101
155 128 92
155 133 83
155 137 76
154 140 73
152 141 73
151 141 77
148 140 84
144 138 94
140 135 105
136 133 116
134 128 128
132 125 136
131 121 142
131 118 145
133 114 146
135 112 144
200 125 77
139 108 135
140 106 131
140 105 127
140 103 124
138 102 123
136 101 122
135 98 124
133 96 127
132 94 130
133 90 133
134 86 137
136 83 139
139 81 140
143 77 141
147 74 142
149 72 143
151 71 143
153 70 143
151 71 144
150 71 145
147 73 145
142 76 145
137 80 144
132 84 143
129 88 141
124 92 138
121 96 134
119 100 131
118 104 127
118 106 125
117 109 123
117 111 123
117 111 126
115 113 130
114 113 136
111 114 143
108 114 150
104 115 157
102 116 161
100 118 164
98 120 164
97 122 161
97 125 155
99 127 147
100 131 136
200 125 77
200 125 77
200 125 77
200 125 77
112 87 147
114 88 145
115 88 145
118 87 145
121 87 145
123 86 147
126 85 148
128 85 150
128 86 151
128 86 154
127 87 155
126 89 154
125 92 153
123 95 150
122 98 146
120 102 140
120 106 134
119 110 127
119 113 121
119 116 115
121 118 111
121 120 109
121 122 108
200 125 77
121 121 115
120 121 121
119 121 128
118 119 136
116 119 143
115 118 150
114 119 154
114 119 156
113 120 156
115 122 152
116 124 146
118 126 137
121 129 127
124 131 117
128 134 106
131 136 96
134 138 88
136 139 83
137 140 81
138 140 81
138 140 85
136 138 92
200 125 77
133 135 110
130 133 121
128 131 131
127 130 138
126 129 144
126 128 147
127 128 147
129 129 143
131 131 136
135 132 128
139 134 117
142 136 106
147 138 94
151 139 85
154 141 76
157 142 71
158 143 68
158 142 69
159 141 73
157 140 79
155 138 87
154 136 97
152 132 108
151 130 117
150 128 125
151 125 131
152 123 133
154 120 134
157 118 131
161 117 126
164 115 120
167 114 113
171 112 106
172 110 102
173 108 100
173 104 101
173 101 102
173 97 106
173 93 110
175 89 113
177 86 115
181 83 116
185 81 116
188 81 115
191 83 115
190 86 116
187 91 118
200 125 77
175 104 125
170 112 125
165 119 124
161 126 118
161 132 109
162 136 99
165 139 88
168 139 79
171 136 74
172 133 73
172 128 76
171 121 83
171 114 91
172 106 100
173 99 107
176 91 113
181 85 116
185 80 119
189 76 119
191 73 121
193 72 121
192 73 122
189 76 123
183 80 123
178 85 124
173 91 122
167 97 119
163 105 112
160 111 106
157 118 98
157 123 90
156 128 84
155 131 81
154 134 79
152 136 82
149 137 88
144 137 97
140 135 108
135 134 119
132 131 130
129 129 138
128 126 145
127 124 148
128 123 147
130 121 144
131 119 140
134 118 133
200 125 77
137 115 121
138 113 117
137 112 114
137 110 113
136 108 114
134 105 118
134 101 122
134 97 126
135 93 130
137 89 134
141 84 137
144 80 140
147 76 142
151 74 142
152 71 143
154 70 143
153 69 144
152 70 144
149 71 144
144 73 145
140 76 144
135 80 144
130 83 143
126 86 141
122 90 139
121 93 136
119 96 134
119 98 132
119 101 130
119 102 131
119 103 132
119 104 136
118 105 140
115 106 145
114 106 151
111 108 156
108 110 160
105 112 162
103 114 162
102 117 158
102 121 152
102 125 143
103 128 134
105 131 123
107 134 113
200 125 77
200 125 77
200 125 77
200 125 77
117 82 149
119 82 149
122 82 148
126 80 149
129 79 150
131 78 151
133 79 152
133 79 153
132 81 153
131 83 152
129 85 152
127 88 149
124 92 146
122 95 142
120 99 137
120 103 131
119 106 126
118 108 123
119 110 120
120 112 118
120 113 118
120 114 119
121 114 123
121 113 128
120 112 134
120 112 140
118 112 146
118 112 151
117 112 155
117 113 155
117 114 155
117 116 150
118 118 145
120 122 136
122 124 127
125 127 117
127 131 106
130 133 98
132 135 91
134 136 87
135 136 86
135 136 87
135 136 92
134 135 98
131 134 107
129 132 116
200 125 77
126 128 135
125 127 142
124 127 147
124 127 148
126 126 147
127 128 143
131 128 136
133 131 127
137 133 115
141 135 105
145 137 94
149 138 85
152 140 77
153 141 73
155 140 72
155 140 74
155 139 77
154 137 85
153 135 94
151 132 103
150 129 114
149 127 122
148 124 129
149 121 134
151 119 135
153 118 134
157 116 131
160 115 125
162 114 119
165 113 113
168 111 107
169 110 102
170 109 100
170 106 100
170 103 102
170 99 106
171 95 109
173 91 112
176 87 115
180 83 117
184 81 117
189 78 117
192 78 116
193 80 117
192 82 118
189 86 121
183 93 122
200 125 77
172 108 122
168 116 117
165 124 109
164 132 98
165 137 87
167 141 76
170 142 68
170 142 64
171 139 65
171 134 70
170 128 79
169 121 89
170 112 99
172 104 108
176 96 114
180 88 118
185 82 120
189 77 121
192 74 120
193 72 121
191 72 122
188 74 122
183 77 122
178 81 122
172 87 121
167 93 117
162 100 112
160 106 106
158 111 100
157 116 95
156 121 91
155 125 89
152 127 91
150 129 95
146 131 102
142 131 111
138 130 122
132 130 132
129 129 140
126 129 145
125 128 148
126 127 147
126 127 143
200 125 77
131 126 129
133 125 121
136 125 113
200 125 77
138 122 104
137 120 103
137 117 104
136 114 108
135 110 113
135 105 119
135 100 125
137 96 130
139 90 135
142 86 139
145 81 141
148 78 142
151 74 143
153 72 143
153 72 143
151 71 144
149 71 144
145 73 144
140 75 145
136 78 144
131 80 144
127 83 143
123 86 142
121 88 141
120 90 140
120 92 138
120 93 137
122 94 137
123 95 137
123 96 140
123 97 143
121 97 147
120 99 151
117 100 156
115 102 158
112 105 159
109 108 159
108 112 155
106 116 149
106 120 141
107 124 132
108 129 121
109 132 112
110 135 104
112 137 98
200 125 77
200 125 77
200 125 77
200 125 77
125 77 150
128 76 150
132 75 150
135 74 150
137 74 151
137 74 151
136 75 152
135 76 152
133 79 150
130 82 149
126 86 147
123 89 144
121 92 140
120 96 136
118 99 133
118 101 130
118 103 128
119 104 126
120 105 126
120 106 127
121 105 131
123 104 134
122 104 139
123 104 143
123 104 148
122 103 152
122 104 154
121 106 154
121 107 153
121 110 149
121 113 143
122 115 136
123 119 127
125 122 118
127 124 110
129 127 102
131 129 97
131 130 94
132 132 92
133 131 94
132 131 99
131 130 106
130 128 114
128 127 123
127 125 131
126 124 139
200 125 77
124 123 148
124 123 149
125 123 147
200 125 77
131 126 134
133 128 126
137 130 115
141 132 105
144 134 95
147 135 87
149 137 80
151 137 77
152 137 77
152 137 79
152 135 84
151 133 91
150 131 100
149 128 109
148 125 119
147 123 126
148 120 132
149 117 136
150 116 136
153 114 134
156 114 130
159 113 125
161 112 118
164 112 112
166 110 107
167 109 103
167 108 101
168 105 101
168 103 103
168 100 106
169 96 109
171 92 113
174 87 116
178 83 118
184 80 118
188 78 118
192 76 118
194 76 118
195 77 119
192 80 120
188 85 121
183 92 121
177 99 120
200 125 77
169 116 108
167 124 99
167 131 88
168 137 77
169 141 68
170 143 62
170 144 61
169 142 64
168 138 71
166 132 82
166 125 93
167 117 103
169 108 113
172 101 118
177 92 122
182 86 123
186 81 123
189 77 122
189 75 121
188 74 122
184 75 123
180 77 123
174 80 123
169 85 121
164 90 118
161 95 115
159 99 111
157 104 107
157 108 103
155 113 100
155 116 100
153 118 104
150 120 109
146 122 117
141 123 125
136 124 134
132 125 141
129 126 146
127 127 147
125 128 146
126 130 141
127 131 134
130 131 125
133 132 115
135 132 107
137 131 100
138 130 95
200 125 77
138 127 94
137 123 98
135 119 104
135 114 111
135 109 119
136 104 126
137 98 133
140 93 137
142 88 141
145 84 143
147 81 144
149 78 144
150 75 144
149 75 143
147 74 143
144 75 143
140 77 143
135 78 144
131 79 145
127 81 145
124 83 145
122 85 144
121 85 144
121 87 142
123 87 141
124 88 141
126 87 142
127 88 144
128 89 145
127 89 148
127 91 151
124 92 154
122 95 156
119 97 157
116 101 156
113 106 152
111 110 147
110 115 140
110 119 131
110 123 123
111 127 114
112 130 106
112 133 101
112 136 98
112 136 98
200 125 77
200 125 77
200 125 77
200 125 77
134 72 151
137 71 150
138 70 151
140 70 151
138 72 151
137 73 150
134 75 150
131 78 149
127 81 148
124 84 146
121 87 144
119 90 141
117 92 139
116 95 137
116 97 135
118 97 134
119 98 134
121 97 135
123 97 137
124 97 139
125 96 142
126 95 146
127 95 149
127 96 152
126 96 154
126 98 153
125 100 151
124 102 148
124 105 143
125 109 136
125 112 129
126 115 121
126 118 114
127 121 108
128 122 104
129 124 101
130 124 101
130 124 103
130 124 107
129 123 113
129 122 121
128 120 128
127 119 136
126 118 142
125 117 147
125 117 150
200 125 77
127 119 146
129 120 141
131 122 133
134 124 125
137 126 115
140 128 106
142 130 97
145 131 90
147 133 85
148 133 83
149 133 82
148 132 86
149 130 91
148 128 99
147 126 107
147 123 115
147 120 124
147 118 130
148 115 135
149 114 136
151 112 136
153 111 134
156 110 130
158 110 124
160 109 119
162 109 113
163 109 108
164 108 104
165 106 103
164 105 103
165 102 105
165 99 108
167 96 110
169 92 114
173 88 116
177 84 118
182 80 119
187 77 119
191 75 119
194 74 119
194 75 119
193 76 120
191 80 120
186 85 121
180 92 120
176 99 116
172 107 110
200 125 77
168 123 91
168 130 81
169 136 71
169 140 65
169 142 63
168 143 64
167 142 70
163 139 80
162 133 92
161 127 103
161 120 113
164 112 120
167 105 125
172 97 127
176 91 127
180 87 125
182 83 123
183 80 122
181 78 122
178 79 122
174 80 123
169 81 124
165 84 123
161 87 122
159 91 119
157 94 117
157 98 113
157 101 112
158 103 111
156 106 112
154 109 116
152 111 121
148 113 127
143 115 135
138 118 141
135 120 144
132 123 145
129 126 143
128 129 138
129 131 131
131 133 121
133 136 110
135 137 100
138 137 93
139 137 87
139 136 85
138 135 86
200 125 77
136 127 97
135 123 105
133 118 114
133 113 123
134 107 131
136 101 138
137 96 142
140 92 144
143 88 145
144 84 146
145 82 145
146 80 144
144 79 143
141 80 142
139 80 142
134 80 143
130 82 143
127 82 144
124 83 145
122 84 145
122 84 145
123 83 145
200 125 77
126 82 145
129 82 144
131 82 145
133 82 146
134 82 148
133 83 150
131 85 152
128 88 153
125 90 154
122 94 153
119 99 150
117 103 146
114 108 139
113 113 131
113 117 124
112 122 116
113 125 109
113 128 105
113 130 103
111 132 103
110 133 107
107 133 114
200 125 77
200 125 77
200 125 77
200 125 77
139 69 151
140 69 151
139 69 151
138 71 150
134 72 151
131 75 150
127 78 149
123 81 148
120 83 147
118 86 145
116 88 144
115 89 143
115 90 142
117 91 140
119 91 140
122 90 141
124 90 142
126 89 144
129 88 145
130 87 148
131 88 150
132 88 151
131 89 152
130 91 151
129 92 150
128 95 147
127 99 142
127 101 137
126 105 131
126 108 125
125 111 119
126 113 115
127 115 111
127 116 110
128 117 109
129 117 112
129 116 116
129 116 120
129 114 127
129 113 134
128 112 140
128 112 144
128 111 148
128 111 149
129 112 148
129 113 145
200 125 77
133 116 133
135 119 125
137 121 116
139 123 108
141 125 100
142 127 94
143 128 91
145 127 90
145 128 90
146 126 94
146 124 99
146 122 106
145 120 114
146 117 121
146 115 127
147 112 133
148 110 136
150 108 138
152 108 136
154 107 134
156 107 129
158 106 125
160 106 119
161 106 114
161 107 109
161 106 106
161 105 105
162 104 105
162 101 108
163 98 110
200 125 77
167 92 115
171 88 118
176 83 120
180 80 120
186 77 120
189 74 121
192 73 121
193 73 121
193 74 120
190 77 121
186 82 120
181 87 119
177 93 117
173 101 111
170 108 105
168 116 96
200 125 77
168 129 78
168 134 72
168 138 68
166 140 69
164 141 73
161 140 82
158 137 93
156 133 104
155 128 115
156 122 123
157 116 128
161 110 131
166 103 130
170 98 128
173 93 125
176 90 122
175 87 121
174 84 121
171 84 121
168 84 122
164 84 124
161 84 125
159 86 124
158 88 123
158 90 121
159 91 120
160 93 119
160 95 119
160 98 120
158 100 124
155 103 128
151 105 134
146 108 139
142 112 141
138 116 142
136 120 140
134 124 135
134 128 127
134 131 118
136 135 107
137 137 97
139 139 88
140 140 83
140 140 80
139 139 81
138 137 85
137 134 91
200 125 77
132 126 111
131 120 122
130 115 131
131 110 138
132 105 143
134 100 147
136 96 148
138 93 147
140 91 145
141 88 143
140 87 141
138 86 140
136 86 139
132 86 139
129 86 140
127 85 141
124 85 143
123 84 144
123 83 145
124 82 146
126 81 146
129 79 146
133 78 145
135 77 146
138 76 147
138 77 147
138 77 149
137 78 151
135 80 152
131 84 151
128 87 151
124 91 149
121 96 145
119 101 139
116 106 134
114 111 127
114 115 120
113 119 115
113 122 111
113 124 109
112 127 109
111 127 113
108 128 119
106 128 127
102 127 137
200 125 77
200 125 77
200 125 77
200 125 77
138 70 151
136 71 151
133 72 151
130 74 151
126 76 151
122 79 150
119 80 150
116 83 149
114 85 148
114 86 147
115 85 147
117 85 146
119 85 146
123 85 145
126 84 145
129 82 146
132 81 148
134 80 149
135 81 150
136 81 151
136 82 150
134 84 150
133 86 148
131 89 146
129 92 143
128 95 139
126 99 134
125 101 130
124 104 126
124 106 122
124 108 120
125 109 118
126 109 119
128 109 120
129 108 123
129 107 128
130 107 132
131 105 137
131 104 142
131 103 146
131 103 149
132 103 149
132 105 147
133 107 144
133 108 140
134 110 133
200 125 77
137 115 118
138 118 111
139 119 105
140 121 100
141 121 98
142 122 97
143 121 99
143 120 101
144 118 107
145 116 113
145 113 119
146 111 126
146 109 131
148 107 135
150 104 138
152 103 138
153 102 137
154 102 134
157 102 129
158 103 124
159 102 120
158 103 116
159 104 112
158 103 110
158 103 108
159 101 109
159 99 111
160 97 113
162 93 116
166 90 118
170 86 120
174 83 121
179 79 122
183 77 122
188 74 122
190 73 122
192 72 122
191 74 121
189 75 122
185 79 121
181 84 120
176 90 118
172 96 114
170 102 108
167 109 101
166 116 93
166 122 85
200 125 77
166 132 75
165 136 75
163 137 79
159 138 87
156 137 97
153 135 108
151 132 118
149 128 126
150 123 132
152 119 134
156 114 134
160 110 130
164 105 126
167 101 122
169 97 119
169 94 117
167 92 117
165 90 118
163 88 120
160 87 123
158 86 125
158 86 125
159 85 125
161 84 125
162 85 124
164 86 124
165 87 125
165 89 126
164 91 129
160 94 133
156 98 136
152 102 138
147 107 138
143 111 137
141 117 132
138 122 125
138 127 116
138 131 106
139 136 95
140 139 87
141 141 80
141 142 77
140 142 78
139 140 82
136 139 89
133 135 99
131 131 111
200 125 77
126 123 131
126 117 140
126 113 146
128 109 149
130 105 150
131 102 149
134 100 145
135 97 142
135 96 139
135 94 137
134 93 135
131 93 134
129 92 135
127 90 136
125 88 139
124 87 141
124 86 142
126 83 144
128 81 145
131 78 146
135 76 146
138 75 146
141 73 146
143 73 147
144 72 148
142 74 148
140 75 149
137 78 149
134 81 149
129 85 148
124 90 145
121 95 141
118 99 137
117 104 131
115 108 125
114 112 121
114 115 118
113 118 116
113 119 117
111 121 120
110 121 126
107 122 132
104 122 140
101 122 149
98 122 157
200 125 77
200 125 77
200 125 77
200 125 77
131 73 151
128 75 151
124 77 151
120 79 151
117 80 151
115 81 151
113 82 151
113 83 150
114 83 150
117 82 149
120 82 148
124 80 148
127 79 148
131 77 148
134 76 149
137 75 149
138 75 150
139 75 150
139 76 150
137 79 149
135 81 148
133 83 147
130 86 144
128 89 141
125 92 138
124 95 135
123 98 131
123 99 129
123 100 128
124 102 126
125 102 127
127 101 128
129 101 130
130 100 133
131 98 137
133 97 141
134 97 144
134 96 147
135 96 148
135 97 148
135 98 147
136 99 144
135 102 139
135 104 134
136 107 127
136 109 121
200 125 77
137 113 111
137 115 107
138 116 105
139 115 105
140 115 106
141 113 110
142 111 114
143 109 120
145 107 124
146 105 130
147 103 134
149 101 137
151 99 139
153 98 138
154 98 136
156 97 134
157 97 130
157 99 125
156 100 121
157 100 117
156 101 114
156 100 113
156 100 112
155 99 113
156 97 115
158 95 116
160 92 118
164 88 121
168 85 122
173 82 123
178 78 123
182 75 124
186 74 123
188 73 123
190 72 123
189 73 122
187 75 123
184 78 122
180 81 122
175 86 120
171 92 116
167 98 111
165 105 105
165 111 98
164 117 91
164 122 86
164 125 83
200 125 77
161 132 86
158 134 92
155 134 102
151 134 112
147 132 122
145 131 130
144 128 136
145 125 137
148 122 136
200 125 77
156 115 127
159 112 121
162 108 116
163 105 112
164 101 111
163 98 112
160 95 115
159 92 118
158 90 121
158 87 124
159 85 125
161 83 126
164 82 126
168 80 126
169 80 126
170 81 127
171 81 129
168 85 131
165 87 133
161 92 135
156 97 135
151 102 133
147 107 130
144 114 124
142 119 116
141 126 106
142 130 97
142 135 88
142 137 83
142 140 79
140 140 80
139 141 83
136 140 90
132 138 100
129 135 111
126 131 123
123 128 133
200 125 77
121 120 149
122 116 152
124 113 152
126 110 150
128 109 145
129 107 141
131 105 136
131 103 132
131 102 130
130 101 128
128 99 128
127 97 129
125 95 132
125 92 135
125 89 138
127 86 140
129 83 143
132 79 145
137 76 145
140 74 146
143 72 146
145 70 147
147 69 147
146 70 147
144 72 147
140 74 148
136 77 148
132 81 147
128 84 146
123 89 142
120 93 139
117 97 136
115 102 131
115 104 128
114 108 125
114 110 123
114 112 123
113 113 127
112 114 131
110 115 137
107 115 144
104 116 152
101 116 159
98 117 164
96 119 166
200 125 77
200 125 77
200 125 77
200 125 77
122 79 150
118 81 150
115 82 150
113 82 151
112 83 151
113 82 151
114 82 151
117 80 151
120 80 150
124 78 150
129 75 150
133 74 149
136 72 150
139 72 149
141 71 149
142 72 149
200 125 77
139 74 149
137 76 149
134 78 147
131 81 146
128 84 144
125 87 141
123 90 139
122 92 137
121 93 136
121 94 135
123 94 134
124 95 133
127 94 134
129 93 136
131 92 139
134 90 141
136 90 143
137 89 145
139 89 147
138 89 148
139 90 147
138 91 146
137 93 143
137 95 139
137 98 135
135 101 130
135 103 125
134 106 120
134 107 117
200 125 77
136 109 113
137 108 113
138 108 114
139 106 118
141 105 121
143 102 125
145 100 130
147 98 134
149 96 137
151 94 139
153 93 139
154 92 139
155 93 137
156 92 134
155 94 131
155 95 126
155 96 123
154 96 121
154 97 118
153 97 117
152 98 116
152 97 117
153 95 118
156 92 120
158 89 122
162 86 124
167 83 125
171 81 125
176 77 125
180 74 126
184 73 125
186 72 125
187 71 125
186 73 124
184 74 124
180 78 123
177 81 122
172 85 121
168 90 118
166 96 113
163 101 108
162 106 103
162 111 98
162 116 93
162 120 90
161 124 90
160 126 93
200 125 77
154 129 108
150 130 116
146 130 125
143 130 133
141 129 138
142 128 139
143 127 137
146 125 132
150 123 126
154 121 118
156 118 112
159 115 107
160 112 104
160 108 104
159 105 106
158 101 110
157 96 115
158 92 119
160 88 122
162 85 124
165 81 126
169 78 127
172 77 127
174 75 128
175 75 129
175 76 130
172 79 131
168 83 132
164 87 133
158 93 131
154 99 128
149 104 124
146 111 117
145 117 109
143 122 101
143 128 93
143 131 87
142 135 84
141 137 84
138 137 88
135 137 94
132 137 103
129 135 114
124 132 126
121 130 136
118 128 144
118 125 150
200 125 77
118 120 153
120 118 150
123 117 145
125 115 139
127 114 132
128 113 127
129 111 123
128 109 121
128 108 119
127 105 121
126 102 125
126 99 128
126 95 132
128 91 136
130 87 140
133 83 142
137 78 145
141 76 145
144 72 146
147 70 146
148 69 147
147 69 147
146 70 147
143 71 147
139 74 147
134 77 147
129 80 146
124 85 144
121 88 143
118 91 140
116 95 137
115 98 134
115 100 132
115 103 130
115 105 130
115 105 133
115 106 136
113 107 141
111 109 147
109 109 153
106 111 158
103 112 162
101 114 164
99 116 164
98 119 160
200 125 77
200 125 77
200 125 77
200 125 77
114 85 148
112 85 149
112 85 149
112 84 150
114 83 150
117 81 150
121 79 150
125 76 151
129 74 151
133 73 150
137 71 150
140 70 150
142 69 150
143 69 149
141 70 150
140 71 149
137 73 149
134 75 148
130 78 147
126 81 146
123 84 145
121 85 144
120 87 143
119 88 142
120 89 141
122 89 140
123 89 140
126 88 140
130 86 141
133 85 142
136 84 144
138 83 145
141 82 147
142 83 146
142 83 147
141 84 146
141 86 145
140 88 142
138 89 140
137 92 137
135 94 133
134 97 129
133 99 126
132 101 123
133 101 122
133 102 121
200 125 77
136 101 122
138 100 124
140 98 127
143 96 130
146 94 133
149 91 136
151 89 138
152 88 140
154 88 139
156 87 139
156 87 137
156 88 135
155 90 131
154 91 128
153 92 126
152 93 123
150 94 122
149 95 121
149 94 121
149 93 122
151 92 122
154 90 123
156 87 125
160 84 126
165 82 126
170 78 127
174 76 127
179 74 126
182 72 127
184 71 127
184 72 126
183 72 126
180 74 126
178 77 125
173 81 124
169 85 122
166 89 120
162 94 116
161 99 111
160 103 107
160 107 103
160 112 98
160 115 97
160 118 96
159 120 100
157 122 105
153 124 112
200 125 77
145 127 129
142 127 136
140 129 139
139 129 140
140 129 137
143 129 131
145 129 124
149 128 115
153 126 107
156 124 100
157 122 97
158 118 95
158 114 97
157 109 102
157 104 107
157 100 112
159 94 118
161 88 122
165 84 125
169 80 126
173 76 127
176 74 128
178 73 128
178 72 129
177 73 130
173 76 131
169 80 130
164 84 131
159 90 128
154 96 125
150 102 120
147 108 113
146 113 107
145 119 100
144 124 94
143 127 91
200 125 77
140 131 94
136 132 100
133 133 108
128 132 118
124 131 129
121 130 139
118 129 146
115 127 152
115 126 154
116 125 153
200 125 77
120 123 143
122 123 135
125 122 127
127 121 121
128 120 115
128 118 112
128 116 111
128 113 113
127 110 116
126 106 121
126 102 126
128 97 131
130 93 136
132 88 140
136 83 143
140 79 145
143 76 146
146 73 146
148 70 147
147 70 147
146 70 147
143 71 147
139 73 147
135 75 147
130 78 147
126 81 146
122 84 145
119 87 143
116 90 142
115 92 140
116 94 138
116 95 137
117 97 137
118 98 138
118 98 141
117 100 144
116 101 149
114 101 154
111 103 158
109 106 161
106 108 162
104 111 161
102 115 157
102 118 151
103 122 142
200 125 77
200 125 77
200 125 77
200 125 77
111 88 146
112 87 147
114 85 148
117 83 148
120 80 150
124 78 150
129 75 151
133 73 151
137 71 150
140 70 150
141 69 150
142 69 150
141 69 150
139 70 150
136 72 150
132 75 149
129 76 149
125 79 148
122 81 148
119 83 147
118 84 147
118 85 146
119 85 145
121 84 145
124 84 144
127 83 144
130 82 144
135 80 144
139 79 145
142 78 145
144 76 147
145 76 147
144 77 147
144 78 146
143 80 145
141 82 143
139 85 141
137 87 138
134 89 137
132 92 134
131 94 131
130 96 129
130 96 129
200 125 77
132 96 128
134 95 129
200 125 77
140 91 133
144 90 134
147 87 136
150 85 138
153 84 139
154 83 140
155 83 140
156 83 139
156 83 137
155 84 135
154 86 133
152 87 131
151 89 128
149 90 126
147 91 126
147 91 125
146 92 125
147 90 126
149 89 126
152 87 127
154 85 128
159 83 128
164 79 129
168 77 129
174 75 128
177 73 128
180 72 128
181 71 128
181 71 128
180 73 127
177 75 127
174 77 127
169 81 125
165 85 123
162 89 121
160 93 118
158 97 114
157 101 110
157 105 106
158 107 104
159 110 102
158 114 102
158 116 105
156 118 110
153 120 117
149 122 124
145 123 131
200 125 77
139 127 140
138 128 141
139 129 137
140 131 131
143 131 122
147 132 112
150 132 103
153 131 95
155 129 90
156 126 88
156 122 90
156 119 93
156 113 99
156 107 106
157 102 112
159 95 118
163 89 123
167 84 126
171 79 128
175 76 128
178 73 128
179 71 129
179 71 129
176 72 130
172 75 130
167 79 130
162 83 129
157 88 127
152 94 124
149 100 118
146 105 113
144 110 108
144 115 103
143 118 100
142 122 99
140 124 101
138 125 106
134 127 113
130 127 122
125 128 132
122 127 141
118 127 148
116 127 153
114 127 154
115 128 152
116 128 147
117 128 140
200 125 77
123 129 122
125 128 114
128 127 108
128 126 104
129 124 103
128 122 104
127 118 108
127 114 114
127 110 120
127 105 127
129 99 133
131 94 138
134 88 143
138 84 145
140 80 147
143 77 147
144 74 148
145 73 147
144 73 146
142 72 147
138 74 147
134 76 147
129 77 148
125 79 148
121 82 147
118 84 147
117 85 146
116 88 144
117 88 143
117 90 142
119 90 142
121 90 143
121 92 144
122 92 147
121 93 150
120 95 153
118 96 157
115 98 159
112 102 159
109 106 158
107 109 154
107 114 148
106 118 140
106 122 131
107 127 121
200 125 77
200 125 77
200 125 77
200 125 77
113 89 145
117 87 146
120 84 148
124 81 149
128 78 150
132 75 151
135 73 151
138 71 152
140 70 151
140 70 150
138 71 150
137 71 150
134 73 150
130 75 150
126 77 150
123 78 150
120 81 149
117 82 149
116 83 149
116 84 148
118 83 148
120 82 148
124 81 147
128 79 147
131 78 147
136 76 146
140 74 147
143 73 147
146 73 146
146 72 147
147 73 146
146 74 146
144 76 145
141 78 144
138 80 143
135 83 141
132 86 139
130 87 138
129 89 136
128 91 135
128 91 135
129 91 134
132 91 133
134 89 135
137 88 135
141 86 137
200 125 77
149 82 139
152 80 140
154 79 140
156 78 140
157 78 140
157 79 138
156 80 137
154 81 136
152 83 134
150 84 133
148 86 131
146 87 130
144 89 129
143 89 129
143 89 129
144 88 130
146 87 130
150 85 130
154 83 130
158 81 130
163 78 130
168 76 130
172 74 130
175 72 130
177 71 130
178 71 130
178 72 129
176 74 128
173 76 128
170 78 128
166 81 127
162 85 125
159 89 123
156 93 119
156 96 116
155 99 113
155 102 110
156 105 107
156 108 106
157 109 108
156 111 111
155 113 115
152 115 121
149 117 127
146 119 134
143 122 138
140 123 141
200 125 77
138 129 136
140 131 129
142 133 120
145 135 109
149 136 99
151 136 90
154 135 84
155 133 81
156 130 82
155 125 87
155 121 92
155 115 100
155 109 108
157 102 116
160 96 121
164 89 126
168 84 128
172 79 129
175 76 129
178 73 129
178 72 129
176 72 130
173 73 130
169 75 130
163 79 130
157 83 129
153 87 127
150 92 124
146 97 120
145 101 116
144 106 112
144 110 108
143 112 108
141 115 109
140 118 112
136 119 119
133 120 126
129 122 134
124 123 142
121 124 148
117 125 153
116 126 153
116 128 150
116 129 145
118 130 137
120 132 128
123 133 117
200 125 77
127 134 101
129 132 97
129 131 95
129 128 97
127 126 101
127 121 107
126 117 115
126 112 123
127 106 131
128 101 137
130 96 143
133 91 146
136 86 148
139 83 149
141 80 148
200 125 77
141 77 147
139 77 146
137 77 146
132 77 147
129 78 147
124 80 148
121 81 148
118 83 148
117 83 148
117 84 147
118 85 146
120 85 145
122 84 146
123 85 146
125 85 147
127 85 148
127 86 150
125 87 153
124 89 155
121 91 157
118 95 157
116 99 155
113 103 152
111 107 147
110 112 139
109 118 131
109 122 122
110 126 113
110 130 107
200 125 77
200 125 77
200 125 77
200 125 77
119 87 147
122 84 149
126 81 151
129 78 152
133 77 152
134 75 152
136 74 152
135 73 152
135 74 151
133 74 151
131 76 150
127 78 149
124 79 149
121 80 149
118 82 149
116 83 149
115 83 149
115 83 149
117 82 149
120 81 149
124 79 149
128 78 148
132 76 148
137 73 148
141 72 147
144 71 147
146 71 146
147 70 147
147 71 146
145 72 146
143 74 145
140 75 145
137 78 144
133 80 144
131 82 142
128 85 141
126 86 141
125 87 140
126 87 140
128 87 139
130 86 139
133 85 139
137 84 139
141 81 140
146 80 139
149 78 140
200 125 77
155 75 140
156 75 141
157 74 140
156 76 139
155 77 138
153 78 138
150 80 137
148 82 135
145 84 134
143 85 133
141 86 133
140 87 133
140 87 133
142 86 133
144 85 133
148 83 133
152 81 133
157 78 133
162 76 133
166 75 132
170 73 132
173 71 132
175 71 131
200 125 77
175 72 130
172 74 130
169 77 129
166 79 129
162 82 128
159 86 126
155 90 123
153 93 121
153 95 118
152 99 115
153 101 112
154 103 110
155 106 110
156 107 111
155 109 114
154 110 119
151 112 125
149 114 130
146 115 136
142 119 139
141 121 140
139 124 139
139 127 135
200 125 77
141 133 117
144 135 107
148 137 96
150 138 87
153 138 81
153 137 77
154 135 78
154 132 81
153 127 88
152 121 97
152 116 105
154 109 114
156 102 121
159 96 126
163 90 130
167 84 131
171 80 132
173 77 131
174 74 131
174 73 131
171 74 130
167 75 131
162 78 131
158 80 131
153 84 129
149 87 128
146 91 126
144 95 123
144 98 120
143 101 118
144 104 116
143 107 116
142 108 120
140 110 124
137 112 130
133 114 136
129 116 143
126 117 149
122 120 151
120 123 151
118 125 149
118 128 143
119 131 134
121 133 124
123 136 113
126 137 103
128 138 95
200 125 77
130 137 88
129 134 91
128 132 95
127 128 102
125 123 111
124 119 120
124 113 130
125 108 137
126 103 143
129 97 148
131 94 150
134 89 151
136 87 149
137 85 148
137 82 147
135 82 145
134 81 145
130 82 144
127 82 145
124 82 146
121 82 147
118 83 148
117 83 148
117 83 148
119 82 148
121 81 148
124 81 147
127 80 148
130 80 147
131 79 149
131 80 151
131 81 152
129 83 153
127 85 155
124 89 154
120 92 154
118 97 150
115 102 145
113 107 139
111 111 132
110 116 125
111 121 117
111 124 111
111 127 107
111 129 105
200 125 77
200 125 77
200 125 77
200 125 77
123 87 151
125 84 153
128 81 154
130 79 155
131 78 154
131 78 153
130 79 151
129 79 150
127 80 149
124 81 149
121 83 147
118 83 148
116 85 147
114 85 148
114 85 148
115 84 148
117 83 148
120 82 148
124 79 149
128 77 149
132 75 149
137 73 148
141 71 148
144 70 148
145 69 148
146 69 148
146 70 147
144 71 147
142 72 147
138 75 146
135 76 146
131 78 146
128 81 145
125 82 145
124 84 144
123 84 144
124 85 143
126 84 143
129 83 142
133 81 142
138 80 141
141 78 142
146 76 141
150 74 142
154 72 142
155 72 141
200 125 77
156 72 141
156 73 140
154 74 140
151 76 139
148 78 138
145 80 137
142 82 137
139 83 137
138 85 136
137 85 136
138 85 136
139 84 136
142 83 136
146 82 135
151 79 135
155 77 135
160 76 134
164 74 134
168 72 134
171 71 133
172 71 133
171 72 133
170 73 132
168 75 132
165 78 131
161 80 130
157 83 129
155 87 127
152 90 124
151 93 121
150 96 119
150 99 116
151 100 114
151 102 113
153 103 113
154 104 115
154 106 118
152 107 123
151 109 127
149 110 133
145 113 137
142 116 140
140 119 141
139 122 138
139 125 133
139 129 126
141 133 115
200 125 77
147 138 94
149 140 84
151 140 78
152 140 74
152 139 75
152 135 79
151 132 86
150 127 94
149 122 104
150 115 114
152 109 121
154 102 128
157 97 131
161 91 134
164 86 134
167 82 133
169 80 132
169 78 131
167 77 131
164 77 131
161 78 131
156 80 132
152 82 132
148 85 131
146 87 130
144 90 128
144 92 126
145 93 124
145 95 123
145 98 123
146 99 125
144 102 128
142 103 133
139 106 138
135 108 143
131 111 147
128 114 149
124 117 149
123 121 145
121 125 139
122 128 131
123 133 120
125 135 110
127 137 100
129 139 92
130 140 87
130 140 85
200 125 77
128 137 91
126 133 99
125 129 108
123 125 119
121 120 129
121 114 138
122 110 145
123 105 150
125 101 152
127 97 152
130 94 151
131 92 149
132 89 147
132 88 144
130 88 142
129 87 142
125 87 141
122 86 143
120 86 144
118 86 145
118 84 147
118 83 148
120 82 148
123 79 149
126 78 149
130 77 148
132 76 148
135 75 149
137 75 150
136 75 151
135 77 152
132 79 153
130 83 152
126 86 152
122 91 149
118 95 146
116 100 140
113 106 134
113 110 127
112 114 122
112 118 116
111 121 113
200 125 77
110 125 113
108 126 117
200 125 77
200 125 77
200 125 77
200 125 77
123 87 156
125 85 156
125 85 156
126 84 154
126 84 152
124 85 150
123 86 148
120 87 146
118 88 145
116 88 144
115 88 144
113 89 144
113 88 145
114 88 145
117 85 146
119 84 147
123 81 148
127 79 148
132 76 148
136 74 148
139 72 149
142 70 149
143 70 149
145 69 148
144 70 148
142 71 148
139 73 147
136 75 147
132 77 147
128 79 147
125 80 147
123 82 146
122 83 146
122 83 146
123 83 145
125 82 145
128 81 145
132 80 144
137 77 144
142 75 144
146 74 143
150 72 143
153 71 142
155 70 142
156 70 142
155 71 141
200 125 77
152 73 141
148 76 140
145 77 140
141 79 140
138 82 139
136 83 139
135 83 139
134 85 138
135 84 138
138 83 138
141 82 137
145 80 137
149 78 137
154 77 136
159 74 136
163 73 135
166 72 135
167 72 135
168 71 135
168 72 135
166 74 134
163 76 133
160 79 133
157 82 131
153 85 129
151 89 127
148 91 125
147 94 122
147 96 120
147 99 117
148 100 116
150 102 115
151 102 116
151 103 118
152 104 122
151 106 126
149 107 131
147 108 136
144 110 140
142 114 141
140 117 141
138 120 138
138 124 132
138 128 124
140 132 114
142 136 102
146 138 91
200 125 77
150 141 76
151 141 73
200 125 77
150 138 78
149 135 85
148 130 94
146 126 104
146 120 115
147 114 123
148 108 130
151 103 134
155 97 136
159 92 136
161 89 135
163 86 133
164 83 132
164 82 130
161 81 130
158 81 130
154 82 131
150 83 132
147 83 133
145 84 133
144 86 132
144 87 131
145 88 129
146 89 128
147 91 128
149 92 129
148 93 131
148 94 135
145 97 138
142 99 143
137 103 145
134 106 147
130 111 146
128 116 142
126 120 137
126 125 128
126 129 118
127 134 108
129 137 98
129 139 91
131 141 85
130 142 83
129 141 85
128 139 90
200 125 77
123 134 108
120 129 120
118 125 130
117 121 139
117 116 147
118 112 151
120 108 154
122 105 154
124 102 152
126 99 149
127 98 145
128 96 142
127 95 139
126 93 138
124 93 137
122 91 138
120 91 139
119 88 142
118 87 144
119 85 145
121 82 147
124 80 148
128 78 148
131 75 149
135 73 149
138 72 149
140 71 149
140 72 150
139 73 151
136 75 151
133 78 151
129 82 150
125 86 148
121 90 146
118 95 141
116 99 137
113 104 132
112 108 126
112 112 122
111 114 120
111 117 118
110 119 119
109 120 123
107 120 129
105 120 137
200 125 77
200 125 77
200 125 77
200 125 77
120 91 157
120 91 155
120 91 152
120 91 149
118 92 146
117 93 143
115 94 141
114 94 140
113 94 139
200 125 77
112 93 141
114 92 141
116 89 143
118 87 145
122 85 146
126 81 148
130 79 148
134 76 150
137 75 150
139 73 150
140 72 150
141 72 149
140 73 149
139 73 149
136 74 148
132 76 148
129 78 147
126 80 147
123 81 147
121 82 147
120 84 146
120 84 146
121 83 146
124 82 146
128 80 146
132 79 145
136 77 145
141 74 145
145 72 145
149 71 144
152 70 144
153 69 144
154 70 143
153 70 143
151 71 143
148 74 142
200 125 77
141 77 142
138 80 141
135 81 141
133 82 141
132 84 140
132 84 140
133 84 139
136 83 139
139 81 139
143 80 138
148 78 138
153 76 137
157 74 137
160 73 137
163 73 136
165 72 137
165 72 136
164 74 136
162 76 135
159 78 135
156 80 134
153 83 132
149 87 130
147 90 128
145 93 125
144 96 122
144 98 120
145 99 118
146 100 117
147 102 117
149 102 119
149 103 121
150 103 124
149 104 129
148 105 133
146 107 138
143 109 141
141 112 142
139 115 141
138 119 137
138 122 131
138 127 122
140 131 111
142 134 101
144 138 90
146 141 81
148 142 76
200 125 77
149 141 74
148 139 79
146 137 86
144 134 95
143 129 106
142 124 116
142 119 125
143 113 132
146 108 137
148 103 139
151 98 139
155 94 137
157 92 135
158 89 132
158 87 130
157 86 129
154 86 129
151 85 130
148 85 131
146 85 132
144 85 133
143 84 134
144 85 133
145 84 133
147 85 132
149 84 132
152 85 132
152 86 134
152 87 136
151 89 139
147 92 141
145 95 144
141 99 144
136 104 144
133 109 140
130 114 135
130 119 127
129 125 117
129 129 108
130 133 99
131 137 90
131 139 86
131 140 84
130 140 86
127 140 91
125 138 99
122 136 109
200 125 77
116 128 132
114 125 142
113 122 149
113 118 154
115 114 156
116 112 155
119 109 153
121 107 148
122 105 144
124 103 139
124 103 135
124 101 133
123 100 131
121 99 131
120 97 133
119 94 136
119 91 139
120 89 141
122 84 145
125 82 146
128 78 148
133 75 148
137 72 149
140 71 149
142 70 149
143 69 149
142 70 149
139 72 150
136 74 150
132 77 150
127 81 149
123 85 147
120 89 144
116 93 141
114 98 136
113 102 131
112 105 129
112 108 126
112 110 125
112 112 126
111 112 130
109 114 134
107 115 140
104 115 148
102 116 154
200 125 77
200 125 77
200 125 77
200 125 77
115 98 151
115 99 147
114 100 142
114 100 139
113 100 136
112 101 134
112 101 133
111 100 134
112 99 135
113 97 137
115 94 140
117 92 142
121 88 145
124 85 148
127 83 149
130 80 151
133 78 152
135 77 152
136 76 152
137 76 151
136 76 150
135 77 149
131 79 148
128 80 147
126 81 146
122 83 146
121 84 145
119 85 145
118 86 145
119 85 145
121 84 145
123 83 145
127 81 145
131 79 145
136 77 145
140 74 146
144 72 146
147 72 145
149 71 145
150 70 145
151 70 144
150 72 143
148 73 143
145 74 143
141 76 143
138 79 142
200 125 77
132 82 142
130 84 141
129 84 141
130 85 140
131 84 140
134 84 139
138 82 139
142 81 138
146 78 139
151 77 138
155 75 139
158 74 138
160 74 138
161 73 139
161 74 138
160 75 138
157 77 137
155 80 136
152 82 135
148 86 132
146 89 130
144 92 127
142 94 125
141 97 122
141 99 120
143 100 118
144 101 118
145 102 119
147 102 120
147 102 124
148 103 127
147 103 132
145 104 137
144 106 140
141 108 142
139 111 143
137 114 142
137 118 137
137 122 129
138 126 121
139 130 111
141 134 100
143 138 89
146 140 81
147 142 75
147 142 74
147 142 75
200 125 77
144 138 88
142 135 98
140 131 109
139 127 119
137 122 128
139 117 135
140 112 140
143 108 142
146 104 141
149 100 139
151 98 135
153 95 132
153 93 129
153 91 127
151 91 126
149 90 127
147 88 128
144 88 130
143 86 132
143 84 134
144 84 134
146 83 134
149 81 134
151 81 134
154 80 134
156 80 135
156 81 136
155 83 138
153 85 140
200 125 77
146 92 143
142 97 141
138 102 139
135 108 133
132 113 127
132 118 118
131 124 109
131 129 100
131 132 94
132 136 88
131 137 87
130 138 89
127 138 94
124 138 102
120 135 113
117 133 123
113 131 135
200 125 77
110 125 152
109 122 156
110 119 158
112 118 156
114 116 152
117 114 147
119 112 141
121 112 135
121 110 130
122 109 126
122 107 125
121 106 124
120 103 127
119 100 130
120 97 133
121 93 137
122 89 141
125 85 144
129 81 146
133 77 147
137 74 148
140 71 149
143 69 149
143 69 149
143 69 149
141 70 149
137 72 150
134 74 150
128 78 149
124 82 147
120 85 146
117 89 144
114 92 141
113 96 137
112 99 135
113 101 132
112 104 131
113 104 133
113 106 135
112 107 139
111 108 144
109 108 151
106 109 156
103 111 161
100 113 164
200 125 77
200 125 77
200 125 77
200 125 77
111 107 139
111 108 133
111 108 130
111 107 128
111 107 127
111 106 128
112 105 129
112 103 132
114 100 136
116 97 140
118 94 144
121 91 147
124 88 150
126 85 152
129 83 154
130 81 154
131 81 153
131 81 152
130 81 151
129 82 149
127 83 148
125 85 146
122 87 144
120 87 143
119 88 142
117 89 142
117 88 143
118 88 143
120 87 143
122 85 144
126 83 144
130 81 145
134 79 145
138 77 146
142 75 146
145 73 146
200 125 77
148 72 146
147 72 146
146 73 145
143 75 144
141 77 144
137 79 143
134 80 143
131 83 141
129 84 141
200 125 77
127 86 140
128 86 140
130 86 139
133 84 139
136 83 139
140 81 139
144 80 139
149 77 140
152 76 140
155 76 140
156 75 141
157 75 140
156 76 140
155 78 139
152 80 138
149 83 137
147 85 135
144 88 132
142 92 129
140 94 127
139 97 123
139 98 122
139 100 120
140 101 119
141 102 119
143 102 120
144 102 123
145 103 126
144 103 130
144 104 134
143 104 139
141 106 142
139 107 144
138 110 144
137 114 141
135 117 136
136 122 128
136 126 119
138 130 109
140 134 98
142 137 88
144 139 81
145 141 76
145 142 75
144 142 77
143 141 82
141 138 91
200 125 77
136 132 112
134 128 123
134 124 132
134 120 139
135 116 143
138 112 144
140 109 143
143 106 139
146 104 135
148 101 131
149 99 127
149 98 125
148 96 124
146 94 124
144 92 126
143 90 128
142 89 130
142 87 132
144 84 134
146 82 135
149 80 135
153 78 135
156 77 135
159 76 136
160 76 136
160 77 137
158 79 139
155 82 140
151 86 140
147 90 140
143 95 137
138 102 133
136 107 127
133 113 119
133 118 111
132 123 104
132 127 97
132 131 93
131 133 91
129 135 93
127 136 98
124 135 106
120 134 116
116 133 127
113 131 137
109 129 147
108 127 153
200 125 77
107 124 158
108 123 156
110 121 152
113 120 146
116 120 137
118 118 131
121 117 124
121 117 120
122 114 118
121 113 117
120 110 120
120 107 123
120 102 128
121 98 133
123 94 137
125 89 141
129 84 145
132 81 147
137 77 148
139 74 149
141 71 149
143 70 149
143 69 149
141 70 149
138 71 150
134 73 150
129 76 149
124 79 149
120 82 148
117 85 146
115 88 144
113 91 142
112 94 140
113 95 138
114 97 137
114 98 138
115 99 140
116 100 142
114 100 147
113 101 152
111 103 157
108 105 160
105 107 163
103 110 163
101 114 160
200 125 77
200 125 77
200 125 77
200 125 77
110 115 124
110 115 121
110 115 120
110 113 122
111 111 124
111 109 128
113 106 133
114 103 138
115 100 143
117 97 148
119 94 151
121 91 154
122 89 156
124 88 156
125 87 155
126 86 154
125 88 151
124 88 148
123 89 146
121 91 143
119 92 141
117 92 140
116 93 139
116 93 139
116 93 139
117 92 139
118 90 141
122 88 142
125 86 143
128 84 144
132 81 147
136 79 147
138 77 148
141 76 148
143 75 148
143 75 148
143 75 147
141 76 147
139 78 146
136 80 144
133 82 143
131 84 142
128 85 141
126 88 139
125 88 139
125 88 139
200 125 77
128 88 138
131 86 139
135 85 139
138 83 140
142 81 140
146 80 141
148 78 142
150 78 142
152 78 142
152 77 143
151 79 142
150 80 141
148 83 139
145 85 137
142 88 135
141 92 131
138 95 128
137 97 125
136 100 122
136 101 121
137 102 119
138 103 118
139 104 119
140 104 121
141 104 124
142 103 128
141 103 133
141 103 138
140 105 141
138 106 144
137 107 146
135 111 144
134 114 141
134 118 135
134 122 127
136 125 118
137 129 108
139 133 97
140 137 88
142 139 82
143 140 78
143 141 77
143 141 79
140 140 86
139 138 94
135 136 105
133 132 116
200 125 77
130 126 135
130 122 142
131 118 146
132 116 146
136 112 145
139 110 140
141 108 136
143 107 130
145 105 125
146 103 122
144 101 121
144 100 120
142 97 122
142 95 124
141 92 127
142 89 130
144 86 132
146 83 134
150 80 135
153 77 136
157 75 136
160 74 136
162 73 136
163 73 137
161 75 138
158 78 139
154 81 139
150 85 138
145 90 136
141 95 133
138 101 128
135 107 122
134 112 115
133 116 109
132 122 102
131 125 99
131 128 97
129 129 99
127 131 103
123 131 112
120 131 120
117 130 131
112 129 141
109 128 150
106 127 156
105 127 159
105 126 159
200 125 77
109 125 150
111 125 142
114 125 134
117 125 126
119 124 119
120 123 113
121 122 110
121 119 111
200 125 77
121 112 117
120 109 122
121 104 129
122 99 134
125 94 139
127 90 144
131 85 147
134 80 149
137 77 149
140 75 149
141 73 149
141 71 149
139 72 149
137 72 149
133 73 150
128 76 150
124 78 150
120 81 149
117 82 149
114 85 148
113 87 146
113 88 145
114 90 143
115 91 143
116 92 142
118 92 144
118 93 146
119 93 149
117 95 153
116 96 156
113 99 159
111 100 161
109 104 161
106 108 158
105 112 153
104 116 146
200 125 77
200 125 77
200 125 77
200 125 77
110 121 114
110 120 115
110 118 119
110 115 124
110 112 131
110 109 137
112 105 143
113 102 149
114 100 153
115 97 157
117 95 158
118 94 158
119 93 157
119 93 155
120 93 151
119 94 148
118 96 143
118 97 140
116 98 137
115 99 134
114 99 134
114 99 134
115 98 134
115 97 136
117 95 137
120 92 140
123 90 142
125 88 144
129 85 147
132 83 148
135 81 149
136 80 150
137 80 150
138 79 150
138 79 149
136 81 147
134 82 146
132 84 144
129 87 141
127 88 140
125 90 138
124 91 137
123 91 137
123 92 136
125 91 136
126 90 137
200 125 77
132 87 139
136 86 139
139 84 141
143 82 142
145 81 144
147 80 144
147 81 144
147 81 145
146 82 144
144 84 142
143 86 140
140 89 137
139 92 134
136 95 130
135 98 126
134 100 123
200 125 77
134 104 119
135 104 118
135 105 118
137 105 120
138 104 123
138 104 127
139 104 131
138 104 136
138 104 141
136 106 144
135 107 146
133 109 147
132 111 145
132 114 141
131 119 134
133 122 125
134 126 116
135 130 106
137 133 97
139 136 88
141 138 82
141 140 79
141 141 79
139 140 83
138 140 89
136 138 98
133 136 109
130 133 120
128 130 130
126 127 138
200 125 77
126 121 148
129 118 148
132 116 145
134 115 140
137 112 135
140 111 128
141 109 123
142 108 119
142 106 117
142 104 117
141 102 117
140 99 121
140 96 124
141 92 127
142 88 131
145 85 133
149 81 135
154 78 135
157 75 136
161 72 137
163 71 137
163 72 137
162 73 137
160 74 138
157 77 138
153 81 138
148 85 137
143 90 134
139 95 130
136 101 125
134 105 120
133 111 113
132 115 109
131 118 106
131 122 104
130 124 105
127 125 110
125 126 116
121 126 125
117 126 134
113 127 143
109 127 151
107 127 156
105 127 159
105 127 158
106 127 155
108 129 147
200 125 77
114 130 129
116 130 120
119 129 113
121 129 106
121 128 104
122 126 103
121 123 106
120 119 111
120 115 117
120 110 125
121 105 131
122 100 139
125 95 143
127 90 147
131 86 149
134 82 150
137 78 151
138 77 150
138 75 150
137 75 149
135 75 149
131 76 149
127 77 149
123 78 150
119 80 150
116 82 150
114 83 150
113 84 149
113 85 148
115 85 147
117 86 146
119 86 146
121 86 147
123 86 148
123 88 150
122 88 153
121 90 156
119 92 157
117 94 159
113 98 159
111 102 156
109 107 151
108 111 145
107 116 137
106 121 128
200 125 77
200 125 77
200 125 77
200 125 77
109 124 115
108 121 121
108 118 128
107 115 136
108 111 144
109 108 151
109 105 156
109 103 159
111 101 161
112 100 161
113 100 158
114 100 155
114 100 151
114 102 145
114 103 140
115 104 135
114 105 132
114 105 129
114 105 128
113 105 128
114 104 129
115 103 131
116 100 134
118 97 138
120 95 141
123 92 145
125 90 148
128 88 150
129 86 152
131 85 152
132 84 152
132 85 151
132 84 150
131 86 148
129 87 145
127 89 142
125 91 140
124 93 137
122 94 135
122 95 134
121 96 133
122 96 133
123 95 134
125 94 135
127 93 136
131 90 138
200 125 77
136 87 142
139 85 145
140 84 146
141 84 146
142 84 147
142 85 146
141 86 145
139 88 143
137 90 140
136 93 136
134 96 133
133 98 129
132 102 124
131 104 121
131 105 119
132 106 118
132 107 117
133 107 119
134 107 121
135 107 124
135 106 129
136 105 134
135 105 139
134 106 143
133 106 146
132 108 148
131 110 148
129 113 145
129 116 140
130 119 133
130 123 124
133 127 114
134 130 105
136 133 95
137 137 87
139 138 82
139 139 81
139 140 82
137 140 86
135 139 93
132 137 103
129 135 113
127 132 125
124 130 134
124 127 142
123 124 148
124 123 149
200 125 77
127 119 146
131 118 139
134 116 133
137 115 126
138 114 121
139 113 116
140 110 114
140 109 112
140 106 114
139 103 117
139 99 121
140 95 125
142 91 129
145 87 131
148 83 134
153 79 136
157 76 136
161 72 137
163 71 137
164 70 138
164 71 137
161 72 138
158 74 138
153 78 138
149 82 137
143 86 135
140 90 133
136 95 129
134 100 124
133 104 119
131 109 115
131 112 112
130 115 111
129 118 112
128 119 116
126 120 121
123 120 130
119 122 137
115 122 146
111 123 152
108 124 157
106 125 159
106 126 157
106 128 153
108 129 146
110 131 136
113 133 126
200 125 77
119 134 107
120 134 101
121 133 98
122 131 98
121 128 101
120 125 106
120 121 113
119 116 121
119 111 130
120 106 137
121 100 144
125 95 148
127 91 151
130 86 153
132 83 153
134 82 151
134 80 150
134 78 149
132 78 148
129 78 148
125 80 148
122 81 148
118 82 149
116 82 150
114 83 150
113 83 150
114 83 150
116 83 149
119 82 148
121 82 148
124 82 148
126 82 149
127 82 151
127 83 153
126 84 155
200 125 77
122 88 157
119 92 156
115 97 154
113 101 150
111 106 144
109 111 137
109 116 129
109 120 121
109 124 114
200 125 77
200 125 77
200 125 77
200 125 77
106 123 128
104 120 137
103 117 146
103 114 153
103 111 159
103 109 162
104 108 163
106 107 162
107 106 159
108 107 155
109 108 148
110 109 142
111 110 136
112 111 130
112 112 126
112 112 123
113 111 122
113 111 122
113 110 124
114 108 127
114 106 131
116 103 136
117 100 141
119 98 145
121 95 149
122 93 152
124 91 155
125 90 155
126 90 154
127 89 153
126 90 151
126 92 147
124 94 143
123 96 140
122 96 137
120 98 134
120 99 132
120 100 130
119 100 130
120 101 129
122 99 130
123 98 133
126 96 135
127 94 139
130 92 141
132 90 144
200 125 77
136 88 148
137 88 149
136 88 149
137 89 148
135 91 146
134 92 143
133 95 139
131 98 135
131 100 130
129 103 126
129 105 122
128 107 119
129 108 117
130 110 115
131 110 116
131 109 118
131 110 121
132 108 126
132 108 131
132 107 137
131 107 142
130 107 146
129 108 148
128 109 150
127 111 149
127 114 145
127 117 139
128 120 132
129 124 123
130 128 112
133 131 102
134 134 94
136 137 87
137 138 83
137 139 82
136 140 84
135 139 89
132 138 98
129 137 107
127 134 118
124 131 129
122 129 138
121 127 146
200 125 77
120 124 151
123 122 150
125 121 145
200 125 77
131 119 132
134 119 124
136 118 117
138 116 113
138 115 110
139 113 109
138 110 111
138 107 114
138 103 118
139 99 123
141 94 127
144 89 131
148 84 135
151 81 136
156 77 137
160 73 138
162 71 138
163 70 138
163 70 138
161 71 138
158 73 138
153 76 138
148 79 138
144 83 136
139 87 134
136 91 132
133 96 128
132 100 124
131 103 121
131 106 118
131 108 118
130 110 119
129 113 121
127 114 127
125 115 133
121 116 140
118 117 148
115 119 153
111 121 157
109 123 157
107 125 156
108 127 150
109 130 142
112 132 132
114 134 122
117 135 112
119 136 103
200 125 77
122 136 94
122 135 94
121 133 97
120 130 102
119 126 110
117 122 120
117 117 129
117 111 138
118 106 145
120 101 150
123 97 153
125 93 154
127 89 154
129 87 153
130 85 151
130 84 149
129 84 147
127 83 146
123 83 146
120 83 147
118 84 147
115 83 149
114 83 150
114 83 150
115 82 150
117 81 150
120 80 150
124 79 149
127 78 149
130 77 150
131 76 152
131 77 153
131 78 154
129 81 154
126 84 155
123 87 155
119 91 152
117 96 149
114 101 143
111 105 138
110 110 131
110 115 124
109 119 117
110 122 113
110 125 110
200 125 77
200 125 77
200 125 77
200 125 77
100 121 148
99 118 156
200 125 77
98 115 164
99 114 165
100 113 163
102 113 159
104 113 153
105 114 146
107 116 138
109 117 131
110 118 125
111 118 120
112 118 117
112 118 116
112 118 116
112 116 119
112 114 123
112 111 129
114 109 134
114 106 141
115 104 146
116 101 151
117 98 155
118 97 157
119 96 158
120 96 156
120 96 154
120 97 151
120 98 146
120 100 141
120 101 137
119 103 133
118 104 129
118 105 126
118 106 125
118 106 125
118 105 126
120 104 128
121 102 131
122 100 135
125 99 138
126 97 142
128 94 146
129 93 149
130 92 151
200 125 77
131 93 151
130 93 150
130 95 147
129 98 142
129 99 138
128 102 133
127 105 128
126 108 123
126 110 118
127 111 115
127 112 114
128 113 113
128 113 115
129 112 118
129 112 122
129 111 128
129 109 134
128 109 139
126 109 145
126 109 149
125 109 152
124 111 151
123 114 149
124 115 145
124 119 138
125 122 130
126 126 120
129 128 111
130 132 101
133 134 93
134 137 87
135 138 84
134 139 84
134 139 87
132 139 93
130 137 102
127 135 112
124 134 122
121 132 133
119 129 142
117 128 148
117 126 152
118 125 152
121 123 150
123 122 145
126 121 138
129 121 130
200 125 77
134 120 115
136 119 110
137 118 107
137 116 106
136 114 108
136 111 111
137 106 116
138 102 121
139 97 126
142 92 131
146 87 134
150 82 137
154 79 138
157 76 138
160 73 139
161 72 138
161 71 138
159 71 139
156 73 139
152 75 139
148 78 138
143 81 138
138 84 137
135 88 135
133 91 132
131 95 129
131 97 127
131 100 124
131 102 124
131 104 125
131 106 126
130 107 131
128 108 137
125 110 143
121 112 149
118 114 153
114 117 156
113 119 156
111 122 153
111 124 148
111 128 139
112 132 129
115 134 119
117 137 108
120 138 100
121 140 93
121 140 90
200 125 77
121 137 94
120 134 100
117 130 110
115 126 119
115 121 129
114 116 139
114 112 146
116 107 151
118 102 155
121 99 156
122 96 155
124 93 153
126 91 150
126 90 147
125 89 145
124 88 144
122 88 143
119 88 143
117 87 144
115 86 146
114 85 148
114 84 149
116 82 150
118 81 150
122 78 151
125 76 151
129 75 150
132 74 150
134 73 151
135 74 151
134 74 153
133 76 153
130 79 154
127 82 153
123 86 151
120 90 149
116 96 144
113 101 139
111 105 134
110 109 128
110 113 122
110 117 118
110 120 115
109 121 116
108 123 118
200 125 77
200 125 77
200 125 77
200 125 77
94 121 164
94 119 167
94 119 166
96 119 163
98 119 158
100 119 151
103 121 142
105 122 134
107 123 126
108 124 119
109 125 113
111 125 110
111 124 110
112 123 111
111 122 114
111 120 120
111 117 127
110 114 134
110 112 141
111 108 148
111 107 153
111 104 157
112 102 160
113 102 159
114 102 157
114 102 155
115 104 150
116 104 145
116 106 139
116 108 133
116 109 128
116 110 124
116 111 121
117 111 120
117 111 120
118 110 122
118 109 125
119 107 129
120 105 134
121 103 139
122 101 144
123 99 148
124 98 151
124 97 153
124 97 154
125 98 153
200 125 77
125 100 146
124 102 142
124 105 136
124 107 131
124 109 125
124 112 119
125 114 115
125 115 112
125 116 111
126 116 111
126 116 114
126 115 118
126 114 123
125 113 130
125 112 137
124 112 142
122 111 148
122 111 152
121 112 153
120 113 153
120 115 150
121 118 144
122 120 137
123 124 127
125 127 118
127 130 108
129 134 99
131 136 91
132 137 87
133 138 85
133 139 86
131 139 90
129 138 96
127 136 106
124 134 117
120 133 127
118 131 137
116 128 146
115 127 151
115 126 154
117 124 153
118 124 150
121 123 144
124 124 136
127 124 127
130 124 119
132 123 112
200 125 77
135 121 104
135 119 104
135 116 106
135 113 109
135 109 114
137 104 121
138 99 126
141 94 131
144 89 135
148 84 138
152 81 139
155 78 139
157 74 140
159 73 139
159 72 140
158 72 139
154 74 139
150 75 140
146 77 140
142 80 139
137 83 138
134 86 137
200 125 77
130 92 133
130 94 131
130 95 130
132 97 129
133 98 129
132 100 131
132 101 135
131 102 140
128 104 144
125 106 149
121 109 153
118 112 154
116 114 155
114 118 151
113 122 145
113 126 137
115 129 127
116 134 116
118 136 106
121 138 97
122 140 91
122 141 88
122 140 89
121 138 93
200 125 77
116 133 109
114 129 120
112 126 130
111 121 140
110 116 149
112 112 154
113 108 157
115 105 158
117 102 156
120 99 154
121 98 150
122 97 146
122 95 143
121 94 141
120 93 140
118 93 139
117 91 140
115 90 142
114 88 145
115 86 146
117 83 148
120 81 149
123 78 150
127 75 151
131 73 151
134 72 151
137 71 150
138 70 151
138 71 152
136 73 152
134 75 152
130 78 152
126 82 151
122 86 149
118 91 145
115 95 141
112 100 136
111 104 132
111 107 127
110 111 124
109 114 122
110 116 121
109 116 125
107 118 129
105 119 135
200 125 77
200 125 77
200 125 77
200 125 77
91 122 167
93 123 163
95 123 157
98 124 149
101 126 139
103 127 130
106 129 120
108 129 113
109 130 108
110 130 105
111 129 105
110 128 107
110 127 111
109 124 118
109 121 126
107 119 134
106 116 143
106 114 150
105 112 156
106 109 160
106 109 162
107 108 162
108 108 159
109 108 155
110 110 149
112 111 142
113 112 135
113 114 128
114 116 122
200 125 77
115 117 116
115 117 115
116 117 115
116 116 118
116 113 123
117 111 128
117 109 134
117 108 140
118 106 145
118 104 150
119 102 154
118 102 156
119 101 157
119 103 154
120 103 151
120 105 147
200 125 77
121 109 134
121 112 127
122 115 120
122 116 116
122 118 111
123 119 109
123 120 108
123 119 111
123 119 114
123 118 119
122 117 125
122 115 132
121 114 139
120 113 146
118 114 150
117 114 154
117 114 155
117 115 154
117 117 150
118 120 143
119 123 135
121 126 126
123 129 116
125 132 106
127 134 98
129 136 91
130 138 87
131 138 86
130 139 88
129 138 93
126 138 100
123 136 111
121 133 121
118 131 132
116 129 142
114 128 149
113 127 153
113 125 155
114 125 154
116 124 150
119 125 142
122 125 134
125 125 125
128 125 117
131 125 109
132 124 105
133 123 102
200 125 77
133 118 105
133 115 109
133 111 115
134 106 121
136 101 127
139 96 132
142 91 136
146 87 138
150 83 140
153 79 142
154 77 141
156 75 141
156 74 140
155 74 140
152 75 139
148 76 140
144 78 140
139 80 140
136 82 140
133 84 139
131 86 138
130 88 137
130 90 135
131 91 134
132 93 132
133 93 133
134 94 135
135 95 137
133 97 141
131 98 145
129 100 149
126 103 152
123 106 154
119 110 153
118 114 149
116 119 143
116 123 135
116 127 125
118 131 114
120 134 105
121 137 97
122 139 91
122 141 88
121 141 89
120 139 94
117 138 101
114 135 111
200 125 77
110 128 133
108 124 143
107 121 151
108 116 157
109 114 159
111 111 159
113 107 158
115 106 154
117 104 149
119 103 143
120 101 140
119 101 136
118 100 135
117 98 134
116 97 135
115 94 138
115 91 141
116 89 143
117 86 146
120 82 148
123 80 149
128 77 149
132 74 150
135 71 151
138 70 151
140 69 151
139 70 151
138 70 152
135 72 152
131 76 151
128 78 151
123 83 149
119 87 147
115 91 144
113 94 140
111 99 136
110 103 132
110 105 130
110 107 128
110 109 128
110 111 130
109 112 134
108 112 140
106 113 146
103 113 153
200 125 77
200 125 77
200 125 77
200 125 77
94 127 154
96 128 146
99 130 135
102 132 125
106 132 116
107 134 108
109 134 103
110 135 100
110 134 101
109 133 104
109 131 110
107 129 117
105 126 126
103 123 136
103 121 145
102 118 153
101 116 159
101 114 163
101 114 164
102 113 163
103 114 159
105 114 154
106 116 147
109 117 138
110 118 131
111 120 123
113 122 117
114 122 113
114 123 110
114 123 110
114 122 111
115 120 116
114 118 121
114 116 128
113 114 135
113 112 142
113 110 148
113 108 153
113 107 157
113 106 159
113 107 158
114 108 155
114 109 151
115 110 145
117 113 138
117 115 131
200 125 77
119 119 117
120 121 111
120 122 108
121 123 106
121 123 107
121 123 109
120 122 114
120 121 120
119 120 127
118 118 135
117 116 143
115 116 149
114 115 154
114 115 157
113 116 157
113 118 155
113 120 150
116 122 142
117 125 133
119 128 124
122 130 113
124 133 104
126 135 96
128 137 90
128 139 87
128 139 87
128 139 90
126 138 96
123 137 104
121 135 115
118 133 126
115 131 136
113 129 145
112 127 152
110 127 155
111 125 156
112 125 154
115 126 148
118 125 141
121 126 132
124 126 124
127 127 114
129 127 107
131 126 102
132 124 101
132 123 101
132 120 104
200 125 77
132 113 114
133 108 121
135 103 127
137 98 133
140 93 137
143 89 141
146 85 142
150 81 143
151 79 142
153 76 142
153 75 141
152 76 140
149 76 140
146 77 140
141 78 141
137 80 141
134 82 141
131 83 141
129 85 140
129 86 139
130 87 138
132 88 136
133 89 136
135 89 136
137 89 138
137 90 140
137 91 142
135 93 146
132 95 149
130 98 151
126 101 152
123 105 151
121 110 147
120 114 141
118 120 133
119 124 124
120 128 114
121 132 105
122 135 97
122 137 92
122 139 90
121 140 91
119 139 96
116 138 103
114 136 113
110 133 124
107 130 135
200 125 77
104 123 154
200 125 77
105 118 161
107 115 161
109 114 157
112 112 152
114 111 146
116 109 141
116 108 136
117 107 132
117 105 130
116 104 129
116 102 130
115 99 133
115 96 136
115 93 140
118 89 143
120 86 145
124 82 147
128 78 149
132 75 150
136 71 151
139 70 150
140 69 151
140 69 151
139 69 151
137 70 151
132 73 151
128 76 151
123 80 149
119 83 148
116 87 146
113 91 143
112 94 140
110 97 138
110 100 135
111 102 133
111 103 134
111 104 135
111 105 139
110 106 143
109 107 148
106 108 155
104 109 160
102 110 164
200 125 77
200 125 77
200 125 77
200 125 77
99 132 131
103 134 120
105 135 112
107 137 104
109 138 99
110 138 97
109 137 99
109 136 102
107 134 110
105 132 118
103 130 127
100 127 138
98 125 147
97 122 156
97 120 161
97 119 164
96 118 166
97 119 163
99 118 159
101 120 152
103 121 144
106 122 135
108 124 126
110 125 119
111 127 112
112 128 107
113 127 106
114 127 106
113 126 109
113 125 113
112 123 120
111 121 127
110 118 136
109 116 144
108 114 151
108 112 157
108 111 160
108 111 161
109 112 159
109 113 156
110 114 150
112 115 143
113 117 136
114 120 127
116 122 119
118 123 113
200 125 77
120 126 104
120 127 103
120 126 105
120 126 108
118 125 114
117 123 122
116 122 129
114 121 137
113 119 146
200 125 77
110 118 156
109 118 158
109 119 157
110 120 155
111 122 149
113 124 141
115 127 131
117 130 120
121 133 110
122 136 100
125 137 94
126 138 89
127 139 87
127 139 89
125 139 93
123 137 100
121 136 109
118 134 119
116 132 130
113 130 140
110 128 149
110 127 154
109 126 157
110 125 157
111 125 154
114 126 147
117 126 139
120 126 130
123 127 121
126 127 113
128 127 106
130 127 101
130 125 100
130 124 101
131 121 103
131 117 109
130 114 115
200 125 77
133 104 129
135 99 135
138 95 139
141 91 142
144 86 144
147 84 144
149 81 144
150 79 142
150 78 141
149 78 141
146 78 140
142 79 140
139 80 140
135 81 141
132 82 142
130 83 142
128 84 142
128 85 141
130 85 140
132 85 139
134 85 138
137 84 139
138 86 139
139 86 141
139 86 144
138 88 146
136 90 148
133 93 150
130 97 150
127 101 149
124 105 145
122 110 140
121 115 132
120 121 123
120 125 114
122 129 105
122 133 98
122 136 93
122 137 92
121 137 94
119 137 99
115 137 106
113 135 116
109 133 127
105 131 139
104 128 148
101 126 156
200 125 77
101 122 162
104 119 161
106 118 157
108 116 152
111 116 144
114 115 137
115 115 131
116 113 127
116 112 124
116 110 123
116 108 124
115 104 128
116 101 131
116 97 136
118 94 139
121 89 143
123 84 147
128 80 149
132 76 150
136 74 150
138 71 151
139 70 151
140 69 151
138 70 151
136 71 151
132 73 151
128 75 151
123 78 151
119 81 150
115 85 148
113 87 146
111 90 144
110 93 142
111 94 140
112 96 138
112 97 139
114 98 140
114 98 143
114 99 147
112 101 151
111 102 155
108 104 159
106 105 163
103 108 164
101 111 163
200 125 77
200 125 77
200 125 77
200 125 77
106 137 108
107 138 101
109 139 97
109 139 96
109 139 97
108 138 102
106 136 110
103 133 120
101 131 130
98 129 141
96 127 150
93 125 159
93 123 164
92 123 167
92 122 167
94 122 164
96 123 158
98 124 150
102 125 141
104 127 131
107 129 121
109 130 113
111 131 107
112 132 102
112 132 102
112 131 103
112 130 106
111 129 112
110 127 120
108 124 130
106 122 138
105 120 147
104 118 154
103 116 159
102 116 162
103 115 163
104 116 160
106 116 156
107 118 149
108 121 141
111 122 132
113 124 123
114 126 115
117 128 107
118 129 103
118 130 101
200 125 77
118 130 103
117 129 108
116 127 115
114 126 123
112 124 132
111 123 141
109 121 149
108 120 155
107 120 158
106 120 160
106 121 158
107 123 154
109 124 147
111 127 138
113 130 128
116 132 118
119 134 107
122 137 98
124 138 92
125 139 88
125 139 88
124 140 90
123 138 96
120 138 103
118 136 113
116 133 124
112 131 135
110 129 144
108 128 152
107 127 156
107 126 158
108 125 157
111 125 153
113 125 146
116 126 138
119 127 128
122 128 119
124 129 110
127 128 104
129 127 100
129 126 99
129 124 101
129 122 104
129 119 109
129 114 117
130 110 123
131 105 130
200 125 77
136 96 141
139 92 144
141 88 146
144 85 145
146 82 145
146 81 144
147 80 142
145 80 141
143 80 140
140 80 141
137 81 140
133 82 141
130 83 142
128 84 142
128 84 142
128 84 142
129 83 142
132 83 141
134 82 141
137 82 140
140 81 142
142 81 143
142 83 144
141 84 146
139 86 148
137 88 149
133 92 149
130 96 148
127 101 144
124 106 139
122 111 132
122 116 123
122 121 115
121 126 106
122 129 101
122 132 97
122 134 95
120 135 97
118 135 103
115 135 111
112 134 120
108 132 131
104 130 142
102 128 151
100 126 158
99 125 163
99 124 163
200 125 77
103 122 156
106 121 149
109 121 141
111 120 134
114 120 126
115 119 121
115 117 118
116 115 118
115 113 119
115 110 122
115 107 126
116 103 131
117 97 138
120 93 141
123 88 146
127 83 149
130 80 150
134 76 151
136 74 151
139 71 151
139 71 151
137 71 151
135 71 151
131 73 151
127 75 151
123 77 151
119 79 151
115 82 150
200 125 77
111 87 147
111 88 146
111 90 144
112 91 143
114 92 143
116 93 143
117 93 146
117 94 149
117 95 152
114 96 156
112 98 159
110 100 161
108 103 162
105 106 161
104 110 156
103 115 149
200 125 77
200 125 77
200 125 77
200 125 77
109 139 96
109 139 96
108 139 99
107 138 104
105 137 112
102 135 122
99 132 134
96 130 144
93 128 154
91 126 161
90 125 166
90 125 168
91 125 167
92 125 163
94 126 156
97 127 147
100 129 137
103 131 126
106 132 117
109 134 109
110 135 102
111 136 99
112 136 98
112 134 101
111 133 105
109 132 113
107 130 121
105 128 131
103 125 140
101 123 149
100 122 156
98 120 162
99 119 165
99 119 164
100 119 161
102 121 154
104 123 147
106 125 138
108 127 128
111 129 119
113 130 111
115 131 104
116 133 99
117 133 98
117 133 99
116 133 102
200 125 77
114 129 117
111 128 125
109 126 135
106 125 144
105 123 152
104 123 157
102 122 161
103 123 161
103 123 159
104 125 153
107 126 146
109 129 135
112 131 125
115 134 114
118 136 105
120 138 96
123 139 91
123 140 88
124 140 88
122 139 92
120 139 98
118 137 107
115 135 118
112 133 128
110 130 139
107 129 148
106 127 154
106 126 158
106 125 159
107 125 156
109 125 152
113 125 144
115 126 136
118 127 126
121 128 117
124 129 109
200 125 77
126 128 100
127 127 99
128 125 101
127 122 105
127 118 112
128 114 119
127 111 126
130 105 133
131 101 138
133 97 143
200 125 77
139 89 147
141 87 147
143 84 146
143 83 144
144 82 142
142 82 141
140 82 140
138 82 140
134 83 140
131 83 141
129 83 142
127 84 142
127 83 143
127 83 143
129 82 143
132 82 142
136 80 142
139 79 142
142 79 142
143 78 144
144 79 145
143 80 147
142 82 147
139 85 148
135 89 148
133 93 146
129 98 143
126 103 137
123 108 131
122 113 124
122 118 116
121 122 110
121 126 104
122 128 101
121 131 99
120 132 102
117 133 107
114 132 115
111 131 125
107 130 135
103 130 145
100 128 154
98 127 160
97 127 163
98 126 163
100 125 160
101 125 155
200 125 77
107 126 137
110 125 129
113 125 121
115 124 116
116 122 113
115 121 112
115 118 114
116 115 117
115 111 122
115 107 128
117 102 134
118 98 140
121 93 145
125 88 149
128 83 151
131 79 153
134 76 153
136 74 152
137 73 152
135 73 151
133 74 150
130 75 150
126 76 151
122 78 151
118 79 152
114 82 151
112 83 151
111 84 150
111 85 149
112 87 147
113 87 147
116 87 146
117 87 147
119 88 148
120 88 150
121 88 153
119 90 156
117 92 158
115 95 159
113 97 160
110 101 158
108 106 154
106 111 148
105 115 141
106 120 131
200 125 77
200 125 77
200 125 77
200 125 77
108 138 100
106 137 107
104 135 116
101 133 126
97 131 137
94 130 147
92 128 156
90 127 163
89 126 167
89 126 168
89 126 166
91 127 161
93 129 153
96 130 144
100 131 134
103 133 123
105 135 113
108 137 105
110 138 99
111 138 96
111 138 96
111 137 99
109 136 105
107 134 113
105 131 124
102 129 134
100 127 144
98 125 153
96 124 160
95 123 164
95 122 166
96 122 164
97 123 160
99 124 153
101 126 145
105 128 135
107 130 125
110 132 115
112 134 106
114 135 100
116 136 96
116 136 96
115 135 98
114 134 103
113 133 110
111 131 119
200 125 77
105 128 138
103 126 148
102 124 156
100 124 160
99 124 163
99 125 162
101 125 158
103 126 152
105 129 143
108 131 133
111 134 122
115 135 111
118 137 102
119 139 94
121 140 90
121 140 89
121 141 89
121 139 94
119 138 102
115 136 111
113 134 122
110 132 133
107 130 143
106 128 151
104 127 156
105 125 160
105 125 159
106 124 157
109 125 150
112 126 142
114 127 133
117 128 124
121 128 115
123 128 108
124 129 102
125 128 100
126 127 100
126 125 102
126 122 107
126 118 114
125 115 121
126 111 128
128 105 135
130 101 141
132 98 144
134 93 148
136 91 148
200 125 77
140 86 147
141 85 144
140 85 142
140 83 142
138 83 141
134 85 139
131 85 140
129 85 140
127 85 141
126 85 142
126 84 143
127 83 143
129 81 144
133 80 143
136 79 143
139 78 143
142 77 143
144 76 144
146 77 144
146 77 146
144 80 146
141 82 147
137 85 147
134 90 145
130 95 142
127 99 138
125 104 132
123 109 125
122 114 118
121 118 112
122 122 107
121 124 105
121 127 104
119 128 107
117 129 111
114 129 120
111 129 129
107 128 139
103 127 148
101 127 156
99 127 161
97 127 163
98 127 162
99 127 159
101 127 152
103 128 143
107 128 134
200 125 77
112 130 116
114 128 111
115 128 107
116 126 106
115 123 109
115 120 113
115 116 119
115 112 126
116 107 133
117 102 140
119 97 145
122 92 149
125 88 152
128 84 153
131 80 154
133 78 153
133 76 153
132 77 151
131 76 150
128 76 151
125 77 150
120 79 151
117 80 151
114 81 152
112 82 152
111 83 151
111 83 151
113 83 150
116 83 149
118 83 149
121 83 148
123 82 150
124 82 152
124 84 153
123 85 156
122 87 157
119 89 159
116 93 158
114 97 156
112 101 152
109 105 147
108 110 140
108 115 131
108 119 124
108 124 116
200 125 77
200 125 77
200 125 77
200 125 77
103 133 120
100 132 130
97 130 141
94 128 151
91 127 159
90 126 165
89 125 168
88 125 169
89 127 165
91 128 159
94 129 151
96 131 141
100 133 130
103 135 119
106 137 110
108 138 102
110 139 97
110 140 95
110 139 96
110 138 100
107 137 107
105 135 116
102 133 126
100 131 137
97 129 147
95 127 155
93 126 162
93 125 166
92 125 167
94 125 164
95 126 159
97 127 151
100 129 142
104 131 131
107 133 121
109 135 111
111 136 103
113 137 98
114 138 95
115 138 94
113 138 98
112 136 104
111 134 112
108 132 122
105 131 132
102 129 142
200 125 77
98 126 159
97 126 162
97 125 164
98 125 163
99 126 158
102 128 150
104 130 141
108 132 130
111 135 119
113 137 109
116 138 100
118 139 94
120 141 89
120 141 89
119 140 92
118 139 97
116 137 106
113 135 116
111 133 126
108 131 137
106 129 146
104 126 154
103 125 159
103 125 160
104 124 160
106 124 155
109 124 149
111 125 141
115 126 132
118 127 122
120 128 114
122 128 107
123 129 102
125 127 100
124 127 101
124 124 104
124 121 110
124 118 116
124 114 124
125 110 131
127 105 137
127 102 143
130 98 146
132 94 149
135 91 149
137 89 148
138 87 148
200 125 77
138 86 143
136 86 141
135 86 140
132 86 139
129 87 139
127 86 140
126 86 141
125 85 142
125 84 143
127 82 144
129 81 144
133 79 144
137 77 144
141 75 144
143 75 144
200 125 77
147 74 145
146 75 146
145 77 146
142 80 147
139 83 146
134 87 145
131 92 142
128 96 138
125 101 133
123 106 127
122 110 121
121 115 115
121 118 111
121 120 109
120 123 109
119 124 111
117 125 117
114 125 124
111 125 133
108 125 142
104 125 151
101 125 157
99 126 162
97 126 164
97 126 162
99 127 157
101 129 150
103 130 141
107 131 130
109 132 120
112 132 112
200 125 77
115 131 103
116 130 102
115 127 105
114 125 109
114 121 116
113 116 124
114 111 132
115 106 139
117 101 146
119 96 151
122 91 154
125 87 155
127 85 154
129 83 154
129 81 153
130 80 151
128 80 150
126 80 149
122 80 149
119 81 149
116 82 150
113 82 151
111 82 152
111 82 152
112 82 152
114 82 151
117 80 151
119 80 151
123 80 150
125 79 151
127 79 152
128 79 153
128 80 155
126 82 156
123 85 156
121 88 156
117 92 154
115 97 150
112 101 146
111 106 140
109 111 132
109 116 125
109 119 118
108 123 113
109 125 110
200 125 77
200 125 77
200 125 77
200 125 77
97 126 145
95 125 153
92 124 161
91 124 166
90 123 169
90 124 167
90 125 164
93 126 157
94 129 148
98 131 138
101 133 127
104 135 117
106 138 107
109 139 100
109 140 96
110 140 95
110 139 97
108 138 102
106 137 110
104 135 119
101 133 130
97 131 141
200 125 77
93 128 158
91 127 164
90 126 167
90 126 167
92 127 163
94 128 157
96 129 149
99 131 138
102 133 128
106 135 117
109 137 108
112 138 100
113 139 95
113 139 94
113 140 94
112 139 98
110 137 106
108 135 115
105 133 125
102 131 136
100 129 146
98 128 154
96 127 161
200 125 77
95 126 165
96 126 162
98 128 156
100 130 148
103 131 138
107 133 127
110 135 117
113 137 107
116 139 98
117 140 92
118 141 90
119 140 90
118 139 94
116 138 101
114 136 110
111 134 120
109 132 130
106 129 141
105 127 150
102 126 156
102 125 160
103 123 161
103 124 159
106 123 154
108 124 147
111 124 139
114 126 129
117 127 120
119 128 112
121 128 106
122 128 102
123 127 101
123 125 103
122 124 106
123 120 112
122 117 119
123 113 127
123 109 134
124 105 140
126 101 145
128 97 149
131 94 150
133 92 150
134 90 149
136 88 148
136 87 145
136 87 143
200 125 77
133 87 140
130 88 138
127 88 139
126 87 140
124 87 141
124 86 142
125 84 143
127 82 144
130 81 144
133 78 145
137 76 145
141 74 145
145 73 144
147 73 144
148 73 145
148 73 146
145 75 147
143 77 147
139 81 146
136 84 145
131 89 142
128 94 138
125 99 133
123 103 129
121 107 123
121 111 118
121 114 115
120 117 113
120 118 114
119 120 116
118 120 122
114 122 128
111 122 137
108 122 145
105 122 153
102 123 158
100 124 162
98 125 163
98 127 160
99 128 155
102 129 147
104 131 137
107 133 127
110 135 116
112 135 108
114 135 102
116 134 99
200 125 77
116 131 101
114 128 107
113 124 115
113 119 124
112 115 133
113 110 141
114 105 148
116 100 153
119 96 156
121 92 157
123 89 156
125 87 155
126 85 153
126 84 151
125 83 149
122 84 148
120 84 148
117 84 148
115 84 148
113 83 150
111 83 151
111 83 151
112 82 152
115 80 152
118 79 152
122 78 151
125 76 152
128 76 151
130 75 152
132 75 153
131 76 154
130 78 155
127 80 155
124 84 154
120 88 153
118 92 150
115 96 146
112 102 140
110 107 134
109 111 127
109 115 122
109 118 117
109 121 114
109 123 114
108 125 115
200 125 77
200 125 77
200 125 77
200 125 77
94 121 162
92 121 166
92 120 168
92 122 166
93 123 162
94 125 154
97 127 146
99 130 135
102 132 125
104 134 115
107 136 106
109 137 100
110 138 97
110 139 96
109 138 99
107 137 105
105 135 113
103 134 122
99 132 133
96 130 144
94 128 153
92 127 161
90 126 166
90 125 168
91 126 166
92 127 162
94 128 155
96 130 146
99 132 135
103 134 124
106 136 114
108 138 105
111 139 98
113 139 94
113 140 93
112 140 95
111 139 100
109 137 108
106 135 118
103 133 129
101 131 140
98 129 150
96 127 158
94 127 163
94 126 165
94 126 165
200 125 77
97 128 155
100 130 146
104 131 136
107 133 125
110 135 114
113 138 104
115 139 97
117 140 92
117 140 91
117 140 92
116 139 97
114 137 104
112 134 114
109 132 125
107 130 135
105 128 144
103 125 153
102 124 159
101 123 161
103 122 162
104 122 158
106 122 153
109 123 146
111 125 136
114 126 127
116 127 118
119 127 111
120 127 107
121 127 103
121 126 103
122 124 105
122 122 109
121 119 116
121 116 122
121 112 130
122 108 137
123 104 143
126 100 147
128 96 151
129 94 152
132 91 152
133 90 150
134 89 148
134 88 145
133 88 143
132 88 141
130 88 140
200 125 77
125 89 139
124 89 139
123 87 141
123 86 142
124 85 143
127 82 144
130 80 145
134 78 145
138 76 145
142 74 145
145 72 145
147 71 146
148 71 146
148 72 146
146 73 147
143 76 146
139 80 145
136 83 144
132 87 142
127 92 139
124 96 135
123 100 130
121 104 126
120 108 122
120 111 119
120 113 117
120 114 119
119 116 121
117 117 126
115 117 133
112 118 140
110 118 148
106 119 155
103 120 160
101 122 162
99 123 162
100 125 159
100 127 153
102 130 144
105 132 133
108 134 123
110 136 113
200 125 77
115 138 98
115 137 96
115 136 96
115 134 99
200 125 77
112 128 114
111 123 124
111 119 133
111 114 142
111 109 149
112 105 154
114 101 157
117 97 158
119 94 157
121 92 155
122 90 153
123 89 150
122 88 148
120 88 146
118 87 146
116 87 145
114 87 146
112 87 147
111 85 149
112 84 150
113 82 151
116 80 152
119 78 152
123 76 152
127 74 152
131 73 151
133 73 152
134 73 152
134 73 153
133 75 153
131 76 154
126 80 154
123 84 152
119 88 150
116 92 147
113 97 142
111 102 136
110 106 131
109 110 126
109 113 122
109 116 119
108 118 119
108 119 121
106 121 125
105 121 132
200 125 77
200 125 77
200 125 77
200 125 77
95 117 167
95 118 164
96 120 159
97 122 152
99 125 143
101 127 134
103 130 123
106 131 115
107 134 107
109 135 102
109 136 99
109 136 100
108 136 102
107 135 109
104 133 118
102 132 127
99 130 137
96 128 148
93 127 156
91 126 163
91 125 167
90 125 168
91 125 166
92 127 160
94 128 153
97 130 143
101 132 133
104 134 122
107 136 112
109 137 104
111 139 97
112 140 94
112 140 94
112 139 97
109 138 104
108 136 112
105 134 122
102 132 133
99 131 143
96 129 152
94 127 160
93 126 164
93 126 166
93 126 165
95 127 160
97 128 153
200 125 77
103 132 133
106 134 122
200 125 77
113 137 103
114 138 97
116 139 93
116 139 93
115 138 95
115 137 101
112 135 109
110 133 118
107 130 129
106 128 139
104 126 148
102 123 156
101 122 160
101 122 162
102 121 161
104 120 158
106 122 151
108 122 144
112 123 135
114 124 126
116 126 117
118 126 111
119 126 107
120 126 104
120 125 105
120 123 107
120 120 112
120 118 118
120 114 126
120 110 133
121 107 139
123 103 145
125 99 149
127 96 152
128 93 153
130 92 151
131 91 150
132 90 147
132 89 145
131 89 142
130 89 140
128 89 139
126 90 138
124 90 138
200 125 77
122 88 141
122 87 142
124 85 143
127 82 144
130 80 145
134 78 145
138 75 146
142 73 146
145 71 146
148 71 145
148 70 146
147 71 146
146 73 146
143 75 147
139 78 145
135 81 145
131 85 143
127 90 140
123 94 137
122 98 132
121 101 128
120 105 125
120 107 123
120 109 122
119 111 122
120 112 125
118 113 130
116 114 136
113 115 143
110 115 150
108 116 156
104 117 161
103 119 162
102 121 161
101 123 157
102 127 150
103 129 142
106 132 131
108 134 120
111 137 109
114 138 101
115 139 95
116 139 93
115 138 94
114 136 99
112 134 105
111 130 114
200 125 77
108 121 135
108 117 143
108 113 151
109 108 156
111 104 159
113 101 160
116 98 159
118 96 156
119 95 153
119 94 149
119 94 145
118 93 143
117 92 142
115 92 142
113 90 143
112 89 145
111 88 146
112 86 148
114 84 149
117 80 151
120 79 151
124 76 152
128 74 152
132 72 152
135 70 152
136 70 152
136 71 152
135 72 153
132 74 153
129 77 153
125 81 152
121 85 150
117 89 147
114 94 143
111 98 139
110 102 134
110 105 130
109 108 127
109 111 124
109 113 124
109 114 127
107 115 131
106 116 136
103 116 143
101 116 151
200 125 77
200 125 77
200 125 77
200 125 77
99 116 157
101 118 149
102 120 142
103 123 132
105 126 123
106 128 115
108 130 108
108 132 104
109 132 103
109 133 103
108 132 108
106 131 114
103 130 123
101 129 131
99 126 142
97 125 150
94 124 159
92 123 165
92 123 167
92 123 167
93 123 164
93 126 158
96 127 150
99 129 140
102 131 130
105 133 120
107 136 110
110 137 102
111 138 97
111 138 96
111 138 97
110 137 101
108 137 107
106 135 116
103 133 126
101 130 137
98 128 147
95 127 156
94 125 162
94 124 166
93 124 167
94 125 164
95 126 159
98 128 150
101 130 140
104 132 130
200 125 77
110 135 110
113 136 103
114 137 97
115 137 95
115 137 95
114 136 99
113 135 105
111 133 113
108 130 124
107 128 133
105 126 143
103 124 151
101 122 158
101 121 161
102 119 163
103 119 160
105 119 156
106 120 150
109 121 141
112 122 133
114 123 125
115 124 117
117 125 111
118 125 107
119 124 106
119 123 107
119 121 111
119 118 116
119 116 122
119 112 129
120 109 135
120 105 142
122 102 147
124 98 150
126 95 153
128 93 153
129 92 152
130 91 150
131 90 147
130 90 145
130 89 142
127 91 140
126 90 139
124 90 139
123 90 138
121 89 140
121 88 141
200 125 77
124 85 143
127 82 144
130 80 145
134 77 146
138 75 146
142 73 146
145 71 146
147 70 146
148 70 146
147 71 146
145 72 146
142 75 146
138 77 146
134 80 145
130 84 143
126 89 140
123 92 137
121 96 134
120 99 131
119 102 128
120 104 126
119 106 125
120 108 126
119 108 130
118 109 134
117 110 139
115 110 146
112 112 152
109 113 157
106 114 161
104 117 161
103 119 160
103 122 155
103 126 147
104 129 138
107 132 128
110 135 116
112 137 107
114 138 99
115 140 94
115 140 92
114 139 94
114 137 98
112 135 106
109 132 116
108 128 126
106 124 137
200 125 77
105 116 153
106 112 158
107 109 160
109 106 161
111 104 159
114 102 155
116 100 151
116 99 147
117 98 143
117 97 140
116 96 139
114 96 138
113 94 139
112 93 141
111 90 144
113 88 145
115 85 147
117 82 150
121 79 151
126 76 151
130 73 152
200 125 77
136 70 152
137 69 152
137 69 153
136 70 152
134 72 153
130 74 153
126 78 151
122 82 150
118 85 148
115 90 144
111 94 141
110 97 138
109 101 134
109 103 132
109 106 130
109 108 130
109 108 132
109 109 135
108 110 140
106 111 146
103 112 153
100 113 159
98 114 164
200 125 77
200 125 77
200 125 77
200 125 77
104 116 140
105 119 132
107 122 124
107 125 116
108 126 112
109 127 108
109 128 107
108 128 109
107 128 113
105 127 119
104 125 128
102 124 136
100 122 146
97 121 153
95 120 161
95 119 165
93 119 167
94 120 166
95 121 162
96 122 157
98 125 148
100 127 138
103 129 128
105 132 118
108 133 110
109 135 103
111 135 99
111 136 98
111 136 100
109 135 105
107 133 112
105 131 121
103 130 130
100 128 141
97 126 150
95 125 158
94 123 164
94 123 166
94 123 166
95 123 163
97 124 157
100 126 148
102 128 139
105 130 128
108 132 118
111 133 109
200 125 77
113 136 98
114 136 97
114 135 98
113 134 102
112 132 110
109 130 118
108 128 128
106 126 137
104 123 147
102 121 154
102 120 159
102 118 162
103 118 162
104 117 160
105 117 155
107 119 148
110 119 140
112 120 132
114 121 124
115 123 116
116 124 111
117 124 108
118 123 108
118 121 110
118 119 114
118 116 119
118 114 125
118 110 132
119 107 138
200 125 77
122 100 149
124 96 152
126 94 153
127 92 153
128 91 152
130 90 149
130 90 147
129 90 145
128 91 141
126 91 140
124 91 139
122 91 138
121 90 139
120 90 140
120 89 141
121 87 142
124 84 144
200 125 77
131 79 145
135 76 146
139 74 146
142 72 147
145 70 147
147 69 147
148 69 147
146 70 147
144 72 146
140 74 147
137 77 146
133 80 145
129 83 144
125 87 141
122 91 138
120 95 135
119 97 133
119 99 131
119 102 128
119 103 129
119 105 130
120 105 133
119 106 137
118 106 143
116 107 148
113 109 153
111 110 158
108 112 160
107 114 160
105 117 158
104 121 153
105 124 145
106 127 136
108 131 125
110 134 115
112 137 105
114 139 97
115 140 93
115 140 92
115 140 93
113 138 99
111 136 108
108 133 118
106 130 128
104 126 139
103 122 148
102 119 155
200 125 77
104 112 163
106 110 161
109 108 159
110 106 155
113 105 150
114 104 145
115 103 140
114 102 137
113 101 135
113 101 134
112 99 135
111 96 138
112 94 140
113 91 142
115 87 146
118 84 148
122 80 150
126 77 150
130 74 151
134 72 151
136 70 152
138 69 152
138 69 152
137 69 152
134 71 152
131 73 152
126 76 152
122 80 150
117 83 149
115 87 147
111 91 144
110 94 141
109 96 139
109 99 136
110 100 135
110 102 135
110 104 136
111 104 140
110 105 144
108 106 149
107 107 154
104 108 160
102 110 163
99 112 165
98 114 165
200 125 77
200 125 77
200 125 77
200 125 77
107 117 126
108 119 120
108 121 115
108 123 113
109 123 112
108 123 115
107 122 119
106 122 125
104 121 132
104 118 141
102 117 148
100 116 156
99 115 161
98 115 165
97 115 166
97 117 164
98 117 160
99 120 153
100 122 146
102 124 137
104 127 127
107 128 118
108 131 110
109 132 105
110 133 102
110 133 102
110 133 104
108 132 109
106 130 117
104 128 126
103 127 135
100 125 145
98 123 153
97 121 160
96 120 165
95 120 166
95 120 165
97 121 161
98 122 155
101 124 146
103 127 136
106 128 127
108 130 117
110 131 110
112 132 104
113 133 100
200 125 77
113 133 102
112 131 107
111 130 114
109 127 123
107 125 132
105 123 141
104 120 150
103 118 156
103 117 160
103 115 163
104 115 161
105 115 159
106 115 154
109 117 146
110 118 138
112 119 131
113 121 123
115 121 117
116 121 113
117 121 110
117 120 111
116 119 113
116 117 117
118 113 123
117 111 129
118 108 135
119 104 141
121 100 147
122 98 150
124 95 153
126 93 154
127 91 154
128 90 152
129 89 150
129 90 146
128 90 144
126 91 141
125 91 140
122 92 138
120 91 139
119 91 139
119 89 141
119 88 142
121 86 143
124 84 144
127 81 145
131 78 146
200 125 77
139 73 147
142 72 147
145 70 147
146 70 147
147 69 147
146 70 147
143 72 147
140 73 148
136 76 147
131 80 145
127 83 144
124 86 143
121 90 140
119 93 137
118 96 135
118 98 133
118 99 132
120 100 132
120 101 133
121 101 136
120 102 140
119 103 144
117 104 150
115 105 154
112 107 158
111 109 159
108 112 159
107 115 156
106 118 151
106 122 143
107 126 133
109 130 122
111 133 112
113 136 103
115 138 96
115 139 93
115 140 92
114 140 95
112 138 102
110 136 110
107 133 120
104 131 131
101 128 142
100 124 151
100 121 157
99 119 162
101 115 164
200 125 77
105 111 159
108 111 153
110 109 148
111 109 142
113 108 137
113 107 133
113 107 130
113 105 130
112 103 131
111 100 134
112 97 137
113 94 140
115 90 143
118 86 147
121 83 149
126 79 150
130 75 152
134 72 152
136 70 152
138 69 152
138 69 152
136 70 152
134 71 152
131 72 152
126 75 152
121 79 151
117 82 150
114 84 149
112 88 146
110 91 144
109 93 142
110 95 140
110 96 139
111 98 139
112 98 141
112 99 143
112 100 146
111 100 151
110 101 156
108 103 160
105 105 163
103 108 164
101 110 163
100 114 159
99 118 153
200 125 77
200 125 77
200 125 77
200 125 77
109 115 120
108 117 119
108 117 119
108 117 121
108 117 125
107 115 131
106 114 138
106 113 144
105 112 151
103 110 158
102 110 162
102 110 164
101 110 165
101 112 162
101 113 158
101 116 152
103 118 143
105 120 135
106 122 127
107 125 118
108 127 112
109 129 107
110 129 106
110 129 106
109 129 109
108 127 115
106 126 122
104 125 130
103 122 139
101 120 148
99 119 156
98 117 162
97 118 164
97 117 165
98 118 163
99 119 159
100 120 152
103 122 144
105 124 135
107 126 125
109 128 117
110 129 110
111 130 105
112 131 103
113 130 103
112 130 106
200 125 77
110 126 119
108 124 128
107 121 136
106 118 145
104 117 152
104 115 158
104 113 162
104 113 162
106 112 161
107 113 157
108 113 152
110 115 144
111 116 137
113 117 130
114 118 123
115 119 117
115 119 114
116 119 113
116 118 114
116 116 116
116 114 121
117 111 126
118 108 132
118 104 139
119 101 144
121 98 149
123 96 152
124 93 154
126 91 154
127 89 154
128 89 152
128 89 149
127 89 147
127 90 144
124 90 142
123 91 140
121 92 139
120 91 139
118 91 140
118 90 141
119 88 142
121 86 143
124 84 144
126 81 146
130 78 147
136 75 147
139 73 147
200 125 77
145 69 148
146 69 148
146 69 148
144 71 147
141 72 148
138 74 147
134 76 147
130 79 147
200 125 77
122 86 143
120 89 141
118 92 139
117 94 137
118 96 135
119 97 134
119 98 135
121 99 135
121 99 138
121 99 143
120 100 147
119 100 152
117 102 155
114 104 158
112 107 159
110 109 158
109 113 154
108 117 148
108 121 140
108 125 131
110 129 120
111 132 111
113 135 103
114 137 97
115 138 94
115 139 93
113 139 97
111 137 104
109 136 113
106 134 123
103 131 134
99 128 145
98 125 154
97 123 160
98 120 164
98 118 165
100 117 162
103 116 158
200 125 77
108 114 145
110 113 138
112 112 133
112 111 129
112 111 126
112 109 125
112 107 127
112 104 130
112 100 134
113 97 137
115 93 142
118 89 145
122 84 149
126 80 151
129 77 151
133 74 152
136 72 152
137 70 153
137 70 152
136 70 152
133 71 152
129 73 152
125 75 152
121 77 152
117 80 151
114 83 150
111 85 149
110 88 147
109 89 146
110 91 144
111 92 143
113 93 142
114 93 144
115 93 146
115 94 149
114 96 152
113 96 157
111 98 160
109 101 162
107 103 163
105 106 161
103 111 156
102 114 151
102 118 143
103 123 132
200 125 77
200 125 77
200 125 77
200 125 77
108 111 125
109 111 127
109 110 131
108 109 137
109 107 142
108 106 148
108 105 153
107 105 158
107 104 162
106 104 163
105 106 163
105 107 160
105 109 156
105 111 149
106 113 143
200 125 77
107 118 128
108 121 120
109 123 114
110 124 111
109 124 111
109 125 111
108 124 115
108 123 120
107 121 127
105 119 136
104 118 143
102 116 151
102 114 158
101 113 162
100 114 164
100 114 164
101 114 161
102 115 157
103 117 150
105 119 142
106 121 133
108 123 125
110 124 118
111 126 112
111 127 108
112 127 107
111 127 108
111 126 111
110 124 117
110 122 124
200 125 77
107 117 140
106 115 148
106 112 155
105 111 159
106 110 161
106 109 162
107 110 159
108 110 156
109 111 150
111 112 143
112 114 136
113 115 129
113 116 124
114 116 120
114 117 116
115 116 116
115 115 117
115 113 120
115 111 125
116 108 130
117 105 136
118 102 141
120 99 146
122 95 151
124 93 153
125 91 154
126 90 154
127 88 154
128 88 152
128 88 149
126 89 146
125 89 144
123 90 142
122 91 140
119 91 140
118 91 140
117 90 141
117 89 142
118 88 143
121 85 144
123 83 146
127 80 147
131 77 148
135 75 148
140 72 148
143 70 148
144 70 148
200 125 77
145 69 148
143 70 148
140 72 148
136 74 148
132 77 147
128 80 146
124 83 145
120 86 144
119 88 142
117 91 140
117 92 139
118 94 137
119 95 136
120 95 137
121 96 139
121 97 141
122 97 144
121 98 148
120 98 152
118 99 156
116 102 158
114 104 159
112 108 156
110 111 153
109 115 147
109 120 138
110 124 129
111 127 120
112 131 110
113 134 102
114 136 97
114 138 95
114 138 95
113 138 99
110 137 107
107 135 116
104 133 127
101 131 137
98 129 148
97 126 157
96 124 162
96 122 165
97 120 165
99 119 162
101 118 157
104 118 150
106 118 142
200 125 77
110 117 128
112 116 124
112 114 122
111 114 121
111 111 123
112 108 126
112 104 131
113 100 136
115 96 140
118 91 145
121 87 148
125 82 151
128 79 152
132 75 153
134 74 153
135 72 153
135 71 152
134 71 152
132 72 152
128 74 152
124 75 153
120 78 152
116 80 152
113 81 152
110 84 151
109 85 150
109 87 148
111 87 147
112 88 146
114 89 146
116 89 147
117 89 149
118 90 151
119 90 154
117 92 157
115 94 159
113 95 161
111 99 161
108 103 158
106 106 155
105 111 149
105 115 141
104 120 132
105 124 123
106 128 114
200 125 77
200 125 77
200 125 77
200 125 77
110 104 136
111 103 140
111 101 146
112 100 150
111 99 155
111 99 158
111 99 160
110 99 162
110 100 161
109 102 158
109 104 153
109 106 149
109 109 142
108 111 136
109 114 129
109 116 123
109 118 119
109 119 116
109 119 116
109 120 117
109 118 121
108 118 126
108 116 132
106 114 140
105 113 147
105 111 153
104 109 159
104 109 162
104 109 163
104 109 163
104 110 160
104 111 155
105 114 148
106 116 140
107 118 133
108 120 125
110 121 119
111 122 114
111 123 111
111 123 111
111 123 112
110 122 116
110 120 122
109 117 129
108 115 137
109 113 144
200 125 77
108 109 156
108 107 160
108 107 161
108 106 161
109 106 158
110 107 154
111 108 148
112 110 142
113 111 136
113 112 130
113 114 124
114 114 121
114 114 119
114 113 120
115 112 120
115 110 124
115 108 128
116 105 133
117 102 139
119 99 144
121 96 148
123 93 151
124 91 154
126 89 154
127 87 155
128 87 153
128 87 151
127 87 149
126 88 146
124 89 143
122 89 143
120 90 141
118 90 141
117 90 141
116 90 142
116 89 143
118 87 144
121 84 145
123 82 147
127 80 147
131 77 148
135 74 149
140 72 148
142 71 148
144 69 149
144 69 149
144 69 149
200 125 77
139 72 148
135 74 148
130 77 148
126 80 147
122 83 146
120 86 144
117 88 143
116 91 141
116 92 140
118 93 138
119 94 138
120 94 138
121 94 140
122 94 143
123 94 146
122 95 150
121 96 153
119 97 156
117 100 157
115 102 158
113 105 156
111 110 151
110 114 145
110 118 137
111 122 128
112 126 118
113 129 110
114 133 102
115 134 98
114 137 96
113 137 97
111 137 102
109 136 110
106 135 119
103 133 130
200 125 77
97 129 150
95 127 159
94 125 164
94 123 166
95 123 165
97 121 161
99 122 155
103 121 147
105 122 139
108 121 131
110 121 124
200 125 77
112 119 117
112 117 117
111 114 120
111 112 123
112 108 128
113 103 134
114 99 140
117 95 144
120 90 148
123 85 152
127 81 153
130 78 154
132 76 154
133 74 154
134 73 152
132 73 153
130 73 152
127 74 152
123 76 152
119 77 153
115 79 153
112 82 152
110 83 152
109 84 151
110 85 150
111 85 149
113 85 149
115 85 148
118 85 149
120 85 150
121 85 152
122 85 154
121 87 156
119 89 159
116 92 159
114 95 159
111 98 157
109 103 153
107 108 147
106 112 140
106 117 131
106 121 123
107 125 115
108 128 109
108 131 105
200 125 77
200 125 77
200 125 77
200 125 77
114 94 149
115 93 152
115 93 156
116 92 158
116 93 159
115 94 159
114 94 159
113 96 156
112 99 152
111 101 148
110 104 142
110 107 136
109 109 131
108 111 127
109 113 123
109 113 122
109 114 121
109 113 123
109 113 126
109 111 132
109 110 137
108 108 144
108 107 149
108 105 155
107 104 159
107 104 161
108 104 162
107 104 161
107 105 158
108 108 152
108 110 146
108 112 140
109 114 133
110 115 127
110 117 121
111 118 118
111 118 116
111 118 116
110 118 118
111 116 122
110 115 127
110 113 134
200 125 77
109 109 147
110 107 152
110 104 158
200 125 77
111 103 161
111 102 160
112 103 157
112 104 152
113 105 147
113 107 141
113 108 136
113 110 130
113 110 126
113 111 124
113 111 122
113 110 123
113 109 125
115 106 128
115 105 132
117 102 137
118 99 142
120 96 146
122 93 150
124 90 153
125 88 154
127 87 155
128 86 154
128 85 153
127 86 151
127 86 148
125 87 146
123 88 144
121 89 142
119 90 142
117 90 141
116 90 142
115 89 143
116 88 144
118 86 145
121 83 146
124 81 147
128 78 148
132 75 149
136 73 149
140 71 149
142 70 149
144 69 149
144 69 149
142 70 149
140 71 149
137 72 149
200 125 77
128 77 149
124 80 148
121 83 146
118 86 145
116 88 144
116 90 142
116 91 141
117 92 140
118 92 140
121 92 141
122 92 142
123 92 145
124 92 148
123 93 151
122 94 154
120 95 157
118 98 157
116 101 157
114 104 154
113 108 149
112 112 143
112 116 135
111 121 126
113 124 117
113 128 109
114 131 103
114 134 99
114 135 98
112 135 101
111 136 105
108 134 114
105 133 123
102 132 133
99 130 144
96 129 153
94 126 161
92 126 165
93 124 167
94 124 165
96 124 160
99 124 152
101 124 144
105 124 135
107 124 127
109 124 120
110 124 115
111 122 113
200 125 77
111 118 116
112 114 121
112 110 126
112 107 132
113 102 139
115 97 144
118 92 149
122 88 152
125 84 154
128 81 155
130 79 154
131 77 154
131 76 153
130 75 152
128 76 152
125 77 151
121 78 151
117 79 152
114 81 152
111 81 153
110 82 153
109 83 152
110 83 152
112 83 151
115 82 150
118 82 150
121 81 150
123 81 151
124 82 152
124 82 154
124 83 156
123 84 158
120 88 158
118 90 158
114 95 155
112 99 151
110 103 146
109 108 139
108 113 131
107 117 124
107 122 117
108 124 112
108 127 109
108 129 107
106 131 109
200 125 77
200 125 77
200 125 77
200 125 77
120 86 156
120 86 158
120 87 158
120 88 158
118 90 157
117 91 155
116 93 151
114 96 147
113 98 143
111 101 138
110 104 134
110 105 131
109 107 128
108 109 127
109 108 127
109 108 129
109 107 133
110 106 136
111 104 142
111 103 146
111 101 152
111 100 156
112 99 159
111 98 161
111 99 161
111 100 159
111 101 156
111 103 151
110 105 146
110 107 140
110 109 134
110 111 129
110 113 124
110 114 121
110 115 120
111 114 120
110 114 123
110 112 127
111 110 132
111 108 137
111 105 144
112 103 150
113 101 154
112 100 158
113 99 159
113 98 160
200 125 77
114 100 155
114 100 152
114 102 146
114 104 141
114 105 136
113 107 131
113 107 128
112 108 126
112 108 126
113 106 127
113 106 128
114 103 132
115 101 136
117 99 140
118 96 144
121 92 148
123 90 151
125 87 154
127 85 155
127 85 154
129 84 153
128 84 152
127 85 150
126 85 148
124 86 146
122 87 145
119 88 143
117 89 143
116 89 143
115 88 144
115 88 144
116 87 145
118 85 146
121 82 147
124 80 148
128 77 149
132 75 149
137 72 149
140 71 149
142 70 149
143 69 149
143 68 150
141 70 149
138 72 149
135 73 149
131 75 149
127 78 148
200 125 77
119 84 146
117 86 145
115 88 144
115 89 143
116 90 142
117 91 141
119 90 142
120 91 142
122 91 144
124 90 146
124 91 149
123 91 152
122 92 155
121 94 157
119 97 157
117 99 156
114 103 153
113 107 147
112 111 141
112 115 133
112 119 125
112 123 117
113 127 110
113 130 104
114 132 101
113 134 100
112 134 103
111 133 109
107 133 118
104 132 127
101 131 138
98 129 148
95 128 156
93 127 162
91 126 167
92 126 166
93 125 164
95 125 158
98 126 150
101 127 141
105 127 132
107 127 123
110 127 116
110 127 112
111 126 109
111 123 111
112 121 113
200 125 77
112 114 124
112 109 132
113 104 139
115 100 144
117 95 149
120 91 153
122 88 155
125 84 156
127 82 155
128 79 155
128 78 154
127 78 153
125 79 151
122 79 151
200 125 77
116 81 151
113 81 152
111 82 152
109 82 153
109 82 153
111 82 152
113 81 152
116 81 151
119 80 151
122 79 151
125 78 152
126 78 153
127 79 154
127 80 155
126 81 156
123 84 157
120 87 156
117 91 154
115 96 150
112 100 146
110 105 139
109 109 133
108 114 126
108 118 119
108 121 115
108 124 112
108 125 112
107 126 114
105 127 119
103 127 127
200 125 77
200 125 77
200 125 77
200 125 77
125 82 157
123 82 157
123 84 156
120 86 154
118 89 151
115 91 148
113 94 144
111 97 140
110 99 138
109 101 135
108 102 134
108 103 133
109 103 133
110 102 135
111 101 137
112 99 141
113 98 145
114 96 150
115 95 153
115 94 157
116 94 158
116 93 160
116 93 160
115 95 157
114 97 154
113 98 151
112 101 145
111 103 140
111 105 135
110 107 131
110 108 128
110 110 125
110 110 125
110 109 126
111 108 128
111 107 132
112 105 137
113 103 142
113 101 147
114 99 151
115 97 155
115 95 158
116 95 159
116 95 159
116 95 157
116 96 154
200 125 77
115 99 146
115 101 141
114 102 137
113 103 133
112 104 131
112 105 129
112 104 130
112 104 130
113 102 133
114 100 135
116 97 139
118 94 143
120 92 146
122 89 150
124 87 152
127 84 154
128 84 154
129 82 154
130 82 153
129 82 152
128 83 150
126 84 148
200 125 77
121 86 145
118 87 145
116 89 143
114 89 144
114 88 145
114 87 146
116 86 146
118 84 147
122 81 148
125 79 149
129 76 150
134 74 149
137 72 149
140 70 150
142 69 150
142 69 150
141 69 150
140 70 150
137 71 150
133 74 149
129 76 149
125 79 148
121 81 148
118 84 147
200 125 77
114 88 145
115 88 144
116 90 142
117 90 142
119 90 142
121 89 144
123 89 145
124 89 147
125 89 150
125 90 153
123 91 155
121 93 157
120 95 157
118 98 155
115 102 151
113 106 146
112 110 140
112 114 132
112 119 123
113 123 116
113 126 109
114 129 104
113 130 103
113 132 103
111 133 106
109 132 113
107 131 121
103 130 131
100 129 141
97 128 151
95 127 159
92 126 165
91 126 167
92 126 166
92 127 162
95 127 156
98 128 147
101 129 138
104 130 128
107 130 119
109 130 113
111 129 108
111 128 107
111 126 108
111 124 111
111 120 117
110 117 124
200 125 77
111 108 139
113 103 145
115 98 151
118 93 155
120 90 156
122 87 157
124 85 156
126 82 155
126 82 153
125 81 152
123 81 151
121 81 150
118 82 149
115 82 150
112 83 151
110 83 152
109 83 152
110 82 153
111 81 153
114 80 153
117 79 152
121 77 152
124 76 152
127 75 153
129 75 153
130 75 154
130 77 154
129 78 155
126 81 155
122 84 155
119 88 153
117 92 149
114 96 145
111 102 140
110 105 134
108 110 128
108 114 122
108 117 119
108 120 116
108 121 117
107 123 119
105 123 124
103 123 131
100 123 139
97 123 148
200 125 77
200 125 77
200 125 77
200 125 77
126 79 155
123 82 153
120 85 151
117 87 149
114 90 146
112 92 144
110 94 141
109 96 139
108 97 139
109 97 138
109 97 139
111 96 140
112 95 143
114 94 145
115 93 148
117 91 151
119 89 155
119 89 156
120 88 158
120 88 158
119 89 158
118 91 155
117 92 153
116 94 150
114 97 145
113 99 141
112 101 137
111 102 134
109 104 132
109 105 130
109 105 130
110 104 131
111 103 133
112 101 137
113 100 141
115 97 145
116 95 149
116 94 153
118 92 156
118 91 158
119 91 158
120 91 157
119 92 155
118 92 153
117 94 150
116 96 146
200 125 77
113 99 139
113 100 135
112 101 133
111 101 133
111 101 133
112 100 134
112 99 136
115 96 139
116 94 142
119 91 146
122 89 148
125 86 151
127 83 153
128 82 154
130 81 154
130 80 154
130 80 153
129 81 151
127 81 150
125 83 148
122 84 147
119 85 146
117 87 145
115 87 145
113 87 146
113 87 146
114 86 147
116 84 148
119 82 148
122 80 149
126 78 149
131 75 149
134 73 150
138 71 150
140 70 150
141 69 150
141 69 150
140 70 150
138 71 150
135 72 150
131 74 150
127 77 149
123 79 149
119 82 148
116 85 147
115 86 146
114 88 145
200 125 77
116 89 143
118 89 142
120 89 143
122 89 144
123 88 147
125 88 149
125 88 151
125 89 153
123 90 155
122 92 156
120 94 156
118 97 154
115 101 151
114 105 145
113 110 138
112 114 130
113 118 123
112 122 116
113 125 110
113 127 106
113 129 104
112 131 105
111 130 110
108 131 116
106 130 125
103 129 135
99 128 145
96 127 154
93 127 161
92 126 166
91 126 167
91 126 166
93 127 161
96 128 153
98 129 144
101 130 134
105 131 124
108 132 115
109 132 109
111 131 105
111 131 103
111 128 106
110 126 110
110 123 116
109 119 124
109 114 132
110 110 140
200 125 77
113 100 153
115 97 156
117 93 158
120 90 158
122 88 157
123 86 155
123 85 153
123 85 151
121 85 149
119 85 148
117 85 148
113 85 149
111 85 149
110 85 150
109 84 151
110 83 152
112 81 153
115 79 153
119 77 153
123 75 153
127 74 152
129 74 152
131 73 153
133 73 153
133 73 154
130 76 154
128 78 154
125 81 154
121 85 152
117 89 149
114 93 146
112 98 141
110 102 136
109 106 130
109 110 125
108 113 123
109 115 120
108 117 121
107 118 124
106 118 129
104 119 135
200 125 77
99 119 151
96 120 158
93 121 164
200 125 77
200 125 77
200 125 77
200 125 77
121 81 152
117 84 150
114 86 149
112 88 146
110 91 144
108 92 144
108 93 143
109 92 143
110 92 143
112 91 144
114 90 146
116 88 148
118 87 150
121 85 152
123 84 154
124 83 156
124 83 157
123 84 157
123 84 156
121 86 154
120 88 152
117 90 150
115 93 146
113 95 143
111 97 140
111 98 138
110 100 135
109 100 135
109 100 135
110 99 136
112 98 138
113 96 141
114 95 144
117 93 147
119 91 151
120 89 153
122 88 155
122 87 157
123 87 157
122 86 157
122 87 155
120 89 152
118 91 149
117 93 146
115 95 142
114 95 140
200 125 77
112 98 136
111 97 137
111 97 137
111 97 138
113 94 140
115 93 142
118 90 145
120 88 148
124 85 149
126 83 152
128 80 154
130 79 154
132 78 154
131 78 153
130 78 153
130 79 151
127 80 150
124 82 148
121 83 148
118 84 147
116 86 146
114 86 147
112 87 147
112 86 148
114 85 148
116 83 149
119 81 149
123 79 149
127 76 150
131 74 150
135 72 150
138 70 151
140 69 151
141 68 151
141 68 151
139 69 151
137 71 150
133 73 150
129 75 150
125 78 149
121 80 149
118 83 148
115 85 147
114 87 146
113 88 145
114 89 144
115 89 144
200 125 77
120 88 144
200 125 77
124 87 147
125 86 150
126 87 152
125 88 154
124 89 156
122 91 156
120 94 155
117 97 153
116 101 149
114 105 144
113 109 137
113 113 130
112 118 122
112 121 115
112 124 110
113 126 107
112 127 107
112 128 109
111 129 113
108 128 120
105 128 129
102 127 138
99 126 148
96 126 156
93 126 163
92 126 166
91 126 167
92 126 165
94 127 159
95 129 151
98 130 141
101 132 130
105 133 120
107 134 112
109 134 106
111 134 102
111 132 102
111 130 104
111 128 108
109 124 116
108 121 125
108 117 133
108 112 142
109 108 148
111 103 154
200 125 77
115 96 159
117 93 159
119 91 157
120 89 155
120 89 152
121 87 150
118 88 148
117 88 147
114 88 146
112 87 147
111 87 147
109 86 149
109 85 150
111 83 151
113 81 152
116 80 152
120 77 153
124 75 153
128 73 153
131 72 152
133 71 153
134 71 153
134 71 154
132 74 153
129 76 154
126 79 153
122 83 151
118 87 149
115 91 146
112 95 142
111 99 137
109 103 133
109 106 129
108 109 127
108 111 125
108 113 125
108 114 128
107 115 132
105 115 139
103 115 146
101 116 153
98 116 160
95 117 165
93 119 167
92 120 168
200 125 77
200 125 77
200 125 77
200 125 77
200 125 77
200 125 77
200 125 77
200 125 77
200 125 77
200 125 77
200 125 77
200 125 77
200 125 77
200 125 77
200 125 77
200 125 77
200 125 77
200 125 77
200 125 77
200 125 77
200 125 77
200 125 77
200 125 77
200 125 77
200 125 77
200 125 77
200 125 77
200 125 77
200 125 77
200 125 77
200 125 77
200 125 77
200 125 77
200 125 77
200 125 77
200 125 77
200 125 77
200 125 77
200 125 77
200 125 77
200 125 77
200 125 77
200 125 77
200 125 77
200 125 77
200 125 77
200 125 77
200 125 77
200 125 77
200 125 77
200 125 77
200 125 77
200 125 77
200 125 77
200 125 77
200 125 77
200 125 77
200 125 77
200 125 77
200 125 77
200 125 77
200 125 77
200 125 77
200 125 77
200 125 77
200 125 77
200 125 77
200 125 77
200 125 77
200 125 77
200 125 77
200 125 77
200 125 77
200 125 77
200 125 77
200 125 77
200 125 77
200 125 77
200 125 77
200 125 77
200 125 77
200 125 77
200 125 77
200 125 77
200 125 77
200 125 77
200 125 77
200 125 77
200 125 77
200 125 77
200 125 77
200 125 77
200 125 77
200 125 77
200 125 77
200 125 77
200 125 77
200 125 77
200 125 77
200 125 77
200 125 77
200 125 77
200 125 77
200 125 77
200 125 77
200 125 77
200 125 77
200 125 77
200 125 77
200 125 77
200 125 77
200 125 77
200 125 77
200 125 77
200 125 77
200 125 77
200 125 77
200 125 77
200 125 77
200 125 77
200 125 77
200 125 77
200 125 77
200 125 77
200 125 77
200 125 77
200 125 77
200 125 77
200 125 77
200 125 77
200 125 77
200 125 77
200 125 77
200 125 77
200 125 77
200 125 77
200 125 77
200 125 77
200 125 77
200 125 77
200 125 77
200 125 77
200 125 77
200 125 77
200 125 77
200 125 77
200 125 77
200 125 77
200 125 77
200 125 77
200 125 77
200 125 77
200 125 77
200 125 77
200 125 77
200 125 77
200 125 77
200 125 77
200 125 77
200 125 77
200 125 77
200 125 77
200 125 77
200 125 77
200 125 77
200 125 77
200 125 77
200 125 77
200 125 77
200 125 77
200 125 77
200 125 77
200 125 77
200 125 77
200 125 77
200 125 77
200 125 77
200 125 77
200 125 77
200 125 77
200 125 77
200 125 77
200 125 77
200 125 77
200 125 77
200 125 77
200 125 77
200 125 77
200 125 77
200 125 77
200 125 77
200 125 77
200 125 77
200 125 77
200 125 77
200 125 77
200 125 77
200 125 77
200 125 77
200 125 77
200 125 77
200 125 77
200 125 77
200 125 77
200 125 77
200 125 77
200 125 77
200 125 77
200 125 77
200 125 77
200 125 77
200 125 77
200 125 77
200 125 77
200 125 77
200 125 77
200 125 77
200 125 77
200 125 77
200 125 77
200 125 77
200 125 77
200 125 77
200 125 77
200 125 77
200 125 77
200 125 77
200 125 77
200 125 77
200 125 77
200 125 77
200 125 77
200 125 77
200 125 77
200 125 77
200 125 77
200 125 77
200 125 77
200 125 77
200 125 77
200 125 77
200 125 77
200 125 77
200 125 77
200 125 77
200 125 77
200 125 77
200 125 77
200 125 77
200 125 77
200 125 77
200 125 77
200 125 77
200 125 77
200 125 77
200 125 77
200 125 77
200 125 77
200 125 77
200 125 77
200 125 77
200 125 77
200 125 77
200 125 77
200 125 77
200 125 77
200 125 77
200 125 77
200 125 77
200 125 77
200 125 77
200 125 77
200 125 77
200 125 77
200 125 77
200 125 77
200 125 77
200 125 77
200 125 77
200 125 77
200 125 77
200 125 77
200 125 77
200 125 77
200 125 77
200 125 77
200 125 77
200 125 77
200 125 77
200 125 77
200 125 77
200 125 77
200 125 77
200 125 77
200 125 77
200 125 77
200 125 77
200 125 77
200 125 77
200 125 77
200 125 77
200 125 77
200 125 77
200 125 77
200 125 77
200 125 77
200 125 77
200 125 77
200 125 77
200 125 77
200 125 77
200 125 77
200 125 77
200 125 77
200 125 77
200 125 77
200 125 77
200 125 77
200 125 77
200 125 77
200 125 77
200 125 77
200 125 77
200 125 77
200 125 77
200 125 77
200 125 77
200 125 77
200 125 77
200 125 77
200 125 77
200 125 77
200 125 77
200 125 77
200 125 77
200 125 77
200 125 77
200 125 77
200 125 77
200 125 77
200 125 77
200 125 77
200 125 77
200 125 77
200 125 77
200 125 77
200 125 77
200 125 77
200 125 77
200 125 77
200 125 77
200 125 77
200 125 77
200 125 77
200 125 77
200 125 77
200 125 77
200 125 77
200 125 77
200 125 77
200 125 77
200 125 77
200 125 77
200 125 77
200 125 77
200 125 77
200 125 77
200 125 77
200 125 77
200 125 77
200 125 77
200 125 77
200 125 77
200 125 77
200 125 77
200 125 77
200 125 77
200 125 77
200 125 77
200 125 77
200 125 77
200 125 77
200 125 77
200 125 77
200 125 77
200 125 77
